lut_library/店主推荐/709日系清新（低对比低饱和）.cube
# 版权归凌孟成所有，侵权必究
TITLE "Generate by Resolve"
LUT_3D_SIZE 9
0.0939651 0.0936446 0.0933852
0.165316 0.0843824 0.086656
0.273381 0.0816358 0.0823224
0.443091 0.0783093 0.0793164
0.605768 0.0777752 0.0785229
0.757061 0.0792401 0.0806744
0.839582 0.111284 0.116442
0.842298 0.131991 0.136767
0.844831 0.15494 0.159411
0.0847639 0.198352 0.0990311
0.213687 0.214801 0.0933089
0.355444 0.223041 0.0906081
0.500511 0.223453 0.082948
0.617563 0.230915 0.0843824
0.732113 0.238529 0.0860304
0.851011 0.2336 0.0879072
0.853315 0.249897 0.121645
0.854597 0.260105 0.141619
0.0860609 0.375692 0.118425
0.205982 0.373037 0.0879377
0.365316 0.366217 0.0898146
0.484108 0.366232 0.0881208
0.598535 0.366125 0.0896468
0.713314 0.362661 0.0916304
0.843976 0.350195 0.0926375
0.863645 0.356466 0.137041
0.864713 0.364813 0.145739
0.0889601 0.505547 0.114427
0.194034 0.48957 0.0898299
0.3467 0.482322 0.0914626
0.474876 0.475425 0.0930953
0.584726 0.470024 0.0944076
0.697597 0.462287 0.096788
0.826001 0.444739 0.100801
0.862943 0.448524 0.213733
0.861875 0.455741 0.217609
0.0942855 0.615351 0.124117
0.161959 0.59379 0.0942855
0.307561 0.581598 0.0971847
0.441703 0.570779 0.10222
0.561257 0.561868 0.109468
0.668925 0.55407 0.117723
0.794965 0.538674 0.124575
0.857984 0.530556 0.227115
0.85861 0.536599 0.225925
0.113985 0.703243 0.17586
0.10457 0.684413 0.104814
0.275196 0.669245 0.116976
0.394873 0.661143 0.12546
0.522438 0.652567 0.131899
0.642573 0.643198 0.135943
0.775128 0.629236 0.139269
0.870054 0.620676 0.21677
0.871244 0.629648 0.21181
0.137133 0.793988 0.22533
0.136324 0.786755 0.222751
0.183673 0.764569 0.133761
0.315847 0.764996 0.139132
0.438926 0.761395 0.143725
0.577493 0.757427 0.148486
0.746319 0.74699 0.153628
0.882155 0.745083 0.162341
0.891356 0.764569 0.17612
0.154101 0.876616 0.259525
0.154101 0.876616 0.259525
0.153841 0.876371 0.249424
0.274754 0.882536 0.243641
0.399359 0.888808 0.223407
0.530953 0.895109 0.184146
0.721431 0.891142 0.163348
0.890684 0.891417 0.161669
0.91548 0.915465 0.206714
0.154101 0.876616 0.259525
0.154101 0.876616 0.259525
0.15378 0.87631 0.247272
0.377264 0.88893 0.284657
0.544915 0.899031 0.332631
0.697719 0.9075 0.34403
0.830396 0.913207 0.30425
0.915816 0.915785 0.221942
0.915816 0.915785 0.221942
0.0885939 0.0903182 0.171817
0.15967 0.0846723 0.157031
0.281605 0.0844892 0.172625
0.449897 0.0814832 0.202564
0.604791 0.079057 0.232166
0.751202 0.0800641 0.248676
0.841276 0.108263 0.300023
0.843915 0.12639 0.328344
0.846326 0.150011 0.319188
0.088365 0.203845 0.204608
0.217044 0.217044 0.216953
0.34818 0.23534 0.208194
0.483268 0.23769 0.242237
0.615045 0.226795 0.247257
0.729976 0.225422 0.24213
0.851942 0.22089 0.228138
0.854444 0.244144 0.246708
0.855543 0.254673 0.257389
0.0881971 0.372457 0.241398
0.214588 0.36875 0.227329
0.357733 0.363684 0.215671
0.501366 0.35935 0.225269
0.61619 0.349935 0.215564
0.733593 0.33312 0.177813
0.857053 0.318639 0.142184
0.863645 0.349157 0.196078
0.86482 0.360601 0.176165
0.0893721 0.497536 0.233356
0.203571 0.482216 0.247089
0.308354 0.48011 0.202274
0.464027 0.467674 0.200977
0.586374 0.458351 0.181552
0.69543 0.448875 0.162509
0.832715 0.418265 0.0974594
0.863737 0.439826 0.238041
0.862715 0.448081 0.227344
0.0944076 0.60592 0.214405
0.172412 0.582834 0.258
0.264561 0.576806 0.16495
0.418067 0.566323 0.170031
0.552056 0.553903 0.172885
0.662882 0.545296 0.153887
0.78378 0.526177 0.119829
0.85774 0.522255 0.249897
0.857862 0.52784 0.233143
0.112322 0.695125 0.208103
0.136965 0.676158 0.226703
0.239124 0.662898 0.132021
0.376699 0.654673 0.130327
0.513283 0.645075 0.140475
0.63447 0.635294 0.134554
0.768826 0.623301 0.138201
0.86833 0.609277 0.221469
0.86978 0.619028 0.217334
0.136767 0.791226 0.224308
0.135515 0.782025 0.220951
0.184878 0.760403 0.133043
0.314839 0.759731 0.138415
0.43888 0.756802 0.142947
0.576989 0.754101 0.147936
0.743389 0.744076 0.15317
0.885618 0.740978 0.17734
0.890715 0.760189 0.181979
0.154101 0.876616 0.259525
0.154101 0.876616 0.259525
0.153857 0.876387 0.249714
0.284138 0.883528 0.261372
0.403265 0.889448 0.248386
0.532357 0.895796 0.214313
0.717464 0.894987 0.163867
0.89424 0.894987 0.16144
0.915496 0.91548 0.20737
0.154101 0.876616 0.259525
0.154101 0.876616 0.259525
0.153689 0.876265 0.245274
0.377508 0.888945 0.284703
0.546273 0.899138 0.333165
0.694057 0.907347 0.348333
0.819776 0.913054 0.315511
0.915816 0.915785 0.221942
0.915816 0.915785 0.221942
0.0959487 0.0837568 0.256626
0.163058 0.0814374 0.260151
0.295506 0.0854505 0.29453
0.462348 0.0836042 0.344488
0.61004 0.0806744 0.385779
0.757382 0.081117 0.407324
0.841962 0.098436 0.471046
0.844083 0.108583 0.534096
0.846403 0.120165 0.592065
0.0950179 0.211231 0.307362
0.19765 0.221363 0.360784
0.362188 0.22295 0.362188
0.483436 0.231418 0.368475
0.600183 0.233555 0.378119
0.719661 0.236133 0.389792
0.854246 0.223682 0.392355
0.855848 0.234913 0.434256
0.856367 0.229511 0.523568
0.0869001 0.37145 0.373373
0.210193 0.366262 0.369726
0.359228 0.359228 0.359228
0.489219 0.363119 0.358404
0.565133 0.379187 0.334142
0.694301 0.360189 0.363409
0.838453 0.326635 0.35552
0.864988 0.341924 0.343648
0.86537 0.346426 0.348241
0.090013 0.493843 0.377264
0.21622 0.476661 0.367788
0.33431 0.473411 0.34049
0.460502 0.464317 0.325277
0.594675 0.450324 0.339925
0.67686 0.451713 0.331731
0.813352 0.42388 0.313344
0.863844 0.432135 0.328618
0.863615 0.435477 0.323995
0.0952163 0.599695 0.356588
0.170504 0.577523 0.360464
0.312139 0.565637 0.33669
0.406561 0.562676 0.309407
0.540688 0.551156 0.314763
0.665034 0.535393 0.30071
0.791562 0.505119 0.285313
0.858045 0.513878 0.344549
0.858045 0.514473 0.339162
0.114076 0.6878 0.323064
0.138201 0.669123 0.322621
0.276204 0.654597 0.354971
0.326543 0.654124 0.269108
0.472206 0.647013 0.275486
0.629023 0.631937 0.271382
0.769833 0.612634 0.238178
0.867216 0.59089 0.307729
0.868803 0.600809 0.316503
0.1364 0.781857 0.279454
0.135256 0.773053 0.281086
0.216251 0.754955 0.314519
0.254734 0.754559 0.210819
0.4168 0.753445 0.203983
0.56846 0.751568 0.20911
0.740749 0.74197 0.198306
0.881559 0.732952 0.170184
0.889906 0.746303 0.250172
0.154543 0.876967 0.273259
0.154482 0.87689 0.27129
0.15407 0.876631 0.260365
0.241779 0.880613 0.236423
0.375967 0.887083 0.204852
0.516823 0.894026 0.177401
0.712474 0.892989 0.163668
0.891051 0.891875 0.161639
0.913359 0.906218 0.163729
0.154314 0.876783 0.265843
0.154467 0.87689 0.270817
0.154345 0.876631 0.259663
0.365164 0.888457 0.294606
0.529335 0.898421 0.34583
0.664897 0.906859 0.405905
0.793576 0.912551 0.360937
0.914351 0.91606 0.249027
0.91606 0.916045 0.244785
0.0971695 0.0816663 0.336004
0.173831 0.0771191 0.367895
0.314122 0.0795148 0.427451
0.47744 0.0842756 0.477272
0.620111 0.0822614 0.51017
0.767132 0.081529 0.53431
0.843076 0.0963455 0.603082
0.845212 0.104906 0.662699
0.847272 0.114168 0.731533
0.10309 0.226047 0.389227
0.191104 0.220996 0.474632
0.363104 0.226337 0.471748
0.484535 0.232136 0.484611
0.600153 0.232959 0.495048
0.724544 0.226932 0.504646
0.855146 0.216602 0.511208
0.855802 0.218814 0.556573
0.856565 0.213046 0.663203
0.106477 0.374533 0.476432
0.210727 0.36286 0.490089
0.337179 0.363302 0.487846
0.48542 0.352193 0.485252
0.591775 0.350637 0.477287
0.702785 0.346227 0.478325
0.825772 0.337316 0.469123
0.865919 0.338476 0.458045
0.8663 0.342077 0.475044
0.0905623 0.49218 0.494545
0.208484 0.476112 0.475257
0.317021 0.470375 0.48452
0.458991 0.459052 0.458991
0.576181 0.455268 0.453956
0.651362 0.462943 0.425727
0.786099 0.438331 0.438422
0.863096 0.429511 0.430838
0.862928 0.430655 0.431983
0.0964065 0.595956 0.48835
0.182025 0.573175 0.477729
0.316197 0.561181 0.451087
0.421653 0.557504 0.426444
0.542748 0.5467 0.415503
0.664012 0.52697 0.427588
0.756542 0.520668 0.411643
0.858381 0.508904 0.421622
0.858534 0.510719 0.419364
0.117296 0.682948 0.446815
0.137194 0.66479 0.435431
0.285817 0.649943 0.445258
0.400854 0.642374 0.423255
0.489891 0.64033 0.394827
0.619379 0.629267 0.391562
0.770001 0.602304 0.382528
0.862928 0.582559 0.426642
0.870085 0.597681 0.41445
0.137621 0.779675 0.370153
0.136278 0.769604 0.371496
0.215732 0.753704 0.384222
0.319158 0.751339 0.41416
0.366064 0.756527 0.314931
0.524651 0.75874 0.320241
0.7393 0.742687 0.323354
0.882689 0.728115 0.330907
0.891264 0.740276 0.368719
0.156039 0.87837 0.342214
0.156146 0.878187 0.333394
0.155154 0.877714 0.31545
0.269398 0.884291 0.344411
0.350454 0.887968 0.311788
0.516945 0.897734 0.338491
0.7149 0.896468 0.302403
0.890761 0.89276 0.284703
0.91516 0.903609 0.294041
0.157717 0.879942 0.416953
0.157687 0.879789 0.409812
0.170764 0.879866 0.378744
0.372732 0.891188 0.400931
0.530953 0.900572 0.442451
0.662043 0.908492 0.481849
0.785183 0.913832 0.449607
0.907774 0.917739 0.353491
0.917967 0.917937 0.345083
0.103563 0.0823682 0.446601
0.18349 0.0759899 0.502022
0.334966 0.0776226 0.552209
0.490166 0.0791333 0.595758
0.629099 0.0820325 0.629129
0.780026 0.0823224 0.668284
0.844388 0.0952773 0.735882
0.846433 0.102983 0.792035
0.848692 0.112261 0.848676
0.116625 0.244251 0.470497
0.237476 0.216922 0.5664
0.372976 0.222751 0.583429
0.491341 0.228534 0.594751
0.602533 0.232334 0.602686
0.727352 0.226123 0.614801
0.856413 0.214618 0.625101
0.856336 0.20853 0.672511
0.857191 0.203494 0.791836
0.126406 0.380392 0.55317
0.127718 0.371435 0.58143
0.320882 0.364569 0.597436
0.480385 0.351034 0.591241
0.58645 0.351141 0.586496
0.702724 0.343633 0.588769
0.838132 0.327886 0.583078
0.86598 0.325383 0.571527
0.866606 0.328496 0.592996
0.140475 0.49369 0.597513
0.196124 0.47509 0.58291
0.301869 0.466377 0.601556
0.449058 0.45687 0.586709
0.578088 0.444526 0.577829
0.681483 0.439612 0.560906
0.804059 0.423117 0.551308
0.862547 0.42446 0.533867
0.862226 0.42623 0.53846
0.0974289 0.592737 0.595483
0.170031 0.57171 0.574075
0.313329 0.559258 0.554711
0.410086 0.5523 0.567422
0.541512 0.541466 0.541512
0.64358 0.5299 0.529564
0.730388 0.533745 0.488884
0.859174 0.506264 0.507759
0.859281 0.507439 0.508415
0.120577 0.679301 0.564721
0.12575 0.660395 0.550973
0.291493 0.645991 0.552728
0.402274 0.639048 0.530236
0.501122 0.635691 0.505226
0.623697 0.627024 0.49279
0.747204 0.591653 0.4916
0.858015 0.582376 0.501808
0.871504 0.59649 0.513008
0.139071 0.776669 0.4878
0.13785 0.766979 0.489448
0.213214 0.751064 0.485954
0.326268 0.749172 0.509255
0.451637 0.748104 0.481498
0.550118 0.753597 0.458045
0.731304 0.743297 0.458595
0.870924 0.721599 0.483696
0.892317 0.732601 0.49247
0.157321 0.880766 0.452674
0.157748 0.880461 0.438849
0.160937 0.880064 0.414466
0.271366 0.886366 0.438865
0.361822 0.891371 0.446601
0.527886 0.899474 0.464576
0.705974 0.897749 0.510079
0.887556 0.891142 0.431205
0.91725 0.899504 0.446952
0.159579 0.882872 0.558892
0.15938 0.882734 0.553475
0.197665 0.884199 0.515877
0.385077 0.89453 0.527871
0.536446 0.903212 0.549828
0.662867 0.910353 0.568215
0.78146 0.915602 0.55201
0.901442 0.919478 0.473716
0.920195 0.92018 0.464576
0.12079 0.0907607 0.574624
0.198901 0.0789044 0.630854
0.354101 0.0780041 0.68101
0.50071 0.0796063 0.72462
0.639384 0.0816968 0.753079
0.792981 0.0830091 0.792966
0.845533 0.0944533 0.845502
0.847105 0.102235 0.847074
0.84863 0.111788 0.848615
0.134234 0.252842 0.582635
0.26183 0.212375 0.676921
0.385382 0.215656 0.698894
0.498299 0.21825 0.709346
0.608743 0.223957 0.718807
0.731594 0.222614 0.731655
0.85742 0.210712 0.747417
0.857237 0.201938 0.806058
0.857267 0.196185 0.857237
0.160555 0.391928 0.621653
0.168307 0.371038 0.682368
0.309194 0.354513 0.738109
0.484306 0.347509 0.698116
0.591531 0.344228 0.702129
0.702464 0.339895 0.702571
0.838727 0.323751 0.701335
0.866316 0.312612 0.695109
0.86685 0.315419 0.720592
0.148745 0.496712 0.68455
0.203616 0.477211 0.677073
0.229068 0.470298 0.710277
0.418784 0.457435 0.70808
0.571023 0.442298 0.6878
0.674861 0.438361 0.674784
0.805158 0.422522 0.666468
0.86302 0.411887 0.652644
0.862531 0.414557 0.657374
0.177829 0.589914 0.706844
0.204211 0.568902 0.679255
0.27837 0.55555 0.688624
0.381048 0.548333 0.703716
0.529061 0.538796 0.667674
0.656626 0.525643 0.656352
0.773129 0.515251 0.632288
0.860014 0.502907 0.613413
0.860182 0.504585 0.614359
0.123171 0.674723 0.677363
0.120699 0.657679 0.660151
0.280705 0.644892 0.645884
0.394049 0.636866 0.632868
0.488884 0.631861 0.644678
0.621698 0.621668 0.621698
0.741497 0.59353 0.589746
0.854078 0.582986 0.593256
0.873396 0.597971 0.598703
0.140642 0.772992 0.619776
0.13933 0.763836 0.613977
0.205493 0.749676 0.605158
0.333089 0.747677 0.618433
0.460227 0.746715 0.593744
0.573968 0.751339 0.581689
0.737484 0.74258 0.569635
0.856428 0.70605 0.594903
0.892729 0.722774 0.603052
0.15996 0.883558 0.588373
0.160113 0.883192 0.571679
0.16614 0.882918 0.543038
0.268177 0.888823 0.55903
0.371054 0.89456 0.56556
0.53579 0.899672 0.58854
0.710124 0.897581 0.605081
0.883635 0.887495 0.570352
0.918669 0.894148 0.582635
0.162325 0.88632 0.712108
0.162051 0.886107 0.704417
0.196124 0.886992 0.658686
0.388647 0.897566 0.66334
0.536873 0.90576 0.669322
0.66157 0.912245 0.669047
0.775372 0.917418 0.666133
0.894331 0.921279 0.596643
0.922332 0.922316 0.58526
0.152148 0.106004 0.731716
0.223804 0.0974289 0.766842
0.373251 0.0786908 0.795392
0.515908 0.0807507 0.806119
0.666117 0.088777 0.835096
0.822995 0.0904402 0.84419
0.845777 0.0957809 0.845762
0.847547 0.103929 0.847517
0.848737 0.114168 0.848722
0.14667 0.25214 0.732052
0.27982 0.197879 0.821225
0.396963 0.197436 0.835096
0.509407 0.198489 0.846586
0.618219 0.203983 0.851225
0.738262 0.20882 0.855085
0.858305 0.206607 0.858274
0.857053 0.193347 0.857023
0.857099 0.192126 0.857069
0.184222 0.404883 0.710979
0.193927 0.357916 0.818265
0.384512 0.339315 0.830335
0.490852 0.335348 0.832288
0.596597 0.331777 0.838193
0.707027 0.326833 0.840436
0.837308 0.316518 0.837415
0.867292 0.303853 0.83975
0.867445 0.304265 0.867414
0.195911 0.506569 0.753872
0.204196 0.482994 0.768963
0.259724 0.456168 0.855009
0.432807 0.447776 0.833829
0.572732 0.433158 0.81857
0.677958 0.426734 0.81268
0.801022 0.417762 0.801144
0.862654 0.401083 0.797803
0.862318 0.402228 0.807843
0.183871 0.590127 0.796613
0.207797 0.569253 0.782803
0.224964 0.553613 0.813931
0.279713 0.550469 0.833005
0.496727 0.5393 0.802152
0.646937 0.521538 0.780865
0.772412 0.509682 0.772396
0.861051 0.493141 0.76701
0.861402 0.496147 0.771252
0.23032 0.67216 0.798428
0.23006 0.654734 0.781842
0.274372 0.639735 0.776074
0.344671 0.631144 0.799115
0.433707 0.626093 0.814435
0.584161 0.622965 0.789029
0.767529 0.601099 0.767178
0.875608 0.595758 0.753613
0.877714 0.608011 0.759518
0.142351 0.766888 0.769635
0.141466 0.760754 0.763485
0.192264 0.744472 0.74725
0.318166 0.74583 0.747265
0.449485 0.745235 0.739879
0.55346 0.747387 0.769039
0.737026 0.737102 0.737026
0.852232 0.702449 0.698665
0.895613 0.725368 0.725841
0.161151 0.881483 0.777523
0.161822 0.887098 0.757321
0.161273 0.884062 0.716106
0.248631 0.890684 0.728649
0.36112 0.895933 0.739986
0.544289 0.897627 0.75346
0.713436 0.896162 0.738949
0.875196 0.882551 0.726207
0.919783 0.883757 0.728588
0.164111 0.889952 0.879194
0.163928 0.889799 0.873503
0.168551 0.88867 0.818524
0.37055 0.899672 0.810224
0.520348 0.907759 0.807706
0.646876 0.913939 0.794476
0.766903 0.918914 0.770947
0.884703 0.922667 0.737133
0.920104 0.920745 0.728237
0.160357 0.111788 0.779828
0.237583 0.0984512 0.797528
0.39733 0.0789654 0.810742
0.535653 0.0808118 0.814404
0.6972 0.0920424 0.841062
0.839551 0.0926375 0.845014
0.846601 0.0985122 0.846586
0.847807 0.107179 0.847776
0.849302 0.117159 0.849287
0.155932 0.266209 0.777676
0.258595 0.227329 0.840406
0.391684 0.220813 0.846525
0.513252 0.215686 0.849683
0.622171 0.219898 0.85275
0.748226 0.217777 0.856229
0.857816 0.199954 0.857786
0.856962 0.190677 0.856931
0.85713 0.192615 0.857099
0.188235 0.41062 0.725567
0.195392 0.39234 0.768353
0.366827 0.347921 0.85507
0.481514 0.340108 0.860059
0.592782 0.333394 0.862623
0.701564 0.328557 0.865461
0.837125 0.315022 0.867521
0.866484 0.293797 0.866453
0.866453 0.293645 0.866438
0.201755 0.509483 0.76701
0.205432 0.488594 0.7738
0.221134 0.471015 0.843198
0.454414 0.441184 0.865553
0.566018 0.431647 0.868162
0.672633 0.424735 0.866468
0.798306 0.412787 0.863081
0.863462 0.390509 0.863432
0.863615 0.389395 0.8636
0.200076 0.591638 0.816785
0.198367 0.571786 0.814679
0.221057 0.560174 0.824338
0.337316 0.550393 0.853407
0.534951 0.526116 0.857099
0.64445 0.515846 0.858991
0.770169 0.502968 0.860334
0.861265 0.482765 0.86125
0.861494 0.486381 0.861463
0.214664 0.6748 0.840162
0.188266 0.656611 0.831754
0.202701 0.63917 0.842252
0.309651 0.632959 0.854032
0.437751 0.630289 0.855726
0.617319 0.611124 0.867262
0.758312 0.599481 0.873243
0.877134 0.590845 0.877119
0.879515 0.606256 0.879499
0.249516 0.769253 0.875639
0.337209 0.762814 0.877058
0.318395 0.743847 0.869245
0.363882 0.743465 0.871061
0.443412 0.743465 0.875807
0.559075 0.745357 0.88246
0.737163 0.733928 0.89073
0.892897 0.732708 0.892958
0.905043 0.763775 0.905043
0.162432 0.883375 0.886305
0.167651 0.889632 0.890272
0.162509 0.883726 0.886656
0.222339 0.889799 0.892927
0.375845 0.896819 0.899443
0.543938 0.899947 0.902174
0.715923 0.891997 0.891752
0.874556 0.874556 0.874556
0.890074 0.84242 0.838178
0.305943 0.898054 0.898054
0.305943 0.898054 0.898054
0.313497 0.898528 0.898528
0.408988 0.903883 0.903883
0.526177 0.910124 0.910124
0.638086 0.915862 0.915846
0.742916 0.920485 0.909667
0.872389 0.913848 0.874998
0.908141 0.910063 0.873808
0.162051 0.11426 0.782513
0.250813 0.0974746 0.803357
0.426871 0.0792554 0.811368
0.563821 0.0850996 0.819059
0.728786 0.094255 0.84242
0.845655 0.0951095 0.845624
0.846937 0.101244 0.846922
0.848447 0.11043 0.848417
0.849729 0.120226 0.849699
0.159869 0.278386 0.771466
0.265385 0.235203 0.841474
0.413443 0.21973 0.847028
0.536934 0.215305 0.850187
0.647852 0.219699 0.853605
0.777508 0.214496 0.856962
0.857206 0.195621 0.857191
0.856962 0.190677 0.856931
0.85713 0.194842 0.857114
0.189441 0.417197 0.728252
0.193011 0.402319 0.757153
0.370565 0.351797 0.855512
0.487007 0.342443 0.860594
0.598138 0.334951 0.863096
0.708873 0.329519 0.86566
0.842817 0.31519 0.867689
0.866423 0.293248 0.866392
0.866423 0.293248 0.866392
0.20177 0.51519 0.769528
0.205249 0.495628 0.773327
0.221302 0.473396 0.842329
0.456291 0.443519 0.86566
0.568475 0.433433 0.868177
0.676493 0.42594 0.866316
0.802655 0.413046 0.862699
0.863737 0.38854 0.863722
0.863722 0.388663 0.863691
0.200885 0.596017 0.817899
0.199176 0.577203 0.816205
0.220386 0.562188 0.82501
0.338109 0.551659 0.853162
0.536294 0.527565 0.856794
0.646555 0.51696 0.858961
0.772229 0.503319 0.860487
0.861372 0.48365 0.861357
0.861479 0.486336 0.861463
0.217502 0.679194 0.842664
0.202197 0.663035 0.83415
0.199573 0.641611 0.842023
0.310933 0.635325 0.854337
0.438911 0.632136 0.856199
0.619852 0.613947 0.867658
0.762036 0.603998 0.873945
0.877729 0.594491 0.877714
0.880446 0.61117 0.88043
0.342168 0.775494 0.880735
0.340719 0.770718 0.879942
0.326116 0.747494 0.870771
0.370977 0.747539 0.872068
0.451881 0.748318 0.8766
0.557351 0.752667 0.88513
0.744442 0.74139 0.893111
0.893629 0.743572 0.901335
0.907057 0.775616 0.907057
0.207874 0.892592 0.892592
0.274464 0.89633 0.89633
0.186007 0.890684 0.89134
0.289403 0.897292 0.897292
0.413169 0.902998 0.903944
0.563897 0.904799 0.911086
0.718776 0.895705 0.916152
0.875074 0.87602 0.917433
0.916381 0.87805 0.916381
0.305943 0.898054 0.898054
0.305943 0.898054 0.898054
0.314641 0.898589 0.898589
0.411978 0.904051 0.904051
0.525887 0.910109 0.910109
0.636851 0.915801 0.915785
0.754635 0.920333 0.920928
0.870466 0.913115 0.912367
0.908293 0.9084 0.908476
