lut_library/店主推荐/709日系清新（低对比低饱和）.cube
# 版权归凌孟成所有，侵权必究
TITLE "Generate by Resolve"
LUT_3D_SIZE 33
0.0939651 0.0936446 0.0933852
0.0973678 0.0937362 0.0935225
0.108339 0.0924544 0.0915236
0.133394 0.0888228 0.0885481
0.165316 0.0843824 0.086656
0.191867 0.0824445 0.0836347
0.220111 0.0814374 0.0820935
0.24181 0.0815137 0.0822156
0.273381 0.0816358 0.0823224
0.31133 0.0812238 0.0820478
0.352087 0.080415 0.0813001
0.397879 0.0792859 0.0801862
0.443091 0.0783093 0.0793164
0.485496 0.0775158 0.0785992
0.526925 0.0771496 0.0780957
0.564981 0.0775006 0.0786603
0.605768 0.0777752 0.0785229
0.647608 0.0781567 0.078294
0.685969 0.0785229 0.0788586
0.722423 0.0789044 0.0796979
0.757061 0.0792401 0.0806744
0.784695 0.0795148 0.0817121
0.808148 0.0797284 0.0823529
0.838712 0.107042 0.112245
0.839582 0.111284 0.116442
0.840269 0.116197 0.121187
0.840848 0.120638 0.12575
0.841703 0.126513 0.13138
0.842298 0.131991 0.136767
0.842786 0.137285 0.14197
0.843656 0.143465 0.148409
0.844282 0.14934 0.154131
0.844831 0.15494 0.159411
0.0942245 0.0975509 0.093843
0.0984665 0.0981308 0.0941329
0.113405 0.0969558 0.0916152
0.146502 0.0942092 0.0897688
0.194553 0.0885939 0.0868849
0.230777 0.089189 0.0866255
0.258991 0.0903944 0.0869459
0.292622 0.0919509 0.0864729
0.330602 0.0926375 0.08542
0.369833 0.0923629 0.0847334
0.41352 0.0920119 0.084062
0.455467 0.0918593 0.0834363
0.494224 0.0921035 0.0831617
0.532082 0.0934157 0.0834974
0.56672 0.0932174 0.0830854
0.600397 0.0926833 0.0823072
0.637949 0.0918135 0.0812695
0.672892 0.0895552 0.0796674
0.71014 0.0865034 0.079469
0.747448 0.0861067 0.0797436
0.779797 0.0861524 0.0800488
0.809659 0.0870832 0.080354
0.841688 0.127214 0.118318
0.841993 0.13138 0.120897
0.842664 0.136873 0.125032
0.84329 0.142672 0.12961
0.843656 0.147646 0.133593
0.844465 0.153658 0.138399
0.845014 0.159106 0.142443
0.845563 0.164355 0.14699
0.84622 0.170718 0.152331
0.846983 0.175967 0.156878
0.847471 0.181125 0.161501
0.0901656 0.110628 0.0909285
0.0958572 0.115862 0.0926375
0.11809 0.118425 0.0929427
0.163485 0.11603 0.0906386
0.211276 0.11371 0.0851453
0.252277 0.112505 0.0836347
0.285328 0.115206 0.0856641
0.318456 0.118624 0.0870069
0.353628 0.121523 0.0867933
0.391424 0.12491 0.0866865
0.429374 0.128206 0.086305
0.465217 0.129519 0.0858625
0.49897 0.131472 0.085069
0.531365 0.133059 0.0845655
0.561944 0.133989 0.0835737
0.594003 0.134691 0.0826581
0.629816 0.134844 0.0812543
0.666468 0.134035 0.0813458
0.706737 0.133776 0.0817273
0.74818 0.133684 0.0821698
0.788342 0.13196 0.082536
0.826169 0.131334 0.0829023
0.841459 0.133959 0.0832837
0.845609 0.167269 0.120958
0.845731 0.170474 0.124178
0.846418 0.174853 0.128771
0.846784 0.177935 0.133333
0.847242 0.182086 0.139406
0.847791 0.186923 0.144762
0.84831 0.192233 0.148318
0.848936 0.197406 0.152316
0.849393 0.202731 0.156664
0.850111 0.207721 0.160708
0.0852979 0.147829 0.0921798
0.0874037 0.15874 0.0923171
0.110719 0.162921 0.0893263
0.161959 0.163226 0.0908675
0.211292 0.163912 0.0888991
0.252277 0.166415 0.0886549
0.291997 0.167269 0.0885786
0.327092 0.169421 0.0872663
0.361395 0.169772 0.0863508
0.394842 0.171359 0.0853895
0.428504 0.172213 0.0828717
0.462364 0.173617 0.0808881
0.493584 0.176577 0.0811017
0.523629 0.179797 0.0814984
0.557122 0.183658 0.0819715
0.589731 0.187106 0.082414
0.622003 0.189975 0.0829023
0.654994 0.192554 0.0832685
0.68896 0.193271 0.0836805
0.723476 0.192264 0.0840314
0.75996 0.191989 0.0844282
0.796521 0.190295 0.0849012
0.832334 0.188556 0.0851911
0.846586 0.186465 0.0856641
0.8495 0.208621 0.118029
0.849638 0.209705 0.11989
0.849943 0.212284 0.123003
0.850233 0.215381 0.127581
0.850477 0.218128 0.131594
0.851041 0.222019 0.138231
0.85124 0.225162 0.144793
0.851698 0.228595 0.153155
0.85214 0.233219 0.156085
0.0847639 0.198352 0.0990311
0.0868086 0.208759 0.0959487
0.107164 0.214557 0.0879377
0.158633 0.216373 0.0904555
0.213687 0.214801 0.0933089
0.251575 0.215793 0.0949874
0.289204 0.218097 0.0955673
0.320806 0.221592 0.0943923
0.355444 0.223041 0.0906081
0.391745 0.224262 0.0855116
0.429786 0.222385 0.0821088
0.466499 0.222019 0.0826276
0.500511 0.223453 0.082948
0.531426 0.224323 0.0832532
0.562676 0.226535 0.0835737
0.590829 0.229587 0.0840162
0.617563 0.230915 0.0843824
0.644755 0.233158 0.0847486
0.672175 0.235859 0.0851453
0.700175 0.237583 0.0855726
0.732113 0.238529 0.0860304
0.766323 0.237552 0.0862898
0.799527 0.235599 0.0865492
0.835111 0.23508 0.0870069
0.851011 0.2336 0.0879072
0.853132 0.246632 0.116747
0.853147 0.247257 0.117906
0.853162 0.24889 0.11928
0.853315 0.249897 0.121645
0.853681 0.252796 0.125765
0.85417 0.25539 0.130297
0.854154 0.25658 0.135378
0.854597 0.260105 0.141619
0.0903792 0.246204 0.112947
0.0930343 0.254826 0.108827
0.109239 0.260075 0.0930495
0.155673 0.260639 0.0925002
0.217472 0.256794 0.0975204
0.256367 0.25774 0.0986343
0.292424 0.259541 0.0970626
0.32697 0.261311 0.094316
0.360662 0.263752 0.0913252
0.395178 0.266514 0.0879225
0.429526 0.268849 0.0843214
0.465034 0.269368 0.0840162
0.497917 0.269871 0.0845502
0.529458 0.268894 0.0850538
0.560037 0.267521 0.0853742
0.587808 0.267277 0.0856489
0.614939 0.267277 0.0859693
0.641459 0.268009 0.0862135
0.667628 0.268986 0.0864271
0.695216 0.269749 0.0867475
0.724483 0.270924 0.0871595
0.754681 0.272374 0.087602
0.788022 0.272999 0.0880446
0.822858 0.271138 0.0885176
0.85478 0.270207 0.0899214
0.856306 0.278981 0.118715
0.856229 0.278248 0.117998
0.856291 0.278859 0.11809
0.856397 0.279988 0.118669
0.856382 0.281941 0.119921
0.856611 0.28394 0.121553
0.857099 0.286656 0.124727
0.857343 0.288304 0.128573
0.0912947 0.290059 0.119142
0.0940566 0.296971 0.115114
0.106249 0.299809 0.0948959
0.1561 0.299168 0.0937514
0.210117 0.299596 0.0946822
0.26006 0.299489 0.0969711
0.298039 0.299336 0.0953384
0.330022 0.302159 0.0936904
0.361532 0.303426 0.0914321
0.393225 0.303471 0.0892958
0.424216 0.304479 0.086656
0.456657 0.304753 0.0853132
0.486793 0.304845 0.0857404
0.517357 0.306737 0.0861677
0.546487 0.307958 0.0865797
0.574609 0.307515 0.0870375
0.604486 0.306477 0.0874952
0.633082 0.305425 0.087953
0.661067 0.304036 0.0881971
0.690379 0.303609 0.0884565
0.719844 0.302663 0.0887465
0.750713 0.302358 0.0890516
0.781598 0.301564 0.08925
0.814069 0.302281 0.0897536
0.84651 0.301381 0.0901503
0.857618 0.300603 0.0910048
0.858595 0.306279 0.120119
0.858518 0.305379 0.119554
0.858595 0.306325 0.119615
0.858869 0.309026 0.120165
0.859312 0.311482 0.120897
0.859297 0.313542 0.121874
0.859617 0.316762 0.123476
0.0891127 0.332982 0.119783
0.0910964 0.339681 0.115587
0.100526 0.342565 0.0923476
0.157473 0.340017 0.0915999
0.204257 0.339574 0.0910048
0.261692 0.337316 0.0940414
0.302266 0.335149 0.0944686
0.334386 0.3355 0.092958
0.364645 0.336294 0.0910658
0.393942 0.335454 0.0891127
0.423835 0.335775 0.0871748
0.455055 0.336202 0.0865492
0.483848 0.336034 0.0868849
0.514885 0.336217 0.0872816
0.543755 0.33698 0.0876631
0.571984 0.337804 0.0880446
0.600534 0.338933 0.0885939
0.628763 0.33991 0.0892653
0.656825 0.33817 0.0897231
0.688243 0.335409 0.0901045
0.717937 0.333288 0.0902876
0.748058 0.330144 0.0903792
0.780606 0.329244 0.0907301
0.811872 0.327352 0.090959
0.844434 0.327108 0.0912947
0.860136 0.326711 0.092195
0.861433 0.334157 0.124422
0.861234 0.332204 0.122896
0.861265 0.332692 0.122606
0.861433 0.334127 0.122728
0.861479 0.335027 0.123064
0.861784 0.338277 0.124269
0.862043 0.340795 0.12575
0.0860609 0.375692 0.118425
0.0875715 0.380407 0.112703
0.0968948 0.379843 0.0900893
0.156069 0.375494 0.0891432
0.205982 0.373037 0.0879377
0.25359 0.370687 0.0906233
0.300633 0.367437 0.0921798
0.334234 0.366522 0.0914931
0.365316 0.366217 0.0898146
0.395544 0.366171 0.0878462
0.42472 0.366827 0.0874647
0.454551 0.365805 0.0877089
0.484108 0.366232 0.0881208
0.512932 0.365728 0.0884565
0.542077 0.366354 0.0889296
0.569802 0.366232 0.0892958
0.598535 0.366125 0.0896468
0.625513 0.366033 0.0900282
0.653849 0.366445 0.0906081
0.682689 0.365942 0.0911879
0.713314 0.362661 0.0916304
0.746548 0.359762 0.092195
0.779034 0.355657 0.0922103
0.81236 0.352789 0.0925002
0.843976 0.350195 0.0926375
0.862287 0.34934 0.0931258
0.86389 0.358373 0.13901
0.863569 0.35584 0.136446
0.863645 0.356466 0.137041
0.863676 0.356741 0.137331
0.864179 0.359625 0.140459
0.8645 0.362478 0.143206
0.864713 0.364813 0.145739
0.0850996 0.412528 0.119631
0.0852979 0.414923 0.111238
0.092134 0.411017 0.0861982
0.151675 0.406607 0.0869001
0.204654 0.403098 0.0861677
0.240314 0.401862 0.0865797
0.295521 0.398001 0.0879988
0.331289 0.397787 0.0888685
0.363012 0.395895 0.087892
0.395544 0.396338 0.0883192
0.42501 0.395911 0.0886854
0.454612 0.395209 0.0890059
0.483116 0.395193 0.0894942
0.511757 0.394812 0.0898451
0.539147 0.393576 0.0901198
0.567086 0.394278 0.0904097
0.59585 0.393561 0.0908675
0.623423 0.392721 0.0911879
0.652323 0.392508 0.0915847
0.68069 0.391424 0.092134
0.710796 0.390066 0.0926833
0.742916 0.385992 0.0932784
0.77615 0.382452 0.0937819
0.807355 0.377798 0.0938888
0.84242 0.373007 0.0939803
0.864439 0.370962 0.0941634
0.86595 0.381811 0.162966
0.865873 0.379797 0.160983
0.865858 0.379507 0.160647
0.865888 0.380209 0.161334
0.866194 0.383185 0.164614
0.866102 0.384924 0.165972
0.866255 0.388876 0.169192
0.086305 0.444266 0.115312
0.0863966 0.446845 0.109834
0.0890059 0.442039 0.0860914
0.146853 0.437354 0.0868544
0.202701 0.433555 0.0874647
0.241321 0.431571 0.087892
0.288304 0.428809 0.0884565
0.326589 0.427573 0.0887922
0.359655 0.425956 0.0892805
0.392554 0.424628 0.0895399
0.423926 0.424628 0.0900282
0.452735 0.422614 0.0901961
0.4813 0.422995 0.0905623
0.509499 0.421973 0.0908522
0.53756 0.421286 0.0913252
0.564813 0.420829 0.0916457
0.592935 0.41976 0.0919966
0.62121 0.419379 0.0924697
0.650065 0.417884 0.0928054
0.678767 0.416205 0.0931106
0.70808 0.41355 0.0935073
0.739269 0.410498 0.0940871
0.773754 0.406378 0.0947585
0.8056 0.400549 0.0951705
0.836622 0.39762 0.0955825
0.865919 0.392477 0.0957656
0.86656 0.403632 0.168795
0.866606 0.403922 0.181857
0.866621 0.402533 0.180682
0.866606 0.404318 0.182193
0.866545 0.405661 0.183108
0.866499 0.408011 0.185245
0.866423 0.410788 0.187625
0.0876631 0.476143 0.115129
0.087602 0.476539 0.108553
0.0872816 0.472633 0.0873579
0.141619 0.466987 0.0880598
0.198154 0.462806 0.0885939
0.238514 0.460365 0.0890516
0.274128 0.45861 0.0895552
0.319661 0.456153 0.0900282
0.352941 0.454612 0.0903029
0.387076 0.453269 0.090837
0.418769 0.451408 0.0910201
0.449958 0.450553 0.0915084
0.478584 0.449577 0.0918593
0.506874 0.448615 0.0922103
0.53434 0.447547 0.0925612
0.561669 0.446876 0.092958
0.58912 0.445457 0.0932021
0.616693 0.444312 0.0936446
0.644617 0.442344 0.0939651
0.673533 0.440314 0.0942855
0.703456 0.437171 0.0945907
0.735943 0.434211 0.0951705
0.766491 0.431098 0.0960708
0.799893 0.425681 0.0969253
0.833051 0.420356 0.0977035
0.863035 0.416281 0.0984512
0.865888 0.421393 0.155444
0.86537 0.42681 0.202182
0.865614 0.425849 0.201434
0.865446 0.426459 0.201923
0.865248 0.428168 0.203372
0.864988 0.430701 0.205783
0.864897 0.433265 0.207385
0.0889601 0.505547 0.114427
0.0889601 0.50695 0.107713
0.0885023 0.501778 0.0885939
0.137682 0.495933 0.0893568
0.194034 0.48957 0.0898299
0.236027 0.488243 0.0903029
0.272312 0.485832 0.0905776
0.307881 0.483757 0.0912032
0.3467 0.482322 0.0914626
0.380362 0.480842 0.0919814
0.413062 0.478721 0.0924697
0.445365 0.476783 0.0926223
0.474876 0.475425 0.0930953
0.502937 0.473335 0.09337
0.530571 0.472404 0.0937362
0.557427 0.471443 0.0941634
0.584726 0.470024 0.0944076
0.61207 0.468147 0.0949416
0.639521 0.466331 0.0954299
0.667292 0.464469 0.0960403
0.697597 0.462287 0.096788
0.729076 0.458503 0.0974899
0.760662 0.454948 0.0983291
0.792462 0.450263 0.0994736
0.826001 0.444739 0.100801
0.85803 0.438636 0.101762
0.8645 0.442069 0.148547
0.862806 0.449424 0.214252
0.862943 0.448524 0.213733
0.862806 0.449424 0.214252
0.862623 0.450568 0.214786
0.862303 0.452873 0.215976
0.861875 0.455741 0.217609
0.0903029 0.535302 0.11519
0.0902571 0.535378 0.108309
0.0899214 0.529976 0.090013
0.133547 0.522744 0.0903334
0.189746 0.517403 0.0908675
0.231052 0.514687 0.0914473
0.268162 0.512139 0.0918441
0.296849 0.511635 0.092256
0.334478 0.509697 0.0928817
0.371344 0.507118 0.0930343
0.403326 0.504723 0.093492
0.437293 0.502205 0.0939651
0.468132 0.500389 0.094255
0.497063 0.497597 0.0945602
0.525383 0.496834 0.0951095
0.551583 0.494957 0.095613
0.577951 0.493614 0.0962692
0.606088 0.492576 0.0972
0.633066 0.49015 0.0979324
0.661433 0.488365 0.0988937
0.690105 0.486091 0.0999924
0.721843 0.482353 0.101091
0.753613 0.477821 0.102174
0.785916 0.474067 0.103563
0.816846 0.469245 0.105119
0.848829 0.463066 0.106584
0.861616 0.463066 0.155062
0.859754 0.470207 0.226642
0.859876 0.469749 0.226368
0.859785 0.470115 0.226581
0.859419 0.471351 0.227176
0.859113 0.473762 0.228595
0.858915 0.476738 0.230549
0.0915389 0.562081 0.114397
0.0915541 0.563668 0.108507
0.0910658 0.557473 0.0911727
0.129381 0.549981 0.0915541
0.182635 0.543908 0.0921187
0.223316 0.540887 0.0924849
0.261418 0.537667 0.0930037
0.291417 0.536416 0.09337
0.31812 0.535164 0.0937209
0.360449 0.532067 0.0944076
0.394324 0.528954 0.0946059
0.428473 0.527108 0.0951705
0.460075 0.524208 0.0960708
0.490852 0.521782 0.0965744
0.519341 0.519783 0.0972763
0.545876 0.518349 0.0982223
0.573007 0.517067 0.0992599
0.599039 0.515709 0.100542
0.627054 0.51397 0.101854
0.653971 0.511284 0.103044
0.68304 0.508858 0.104631
0.713252 0.505943 0.10631
0.744915 0.502113 0.107927
0.776989 0.497398 0.109438
0.807752 0.492973 0.111055
0.839384 0.488334 0.11313
0.859236 0.482216 0.127794
0.857679 0.49163 0.234974
0.857664 0.490242 0.234592
0.857649 0.490761 0.234699
0.857725 0.492012 0.235126
0.85742 0.494285 0.235355
0.857374 0.495369 0.235248
0.0929885 0.58996 0.117952
0.0929885 0.591333 0.112291
0.0924086 0.584298 0.0925307
0.116655 0.575372 0.0925307
0.173053 0.569039 0.0932021
0.214038 0.565881 0.0936294
0.253315 0.562219 0.0941482
0.284962 0.560082 0.0944686
0.3131 0.558434 0.0948806
0.34255 0.55697 0.0958419
0.385992 0.553475 0.0967422
0.419135 0.550652 0.0973831
0.451698 0.548409 0.0986648
0.483528 0.545495 0.0998093
0.513161 0.543038 0.100801
0.540551 0.541176 0.102144
0.567422 0.539696 0.10367
0.593103 0.537896 0.105333
0.620005 0.536171 0.107057
0.647364 0.53489 0.109102
0.675242 0.531991 0.110842
0.705699 0.528923 0.112886
0.736797 0.525368 0.114855
0.768734 0.520333 0.116289
0.801266 0.516045 0.118196
0.8327 0.511528 0.119844
0.857282 0.504952 0.120577
0.857267 0.512505 0.23267
0.857237 0.510216 0.233326
0.857237 0.510552 0.233234
0.857267 0.512398 0.232685
0.857282 0.513603 0.232349
0.857374 0.51606 0.231434
0.0942855 0.615351 0.124117
0.0943008 0.615991 0.12195
0.093843 0.609598 0.102922
0.10367 0.599878 0.0935073
0.161959 0.59379 0.0942855
0.204593 0.589212 0.0948653
0.2448 0.585534 0.0955825
0.277928 0.583612 0.0962692
0.307561 0.581598 0.0971847
0.33611 0.580285 0.0981918
0.368353 0.577874 0.0996719
0.411002 0.573632 0.100801
0.441703 0.570779 0.10222
0.474693 0.568887 0.104326
0.504997 0.565896 0.105943
0.533898 0.563638 0.107546
0.561257 0.561868 0.109468
0.587182 0.559792 0.111452
0.614008 0.558373 0.113542
0.640558 0.556527 0.115724
0.668925 0.55407 0.117723
0.699046 0.550958 0.119646
0.730571 0.548012 0.121645
0.76231 0.543572 0.123171
0.794965 0.538674 0.124575
0.826764 0.532815 0.125582
0.856977 0.528206 0.127108
0.85832 0.532784 0.226703
0.857984 0.530556 0.227115
0.858045 0.531258 0.226947
0.858259 0.532082 0.226871
0.858381 0.533715 0.22652
0.85861 0.536599 0.225925
0.0965133 0.63888 0.132723
0.0967575 0.639933 0.133379
0.0958419 0.63389 0.116762
0.0946365 0.624704 0.094789
0.147936 0.617105 0.0958724
0.195407 0.612436 0.096849
0.237079 0.608438 0.0979629
0.269886 0.605951 0.09897
0.302205 0.604334 0.100526
0.331014 0.601724 0.101747
0.359533 0.599786 0.103319
0.395102 0.597116 0.105791
0.434516 0.593576 0.107713
0.465293 0.590814 0.109606
0.496544 0.588418 0.112261
0.526986 0.586069 0.114321
0.554513 0.583429 0.116228
0.581537 0.582071 0.118318
0.608392 0.580041 0.120211
0.635035 0.577981 0.122148
0.663523 0.576043 0.124041
0.693385 0.572854 0.125597
0.725063 0.569009 0.127047
0.758053 0.565759 0.128664
0.788724 0.560586 0.129412
0.82359 0.555749 0.130755
0.854994 0.550729 0.131991
0.860197 0.552987 0.227497
0.860044 0.551553 0.227268
0.860044 0.551659 0.227283
0.860121 0.55227 0.227359
0.86041 0.55491 0.227771
0.860807 0.556817 0.228107
0.100404 0.661891 0.144839
0.100572 0.662425 0.14522
0.099321 0.657557 0.134371
0.0971847 0.648783 0.0978561
0.133318 0.640162 0.0980392
0.18471 0.634913 0.0996719
0.228016 0.631022 0.101472
0.262806 0.627634 0.102953
0.29369 0.625956 0.104982
0.324788 0.623987 0.107027
0.354238 0.621698 0.109056
0.381994 0.62005 0.111284
0.419562 0.616648 0.11426
0.456092 0.613016 0.116243
0.486503 0.611261 0.118654
0.51751 0.608835 0.121218
0.545876 0.605753 0.122744
0.574044 0.604471 0.124437
0.6009 0.601495 0.125948
0.628412 0.600076 0.127642
0.656733 0.597467 0.128817
0.687099 0.594461 0.130297
0.719844 0.591104 0.131334
0.75227 0.586969 0.132448
0.78529 0.583581 0.133425
0.820111 0.578363 0.134417
0.852384 0.572503 0.135241
0.86331 0.574746 0.228016
0.863066 0.573007 0.228244
0.862974 0.572412 0.228275
0.863218 0.574151 0.228092
0.863401 0.575448 0.227878
0.864012 0.578897 0.227573
0.106188 0.682857 0.159411
0.106661 0.684031 0.160372
0.105165 0.679393 0.156405
0.102068 0.671611 0.124834
0.115785 0.662104 0.100587
0.172152 0.657069 0.103548
0.218097 0.652811 0.106157
0.254307 0.649378 0.108324
0.285634 0.647562 0.110689
0.315816 0.645121 0.112886
0.3467 0.643458 0.115526
0.375479 0.64097 0.117479
0.403098 0.639902 0.120287
0.441291 0.63624 0.122927
0.476112 0.633478 0.124407
0.505913 0.630854 0.126207
0.535607 0.62916 0.128466
0.564065 0.626505 0.129335
0.593393 0.624475 0.130739
0.621973 0.622522 0.131868
0.650187 0.619547 0.132799
0.681697 0.61709 0.133928
0.71339 0.613748 0.134783
0.747585 0.609415 0.135668
0.781628 0.606134 0.136446
0.815259 0.600748 0.137072
0.849439 0.596277 0.137911
0.866651 0.59707 0.225193
0.866285 0.595026 0.225406
0.866484 0.595987 0.225345
0.866651 0.597009 0.225193
0.867033 0.599786 0.224384
0.867689 0.603418 0.223545
0.113985 0.703243 0.17586
0.114427 0.704341 0.17673
0.113588 0.702281 0.175097
0.10959 0.693675 0.154162
0.10457 0.684413 0.104814
0.155932 0.678996 0.108476
0.2056 0.674022 0.111559
0.244617 0.671397 0.114611
0.275196 0.669245 0.116976
0.306508 0.667048 0.119448
0.336782 0.665461 0.121752
0.366217 0.662974 0.123461
0.394873 0.661143 0.12546
0.42089 0.660105 0.127581
0.457984 0.656413 0.129381
0.493446 0.654658 0.130785
0.522438 0.652567 0.131899
0.550866 0.65069 0.133471
0.582193 0.648371 0.134447
0.611826 0.64535 0.134951
0.642573 0.643198 0.135943
0.674693 0.640253 0.136797
0.706432 0.6365 0.137621
0.741054 0.633249 0.138537
0.775128 0.629236 0.139269
0.811032 0.626062 0.140459
0.845121 0.621317 0.141009
0.869703 0.621164 0.195041
0.870054 0.620676 0.21677
0.8701 0.621042 0.216602
0.87039 0.623163 0.215641
0.870848 0.626291 0.214145
0.871244 0.629648 0.21181
0.121721 0.72311 0.19086
0.122652 0.725521 0.19263
0.122423 0.725109 0.192233
0.119142 0.716274 0.182269
0.114061 0.706874 0.142229
0.126497 0.701244 0.112535
0.187381 0.695918 0.117174
0.229282 0.693355 0.120333
0.260761 0.690852 0.122576
0.293172 0.689723 0.124987
0.321782 0.688106 0.126757
0.352514 0.686046 0.128511
0.381628 0.684718 0.130083
0.409201 0.682643 0.131304
0.435874 0.682094 0.133043
0.469535 0.679988 0.13463
0.506065 0.677028 0.134981
0.534798 0.675639 0.136049
0.565484 0.673106 0.137087
0.598154 0.670817 0.138308
0.631327 0.66807 0.138735
0.663783 0.664424 0.139559
0.699046 0.66212 0.140719
0.733166 0.658274 0.141573
0.768597 0.655238 0.142473
0.806455 0.652293 0.143816
0.841428 0.647883 0.14435
0.87042 0.646494 0.153796
0.873655 0.647547 0.203326
0.873762 0.64947 0.202487
0.874266 0.652064 0.201801
0.874891 0.656306 0.20116
0.875502 0.660609 0.200885
0.128389 0.74464 0.20415
0.128817 0.746868 0.205158
0.129274 0.748272 0.206088
0.127291 0.740658 0.201938
0.12369 0.730724 0.18024
0.119295 0.722545 0.130098
0.160357 0.719066 0.122072
0.208453 0.715694 0.125139
0.243229 0.714778 0.127535
0.27361 0.713664 0.129351
0.303868 0.71191 0.130999
0.333562 0.711162 0.13228
0.3626 0.709484 0.133394
0.391989 0.707713 0.134585
0.420706 0.707118 0.135653
0.445014 0.705348 0.136614
0.475288 0.705043 0.138476
0.516014 0.701762 0.138766
0.546059 0.700175 0.139666
0.579202 0.69865 0.140703
0.615213 0.695598 0.142626
0.651576 0.692531 0.14284
0.688273 0.688945 0.143816
0.724468 0.686442 0.144915
0.761181 0.683543 0.145983
0.798459 0.679713 0.146807
0.835462 0.677394 0.147997
0.866407 0.675868 0.149172
0.878431 0.679042 0.200488
0.878782 0.681331 0.200427
0.879225 0.684443 0.200305
0.880034 0.689433 0.200259
0.880659 0.694057 0.200076
0.133272 0.768505 0.215305
0.133516 0.769848 0.215885
0.13402 0.771954 0.216922
0.133165 0.767681 0.215
0.131121 0.75639 0.206043
0.128511 0.74786 0.178882
0.125505 0.74226 0.12845
0.179324 0.739895 0.128817
0.217823 0.739605 0.131151
0.250065 0.738659 0.132769
0.280873 0.738231 0.134157
0.310384 0.737469 0.135271
0.340764 0.735637 0.136217
0.37055 0.735149 0.137285
0.400397 0.732967 0.13814
0.428992 0.73283 0.139239
0.456291 0.732052 0.140627
0.48336 0.732097 0.142397
0.525994 0.730114 0.143328
0.559899 0.727291 0.143771
0.596765 0.72546 0.145083
0.635233 0.722866 0.147127
0.676234 0.719203 0.147372
0.715679 0.716365 0.148425
0.753597 0.71368 0.14966
0.791196 0.711437 0.150851
0.829664 0.709636 0.152056
0.861646 0.708339 0.153094
0.883436 0.711955 0.193378
0.884062 0.714275 0.200168
0.88452 0.719036 0.199939
0.885328 0.7234 0.200168
0.88632 0.729976 0.200153
0.137133 0.793988 0.22533
0.137163 0.794095 0.225406
0.137636 0.796445 0.22649
0.137514 0.795514 0.226123
0.136324 0.786755 0.222751
0.134615 0.776898 0.208637
0.133043 0.770321 0.18378
0.131579 0.764874 0.134569
0.183673 0.764569 0.133761
0.22092 0.765515 0.13547
0.253025 0.765606 0.136751
0.284276 0.764691 0.137682
0.315847 0.764996 0.139132
0.346029 0.763561 0.140124
0.377188 0.762707 0.141253
0.409842 0.762417 0.142504
0.438926 0.761395 0.143725
0.467384 0.761486 0.144793
0.49424 0.7608 0.146456
0.53434 0.760266 0.148028
0.577493 0.757427 0.148486
0.6177 0.756069 0.149905
0.661448 0.752636 0.152193
0.70544 0.749523 0.152422
0.746319 0.74699 0.153628
0.785733 0.744686 0.154681
0.823804 0.742596 0.155428
0.857145 0.742596 0.156527
0.882155 0.745083 0.162341
0.889235 0.749599 0.193256
0.889998 0.753918 0.189044
0.890669 0.759686 0.182696
0.891356 0.764569 0.17612
0.141238 0.820172 0.235447
0.141238 0.820172 0.235447
0.141405 0.821103 0.235828
0.141695 0.822431 0.236362
0.140887 0.818067 0.234699
0.139116 0.807294 0.230671
0.137865 0.801022 0.21532
0.136904 0.795575 0.191791
0.135561 0.791562 0.146166
0.178515 0.793423 0.137469
0.221195 0.794186 0.139086
0.254826 0.79501 0.140856
0.2878 0.794736 0.142733
0.32105 0.794919 0.144213
0.354025 0.7944 0.145586
0.386038 0.793317 0.146654
0.418921 0.793545 0.147875
0.450111 0.793347 0.148943
0.480674 0.794156 0.150301
0.510491 0.794522 0.151995
0.548562 0.794018 0.153704
0.600092 0.791241 0.153628
0.643656 0.788113 0.154833
0.691157 0.785 0.15697
0.736019 0.781735 0.156893
0.779202 0.779919 0.1579
0.818326 0.777188 0.158724
0.853422 0.777401 0.159609
0.878737 0.77966 0.160235
0.894118 0.7841 0.161532
0.895109 0.789654 0.161181
0.896025 0.795285 0.161379
0.897398 0.802457 0.161807
0.146654 0.845975 0.245396
0.146532 0.845472 0.245182
0.146563 0.845701 0.245319
0.14728 0.849073 0.246525
0.146944 0.847364 0.245884
0.145266 0.84036 0.243061
0.143694 0.832959 0.237903
0.14287 0.828885 0.224628
0.141451 0.825437 0.201846
0.140124 0.822568 0.164858
0.173373 0.823606 0.141863
0.222477 0.825849 0.145006
0.259373 0.827161 0.147234
0.294591 0.827863 0.149279
0.329244 0.828275 0.151003
0.364096 0.828336 0.152651
0.398856 0.828885 0.15375
0.431174 0.828763 0.154528
0.465034 0.829679 0.155673
0.496864 0.829358 0.156634
0.530571 0.830686 0.158373
0.568338 0.829053 0.159747
