lut_library/店主推荐/709日系清新（低对比低饱和）.cube
# 版权归凌孟成所有，侵权必究
TITLE "Generate by Resolve"
LUT_3D_SIZE 5
0.0939651 0.0936446 0.0933852
0.273381 0.0816358 0.0823224
0.605768 0.0777752 0.0785229
0.839582 0.111284 0.116442
0.844831 0.15494 0.159411
0.0860609 0.375692 0.118425
0.365316 0.366217 0.0898146
0.598535 0.366125 0.0896468
0.843976 0.350195 0.0926375
0.864713 0.364813 0.145739
0.0942855 0.615351 0.124117
0.307561 0.581598 0.0971847
0.561257 0.561868 0.109468
0.794965 0.538674 0.124575
0.85861 0.536599 0.225925
0.137133 0.793988 0.22533
0.183673 0.764569 0.133761
0.438926 0.761395 0.143725
0.746319 0.74699 0.153628
0.891356 0.764569 0.17612
0.154101 0.876616 0.259525
0.15378 0.87631 0.247272
0.544915 0.899031 0.332631
0.830396 0.913207 0.30425
0.915816 0.915785 0.221942
0.0959487 0.0837568 0.256626
0.295506 0.0854505 0.29453
0.61004 0.0806744 0.385779
0.841962 0.098436 0.471046
0.846403 0.120165 0.592065
0.0869001 0.37145 0.373373
0.359228 0.359228 0.359228
0.565133 0.379187 0.334142
0.838453 0.326635 0.35552
0.86537 0.346426 0.348241
0.0952163 0.599695 0.356588
0.312139 0.565637 0.33669
0.540688 0.551156 0.314763
0.791562 0.505119 0.285313
0.858045 0.514473 0.339162
0.1364 0.781857 0.279454
0.216251 0.754955 0.314519
0.4168 0.753445 0.203983
0.740749 0.74197 0.198306
0.889906 0.746303 0.250172
0.154314 0.876783 0.265843
0.154345 0.876631 0.259663
0.529335 0.898421 0.34583
0.793576 0.912551 0.360937
0.91606 0.916045 0.244785
0.103563 0.0823682 0.446601
0.334966 0.0776226 0.552209
0.629099 0.0820325 0.629129
0.844388 0.0952773 0.735882
0.848692 0.112261 0.848676
0.126406 0.380392 0.55317
0.320882 0.364569 0.597436
0.58645 0.351141 0.586496
0.838132 0.327886 0.583078
0.866606 0.328496 0.592996
0.0974289 0.592737 0.595483
0.313329 0.559258 0.554711
0.541512 0.541466 0.541512
0.730388 0.533745 0.488884
0.859281 0.507439 0.508415
0.139071 0.776669 0.4878
0.213214 0.751064 0.485954
0.451637 0.748104 0.481498
0.731304 0.743297 0.458595
0.892317 0.732601 0.49247
0.159579 0.882872 0.558892
0.197665 0.884199 0.515877
0.536446 0.903212 0.549828
0.78146 0.915602 0.55201
0.920195 0.92018 0.464576
0.152148 0.106004 0.731716
0.373251 0.0786908 0.795392
0.666117 0.088777 0.835096
0.845777 0.0957809 0.845762
0.848737 0.114168 0.848722
0.184222 0.404883 0.710979
0.384512 0.339315 0.830335
0.596597 0.331777 0.838193
0.837308 0.316518 0.837415
0.867445 0.304265 0.867414
0.183871 0.590127 0.796613
0.224964 0.553613 0.813931
0.496727 0.5393 0.802152
0.772412 0.509682 0.772396
0.861402 0.496147 0.771252
0.142351 0.766888 0.769635
0.192264 0.744472 0.74725
0.449485 0.745235 0.739879
0.737026 0.737102 0.737026
0.895613 0.725368 0.725841
0.164111 0.889952 0.879194
0.168551 0.88867 0.818524
0.520348 0.907759 0.807706
0.766903 0.918914 0.770947
0.920104 0.920745 0.728237
0.162051 0.11426 0.782513
0.426871 0.0792554 0.811368
0.728786 0.094255 0.84242
0.846937 0.101244 0.846922
0.849729 0.120226 0.849699
0.189441 0.417197 0.728252
0.370565 0.351797 0.855512
0.598138 0.334951 0.863096
0.842817 0.31519 0.867689
0.866423 0.293248 0.866392
0.200885 0.596017 0.817899
0.220386 0.562188 0.82501
0.536294 0.527565 0.856794
0.772229 0.503319 0.860487
0.861479 0.486336 0.861463
0.342168 0.775494 0.880735
0.326116 0.747494 0.870771
0.451881 0.748318 0.8766
0.744442 0.74139 0.893111
0.907057 0.775616 0.907057
0.305943 0.898054 0.898054
0.314641 0.898589 0.898589
0.525887 0.910109 0.910109
0.754635 0.920333 0.920928
0.908293 0.9084 0.908476
