lut_library/店主推荐/709电影感（青橙+增强对比）2.cube
# 版权归凌孟成所有，侵权必究
# Created by: Lutify.me
# Copyright: (c) Copyright Lutify.me 2016, G.T. Colord LTD
# Website: https://lutify.me
# Contact: help@lutify.me
LUT_3D_SIZE 33
0.009277 0.016357 0.013977
0.015808 0.016998 0.012238
0.028534 0.018524 0.011322
0.048096 0.020721 0.011017
0.070679 0.022278 0.011566
0.091736 0.024170 0.012756
0.114899 0.027496 0.014191
0.141449 0.030945 0.015656
0.170929 0.033966 0.017792
0.203766 0.038605 0.021484
0.239288 0.043579 0.025757
0.277252 0.048431 0.030426
0.316132 0.052277 0.035217
0.354889 0.056091 0.040283
0.395508 0.061218 0.046204
0.437561 0.066345 0.052551
0.477692 0.070557 0.058380
0.518463 0.075531 0.064453
0.557953 0.080383 0.070221
0.595276 0.084656 0.075562
0.633606 0.090820 0.081390
0.671997 0.099091 0.087372
0.709076 0.107178 0.093323
0.746826 0.116638 0.099304
0.784698 0.126984 0.104919
0.823364 0.141235 0.111237
0.859253 0.155518 0.117096
0.894684 0.172089 0.122864
0.927063 0.189880 0.128693
0.955902 0.209717 0.133881
0.976715 0.224365 0.137482
0.986023 0.230804 0.139404
0.995422 0.238678 0.142029
0.011932 0.026459 0.019073
0.017365 0.026764 0.018555
0.027435 0.028168 0.015411
0.047943 0.031097 0.013733
0.074860 0.034821 0.013367
0.100677 0.037994 0.014191
0.125153 0.041656 0.015900
0.151337 0.045593 0.017792
0.181427 0.049652 0.020203
0.212555 0.054352 0.023651
0.246429 0.059265 0.027863
0.282654 0.063934 0.031982
0.320465 0.068237 0.036438
0.359131 0.072968 0.041504
0.398132 0.077759 0.046844
0.438354 0.082489 0.052521
0.477997 0.087372 0.058228
0.517059 0.092438 0.063904
0.556122 0.097717 0.069855
0.594116 0.102905 0.075470
0.632019 0.108826 0.081238
0.670380 0.116364 0.087128
0.708405 0.124756 0.093140
0.746033 0.133911 0.099121
0.784302 0.144653 0.104919
0.823242 0.158905 0.111237
0.859039 0.172546 0.117065
0.895050 0.189789 0.123199
0.927307 0.207550 0.128998
0.956451 0.226349 0.134338
0.977173 0.240143 0.137909
0.986359 0.246033 0.140167
0.995697 0.252991 0.142059
0.015350 0.038361 0.023529
0.020081 0.038666 0.023987
0.025055 0.037933 0.022247
0.041504 0.040863 0.018127
0.069122 0.045502 0.016663
0.099274 0.050110 0.016663
0.128723 0.055084 0.018127
0.156158 0.059906 0.020416
0.186707 0.064514 0.022827
0.218018 0.069275 0.025970
0.252014 0.074341 0.029999
0.287354 0.078796 0.033844
0.324005 0.083160 0.037781
0.362213 0.088318 0.042603
0.400665 0.093445 0.047607
0.439148 0.098114 0.052704
0.477814 0.103149 0.058044
0.516510 0.108734 0.063660
0.554932 0.113983 0.069305
0.593048 0.119720 0.075104
0.630951 0.126099 0.080811
0.668671 0.132782 0.086426
0.706665 0.141602 0.092346
0.744690 0.150818 0.098389
0.782837 0.161072 0.104218
0.822388 0.175049 0.110748
0.858582 0.188049 0.116302
0.894379 0.204865 0.122467
0.927277 0.223328 0.128693
0.956818 0.241821 0.134552
0.977448 0.255615 0.138336
0.986603 0.261108 0.140686
0.995758 0.266846 0.142059
0.020386 0.053406 0.027863
0.025238 0.054413 0.029175
0.029816 0.053833 0.028900
0.035858 0.052216 0.026917
0.059479 0.057404 0.022705
0.088196 0.062164 0.021790
0.121002 0.068024 0.022430
0.154633 0.074402 0.024078
0.186584 0.078522 0.025696
0.219452 0.083008 0.028107
0.254639 0.088135 0.031677
0.290527 0.093018 0.035492
0.326813 0.098053 0.039459
0.364502 0.103943 0.044189
0.402283 0.109039 0.048950
0.440063 0.114166 0.053802
0.477722 0.119232 0.058441
0.516388 0.124817 0.063812
0.554688 0.130066 0.069244
0.592224 0.135986 0.074677
0.630127 0.143250 0.080353
0.667664 0.150116 0.085876
0.705109 0.158142 0.091522
0.743591 0.167511 0.097473
0.782043 0.177673 0.103577
0.820038 0.189453 0.109711
0.858459 0.204254 0.115936
0.893768 0.219513 0.121277
0.927124 0.237885 0.127533
0.956909 0.256378 0.134430
0.977356 0.271301 0.139435
0.986328 0.276947 0.141541
0.995514 0.281067 0.142883
0.027893 0.071045 0.031494
0.031708 0.072083 0.033051
0.035675 0.072205 0.033447
0.040924 0.071411 0.032623
0.052429 0.072052 0.031677
0.075409 0.076294 0.029510
0.105316 0.081543 0.029205
0.141541 0.088593 0.030090
0.180328 0.093475 0.030029
0.217560 0.099213 0.032104
0.253662 0.104156 0.034851
0.290436 0.108978 0.038147
0.327972 0.114349 0.042206
0.366150 0.120331 0.046997
0.403870 0.125702 0.051361
0.441223 0.131134 0.055817
0.478821 0.136444 0.060333
0.517517 0.142273 0.065460
0.555206 0.147827 0.070648
0.592743 0.153870 0.075928
0.630463 0.160400 0.081238
0.667877 0.167267 0.086609
0.706177 0.175629 0.092255
0.743988 0.184692 0.097839
0.781708 0.195435 0.103851
0.820068 0.207397 0.109863
0.858093 0.221832 0.116211
0.894623 0.237915 0.122192
0.927856 0.254974 0.128876
0.956177 0.271729 0.135742
0.976990 0.287292 0.140717
0.985779 0.291962 0.142822
0.994720 0.298065 0.144745
0.037964 0.092651 0.036255
0.041779 0.093842 0.036865
0.045532 0.094696 0.037140
0.049805 0.094727 0.036621
0.057281 0.094482 0.036743
0.072174 0.092682 0.036774
0.096222 0.096710 0.037140
0.128967 0.103973 0.038879
0.167999 0.111267 0.038269
0.209869 0.117554 0.038727
0.250366 0.123230 0.040527
0.289337 0.127441 0.042755
0.328003 0.132202 0.045959
0.366608 0.137817 0.050323
0.404633 0.143433 0.054443
0.442352 0.149445 0.058960
0.480103 0.155273 0.063538
0.518402 0.161133 0.068420
0.555939 0.167175 0.073334
0.593933 0.173676 0.078308
0.631622 0.180084 0.083282
0.669006 0.186890 0.088440
0.707245 0.195557 0.094177
0.745148 0.205231 0.100037
0.783081 0.215729 0.105988
0.820496 0.227264 0.112000
0.858368 0.241608 0.118011
0.894073 0.256500 0.123840
0.927277 0.273010 0.130249
0.955231 0.288788 0.136658
0.976257 0.304565 0.142517
0.985077 0.309143 0.144623
0.993866 0.315002 0.146698
0.049957 0.117126 0.043365
0.054596 0.119171 0.044098
0.058807 0.120850 0.044434
0.062317 0.121216 0.043762
0.066345 0.120361 0.043488
0.079559 0.120789 0.042267
0.096283 0.114594 0.043518
0.123627 0.120880 0.047760
0.158813 0.129028 0.048981
0.200073 0.138000 0.048981
0.243500 0.145508 0.049255
0.286285 0.150269 0.050323
0.327637 0.153778 0.051941
0.367523 0.158447 0.055206
0.405762 0.163391 0.058777
0.443420 0.169403 0.062866
0.481415 0.175842 0.067383
0.519501 0.181885 0.072144
0.556976 0.188110 0.076996
0.594727 0.194824 0.082123
0.632294 0.201508 0.087006
0.669678 0.208557 0.091858
0.707458 0.217163 0.097321
0.745544 0.227142 0.103149
0.784271 0.237549 0.108917
0.821350 0.248657 0.114838
0.858398 0.262390 0.121033
0.893188 0.276672 0.126953
0.925873 0.292969 0.133209
0.954346 0.309540 0.139343
0.974976 0.323914 0.145203
0.983551 0.328979 0.147552
0.992249 0.334106 0.149658
0.064331 0.145660 0.053680
0.069702 0.148621 0.055481
0.074127 0.150482 0.056732
0.077118 0.151245 0.056763
0.077301 0.149475 0.055481
0.088806 0.151367 0.054016
0.110321 0.151459 0.051117
0.127502 0.140656 0.054047
0.155151 0.146454 0.058533
0.193054 0.157318 0.060486
0.236298 0.168671 0.061157
0.281708 0.176575 0.061066
0.326019 0.181000 0.061371
0.368164 0.185150 0.063110
0.408295 0.189423 0.065857
0.445465 0.193420 0.068787
0.482971 0.198395 0.072296
0.520813 0.204498 0.076782
0.557922 0.210754 0.081329
0.595337 0.217224 0.086121
0.633118 0.224518 0.091217
0.670349 0.232147 0.096283
0.707245 0.240051 0.101562
0.744537 0.249176 0.106903
0.783691 0.260132 0.112854
0.822083 0.272186 0.119263
0.858002 0.284821 0.125122
0.893188 0.300049 0.131592
0.924713 0.314697 0.137238
0.954590 0.332184 0.144165
0.973389 0.345459 0.148560
0.981934 0.350159 0.151245
0.990509 0.355347 0.153503
0.082489 0.180695 0.068237
0.087860 0.182404 0.069427
0.093140 0.184448 0.070740
0.097626 0.186676 0.072571
0.098419 0.186371 0.074219
0.102753 0.186310 0.072937
0.119263 0.187500 0.068542
0.148407 0.185150 0.065247
0.161865 0.169128 0.067078
0.192078 0.175446 0.071259
0.232635 0.188446 0.073395
0.278534 0.202301 0.074524
0.325531 0.212799 0.074646
0.370270 0.218964 0.075104
0.411346 0.222595 0.076385
0.450012 0.225098 0.078003
0.487183 0.227936 0.080322
0.523773 0.231750 0.083374
0.560120 0.236755 0.087250
0.597198 0.242950 0.091644
0.634460 0.249908 0.096375
0.671173 0.257172 0.101349
0.708466 0.265594 0.106537
0.745941 0.274872 0.111938
0.784363 0.285004 0.117828
0.821289 0.296478 0.123779
0.857483 0.308807 0.130005
0.891754 0.323090 0.136414
0.923401 0.338165 0.142761
0.953003 0.355591 0.149506
0.971741 0.368134 0.154266
0.980103 0.372955 0.156921
0.988617 0.376526 0.158539
0.104156 0.219574 0.089050
0.109436 0.221130 0.090363
0.115509 0.223480 0.092773
0.121033 0.226135 0.095337
0.121887 0.226471 0.097168
0.118958 0.224518 0.097015
0.129364 0.225464 0.092499
0.159515 0.228088 0.083191
0.189423 0.220825 0.080841
0.201416 0.202423 0.082031
0.233093 0.207581 0.084656
0.276398 0.222717 0.087463
0.324524 0.239471 0.089111
0.373016 0.252777 0.090210
0.416565 0.260071 0.090729
0.456390 0.263214 0.091003
0.494476 0.265289 0.092194
0.530487 0.266937 0.093811
0.565491 0.269775 0.096313
0.600830 0.273865 0.099518
0.636322 0.279114 0.103302
0.672424 0.285553 0.107788
0.708832 0.293091 0.112549
0.745483 0.301697 0.117828
0.783478 0.311737 0.123657
0.819824 0.322968 0.129425
0.856689 0.335114 0.135651
0.890442 0.348816 0.142029
0.922150 0.363373 0.148712
0.951233 0.380371 0.155731
0.969879 0.391968 0.160431
0.978027 0.396515 0.162842
0.986420 0.400940 0.164917
0.127808 0.261841 0.112701
0.134186 0.264343 0.114777
0.140350 0.266113 0.117157
0.146332 0.268646 0.120300
0.148285 0.269684 0.122406
0.145203 0.268158 0.122803
0.144318 0.266144 0.119568
0.166870 0.269714 0.109192
0.205688 0.271027 0.093384
0.233826 0.259399 0.097778
0.243652 0.238098 0.097260
0.278748 0.244324 0.099518
0.323669 0.260468 0.102570
0.373016 0.279663 0.105377
0.420105 0.294403 0.106903
0.462982 0.302826 0.106873
0.502533 0.307495 0.107147
0.539001 0.309601 0.107758
0.573303 0.310883 0.108948
0.607086 0.312622 0.110809
0.641113 0.315826 0.113373
0.675842 0.320496 0.116821
0.710815 0.325745 0.120636
0.746338 0.332794 0.125305
0.783051 0.341858 0.130768
0.819061 0.351929 0.136292
0.855896 0.364075 0.142639
0.889374 0.376526 0.148590
0.921295 0.391113 0.155396
0.949493 0.406952 0.162201
0.967834 0.417755 0.167084
0.975922 0.422028 0.169342
0.984070 0.426636 0.171783
0.153809 0.307373 0.139069
0.160339 0.309418 0.141022
0.166992 0.311615 0.143555
0.173126 0.313812 0.146423
0.176788 0.315765 0.148804
0.174774 0.314423 0.149506
0.168915 0.311462 0.147827
0.177307 0.311493 0.141235
0.214844 0.317169 0.120331
0.258728 0.318085 0.112701
0.282898 0.303009 0.117279
0.290619 0.278198 0.114014
0.327271 0.284302 0.116150
0.372437 0.300201 0.119171
0.422150 0.321320 0.122955
0.468170 0.337250 0.124176
0.510071 0.348419 0.124542
0.547882 0.354614 0.124603
0.582397 0.357300 0.124969
0.615601 0.358521 0.125824
0.648407 0.360291 0.127289
0.681732 0.362976 0.129517
0.715118 0.365631 0.132050
0.749023 0.370361 0.135498
0.784241 0.377045 0.139893
0.819458 0.385498 0.144989
0.855072 0.395660 0.150696
0.888550 0.407471 0.156677
0.919678 0.421326 0.163147
0.947174 0.435608 0.169586
0.965546 0.445953 0.174591
0.973450 0.450287 0.176941
0.981384 0.454254 0.179291
0.181824 0.354919 0.166290
0.187286 0.355438 0.167603
0.194153 0.357788 0.170105
0.201233 0.360748 0.173523
0.206299 0.363312 0.176300
0.206360 0.363159 0.177643
0.199493 0.359711 0.176483
0.193420 0.356873 0.172455
0.220825 0.360840 0.158813
0.271118 0.369019 0.139038
0.315643 0.367950 0.135376
0.333984 0.348175 0.137787
0.339050 0.319733 0.131348
0.375061 0.323578 0.132599
0.422485 0.341614 0.137024
0.471405 0.363190 0.140808
0.516022 0.381927 0.142944
0.556152 0.395569 0.143799
0.591949 0.402985 0.143616
0.624847 0.406891 0.143646
0.656860 0.408783 0.144073
0.688934 0.410400 0.145294
0.721161 0.412079 0.147034
0.753540 0.414764 0.149170
0.786743 0.418640 0.152191
0.820587 0.424286 0.156036
0.854492 0.431824 0.160675
0.887665 0.442535 0.166382
0.917755 0.454437 0.172394
0.944458 0.466980 0.178497
0.962921 0.476776 0.183411
0.970612 0.480957 0.185791
0.978455 0.484192 0.187988
0.211395 0.403625 0.194305
0.216858 0.404327 0.195648
0.223358 0.405853 0.198059
0.230865 0.408936 0.201477
0.235962 0.411163 0.203522
0.238068 0.412079 0.205353
0.234039 0.409760 0.205322
0.222260 0.404144 0.201996
0.231018 0.405029 0.195770
0.274384 0.413544 0.172546
0.329193 0.420135 0.154053
0.370758 0.416199 0.157196
0.382568 0.390045 0.156891
0.389252 0.362885 0.149567
0.425201 0.365540 0.150574
0.471893 0.383759 0.155121
0.519287 0.406067 0.160065
0.562164 0.426422 0.162598
0.599915 0.441254 0.163300
0.633911 0.450867 0.163208
0.666046 0.456696 0.163025
0.697235 0.459534 0.163239
0.728088 0.461182 0.164215
0.759369 0.463745 0.165863
0.791168 0.466736 0.168152
0.823059 0.469513 0.170410
0.854889 0.474213 0.173645
0.886810 0.482147 0.178223
0.916168 0.491058 0.183228
0.942261 0.501312 0.188690
0.959991 0.510376 0.193451
0.967438 0.514130 0.195801
0.975159 0.517273 0.198059
0.240479 0.449799 0.221649
0.246887 0.451904 0.223602
0.253540 0.454071 0.225952
0.260651 0.456909 0.228943
0.265320 0.458038 0.230530
0.268524 0.459503 0.232605
0.267273 0.459076 0.233490
0.256989 0.453796 0.231171
0.248230 0.451141 0.227539
0.279541 0.455475 0.210632
0.333466 0.465271 0.184113
0.388550 0.470184 0.172607
0.424347 0.462616 0.180145
0.432892 0.433929 0.176910
0.440826 0.407776 0.168945
0.475433 0.409637 0.169922
0.519928 0.426392 0.174072
0.564636 0.448334 0.179321
0.605774 0.469604 0.182465
0.642242 0.486267 0.183350
0.675201 0.498199 0.183350
0.705811 0.505188 0.182892
0.735657 0.509766 0.183350
0.765472 0.512634 0.184113
0.795837 0.515381 0.185638
0.826416 0.517944 0.187439
0.856201 0.520721 0.189636
0.886139 0.525818 0.192871
0.914337 0.531769 0.196472
0.939392 0.540222 0.201263
0.956696 0.547028 0.205017
0.964050 0.549622 0.207092
0.971405 0.554291 0.210083
0.270355 0.495575 0.249207
0.275787 0.496674 0.250122
0.282440 0.499054 0.252258
0.289520 0.501923 0.255249
0.294952 0.503937 0.257111
0.298706 0.505859 0.259003
0.298767 0.505951 0.260071
0.291962 0.502472 0.259674
0.276367 0.497223 0.256439
0.291595 0.496918 0.246033
0.337280 0.506897 0.220825
0.396271 0.516541 0.197235
0.447418 0.519196 0.194946
0.475555 0.506775 0.202667
0.481049 0.476685 0.196716
0.489929 0.451630 0.188538
0.522614 0.452362 0.189087
0.565857 0.469086 0.193909
0.608002 0.490387 0.198730
0.647644 0.511963 0.202301
0.682404 0.529999 0.203522
0.713989 0.543854 0.204102
0.743500 0.553040 0.204041
0.772003 0.558411 0.203735
0.800720 0.562134 0.204437
0.829773 0.565247 0.205780
0.858154 0.568054 0.207520
0.885834 0.571411 0.209778
0.912323 0.576019 0.212555
0.936188 0.582031 0.216156
0.953003 0.587952 0.219482
0.960236 0.589844 0.221313
0.967377 0.593750 0.223816
0.300964 0.540802 0.276184
0.306122 0.541565 0.277130
0.312439 0.543427 0.278931
0.319397 0.546448 0.281586
0.324646 0.548676 0.283173
0.328674 0.550659 0.284821
0.330109 0.551422 0.286041
0.326721 0.549805 0.286377
0.312622 0.543701 0.285065
0.310883 0.539612 0.277985
0.343048 0.546112 0.258209
0.399384 0.557373 0.228180
0.457581 0.565430 0.209778
0.503967 0.567230 0.219330
0.525604 0.551422 0.225342
0.529388 0.520416 0.217743
0.537109 0.495087 0.208740
0.567963 0.494965 0.208832
0.609344 0.511230 0.213867
0.649323 0.532166 0.218567
0.686127 0.553009 0.222137
0.719574 0.572021 0.224243
0.750580 0.587708 0.225189
0.778839 0.597900 0.224457
0.806091 0.605103 0.224548
0.833435 0.609497 0.224915
0.860229 0.613251 0.226166
0.886078 0.616180 0.227844
0.910461 0.619659 0.229858
0.933228 0.624481 0.232727
0.949280 0.629578 0.235779
0.956268 0.632202 0.237762
0.963348 0.634064 0.239136
0.330688 0.582855 0.302032
0.336182 0.584137 0.303192
0.342377 0.586426 0.304718
0.349457 0.589966 0.306946
0.354248 0.591827 0.308228
0.358337 0.593811 0.309662
0.360687 0.595154 0.310822
0.359131 0.594208 0.311005
0.348480 0.589233 0.311371
0.334106 0.582062 0.306732
0.351837 0.583679 0.293457
0.402405 0.595398 0.265350
0.462494 0.605377 0.237640
0.517944 0.612335 0.231140
0.559082 0.613739 0.246765
0.573242 0.593842 0.247650
0.575104 0.562683 0.238342
0.582153 0.537537 0.229065
0.611359 0.537079 0.228973
0.650696 0.553162 0.234314
0.687714 0.572723 0.238373
0.722351 0.593231 0.242828
0.755493 0.613098 0.245331
0.784821 0.628540 0.245361
0.811432 0.640717 0.245514
0.837646 0.648773 0.245270
0.862640 0.654083 0.245453
0.886688 0.658234 0.246582
0.908813 0.660553 0.247711
0.930298 0.665192 0.250214
0.945862 0.669556 0.252838
0.952637 0.672577 0.254852
0.959564 0.674011 0.255951
0.359436 0.621765 0.326141
0.364960 0.623596 0.326996
0.371155 0.626709 0.328278
0.378143 0.630463 0.330322
0.383270 0.632721 0.331635
0.387360 0.634430 0.332886
0.389984 0.635712 0.333923
0.389404 0.635529 0.334564
0.381683 0.632050 0.335510
0.363800 0.623810 0.333618
0.368225 0.621918 0.324829
0.407898 0.630951 0.301392
0.466125 0.641113 0.269714
0.523285 0.648712 0.247559
0.573883 0.655670 0.256927
0.607788 0.654541 0.271942
0.617493 0.634064 0.269470
0.618347 0.603485 0.259064
0.625885 0.580383 0.250031
0.653717 0.579987 0.250244
0.689331 0.594147 0.254791
0.723694 0.612030 0.258667
0.757019 0.631927 0.263123
0.788818 0.651978 0.265778
0.816193 0.667755 0.266235
0.841766 0.680603 0.266113
0.865509 0.688843 0.265320
0.887848 0.694855 0.265320
0.908356 0.698975 0.266266
0.927917 0.703217 0.268341
0.942902 0.707489 0.270477
0.949463 0.710022 0.272247
0.956177 0.711945 0.273712
0.387421 0.658386 0.348328
0.393066 0.661346 0.348969
0.399353 0.664642 0.350372
0.405701 0.667786 0.351990
0.411072 0.670349 0.353363
0.415466 0.672211 0.354706
0.418213 0.673370 0.355743
0.418457 0.673767 0.356476
0.413208 0.671417 0.357666
0.397675 0.663788 0.357727
0.391937 0.659302 0.352173
0.417053 0.664642 0.333832
0.470947 0.674988 0.303589
0.528564 0.682312 0.272705
0.579407 0.688812 0.263519
0.624542 0.695312 0.283539
0.651459 0.692322 0.295166
0.657654 0.670685 0.290161
0.659241 0.642426 0.279785
0.666534 0.621277 0.270691
0.693726 0.621826 0.271667
0.725586 0.633270 0.274902
0.758514 0.650360 0.279297
0.789307 0.669006 0.283051
0.818878 0.687897 0.285950
0.844421 0.704041 0.286530
0.868256 0.717163 0.286072
0.889404 0.725861 0.285156
0.908966 0.732483 0.285217
0.927002 0.737488 0.286469
0.940735 0.741333 0.288055
0.946991 0.743622 0.289703
0.953430 0.745605 0.291168
0.415619 0.694153 0.369415
0.421143 0.696960 0.369995
0.427155 0.700043 0.371155
0.433228 0.702850 0.372589
0.438751 0.705597 0.374146
0.443268 0.707550 0.375641
0.446228 0.708801 0.376617
0.446808 0.709076 0.376923
0.443268 0.707733 0.377991
0.431396 0.701935 0.378815
0.418152 0.694977 0.376007
0.429321 0.696106 0.363434
0.476471 0.706268 0.337097
0.533386 0.714264 0.304871
0.584503 0.719727 0.281097
0.631775 0.726624 0.287445
0.670197 0.732117 0.309875
0.690857 0.725861 0.316986
0.695282 0.704102 0.310577
0.698120 0.680145 0.301117
0.704865 0.660126 0.291473
0.730499 0.660522 0.292419
0.760437 0.671051 0.295776
0.790924 0.687073 0.300018
0.819794 0.704102 0.303162
0.846344 0.721924 0.305939
0.869934 0.737823 0.306580
0.890564 0.749847 0.305298
0.908875 0.758636 0.304504
0.926331 0.765717 0.304535
0.939026 0.770111 0.305542
0.945038 0.771973 0.307007
0.951172 0.773743 0.308044
0.444092 0.728394 0.389862
0.449005 0.730347 0.389862
0.454865 0.733093 0.390747
0.461426 0.736664 0.392456
0.466766 0.739014 0.394073
0.471466 0.740814 0.395721
0.474731 0.742004 0.396667
0.475708 0.742371 0.397125
0.472839 0.741089 0.397797
0.462891 0.736755 0.398956
0.446350 0.729156 0.398224
0.445740 0.726593 0.389160
0.484039 0.735321 0.367371
0.538879 0.744263 0.337982
0.590027 0.749176 0.307739
0.637085 0.754181 0.294586
0.679657 0.761444 0.314026
0.712250 0.765442 0.334778
0.728027 0.757019 0.338745
0.731323 0.736664 0.331573
0.734741 0.716217 0.322662
0.740906 0.696930 0.312714
0.764618 0.697021 0.313324
0.792114 0.706696 0.316803
0.820709 0.721039 0.320374
0.847198 0.737549 0.323334
0.871307 0.753906 0.325836
0.891724 0.767578 0.325623
0.909546 0.779175 0.324371
0.925751 0.788239 0.323608
0.938110 0.793396 0.323730
0.943878 0.795105 0.325134
0.949799 0.796539 0.325989
0.472626 0.760437 0.409210
0.477509 0.762238 0.409149
0.483093 0.764557 0.409821
0.489197 0.767212 0.411316
0.495026 0.769653 0.413025
0.499908 0.771545 0.414917
0.503387 0.772583 0.416077
0.504669 0.772827 0.416473
0.502502 0.771790 0.417511
0.494385 0.768768 0.418762
0.478210 0.762177 0.418701
0.469513 0.757202 0.412689
0.494507 0.763000 0.395508
0.545074 0.772034 0.370575
0.596710 0.777527 0.340973
0.642761 0.780670 0.314240
0.684906 0.785858 0.314087
0.722198 0.792572 0.340088
0.751038 0.795258 0.358704
0.762390 0.785217 0.360138
0.765228 0.766724 0.352295
0.768677 0.748688 0.343170
0.774872 0.731079 0.333649
0.796906 0.731689 0.334656
0.822998 0.740631 0.337799
0.847748 0.753052 0.340637
0.871613 0.767944 0.342926
0.892914 0.782349 0.344879
0.910980 0.795258 0.344849
0.926422 0.806061 0.343872
0.938141 0.812225 0.343079
0.943817 0.813782 0.344482
0.949432 0.815521 0.345795
0.501953 0.790039 0.427582
0.506927 0.791840 0.427826
0.512054 0.793427 0.428711
0.517975 0.795349 0.430115
0.524323 0.797760 0.432373
0.529785 0.799744 0.434753
0.533417 0.800842 0.436279
0.534149 0.800385 0.436096
0.532196 0.799377 0.436737
0.526794 0.797791 0.438049
0.513550 0.793121 0.438751
0.499176 0.787292 0.434906
0.508972 0.788574 0.421753
0.554016 0.797455 0.399658
0.604858 0.803467 0.373138
0.650848 0.806671 0.343658
0.690247 0.809479 0.325012
0.727631 0.814606 0.338379
0.761139 0.820709 0.365143
0.786285 0.821777 0.381958
0.794861 0.811401 0.381683
0.797699 0.795563 0.373840
0.799316 0.777130 0.363129
0.806671 0.763000 0.354736
0.826569 0.763428 0.355591
0.850891 0.771912 0.358612
0.872223 0.782349 0.360443
0.893555 0.795593 0.362915
0.911652 0.808929 0.364655
0.927185 0.819763 0.364349
0.938110 0.826447 0.363342
0.943634 0.827881 0.364441
0.949097 0.829498 0.365997
0.532806 0.816925 0.446716
0.537872 0.818695 0.447083
0.543060 0.820129 0.448242
0.548798 0.821594 0.450165
0.555237 0.823975 0.452606
0.560852 0.825958 0.455017
0.564240 0.826782 0.456299
0.565247 0.826691 0.456238
0.563782 0.825714 0.456329
0.559601 0.824524 0.457520
0.548615 0.821167 0.458710
0.532013 0.815399 0.456970
0.528107 0.813019 0.446930
0.564178 0.820587 0.427704
0.614807 0.827820 0.403931
0.660126 0.830841 0.376770
0.699951 0.832886 0.350464
0.735535 0.835815 0.343292
0.769470 0.841553 0.366730
0.798584 0.846710 0.391632
0.818054 0.845612 0.404694
0.824768 0.836029 0.403503
0.827118 0.821838 0.395233
0.829620 0.805573 0.384857
0.836060 0.792877 0.376404
0.853058 0.791687 0.375793
0.874359 0.799438 0.378357
0.894073 0.808838 0.380859
0.912842 0.821289 0.382996
0.927643 0.831696 0.384399
0.938354 0.838287 0.383942
0.943787 0.839355 0.384521
0.949158 0.840942 0.386078
0.564545 0.841492 0.466370
0.568542 0.842346 0.466309
0.574249 0.844025 0.467560
0.580627 0.845978 0.470184
0.587158 0.848267 0.472443
0.592560 0.849854 0.474701
0.595917 0.850616 0.475830
0.597046 0.850555 0.475830
0.596222 0.850006 0.476440
0.592407 0.848724 0.477203
0.583313 0.846008 0.478271
0.566650 0.840759 0.477570
0.554626 0.836609 0.471252
0.577667 0.841675 0.455139
0.624634 0.849579 0.433472
0.670532 0.853760 0.409790
0.709473 0.855042 0.383392
0.743347 0.855835 0.361450
0.775238 0.858917 0.363983
0.806030 0.864960 0.393219
0.831268 0.869110 0.416748
0.847260 0.867920 0.428040
0.852814 0.858765 0.425659
0.853638 0.844574 0.415588
0.856537 0.830688 0.406281
0.860779 0.818207 0.396210
0.877716 0.818146 0.396454
0.896057 0.824524 0.398773
0.913635 0.833832 0.401367
0.928680 0.843353 0.403534
0.938782 0.849792 0.404541
0.944183 0.850372 0.404358
0.949341 0.851715 0.405823
0.596405 0.863373 0.485352
0.601074 0.864655 0.485992
0.606506 0.866150 0.487671
0.612823 0.868042 0.490112
0.618652 0.869659 0.492310
0.623199 0.870667 0.494110
0.626404 0.871216 0.495178
0.628784 0.871765 0.495911
0.628876 0.871826 0.496338
0.625610 0.870789 0.497345
0.617828 0.868530 0.498199
0.603882 0.864441 0.498077
0.589050 0.859924 0.493927
0.597198 0.861328 0.481903
0.636627 0.868622 0.462341
0.680328 0.873627 0.440369
0.719727 0.875610 0.417542
0.753448 0.875977 0.393097
0.782532 0.876373 0.377014
0.810760 0.879578 0.388702
0.838226 0.885406 0.418854
0.860321 0.889465 0.441437
0.874359 0.888397 0.452026
0.877899 0.879486 0.448090
