lut_library/店主推荐/709电影感（青橙+增强对比）.cube
# 版权归凌孟成所有，侵权必究
TITLE "LC_Terra_05"
#Input: Rec.709 Gamma 2.4
#Output: Rec.709 Gamma 2.4
#Created by: Evan Schneider of LUT Co
#Copyright: (c) Copyright LUT Co 2022
#Website: https://www.lutco.co
LUT_3D_SIZE 33
0.0171359 0.014786 0.011368
0.0241703 0.0150149 0.0106661
0.0340124 0.0145266 0.00877394
0.0468299 0.0133211 0.00573739
0.0631113 0.0114748 0.00154116
0.0832227 0.00895705 0
0.107378 0.00587472 0
0.135393 0.0021973 0
0.166888 0 0
0.201343 0 0
0.238056 0 0
0.275441 0 0
0.312078 0 0
0.346654 0 0
0.378622 0 0
0.40766 0 0
0.433936 0 0
0.457969 0 0
0.480247 0 0
0.501228 0 0
0.52134 0 0
0.54081 0 0
0.559182 0 0
0.576547 0 0
0.59324 0 0
0.609476 0 0
0.625345 0 0
0.640635 0.00454719 0
0.655116 0.0105135 0
0.669261 0.0169985 0
0.683162 0.024094 0
0.696788 0.0317082 0
0.710689 0.0396582 0
0.018677 0.0218509 0.012192
0.0259556 0.0221256 0.0127565
0.0357519 0.0222782 0.0119326
0.0488289 0.0219425 0.0096437
0.0655222 0.0208438 0.00611887
0.0860609 0.0189364 0.00123598
0.110521 0.0164187 0
0.139101 0.0134585 0
0.171588 0.0102388 0
0.206958 0.00654612 0
0.244327 0.00265507 0
0.282506 0 0
0.320195 0 0
0.356207 0 0
0.389487 0 0
0.419257 0 0
0.446372 0 0
0.471443 0 0
0.494911 0 0
0.516945 0 0
0.537972 0 0
0.558053 0.00132753 0
0.577386 0.00544747 0
0.595956 0.0101472 0
0.613657 0.0151675 0
0.630732 0.020737 0
0.64744 0.0270085 0
0.663615 0.0337224 0
0.679301 0.0408789 0
0.694408 0.0482795 0
0.70901 0.0560616 0
0.723735 0.0647746 0
0.738415 0.073518 0
0.0201267 0.0312505 0.012314
0.0279545 0.0322881 0.0137942
0.0384833 0.0327001 0.0146334
0.051606 0.0328374 0.0138552
0.0683299 0.0326085 0.0112001
0.0891585 0.0317235 0.00723278
0.114046 0.0300755 0.00195315
0.143145 0.0279393 0
0.17612 0.0254063 0
0.212421 0.0227817 0
0.250935 0.0201267 0
0.290181 0.0175021 0
0.328832 0.015198 0
0.366247 0.0137331 0
0.40061 0.0128481 0
0.431785 0.012665 0
0.460014 0.0133059 0
0.485924 0.0148318 0
0.510567 0.0175784 0
0.533745 0.0208896 0
0.555795 0.0247501 0
0.576745 0.0289921 0
0.596765 0.033814 0
0.616205 0.0393835 0
0.635355 0.0458534 0
0.653483 0.05243 0
0.670817 0.0593271 0
0.687648 0.0666972 0
0.704204 0.0746624 0
0.720485 0.0832685 0
0.736355 0.0923171 0
0.751431 0.101366 0.00184634
0.766659 0.110674 0.0104219
0.021622 0.0433967 0.0120089
0.0298009 0.0452583 0.0139315
0.0409705 0.0464332 0.0159152
0.0551461 0.0469215 0.0169985
0.0721752 0.0471046 0.0162966
0.0929122 0.0471809 0.0136873
0.11809 0.0467842 0.00955215
0.147601 0.045716 0.00415045
0.181048 0.0441138 0
0.217914 0.0423743 0
0.257328 0.0408026 0
0.2981 0.0397345 0
0.338369 0.0387427 0
0.376547 0.038056 0
0.412039 0.0379492 0
0.444511 0.0386206 0
0.47425 0.0403601 0
0.501762 0.0431983 0
0.527031 0.0464179 0
0.551003 0.0504158 0
0.574136 0.0551919 0
0.596216 0.0606394 0
0.617288 0.0664988 0
0.637766 0.0730907 0
0.657313 0.0799573 0
0.676356 0.0874647 0
0.694804 0.0954452 0
0.712551 0.103716 0
0.729824 0.112398 0.00636301
0.746868 0.121782 0.0148013
0.763287 0.13135 0.0235294
0.779263 0.141283 0.0327001
0.795163 0.151278 0.0419776
0.0231479 0.0587015 0.0111391
0.0316014 0.0611734 0.0135042
0.0431067 0.0632334 0.0159152
0.0581674 0.0646372 0.0184787
0.076585 0.0654307 0.0200504
0.0978714 0.065919 0.0196689
0.122942 0.0662089 0.0171969
0.152468 0.0663615 0.0130465
0.18645 0.0661936 0.00794995
0.223972 0.0657359 0.00215152
0.26421 0.0654154 0
0.305821 0.0653239 0
0.347402 0.0656443 0
0.387152 0.0664225 0
0.424109 0.0674296 0
0.45774 0.0688182 0
0.48896 0.0715648 0
0.517601 0.0751049 0
0.544213 0.0794537 0
0.569253 0.0843061 0
0.593011 0.0897688 0
0.61622 0.0963149 0
0.638315 0.103197 0
0.659541 0.110506 0
0.679866 0.118151 0.00509651
0.699474 0.126223 0.0118105
0.718578 0.134844 0.0191958
0.737636 0.144381 0.0275731
0.755581 0.153826 0.035996
0.772915 0.163485 0.0447242
0.789746 0.173465 0.0538796
0.806165 0.183825 0.0634928
0.822705 0.194491 0.0734417
0.0246433 0.0775006 0.00961318
0.0336614 0.0807202 0.0126955
0.0453956 0.0834821 0.0154421
0.0608835 0.0859083 0.018616
0.0800641 0.0875563 0.0217594
0.102953 0.0885634 0.0237583
0.128771 0.0893416 0.0237125
0.158526 0.090135 0.0217746
0.192584 0.0912795 0.0183566
0.230716 0.0925612 0.0142061
0.27158 0.0937057 0.00962844
0.314122 0.0948348 0.00497444
0.35642 0.0963455 0.000976577
0.397436 0.0983444 0
0.436301 0.101015 0
0.471702 0.103731 0
0.503838 0.106859 0
0.533486 0.110979 0
0.561242 0.116106 0
0.587533 0.121996 0.00256352
0.61265 0.128771 0.00740063
0.636255 0.135668 0.0125124
0.65893 0.143114 0.0182803
0.680873 0.151141 0.0247654
0.702068 0.15967 0.0318608
0.722423 0.168505 0.0393835
0.742473 0.178058 0.047715
0.761486 0.187579 0.0561227
0.779934 0.197498 0.0650492
0.797833 0.207752 0.074403
0.815122 0.218189 0.0840162
0.831891 0.228885 0.0939956
0.848875 0.24004 0.104433
0.0256352 0.0995041 0.00695811
0.0355993 0.103777 0.0110628
0.048188 0.107698 0.0148165
0.0636454 0.11078 0.0181277
0.0830854 0.113222 0.0217746
0.106783 0.115129 0.0254978
0.134524 0.116503 0.0280766
0.16527 0.117998 0.0287938
0.199939 0.119783 0.0280308
0.238056 0.122026 0.0257267
0.279423 0.124758 0.0228122
0.322744 0.127733 0.0198978
0.366018 0.130831 0.0173037
0.408225 0.134279 0.0155032
0.448142 0.137957 0.0145113
0.484977 0.141802 0.0143587
0.518624 0.145998 0.0152285
0.549554 0.150927 0.0174105
0.578317 0.156573 0.0207523
0.605707 0.16347 0.0256352
0.631388 0.170687 0.0310216
0.655879 0.178408 0.0370794
0.67921 0.186496 0.043595
0.701595 0.19498 0.0506142
0.723583 0.204303 0.0585794
0.744549 0.213748 0.0667735
0.764736 0.223423 0.075288
0.7841 0.233356 0.0841535
0.802747 0.243519 0.0933547
0.820813 0.253925 0.102892
0.838758 0.265049 0.113222
0.855634 0.275898 0.123384
0.872328 0.286778 0.133577
0.0266728 0.125154 0.00370794
0.0374151 0.130297 0.00865187
0.0505684 0.135042 0.0131685
0.0667277 0.139315 0.0173648
0.0864576 0.142763 0.0213931
0.110475 0.145495 0.0258335
0.139269 0.147997 0.030457
0.171954 0.149828 0.0337224
0.20734 0.152056 0.0352331
0.24625 0.154818 0.0356756
0.288167 0.158465 0.0350958
0.331868 0.163073 0.034287
0.376242 0.168231 0.0337377
0.419409 0.173205 0.0333715
0.460258 0.178103 0.0334478
0.498146 0.182956 0.0341802
0.532906 0.187976 0.0357824
0.565393 0.194003 0.0390173
0.595483 0.200656 0.0433967
0.623255 0.207691 0.0485237
0.649454 0.21532 0.0544442
0.674495 0.223514 0.0610666
0.698436 0.232181 0.0682841
0.721691 0.241535 0.0762798
0.743725 0.250919 0.0843977
0.764843 0.260502 0.0927749
0.785153 0.270375 0.101564
0.804715 0.280522 0.110704
0.823545 0.290883 0.12015
0.84213 0.301854 0.130266
0.859571 0.312474 0.140154
0.876341 0.323232 0.150225
0.892882 0.334005 0.160357
0.0281682 0.154742 0.00030518
0.0393683 0.160388 0.00575265
0.0529946 0.165774 0.0109102
0.0696727 0.170916 0.0158236
0.0899977 0.175601 0.0206302
0.114748 0.179782 0.0258488
0.143725 0.18294 0.0312352
0.177157 0.185595 0.0362707
0.214557 0.187976 0.0403143
0.254307 0.191165 0.0428626
0.297032 0.195361 0.0450294
0.341543 0.200855 0.046891
0.386267 0.206973 0.0482643
0.430228 0.213519 0.0497749
0.472206 0.220096 0.0515602
0.511208 0.226337 0.0535744
0.547127 0.232471 0.0562753
0.580484 0.239033 0.0599832
0.611154 0.246128 0.0648051
0.639796 0.253803 0.070634
0.666651 0.261921 0.0771496
0.692058 0.27042 0.0841993
0.716686 0.279774 0.0922103
0.739834 0.289006 0.100191
0.76199 0.298528 0.108537
0.783261 0.308278 0.117174
0.803586 0.318227 0.126101
0.823407 0.328679 0.135607
0.842222 0.339055 0.145113
0.860212 0.349462 0.154726
0.877531 0.360006 0.164553
0.894148 0.370611 0.174502
0.910384 0.381125 0.184421
0.0295567 0.18706 0
0.0416876 0.193729 0.00277714
0.0560464 0.199985 0.00875868
0.0731365 0.205783 0.0142519
0.0940414 0.211505 0.019852
0.118822 0.216434 0.0252232
0.148302 0.220783 0.0312047
0.182376 0.224552 0.0376287
0.220661 0.227771 0.0435035
0.262776 0.231174 0.0487373
0.305592 0.235431 0.0524453
0.350515 0.240864 0.0561837
0.395987 0.247395 0.0598917
0.440665 0.25478 0.0635386
0.483543 0.262562 0.0673075
0.523903 0.270497 0.071397
0.560754 0.277638 0.0751659
0.594568 0.284794 0.0794995
0.625818 0.292378 0.0848249
0.655009 0.30042 0.0911269
0.682536 0.309102 0.0983139
0.708537 0.318181 0.106081
0.732952 0.327276 0.113939
0.756161 0.336599 0.122133
0.778332 0.346105 0.130541
0.799435 0.35581 0.139223
0.819959 0.366003 0.14847
0.839475 0.376196 0.157778
0.857969 0.386297 0.167071
0.875639 0.396414 0.176455
0.892546 0.406577 0.185946
0.908827 0.416861 0.195621
0.925124 0.427527 0.205707
0.0317998 0.222263 0
0.0445563 0.229603 0
0.060029 0.237064 0.00715648
0.0778668 0.243809 0.0135653
0.0988174 0.249912 0.0193942
0.123629 0.255467 0.0250248
0.153079 0.260563 0.0310369
0.18761 0.265339 0.0381018
0.227176 0.27013 0.0459297
0.269688 0.274113 0.0527047
0.314458 0.277974 0.0585184
0.359213 0.283162 0.0632792
0.404944 0.28957 0.068452
0.450248 0.297093 0.073991
0.494102 0.305516 0.0799268
0.53492 0.313771 0.0853742
0.572625 0.321721 0.0906386
0.607156 0.329656 0.0962234
0.639139 0.337881 0.10248
0.668971 0.346532 0.109545
0.696895 0.35555 0.117205
0.72282 0.364508 0.124971
0.747265 0.373648 0.133013
0.77052 0.383017 0.14136
0.792599 0.392538 0.149889
0.814054 0.402533 0.159075
0.833951 0.412161 0.167849
0.852949 0.421897 0.176791
0.871153 0.431769 0.185916
0.888548 0.441657 0.195132
0.905333 0.451759 0.204593
0.921263 0.461707 0.213962
0.936568 0.471473 0.223194
0.0358282 0.260197 0
0.0493324 0.26833 0
0.0649424 0.27602 0.00631724
0.0832685 0.283375 0.0133516
0.104723 0.290272 0.0198672
0.129763 0.296513 0.0259403
0.159091 0.302113 0.0319829
0.193835 0.307713 0.0391852
0.233265 0.312932 0.0472725
0.276417 0.318029 0.0556191
0.322087 0.322744 0.0632029
0.368765 0.327382 0.0699168
0.414466 0.33373 0.0760967
0.459525 0.340688 0.0823987
0.503182 0.34847 0.0890822
0.544579 0.356603 0.0958267
0.582803 0.364782 0.102541
0.618021 0.373098 0.109392
0.650935 0.381994 0.117006
0.681071 0.390738 0.124651
0.709087 0.399695 0.132662
0.735256 0.408789 0.140902
0.759762 0.417929 0.149233
0.783078 0.427268 0.157763
0.805219 0.436912 0.166613
0.826017 0.446387 0.175311
0.845716 0.455848 0.184039
0.864347 0.465278 0.192752
0.882048 0.474678 0.201495
0.899184 0.484367 0.210544
0.915557 0.494072 0.219669
0.930922 0.503517 0.228595
0.945663 0.512795 0.237369
0.0421912 0.300282 0
0.0560311 0.308812 0
0.0719615 0.316915 0.00761425
0.0904707 0.324605 0.0149386
0.112078 0.331853 0.0217594
0.137575 0.338903 0.0284886
0.166949 0.345098 0.0347753
0.201083 0.350652 0.0413214
0.24007 0.35613 0.0491646
0.283406 0.361791 0.0581674
0.329488 0.367346 0.0670939
0.377325 0.373037 0.0757458
0.424475 0.378271 0.0832685
0.468925 0.384619 0.0898451
0.512215 0.391669 0.096849
0.553384 0.399222 0.104143
0.591669 0.40705 0.11162
0.627619 0.415579 0.119768
0.660594 0.424002 0.127901
0.69099 0.432624 0.136172
0.719188 0.441413 0.14464
0.74551 0.450401 0.153277
0.770306 0.459556 0.162051
0.793744 0.468986 0.171008
0.815381 0.478019 0.179553
0.835828 0.487098 0.188113
0.855253 0.496269 0.19675
0.873671 0.505455 0.205386
0.891417 0.514916 0.214328
0.90782 0.523888 0.222782
0.923461 0.53283 0.231266
0.938354 0.541863 0.239841
0.952712 0.550805 0.248356
0.0509499 0.341466 0
0.065095 0.350362 0.00326543
0.0813611 0.358907 0.0115053
0.100084 0.366949 0.0191348
0.121965 0.374701 0.0263981
0.147082 0.381674 0.032929
0.176181 0.38793 0.0390326
0.209735 0.393698 0.0452888
0.248142 0.399268 0.0525978
0.291188 0.405081 0.0614786
0.337789 0.411475 0.071519
0.385367 0.417288 0.0807813
0.432959 0.422812 0.0894179
0.479103 0.42829 0.0974441
0.521859 0.434638 0.104494
0.562707 0.44184 0.112291
0.600641 0.448981 0.119966
0.636072 0.456565 0.128069
0.669047 0.464576 0.136599
0.699611 0.472847 0.145342
0.727825 0.481224 0.154116
0.754559 0.490105 0.163333
0.779156 0.498772 0.172107
0.802182 0.507561 0.180865
0.823774 0.51635 0.189532
0.843976 0.525048 0.198016
0.86305 0.533745 0.206455
0.881331 0.542718 0.215106
0.89839 0.551431 0.223484
0.914549 0.560082 0.231785
0.929717 0.568551 0.239933
0.944015 0.576959 0.248005
0.957946 0.585489 0.256229
0.0629435 0.383871 0.00132753
0.0771801 0.39292 0.010132
0.0936141 0.401755 0.0186007
0.11249 0.410117 0.0265049
0.133989 0.41767 0.0335393
0.158755 0.424582 0.0398566
0.187396 0.430793 0.0456855
0.220233 0.436439 0.0514992
0.258015 0.442054 0.0582895
0.30042 0.447791 0.0666056
0.346349 0.45388 0.0762798
0.393942 0.459998 0.0862135
0.441459 0.465782 0.095552
0.487938 0.471199 0.10428
0.532311 0.476875 0.112795
0.572122 0.483024 0.120195
0.609628 0.489601 0.127962
0.644648 0.496513 0.13608
0.677211 0.503761 0.144518
0.707515 0.511376 0.153277
0.73608 0.519677 0.162554
0.762356 0.527687 0.171389
0.786618 0.535729 0.180056
0.809247 0.543801 0.188556
0.830594 0.552056 0.197116
0.850736 0.560403 0.205646
0.869825 0.568933 0.214191
0.887388 0.577035 0.222248
0.903944 0.585122 0.230213
0.919707 0.593256 0.238193
0.934569 0.601373 0.246128
0.948806 0.609659 0.254231
0.96202 0.617456 0.26183
0.0776837 0.426551 0.0112306
0.0921645 0.43592 0.0203098
0.108583 0.444892 0.0288701
0.127047 0.45301 0.0364691
0.148196 0.460441 0.0432746
0.172549 0.467155 0.0492714
0.200504 0.473167 0.0547341
0.232822 0.478828 0.0602731
0.269535 0.484001 0.0661479
0.310658 0.489082 0.0732586
0.355703 0.494713 0.0822309
0.402975 0.500801 0.0922713
0.450401 0.506737 0.102113
0.497154 0.512596 0.111696
0.5411 0.517708 0.120317
0.582086 0.522744 0.128542
0.618982 0.528618 0.136187
0.653544 0.534981 0.144259
0.686 0.541894 0.152911
0.715846 0.548791 0.161395
0.743618 0.555901 0.16997
0.769543 0.563302 0.178607
0.793622 0.57084 0.187182
0.816037 0.578363 0.195499
0.837247 0.586236 0.203967
0.85684 0.593851 0.212009
0.875273 0.601511 0.219989
0.892607 0.609186 0.227863
0.908827 0.616739 0.235538
0.924056 0.624231 0.243091
0.93872 0.631983 0.250889
0.952285 0.639506 0.25835
0.965148 0.646891 0.265675
0.0949416 0.469032 0.0240635
0.109071 0.478187 0.0328985
0.125048 0.486854 0.0410925
0.143282 0.494926 0.0485695
0.164157 0.502281 0.0551919
0.188128 0.508965 0.0610208
0.215625 0.514961 0.0662699
0.24686 0.520012 0.0709544
0.282429 0.524666 0.0759136
0.322408 0.529229 0.0820172
0.366308 0.534234 0.0899367
0.412879 0.539971 0.0995499
0.460151 0.5458 0.109545
0.50605 0.551278 0.119066
0.549798 0.556374 0.128069
0.590875 0.561181 0.136675
0.628748 0.565957 0.144915
0.662913 0.571786 0.152941
0.694636 0.57789 0.161105
0.724056 0.584146 0.169329
0.751415 0.590555 0.177523
0.776699 0.597147 0.185672
0.800351 0.603998 0.19379
0.822782 0.611322 0.202182
0.843381 0.618341 0.210056
0.862531 0.625299 0.217685
0.880461 0.632273 0.225177
0.897383 0.639338 0.232624
0.913298 0.646448 0.240024
0.92842 0.653727 0.247501
0.942245 0.660594 0.254505
0.955215 0.667399 0.261418
0.967514 0.674235 0.268299
0.113497 0.509957 0.0387579
0.127413 0.51899 0.0474098
0.143008 0.527428 0.055314
0.160754 0.535225 0.0624247
0.181292 0.542458 0.0688029
0.204868 0.549126 0.0744793
0.23151 0.55465 0.0790875
0.261875 0.559365 0.0831464
0.296376 0.563485 0.0872816
0.335164 0.567498 0.0923781
0.378119 0.572106 0.0994736
0.423804 0.577234 0.108278
0.470176 0.582483 0.117769
0.515373 0.587579 0.127123
0.55874 0.592508 0.136248
0.599603 0.597208 0.145068
0.637919 0.602075 0.153933
0.672663 0.606607 0.162112
0.703609 0.611811 0.169696
0.73257 0.617411 0.177508
0.759503 0.623331 0.185412
0.784604 0.629572 0.193408
0.807782 0.635767 0.201053
0.829328 0.642023 0.20856
0.849546 0.648463 0.216037
0.868391 0.654963 0.223362
0.885954 0.661402 0.230457
0.902647 0.66804 0.237659
0.917983 0.674495 0.244526
0.932448 0.680995 0.251347
0.945983 0.687449 0.258061
0.958556 0.693782 0.264591
0.970336 0.700023 0.27097
0.132982 0.549294 0.054902
0.146624 0.558068 0.0632486
0.161868 0.566323 0.0709087
0.179553 0.574228 0.0780041
0.199283 0.580957 0.083772
0.221881 0.586938 0.0886854
0.247837 0.592203 0.0928359
0.27747 0.596658 0.0964065
0.311116 0.600473 0.0999313
0.348943 0.60415 0.10428
0.390372 0.607797 0.109987
0.435004 0.612131 0.117708
0.480491 0.616983 0.126741
0.525185 0.62179 0.135958
0.568124 0.626505 0.145083
0.608667 0.631083 0.153994
0.646387 0.635416 0.162554
0.68127 0.639704 0.170886
0.713085 0.644007 0.178805
0.74139 0.648844 0.186038
0.767834 0.654231 0.193576
0.792432 0.659846 0.201007
0.815167 0.665461 0.208225
0.83624 0.671122 0.215228
0.855879 0.676844 0.22211
0.874266 0.682719 0.228931
0.891768 0.688945 0.23592
0.907835 0.694911 0.242527
0.922713 0.700771 0.24892
0.936614 0.70663 0.255192
0.949706 0.712551 0.261448
0.961975 0.718486 0.267659
0.973632 0.724559 0.273945
0.15317 0.586984 0.0721294
0.166323 0.5953 0.0799725
0.181384 0.60351 0.087541
0.19826 0.610758 0.0939193
0.217456 0.617243 0.0993515
0.239338 0.622843 0.103761
0.264393 0.627604 0.107225
0.293202 0.631678 0.110216
0.326177 0.63537 0.113344
0.362768 0.638376 0.11667
0.403128 0.641382 0.121324
0.446357 0.644938 0.127932
0.490913 0.649195 0.136233
0.53521 0.653864 0.145357
0.577798 0.658412 0.154452
0.617685 0.662486 0.163012
0.654887 0.666423 0.171313
0.689433 0.67039 0.179446
0.721462 0.674403 0.187381
0.750713 0.678782 0.195148
0.776394 0.68333 0.201907
0.800259 0.68809 0.208621
0.822553 0.693202 0.215366
0.843305 0.698421 0.222004
0.862699 0.703822 0.228626
0.880674 0.709163 0.234989
0.897429 0.714504 0.241199
0.913054 0.719966 0.247364
0.927611 0.725444 0.253422
0.941146 0.730846 0.259312
0.953918 0.736385 0.265248
0.965728 0.741802 0.270985
0.976806 0.747219 0.276677
0.173419 0.622751 0.0897841
0.186557 0.631052 0.0975814
0.200687 0.638422 0.10425
0.216815 0.645151 0.110079
0.235401 0.65124 0.115053
0.256733 0.656565 0.119081
0.281422 0.661311 0.122408
0.309255 0.664851 0.124712
0.340932 0.66775 0.126818
0.376593 0.670329 0.129396
0.416037 0.672877 0.133227
0.458137 0.675929 0.138979
0.501869 0.679744 0.146624
0.545281 0.683757 0.155062
0.587182 0.687831 0.163714
0.626764 0.691752 0.172198
0.663584 0.695445 0.180316
0.697826 0.699092 0.18819
0.72961 0.702907 0.195972
0.758556 0.70663 0.203342
0.784939 0.710521 0.210239
0.808377 0.714778 0.216495
0.830076 0.719173 0.222614
0.850401 0.723949 0.22884
0.869459 0.728908 0.235035
0.887068 0.733745 0.240955
0.903319 0.738582 0.246693
0.918425 0.74345 0.252323
0.932555 0.748425 0.257923
0.945968 0.753628 0.263661
0.958282 0.758663 0.269139
0.969635 0.763561 0.274403
0.980209 0.768444 0.279576
0.193591 0.656733 0.107622
0.206012 0.664302 0.114656
0.219699 0.671366 0.121019
0.235264 0.677684 0.126406
0.253117 0.683238 0.1308
0.274022 0.68838 0.1346
0.297749 0.6925 0.137194
0.324926 0.69575 0.139055
0.355703 0.698222 0.140536
0.390433 0.700191 0.14229
0.428656 0.70222 0.145281
0.470008 0.705013 0.150423
0.512657 0.70811 0.157107
0.555291 0.71162 0.164904
0.596536 0.715221 0.173098
0.63563 0.718822 0.181277
0.672236 0.722423 0.189303
0.706416 0.725948 0.197101
0.737469 0.729213 0.204318
0.766079 0.73254 0.211231
0.792386 0.735988 0.217929
0.816388 0.739651 0.224292
0.837995 0.743877 0.230259
0.85774 0.747951 0.235828
0.876127 0.752148 0.241337
0.893339 0.756603 0.24683
0.909285 0.76109 0.252247
0.924163 0.765682 0.257618
0.937957 0.77023 0.262852
0.950698 0.774746 0.267918
0.962646 0.779339 0.272984
0.973739 0.783932 0.277974
0.983978 0.788449 0.282826
0.213031 0.688579 0.124987
0.224903 0.695552 0.131426
0.238041 0.702159 0.137331
0.253147 0.708171 0.142397
0.270756 0.713664 0.146715
0.290669 0.718029 0.149676
0.313588 0.721599 0.15169
0.340017 0.724468 0.153079
0.370184 0.726635 0.154086
0.404318 0.728496 0.155535
0.441444 0.729976 0.157702
0.481422 0.731838 0.161608
0.523217 0.734432 0.167529
0.565209 0.737575 0.174823
0.605982 0.740902 0.182666
0.644739 0.74432 0.190631
0.680934 0.747463 0.198199
0.714443 0.750591 0.205554
0.745296 0.753689 0.212528
0.773602 0.75671 0.21915
0.799649 0.759823 0.225498
0.823697 0.76318 0.231724
0.845502 0.766583 0.237476
0.864958 0.770321 0.242725
0.883024 0.77409 0.247791
0.899672 0.777935 0.252781
0.915236 0.78204 0.257801
0.92987 0.786328 0.262867
0.943267 0.790463 0.267689
0.955657 0.794553 0.272374
0.967147 0.798657 0.276967
0.977859 0.802838 0.281559
0.987961 0.807172 0.286244
0.231785 0.718532 0.141863
0.243259 0.725078 0.14786
0.25594 0.731319 0.153429
0.270527 0.736873 0.158068
0.287343 0.741726 0.16173
0.306752 0.745785 0.164385
0.329046 0.748974 0.165988
0.354681 0.751324 0.166796
0.38436 0.753231 0.167437
0.417395 0.754543 0.168185
0.453742 0.755688 0.169757
0.492805 0.757031 0.172885
0.533593 0.758999 0.17792
0.574823 0.761639 0.184527
0.615351 0.764904 0.192218
0.65359 0.76788 0.19968
0.689372 0.770703 0.206912
0.722347 0.77348 0.213794
0.75285 0.776272 0.220447
0.780972 0.779141 0.226871
0.806928 0.782132 0.233082
0.830549 0.78497 0.238788
0.852186 0.787884 0.244205
0.872023 0.791012 0.249393
0.889754 0.794491 0.25417
0.90631 0.798199 0.259007
0.921416 0.801755 0.263523
0.935439 0.805386 0.267979
0.948455 0.809155 0.272435
0.960647 0.813016 0.27686
0.971908 0.816876 0.281224
0.982345 0.820722 0.285512
0.991958 0.824506 0.289662
0.249592 0.746456 0.157977
0.260914 0.752804 0.163775
0.273091 0.758618 0.168917
0.286992 0.763622 0.172992
0.303151 0.767926 0.176135
0.321996 0.771572 0.178393
0.343832 0.774456 0.179721
0.369207 0.776715 0.180392
0.397818 0.777981 0.180316
0.429969 0.778775 0.180407
0.465507 0.779492 0.181384
0.503822 0.780484 0.183917
0.544076 0.782223 0.188495
0.584573 0.784375 0.19443
0.624201 0.786938 0.201266
0.662181 0.789624 0.208408
0.697536 0.792309 0.215366
0.730236 0.794858 0.221988
0.760525 0.797513 0.228458
0.788235 0.8 0.23444
0.813764 0.802579 0.240192
0.837247 0.805234 0.245686
0.858701 0.807843 0.250828
0.878447 0.810513 0.255726
0.896498 0.813581 0.260533
0.912566 0.816785 0.264851
0.927428 0.82005 0.269093
0.941131 0.823331 0.273213
0.95378 0.826658 0.277256
0.965591 0.830121 0.281331
0.976623 0.833738 0.285451
0.98677 0.837278 0.289387
0.996063 0.840726 0.293217
0.266926 0.772961 0.17377
0.277562 0.778576 0.178851
0.289204 0.783917 0.183536
0.302724 0.788617 0.187335
0.31841 0.792554 0.190112
0.336751 0.795834 0.19202
0.358038 0.798367 0.192966
0.382696 0.800061 0.193057
0.410712 0.801068 0.192706
0.442176 0.801495 0.19237
0.47689 0.801724 0.192691
0.514534 0.802396 0.19469
0.553964 0.803601 0.19852
0.593851 0.805386 0.203906
0.633066 0.807568 0.210254
0.670466 0.809903 0.216892
0.705379 0.812253 0.223484
0.738018 0.814817 0.23006
0.767895 0.817105 0.236088
0.7953 0.819303 0.241733
0.820462 0.82153 0.247089
0.84361 0.82385 0.252247
0.865049 0.826291 0.257206
0.884718 0.828901 0.262043
0.90251 0.831388 0.266438
0.918685 0.834028 0.270588
0.933242 0.836957 0.274495
0.946715 0.839994 0.278355
0.959258 0.843198 0.282277
0.970703 0.846235 0.285939
0.981277 0.849332 0.28957
0.991104 0.852522 0.293202
1 0.855741 0.296788
0.283192 0.797559 0.188632
0.293431 0.802731 0.193271
0.304479 0.807553 0.197452
0.31751 0.811826 0.200855
0.332906 0.815579 0.203464
0.35082 0.81854 0.205081
0.371542 0.820554 0.205524
0.395438 0.821805 0.205158
0.422843 0.822446 0.20441
0.453758 0.822614 0.203723
0.48806 0.822751 0.2038
0.524788 0.822797 0.205005
0.563394 0.823453 0.208087
0.602701 0.824842 0.212909
0.641611 0.826734 0.21886
0.678676 0.828992 0.225345
0.713222 0.831067 0.231571
0.745281 0.833112 0.237568
0.774899 0.835172 0.243336
0.802121 0.837217 0.248783
0.827054 0.839216 0.253864
0.850111 0.841382 0.258824
0.871199 0.843488 0.263432
0.890501 0.845716 0.267857
0.908186 0.84799 0.272084
0.924331 0.850294 0.276066
0.938949 0.852735 0.279805
0.952239 0.855543 0.283452
0.964401 0.858335 0.286946
0.975631 0.861143 0.290379
0.985962 0.863935 0.293721
0.995438 0.866758 0.297002
1 0.869673 0.300313
0.298528 0.820371 0.202701
0.308507 0.825238 0.20705
0.319219 0.82977 0.210956
0.331884 0.833753 0.214069
0.346624 0.836942 0.216159
0.364019 0.83946 0.21735
0.38436 0.841215 0.217578
0.407736 0.842176 0.216907
0.434592 0.842496 0.215808
