lut_library/店主推荐/709电影感（青橙+增强对比）.cube
# 版权归凌孟成所有，侵权必究
TITLE "LC_Terra_05"
#Input: Rec.709 Gamma 2.4
#Output: Rec.709 Gamma 2.4
#Created by: Evan Schneider of LUT Co
#Copyright: (c) Copyright LUT Co 2022
#Website: https://www.lutco.co
LUT_3D_SIZE 5
0.0171359 0.014786 0.011368
0.166888 0 0
0.433936 0 0
0.59324 0 0
0.710689 0.0396582 0
0.0281682 0.154742 0.00030518
0.214557 0.187976 0.0403143
0.547127 0.232471 0.0562753
0.76199 0.298528 0.108537
0.910384 0.381125 0.184421
0.0949416 0.469032 0.0240635
0.282429 0.524666 0.0759136
0.628748 0.565957 0.144915
0.843381 0.618341 0.210056
0.967514 0.674235 0.268299
0.249592 0.746456 0.157977
0.397818 0.777981 0.180316
0.697536 0.792309 0.215366
0.896498 0.813581 0.260533
0.996063 0.840726 0.293217
0.36405 0.913588 0.263554
0.484672 0.923461 0.264897
0.753857 0.917723 0.273503
0.938567 0.924315 0.302373
1 0.934188 0.321004
0 0.0279698 0.0949721
0.203479 0 0.0974899
0.461418 0 0.0254673
0.624231 0 0.0284581
0.745159 0.0512245 0.0760204
0.0697032 0.167391 0.145937
0.213809 0.206729 0.182452
0.569497 0.25568 0.191638
0.798001 0.323476 0.239811
0.943832 0.404868 0.313512
0.127398 0.493126 0.180133
0.290684 0.543526 0.217945
0.631159 0.585901 0.275685
0.857466 0.642267 0.332921
0.982605 0.697978 0.388571
0.262287 0.763973 0.287282
0.392432 0.788632 0.296513
0.682826 0.79881 0.314504
0.891173 0.822873 0.360983
0.992309 0.849546 0.395041
0.368399 0.922713 0.379507
0.473182 0.927581 0.36878
0.730541 0.916793 0.358831
0.924315 0.926787 0.392721
1 0.936645 0.413825
0 0.0545052 0.267338
0.0611276 0.0175631 0.416739
0.54226 0 0.300771
0.70013 0 0.257023
0.818021 0.0233463 0.294453
0.0242008 0.228367 0.315022
0.165835 0.282658 0.418006
0.628473 0.210193 0.450599
0.846662 0.288289 0.462058
0.988067 0.374258 0.529686
0.287602 0.578058 0.538796
0.436835 0.630869 0.59646
0.588602 0.586709 0.550225
0.831754 0.650462 0.592187
0.979507 0.715099 0.645869
0.423316 0.846616 0.673655
0.509285 0.85272 0.670756
0.637125 0.791241 0.574197
0.844678 0.816999 0.610117
0.959533 0.851759 0.643381
0.506111 0.996643 0.752087
0.553079 0.973251 0.710262
0.675258 0.900114 0.600031
0.867567 0.913298 0.621714
0.971069 0.930007 0.644068
0 0.0725109 0.368994
0 0.0564889 0.503822
0.55993 0 0.549264
0.764981 0 0.471824
0.889113 0.00973526 0.498924
0 0.271183 0.432593
0.137819 0.338094 0.566537
0.653941 0.233371 0.748165
0.904585 0.266499 0.670405
1 0.339437 0.703731
0.305348 0.613428 0.676616
0.467384 0.68719 0.748837
0.586374 0.657801 0.732174
0.846845 0.604898 0.743481
0.970626 0.655741 0.764569
0.50396 0.905287 0.868437
0.631678 0.941512 0.909361
0.73814 0.856825 0.834485
0.809369 0.810773 0.786389
0.916091 0.836667 0.80354
0.613901 1 0.975464
0.70634 1 0.985199
0.782574 0.967956 0.881651
0.834226 0.905974 0.800153
0.924575 0.912917 0.812024
0 0.0861219 0.416648
0 0.0791333 0.549523
0.542855 0 0.682216
0.802853 0 0.595483
0.93727 0.0209049 0.62063
0 0.306432 0.503578
0.140749 0.377157 0.645899
0.626093 0.29073 0.890959
0.944137 0.283467 0.804669
1 0.347234 0.823072
0.31722 0.648814 0.744823
0.466911 0.722316 0.810254
0.615518 0.727077 0.846159
0.878874 0.619654 0.896498
1 0.639002 0.868513
0.522698 0.926146 0.942626
0.647501 0.961257 0.982315
0.778881 0.905379 0.932509
0.803967 0.837064 0.866987
0.925292 0.820401 0.879011
0.640803 1 1
0.738643 1 1
0.865965 1 1
0.86836 0.923903 0.911849
0.908888 0.911116 0.897276
