lut_library/店主推荐/709电影感（青橙+增强对比）2.cube
# 版权归凌孟成所有，侵权必究
# Created by: Lutify.me
# Copyright: (c) Copyright Lutify.me 2016, G.T. Colord LTD
# Website: https://lutify.me
# Contact: help@lutify.me
LUT_3D_SIZE 9
0.009277 0.016357 0.013977
0.070679 0.022278 0.011566
0.170929 0.033966 0.017792
0.316132 0.052277 0.035217
0.477692 0.070557 0.058380
0.633606 0.090820 0.081390
0.784698 0.126984 0.104919
0.927063 0.189880 0.128693
0.995422 0.238678 0.142029
0.027893 0.071045 0.031494
0.052429 0.072052 0.031677
0.180328 0.093475 0.030029
0.327972 0.114349 0.042206
0.478821 0.136444 0.060333
0.630463 0.160400 0.081238
0.781708 0.195435 0.103851
0.927856 0.254974 0.128876
0.994720 0.298065 0.144745
0.082489 0.180695 0.068237
0.098419 0.186371 0.074219
0.161865 0.169128 0.067078
0.325531 0.212799 0.074646
0.487183 0.227936 0.080322
0.634460 0.249908 0.096375
0.784363 0.285004 0.117828
0.923401 0.338165 0.142761
0.988617 0.376526 0.158539
0.181824 0.354919 0.166290
0.206299 0.363312 0.176300
0.220825 0.360840 0.158813
0.339050 0.319733 0.131348
0.516022 0.381927 0.142944
0.656860 0.408783 0.144073
0.786743 0.418640 0.152191
0.917755 0.454437 0.172394
0.978455 0.484192 0.187988
0.300964 0.540802 0.276184
0.324646 0.548676 0.283173
0.312622 0.543701 0.285065
0.457581 0.565430 0.209778
0.537109 0.495087 0.208740
0.686127 0.553009 0.222137
0.806091 0.605103 0.224548
0.910461 0.619659 0.229858
0.963348 0.634064 0.239136
0.415619 0.694153 0.369415
0.438751 0.705597 0.374146
0.443268 0.707733 0.377991
0.476471 0.706268 0.337097
0.670197 0.732117 0.309875
0.704865 0.660126 0.291473
0.819794 0.704102 0.303162
0.908875 0.758636 0.304504
0.951172 0.773743 0.308044
0.532806 0.816925 0.446716
0.555237 0.823975 0.452606
0.563782 0.825714 0.456329
0.528107 0.813019 0.446930
0.699951 0.832886 0.350464
0.818054 0.845612 0.404694
0.836060 0.792877 0.376404
0.912842 0.821289 0.382996
0.949158 0.840942 0.386078
0.657440 0.899445 0.523865
0.677917 0.904846 0.529877
0.688477 0.907135 0.534149
0.654999 0.898407 0.534454
0.740814 0.909882 0.479858
0.848724 0.910919 0.413818
0.916412 0.921051 0.496521
0.922394 0.882172 0.458069
0.952332 0.886475 0.462616
0.711060 0.928131 0.556671
0.728577 0.932098 0.561829
0.738831 0.934357 0.565643
0.716949 0.929871 0.567657
0.768860 0.937286 0.530609
0.869568 0.941254 0.461151
0.934540 0.952576 0.526794
0.947052 0.933075 0.517212
0.958496 0.921661 0.501343
0.027405 0.043640 0.061859
0.051331 0.034760 0.067261
0.146698 0.032043 0.077850
0.304565 0.028351 0.071472
0.487000 0.029449 0.082275
0.648163 0.056000 0.104675
0.795868 0.105560 0.129578
0.930359 0.175293 0.153534
0.996582 0.225891 0.167572
0.040161 0.089294 0.081390
0.076080 0.097351 0.089417
0.186493 0.106323 0.076447
0.333313 0.130127 0.088867
0.492950 0.159424 0.110168
0.647614 0.188446 0.132172
0.795410 0.225464 0.154785
0.932770 0.284546 0.178894
0.995941 0.325317 0.193115
0.083344 0.187500 0.112213
0.113739 0.192505 0.131714
0.174438 0.199432 0.126434
0.341583 0.216095 0.108826
0.491058 0.236603 0.118744
0.638885 0.265533 0.137634
0.787170 0.302490 0.158722
0.925842 0.357483 0.183777
0.989349 0.396149 0.200073
0.166138 0.346619 0.157227
0.190704 0.353729 0.161011
0.199341 0.357544 0.169373
0.356110 0.348511 0.185059
0.522369 0.395966 0.183624
0.652496 0.402313 0.175598
0.788116 0.422485 0.186707
0.919739 0.466248 0.209229
0.979462 0.497253 0.224670
0.284149 0.531586 0.259399
0.314056 0.541901 0.274078
0.321747 0.548767 0.291565
0.433136 0.565765 0.238556
0.550629 0.521301 0.261780
0.694763 0.579041 0.268555
0.805511 0.605682 0.256989
0.912079 0.616150 0.257965
0.965454 0.633514 0.267487
0.405640 0.688568 0.363983
0.431244 0.700684 0.372681
0.445953 0.708771 0.387634
0.452087 0.704498 0.369690
0.663208 0.736206 0.339355
0.715942 0.681427 0.343414
0.826904 0.725128 0.348999
0.911316 0.765076 0.335022
0.953583 0.776367 0.337830
0.524078 0.812897 0.445221
0.550751 0.822205 0.455933
0.567566 0.826630 0.471344
0.531189 0.813263 0.474579
0.684235 0.834991 0.378235
0.818420 0.852570 0.440247
0.842224 0.807007 0.423920
0.916534 0.835266 0.425140
0.952271 0.853546 0.423767
0.651947 0.897675 0.527039
0.674500 0.903687 0.536652
0.690674 0.908173 0.549805
0.663818 0.900940 0.554962
0.726990 0.910645 0.514740
0.841339 0.912476 0.429138
0.918030 0.927368 0.531311
0.928101 0.893555 0.503418
0.955811 0.897095 0.504089
0.707123 0.927399 0.560089
0.726105 0.931854 0.568329
0.740875 0.935608 0.581329
0.721161 0.931580 0.586517
0.755463 0.937073 0.562225
0.862610 0.943054 0.481018
0.932770 0.955414 0.549042
0.950806 0.941223 0.557648
0.962555 0.930695 0.542633
0.067108 0.094604 0.146057
0.082092 0.076599 0.147430
0.162933 0.057983 0.175323
0.318573 0.061005 0.189209
0.501404 0.040741 0.176453
0.662811 0.021912 0.167633
0.806671 0.036774 0.164429
0.932465 0.115875 0.174011
0.996765 0.178528 0.186127
0.082214 0.143005 0.167236
0.107239 0.141846 0.161438
0.154327 0.129456 0.173096
0.334198 0.127045 0.188721
0.509796 0.132019 0.175323
0.666687 0.151520 0.178406
0.809204 0.195465 0.196472
0.937744 0.257446 0.218292
1.000000 0.302765 0.232330
0.098206 0.210236 0.193054
0.142426 0.221588 0.206116
0.202576 0.229126 0.209991
0.359741 0.240570 0.187561
0.518890 0.273132 0.201355
0.667358 0.307648 0.221680
0.809479 0.348450 0.243744
0.937042 0.403839 0.268188
0.994080 0.437775 0.282166
0.173157 0.363190 0.244171
0.188507 0.366211 0.245056
0.275360 0.378815 0.297058
0.377991 0.398224 0.282043
0.526489 0.394806 0.233429
0.658112 0.407257 0.233643
0.797058 0.440704 0.252991
0.924805 0.490143 0.277374
0.982025 0.522186 0.291901
0.277710 0.534882 0.299408
0.299591 0.537689 0.296967
0.299683 0.537964 0.280090
0.399139 0.566193 0.269226
0.572632 0.557007 0.343170
0.702942 0.599548 0.330780
0.806091 0.603058 0.311493
0.915863 0.619995 0.314789
0.968994 0.640808 0.325287
0.382751 0.676819 0.344513
0.405518 0.683563 0.341003
0.420715 0.692169 0.342926
0.430756 0.698364 0.367065
0.650360 0.740692 0.381500
0.731476 0.708557 0.417328
0.837280 0.749420 0.414124
0.914764 0.769958 0.389740
0.957275 0.779327 0.390503
0.496185 0.796539 0.397614
0.522369 0.808746 0.409851
0.547302 0.820618 0.435455
0.525757 0.812256 0.467743
0.662720 0.836700 0.402191
0.816498 0.859711 0.487488
0.852966 0.825958 0.490387
0.923859 0.853088 0.485168
0.957153 0.868286 0.477478
0.628693 0.891815 0.485168
0.655609 0.898529 0.503723
0.678802 0.904541 0.529266
0.662781 0.900696 0.552917
0.710388 0.909546 0.539001
0.832031 0.914948 0.450592
0.918671 0.934387 0.574738
0.934052 0.907471 0.562744
0.961395 0.911346 0.562714
0.692596 0.923584 0.530182
0.713013 0.928223 0.543427
0.731781 0.932892 0.564636
0.721222 0.931580 0.586670
0.741943 0.935730 0.581848
0.852295 0.944397 0.500946
0.930817 0.959564 0.581787
0.955658 0.952148 0.611450
0.966644 0.941956 0.598145
0.127869 0.171783 0.269135
0.137360 0.149414 0.265076
0.176025 0.101837 0.289398
0.343842 0.108215 0.329102
0.520996 0.112030 0.351959
0.678192 0.103119 0.343262
0.818848 0.106232 0.324768
0.939087 0.139771 0.303589
0.999634 0.181763 0.299896
0.147736 0.229492 0.295197
0.175873 0.230347 0.293304
0.195679 0.179443 0.290527
0.356476 0.168121 0.338318
0.530212 0.177124 0.353790
0.684998 0.179047 0.338684
0.823425 0.189209 0.318756
0.941528 0.218994 0.300018
1.000000 0.253418 0.299103
0.167145 0.291809 0.322113
0.199066 0.301575 0.326019
0.248505 0.298615 0.313416
0.333801 0.286682 0.336426
0.553711 0.279877 0.354523
0.704803 0.290649 0.333405
0.835510 0.312683 0.323059
0.951447 0.359772 0.328125
1.000000 0.397308 0.338593
0.195374 0.394226 0.356964
0.224121 0.399109 0.361816
0.319000 0.416718 0.385986
0.411957 0.441132 0.399841
0.559723 0.433624 0.358582
0.698669 0.461487 0.365570
0.832306 0.502045 0.385559
0.947052 0.550323 0.406006
0.998779 0.578796 0.417877
0.287567 0.558502 0.413940
0.299713 0.560547 0.415375
0.332794 0.566010 0.420319
0.503265 0.594238 0.502625
0.599701 0.614685 0.475342
0.705536 0.600098 0.407562
0.819458 0.608185 0.400146
0.932953 0.645203 0.417694
0.983429 0.669983 0.429077
0.394958 0.701111 0.469147
0.412994 0.703308 0.469147
0.417450 0.704315 0.463867
0.475433 0.710358 0.461884
0.631836 0.748962 0.466034
0.753479 0.743988 0.521057
0.847198 0.771240 0.497681
0.924438 0.776611 0.472046
0.967590 0.786865 0.472900
0.510834 0.805389 0.517029
0.528778 0.808472 0.515137
0.539185 0.812164 0.501160
0.515442 0.807709 0.460968
0.642426 0.838440 0.428406
0.811371 0.868317 0.551300
0.865997 0.849854 0.578979
0.932556 0.875061 0.566162
0.964294 0.885559 0.555969
0.623871 0.887390 0.540314
0.639160 0.892242 0.528503
0.651794 0.896515 0.504608
0.632904 0.893616 0.475891
0.695007 0.905334 0.487335
0.817688 0.919128 0.484619
0.918457 0.942780 0.632721
0.941437 0.924561 0.639679
0.967468 0.928650 0.639648
0.682129 0.921631 0.548340
0.695953 0.924591 0.536377
0.708008 0.926514 0.512817
0.697388 0.924561 0.512390
0.731018 0.931366 0.539520
0.835724 0.943512 0.506500
0.928253 0.966217 0.629547
0.961273 0.965912 0.680359
0.972168 0.956482 0.669220
0.204529 0.264465 0.412079
0.209229 0.234222 0.402435
0.206268 0.172577 0.402618
0.381256 0.153442 0.470154
0.548859 0.168945 0.498901
0.700073 0.182465 0.523773
0.833313 0.196136 0.526611
0.944641 0.219940 0.507904
0.999634 0.251282 0.500305
0.227173 0.328156 0.436951
0.254944 0.328217 0.436951
0.262177 0.281677 0.423401
0.385406 0.207886 0.475098
0.556824 0.225372 0.505310
0.706757 0.240631 0.527405
0.836914 0.254700 0.523956
0.946899 0.277740 0.500977
1.000000 0.305786 0.495453
0.249908 0.394867 0.464569
0.282074 0.403564 0.467316
0.339783 0.410797 0.470947
0.382446 0.318878 0.473663
0.574890 0.323914 0.519562
0.723511 0.337463 0.534210
0.850525 0.349670 0.519257
0.958496 0.372986 0.494202
1.000000 0.394592 0.485657
0.274597 0.471710 0.493927
0.302979 0.480560 0.498077
0.369019 0.497040 0.507507
0.445801 0.494843 0.494690
0.540222 0.492065 0.517395
0.747101 0.485077 0.538971
0.869690 0.498749 0.517548
0.967041 0.522125 0.498260
1.000000 0.544189 0.498535
0.318939 0.589905 0.532745
0.340424 0.591888 0.534912
0.398590 0.599274 0.543060
0.543304 0.626984 0.580170
0.630005 0.647461 0.580536
0.738983 0.639862 0.549866
0.854767 0.666565 0.556824
0.952911 0.707123 0.573792
0.997162 0.731812 0.585480
0.412384 0.727203 0.582672
0.420471 0.728638 0.584290
0.459106 0.733002 0.589264
0.558838 0.744141 0.609802
0.692780 0.774506 0.660278
0.778687 0.789581 0.645660
0.853210 0.781189 0.595184
0.938934 0.795441 0.591888
0.981293 0.810760 0.598236
0.525360 0.832214 0.630768
0.537842 0.833221 0.632660
0.538177 0.833344 0.630524
0.596161 0.838440 0.635010
0.683472 0.856384 0.620819
0.802704 0.879608 0.629761
0.880432 0.876007 0.675568
0.941162 0.895538 0.658630
0.972717 0.901855 0.653168
0.647186 0.901855 0.676025
0.659576 0.903076 0.676514
0.668640 0.904572 0.672943
0.659393 0.902130 0.658783
0.730713 0.919373 0.630890
0.817108 0.933777 0.610840
0.915741 0.952271 0.695709
0.949280 0.943512 0.722748
0.973969 0.948090 0.722015
0.708221 0.933441 0.697571
0.717987 0.935486 0.695190
0.724854 0.936707 0.687775
0.710083 0.932037 0.668915
0.755127 0.941742 0.632599
0.835144 0.954376 0.609558
0.923340 0.974060 0.687714
0.967194 0.980804 0.751892
0.977417 0.972443 0.744324
0.285461 0.354553 0.542633
0.288208 0.322357 0.531677
0.287140 0.272522 0.523926
0.398224 0.199341 0.578857
0.582672 0.208191 0.618896
0.723419 0.230072 0.641693
0.849792 0.255402 0.664276
0.953674 0.289368 0.672699
1.000000 0.320648 0.674988
0.311249 0.423126 0.567200
0.336212 0.420868 0.566193
0.336945 0.373260 0.549957
0.371643 0.256317 0.565369
0.591217 0.261017 0.625092
0.729980 0.282715 0.647186
0.854034 0.307129 0.668152
0.955414 0.338440 0.672577
1.000000 0.365265 0.672150
0.335419 0.490448 0.590790
0.365234 0.496887 0.593323
0.416901 0.502197 0.596649
0.418579 0.416870 0.576233
0.607056 0.356873 0.637787
0.744019 0.376312 0.659058
0.864624 0.397491 0.676941
0.962250 0.419983 0.672699
1.000000 0.442535 0.669891
0.361359 0.564240 0.616791
0.390808 0.572998 0.620789
0.450775 0.587585 0.628632
0.535858 0.598450 0.634369
0.602539 0.508636 0.643524
0.759247 0.518097 0.675293
0.881073 0.534058 0.687439
0.973724 0.553070 0.672394
1.000000 0.569702 0.666351
0.394104 0.648315 0.645569
0.416351 0.653748 0.648682
0.471741 0.665894 0.656738
0.572815 0.686066 0.670349
0.654510 0.692566 0.668365
0.748444 0.684937 0.682343
0.894531 0.689301 0.691376
0.972992 0.705200 0.672607
1.000000 0.718567 0.669312
0.450073 0.753723 0.679535
0.467194 0.755615 0.681458
0.511047 0.759827 0.687103
0.604767 0.771118 0.702026
0.721527 0.793671 0.726562
0.795593 0.810577 0.726105
0.875153 0.812500 0.712738
0.953827 0.839905 0.722107
0.990753 0.854767 0.728485
0.548126 0.854889 0.719330
0.553650 0.855377 0.720245
0.587341 0.858093 0.725403
0.658325 0.864624 0.737030
0.739380 0.876221 0.749084
0.817749 0.896820 0.749146
0.896149 0.903137 0.763245
0.948181 0.908722 0.746399
0.980835 0.915222 0.747131
0.663300 0.922821 0.759064
0.671234 0.923309 0.760315
0.671265 0.923706 0.759552
0.717560 0.927490 0.765930
0.778564 0.937134 0.766785
0.837097 0.951416 0.747864
0.911224 0.962524 0.758484
0.956604 0.960571 0.793243
0.980133 0.965851 0.792786
0.728271 0.951904 0.781769
0.735931 0.952454 0.783020
0.737366 0.952148 0.781738
0.754547 0.952942 0.781403
0.804016 0.962158 0.774567
0.855042 0.972809 0.753143
0.917297 0.982819 0.754639
0.972229 0.993866 0.811859
0.982880 0.986847 0.809570
0.369720 0.439301 0.651031
0.372253 0.408081 0.641510
0.367676 0.355652 0.629791
0.376984 0.245667 0.642334
0.622528 0.242401 0.712219
0.755798 0.265961 0.733429
0.869934 0.293854 0.752258
0.965240 0.333130 0.769806
1.000000 0.365356 0.777466
0.395599 0.507416 0.670929
0.418976 0.505402 0.671326
0.422424 0.465759 0.659851
0.405273 0.349487 0.643494
0.623352 0.290497 0.715698
0.760223 0.314545 0.737793
0.873505 0.341461 0.756287
0.966492 0.377380 0.772675
1.000000 0.406860 0.779907
0.422272 0.576447 0.691833
0.449188 0.580780 0.694000
0.496613 0.585968 0.698730
0.493286 0.520691 0.680237
0.607788 0.384460 0.716644
0.771637 0.404602 0.747681
0.881561 0.427673 0.765259
0.971527 0.457672 0.780487
1.000000 0.481720 0.786011
0.449982 0.646667 0.713531
0.478577 0.654724 0.717407
0.532257 0.666901 0.724426
0.607574 0.679199 0.733429
0.608612 0.579681 0.718140
0.788605 0.543701 0.764069
0.893860 0.561676 0.779938
0.976990 0.584229 0.790039
1.000000 0.601959 0.791931
0.480530 0.718872 0.736115
0.505371 0.725769 0.739807
0.557648 0.737976 0.747375
0.641937 0.756775 0.759918
0.728363 0.772552 0.771820
0.793854 0.696106 0.778717
0.906006 0.709290 0.794586
0.980286 0.725769 0.796753
1.000000 0.738129 0.794556
0.520294 0.793732 0.759918
0.537567 0.796753 0.762115
0.580505 0.804016 0.767944
0.662720 0.819214 0.781097
0.755127 0.837494 0.796967
0.827576 0.853790 0.798859
0.905975 0.835388 0.803955
0.971344 0.845551 0.799377
1.000000 0.854309 0.796082
0.586517 0.873566 0.787231
0.599365 0.874756 0.789032
0.631958 0.877319 0.793152
0.699097 0.884308 0.803436
0.778595 0.893738 0.817627
0.847992 0.911011 0.822083
0.905121 0.922302 0.827179
0.959015 0.929901 0.823883
0.987885 0.939789 0.828003
0.686981 0.939148 0.817810
0.690155 0.939240 0.818237
0.713409 0.940857 0.822144
0.763611 0.945038 0.830872
0.821533 0.952271 0.840088
0.869904 0.965393 0.839508
0.917145 0.974579 0.832062
0.964783 0.975494 0.846863
0.986298 0.980988 0.846954
0.748383 0.967285 0.836182
0.752075 0.967560 0.837006
0.762787 0.968384 0.839142
0.802063 0.971222 0.845581
0.846375 0.978363 0.850067
0.886414 0.988556 0.847137
0.925934 0.995239 0.836914
0.974762 1.000000 0.856354
0.988861 0.999786 0.859497
0.464661 0.525635 0.735748
0.466370 0.496094 0.727783
0.459473 0.439941 0.716431
0.442108 0.338043 0.709747
0.638275 0.269501 0.769501
0.792633 0.292419 0.795837
0.895782 0.323334 0.812622
0.979614 0.363800 0.828186
1.000000 0.397797 0.836243
0.491455 0.594177 0.752777
0.512024 0.591095 0.753601
0.515930 0.557678 0.745270
0.499237 0.465302 0.728302
0.595062 0.316772 0.761292
0.797852 0.339508 0.800201
0.899200 0.368896 0.816498
0.981018 0.406006 0.830994
1.000000 0.436737 0.838806
0.518188 0.659912 0.768921
0.542908 0.663086 0.771820
0.582825 0.666595 0.776154
0.582642 0.618164 0.764557
0.570312 0.442963 0.752777
0.803772 0.426910 0.808105
0.905792 0.452423 0.824158
0.983826 0.481384 0.837677
1.000000 0.508698 0.845001
0.546631 0.725098 0.786285
0.573547 0.731476 0.790070
0.618713 0.741119 0.796204
0.679901 0.750732 0.804291
0.679352 0.689209 0.791718
0.790344 0.562592 0.815826
0.913422 0.582275 0.836609
0.986542 0.606140 0.847748
1.000000 0.625122 0.853973
0.576752 0.788818 0.804657
0.600922 0.794556 0.807648
0.647125 0.805145 0.814484
0.716064 0.820862 0.825073
0.784210 0.832550 0.834625
0.786194 0.753082 0.824402
0.920654 0.726227 0.849976
0.986694 0.743195 0.857880
1.000000 0.756744 0.862213
0.609161 0.846863 0.821838
0.629456 0.851471 0.824829
0.670654 0.859589 0.830750
0.738953 0.873260 0.841644
0.811340 0.887695 0.853912
0.866852 0.900543 0.855988
0.913818 0.844574 0.855011
0.983826 0.856628 0.863373
1.000000 0.865356 0.866089
0.653442 0.900452 0.839722
0.666962 0.902588 0.841553
0.699158 0.906830 0.846100
0.759399 0.915344 0.855743
0.826996 0.925873 0.867737
0.880676 0.941315 0.871002
0.928192 0.949646 0.871765
0.973114 0.937347 0.872528
0.997253 0.942474 0.873688
0.722260 0.951813 0.860413
0.729462 0.951935 0.861115
0.752869 0.954071 0.864899
0.797882 0.957550 0.872101
0.851349 0.963684 0.881622
0.895294 0.975006 0.883484
0.937042 0.982910 0.882965
0.971649 0.987457 0.885895
0.992859 0.991638 0.886688
0.774963 0.978668 0.874908
0.781586 0.979095 0.876007
0.799744 0.980408 0.878998
0.835175 0.983154 0.885254
0.875916 0.989319 0.891022
0.912079 0.998810 0.890625
0.946381 1.000000 0.890015
0.976044 1.000000 0.890259
0.995361 1.000000 0.894470
0.519196 0.562286 0.772949
0.522095 0.535431 0.767151
0.513458 0.478149 0.757111
0.501068 0.387360 0.751617
0.637909 0.283752 0.791138
0.819611 0.307678 0.824341
0.914825 0.339783 0.839935
0.990967 0.380646 0.853455
1.000000 0.412781 0.860138
0.544617 0.629608 0.788025
0.563995 0.626434 0.789337
0.566711 0.594238 0.782410
0.551941 0.507935 0.769012
0.591888 0.335663 0.781586
0.821045 0.353241 0.827484
0.916382 0.383118 0.843018
0.991486 0.420898 0.856140
1.000000 0.449860 0.862640
0.570709 0.693390 0.802673
0.593384 0.696289 0.805481
0.630005 0.700531 0.809937
0.630798 0.656891 0.801025
0.607941 0.494843 0.786255
0.818420 0.438507 0.833099
0.921997 0.465088 0.850128
0.993958 0.497040 0.862488
1.000000 0.520630 0.868439
0.599121 0.756805 0.818420
0.623383 0.762268 0.821625
0.664642 0.771576 0.827789
0.718964 0.779358 0.835297
0.719849 0.727600 0.826141
0.782257 0.571838 0.835022
0.929169 0.594360 0.861938
0.995453 0.617859 0.872314
1.000000 0.637878 0.877441
0.627167 0.816223 0.833984
0.651031 0.822083 0.837494
0.693054 0.832550 0.843933
0.752167 0.845428 0.853119
0.812561 0.855621 0.861847
0.816467 0.794434 0.854553
0.929596 0.735260 0.873291
0.992920 0.751801 0.881775
1.000000 0.765076 0.885376
0.657745 0.869659 0.849365
0.677887 0.874603 0.852386
0.716675 0.882416 0.858246
0.775970 0.894409 0.867676
0.837189 0.906860 0.878052
0.885559 0.917114 0.880035
0.910309 0.855957 0.875000
0.989685 0.862183 0.886749
1.000000 0.870514 0.889008
0.696075 0.916046 0.864471
0.709961 0.918488 0.866425
0.741516 0.923553 0.871307
0.794769 0.931580 0.879761
0.852722 0.941589 0.890167
0.899170 0.955475 0.892426
0.939636 0.962433 0.893036
0.980682 0.941956 0.893066
1.000000 0.946838 0.894836
0.750763 0.959320 0.881317
0.758270 0.959839 0.882355
0.779694 0.961975 0.885742
0.820862 0.965393 0.892487
0.869385 0.971680 0.901184
0.908997 0.982117 0.902588
0.947235 0.990509 0.902618
0.978516 0.994995 0.904510
0.997559 0.995331 0.905853
0.796478 0.984558 0.894135
0.802673 0.985077 0.895142
0.819183 0.986267 0.897858
0.851288 0.988861 0.903564
0.889465 0.994476 0.909302
0.922180 1.000000 0.909210
0.954773 1.000000 0.908508
0.983093 1.000000 0.910828
1.000000 1.000000 0.911957
