lut_library/店主推荐/709电影感（青橙+增强对比）2.cube
# 版权归凌孟成所有，侵权必究
# Created by: Lutify.me
# Copyright: (c) Copyright Lutify.me 2016, G.T. Colord LTD
# Website: https://lutify.me
# Contact: help@lutify.me
LUT_3D_SIZE 5
0.009277 0.016357 0.013977
0.170929 0.033966 0.017792
0.477692 0.070557 0.058380
0.784698 0.126984 0.104919
0.995422 0.238678 0.142029
0.082489 0.180695 0.068237
0.161865 0.169128 0.067078
0.487183 0.227936 0.080322
0.784363 0.285004 0.117828
0.988617 0.376526 0.158539
0.300964 0.540802 0.276184
0.312622 0.543701 0.285065
0.537109 0.495087 0.208740
0.806091 0.605103 0.224548
0.963348 0.634064 0.239136
0.532806 0.816925 0.446716
0.563782 0.825714 0.456329
0.699951 0.832886 0.350464
0.836060 0.792877 0.376404
0.949158 0.840942 0.386078
0.711060 0.928131 0.556671
0.738831 0.934357 0.565643
0.768860 0.937286 0.530609
0.934540 0.952576 0.526794
0.958496 0.921661 0.501343
0.067108 0.094604 0.146057
0.162933 0.057983 0.175323
0.501404 0.040741 0.176453
0.806671 0.036774 0.164429
0.996765 0.178528 0.186127
0.098206 0.210236 0.193054
0.202576 0.229126 0.209991
0.518890 0.273132 0.201355
0.809479 0.348450 0.243744
0.994080 0.437775 0.282166
0.277710 0.534882 0.299408
0.299683 0.537964 0.280090
0.572632 0.557007 0.343170
0.806091 0.603058 0.311493
0.968994 0.640808 0.325287
0.496185 0.796539 0.397614
0.547302 0.820618 0.435455
0.662720 0.836700 0.402191
0.852966 0.825958 0.490387
0.957153 0.868286 0.477478
0.692596 0.923584 0.530182
0.731781 0.932892 0.564636
0.741943 0.935730 0.581848
0.930817 0.959564 0.581787
0.966644 0.941956 0.598145
0.204529 0.264465 0.412079
0.206268 0.172577 0.402618
0.548859 0.168945 0.498901
0.833313 0.196136 0.526611
0.999634 0.251282 0.500305
0.249908 0.394867 0.464569
0.339783 0.410797 0.470947
0.574890 0.323914 0.519562
0.850525 0.349670 0.519257
1.000000 0.394592 0.485657
0.318939 0.589905 0.532745
0.398590 0.599274 0.543060
0.630005 0.647461 0.580536
0.854767 0.666565 0.556824
0.997162 0.731812 0.585480
0.525360 0.832214 0.630768
0.538177 0.833344 0.630524
0.683472 0.856384 0.620819
0.880432 0.876007 0.675568
0.972717 0.901855 0.653168
0.708221 0.933441 0.697571
0.724854 0.936707 0.687775
0.755127 0.941742 0.632599
0.923340 0.974060 0.687714
0.977417 0.972443 0.744324
0.369720 0.439301 0.651031
0.367676 0.355652 0.629791
0.622528 0.242401 0.712219
0.869934 0.293854 0.752258
1.000000 0.365356 0.777466
0.422272 0.576447 0.691833
0.496613 0.585968 0.698730
0.607788 0.384460 0.716644
0.881561 0.427673 0.765259
1.000000 0.481720 0.786011
0.480530 0.718872 0.736115
0.557648 0.737976 0.747375
0.728363 0.772552 0.771820
0.906006 0.709290 0.794586
1.000000 0.738129 0.794556
0.586517 0.873566 0.787231
0.631958 0.877319 0.793152
0.778595 0.893738 0.817627
0.905121 0.922302 0.827179
0.987885 0.939789 0.828003
0.748383 0.967285 0.836182
0.762787 0.968384 0.839142
0.846375 0.978363 0.850067
0.925934 0.995239 0.836914
0.988861 0.999786 0.859497
0.519196 0.562286 0.772949
0.513458 0.478149 0.757111
0.637909 0.283752 0.791138
0.914825 0.339783 0.839935
1.000000 0.412781 0.860138
0.570709 0.693390 0.802673
0.630005 0.700531 0.809937
0.607941 0.494843 0.786255
0.921997 0.465088 0.850128
1.000000 0.520630 0.868439
0.627167 0.816223 0.833984
0.693054 0.832550 0.843933
0.812561 0.855621 0.861847
0.929596 0.735260 0.873291
1.000000 0.765076 0.885376
0.696075 0.916046 0.864471
0.741516 0.923553 0.871307
0.852722 0.941589 0.890167
0.939636 0.962433 0.893036
1.000000 0.946838 0.894836
0.796478 0.984558 0.894135
0.819183 0.986267 0.897858
0.889465 0.994476 0.909302
0.954773 1.000000 0.908508
1.000000 1.000000 0.911957
