lut_library/店主推荐/709电影感（青橙+增强对比）.cube
# 版权归凌孟成所有，侵权必究
TITLE "LC_Terra_05"
#Input: Rec.709 Gamma 2.4
#Output: Rec.709 Gamma 2.4
#Created by: Evan Schneider of LUT Co
#Copyright: (c) Copyright LUT Co 2022
#Website: https://www.lutco.co
LUT_3D_SIZE 9
0.0171359 0.014786 0.011368
0.0631113 0.0114748 0.00154116
0.166888 0 0
0.312078 0 0
0.433936 0 0
0.52134 0 0
0.59324 0 0
0.655116 0.0105135 0
0.710689 0.0396582 0
0.0231479 0.0587015 0.0111391
0.076585 0.0654307 0.0200504
0.18645 0.0661936 0.00794995
0.347402 0.0656443 0
0.48896 0.0715648 0
0.593011 0.0897688 0
0.679866 0.118151 0.00509651
0.755581 0.153826 0.035996
0.822705 0.194491 0.0734417
0.0281682 0.154742 0.00030518
0.0899977 0.175601 0.0206302
0.214557 0.187976 0.0403143
0.386267 0.206973 0.0482643
0.547127 0.232471 0.0562753
0.666651 0.261921 0.0771496
0.76199 0.298528 0.108537
0.842222 0.339055 0.145113
0.910384 0.381125 0.184421
0.0421912 0.300282 0
0.112078 0.331853 0.0217594
0.24007 0.35613 0.0491646
0.424475 0.378271 0.0832685
0.591669 0.40705 0.11162
0.719188 0.441413 0.14464
0.815381 0.478019 0.179553
0.891417 0.514916 0.214328
0.952712 0.550805 0.248356
0.0949416 0.469032 0.0240635
0.164157 0.502281 0.0551919
0.282429 0.524666 0.0759136
0.460151 0.5458 0.109545
0.628748 0.565957 0.144915
0.751415 0.590555 0.177523
0.843381 0.618341 0.210056
0.913298 0.646448 0.240024
0.967514 0.674235 0.268299
0.173419 0.622751 0.0897841
0.235401 0.65124 0.115053
0.340932 0.66775 0.126818
0.501869 0.679744 0.146624
0.663584 0.695445 0.180316
0.784939 0.710521 0.210239
0.869459 0.728908 0.235035
0.932555 0.748425 0.257923
0.980209 0.768444 0.279576
0.249592 0.746456 0.157977
0.303151 0.767926 0.176135
0.397818 0.777981 0.180316
0.544076 0.782223 0.188495
0.697536 0.792309 0.215366
0.813764 0.802579 0.240192
0.896498 0.813581 0.260533
0.95378 0.826658 0.277256
0.996063 0.840726 0.293217
0.313085 0.841657 0.216144
0.35967 0.856855 0.22826
0.445869 0.861234 0.22678
0.581582 0.859266 0.226581
0.727886 0.864347 0.246693
0.839872 0.870741 0.26688
0.919112 0.877562 0.282979
0.974533 0.885405 0.296239
1 0.894789 0.307637
0.36405 0.913588 0.263554
0.405066 0.923644 0.270756
0.484672 0.923461 0.264897
0.613199 0.916838 0.25893
0.753857 0.917723 0.273503
0.862547 0.920882 0.289921
0.938567 0.924315 0.302373
0.991531 0.928725 0.312459
1 0.934188 0.321004
0.00448615 0.019089 0.0383459
0.0735027 0.00852979 0.0375067
0.172869 0 0.0089723
0.319341 0 0
0.444678 0 0
0.533639 0 0
0.606638 0 0
0.669612 0.0174105 0
0.726299 0.047715 0
0.0320439 0.0597086 0.0523842
0.0755627 0.070222 0.0615244
0.190677 0.071107 0.047303
0.355825 0.0721141 0.0272221
0.502174 0.0801404 0.0177005
0.608179 0.0996567 0.0264286
0.695705 0.129335 0.0488594
0.772137 0.166155 0.0806592
0.83978 0.207599 0.118791
0.0372625 0.161425 0.0475624
0.0963149 0.184665 0.0679332
0.219318 0.198459 0.087068
0.393133 0.21944 0.0941634
0.560189 0.24715 0.1028
0.682811 0.27657 0.122286
0.778531 0.313283 0.153475
0.858259 0.353506 0.189715
0.925887 0.395209 0.228656
0.0540017 0.311238 0.0414282
0.122942 0.343954 0.072221
0.247364 0.368566 0.0972915
0.431617 0.390997 0.13135
0.602564 0.422583 0.160128
0.73257 0.457664 0.190524
0.828824 0.493538 0.223453
0.903716 0.529259 0.25684
0.964446 0.56466 0.290364
0.105608 0.480552 0.0720836
0.173495 0.513634 0.102754
0.288563 0.535286 0.121538
0.4645 0.556008 0.152651
0.63534 0.577462 0.187503
0.759487 0.602045 0.218006
0.851942 0.629694 0.249897
0.921645 0.657588 0.279652
0.975494 0.685039 0.307668
0.181369 0.633478 0.133547
0.241642 0.661158 0.157733
0.344411 0.676616 0.167544
0.502281 0.686793 0.183017
0.665934 0.703532 0.216312
0.788693 0.718654 0.245686
0.87364 0.736812 0.270558
0.936706 0.756085 0.293599
0.984009 0.775692 0.315129
0.254978 0.754925 0.198032
0.306752 0.775555 0.214862
0.398733 0.78468 0.216907
0.541878 0.787198 0.220676
0.696712 0.797711 0.247044
0.814435 0.808316 0.272435
0.897536 0.818952 0.293065
0.954925 0.831846 0.310079
0.996918 0.845533 0.325978
0.316426 0.847776 0.253452
0.361334 0.862226 0.264347
0.445151 0.86595 0.260945
0.577951 0.862745 0.25687
0.724895 0.867735 0.275914
0.838224 0.87451 0.29691
0.917967 0.881132 0.313451
0.973571 0.888808 0.327077
1 0.897932 0.338506
0.365728 0.917754 0.298848
0.405341 0.927291 0.305043
0.48278 0.926619 0.297551
0.608499 0.918929 0.287922
0.749126 0.919402 0.300984
0.859159 0.923003 0.318288
0.935821 0.926482 0.331395
0.989059 0.930846 0.341909
1 0.936141 0.350591
0 0.0279698 0.0949721
0.0292668 0.0171206 0.140795
0.203479 0 0.0974899
0.337545 0 0.0485237
0.461418 0 0.0254673
0.550973 0 0.0198672
0.624231 0 0.0284581
0.687816 0.0195926 0.0480049
0.745159 0.0512245 0.0760204
0.0099794 0.0725567 0.100542
0.0489815 0.0836652 0.12874
0.214771 0.0637064 0.132708
0.37023 0.0691234 0.109651
0.520699 0.0811475 0.104005
0.629999 0.102815 0.112657
0.717784 0.134112 0.135424
0.794186 0.171923 0.167727
0.861921 0.214038 0.206287
0.0697032 0.167391 0.145937
0.121218 0.19028 0.169879
0.213809 0.206729 0.182452
0.391959 0.225605 0.180682
0.569497 0.25568 0.191638
0.700938 0.287175 0.210742
0.798001 0.323476 0.239811
0.876814 0.363256 0.274952
0.943832 0.404868 0.313512
0.0864271 0.323812 0.157443
0.143709 0.355596 0.181811
0.249714 0.379705 0.197345
0.426474 0.399451 0.225666
0.60267 0.435584 0.254383
0.74258 0.476387 0.283314
0.841627 0.510338 0.310185
0.916533 0.544152 0.340536
0.976501 0.578332 0.372641
0.127398 0.493126 0.180133
0.186954 0.523583 0.204776
0.290684 0.543526 0.217945
0.456672 0.561517 0.24004
0.631159 0.585901 0.275685
0.761349 0.613642 0.304234
0.857466 0.642267 0.332921
0.928588 0.670497 0.361227
0.982605 0.697978 0.388571
0.194354 0.64448 0.231128
0.248127 0.669383 0.250233
0.341711 0.681804 0.254902
0.489738 0.688472 0.260853
0.656657 0.707988 0.293645
0.783963 0.725002 0.321111
0.871565 0.743481 0.344259
0.936309 0.763272 0.367453
0.984146 0.783032 0.389288
0.262287 0.763973 0.287282
0.308293 0.782177 0.299351
0.392432 0.788632 0.296513
0.527245 0.788067 0.291829
0.682826 0.79881 0.314504
0.805249 0.811673 0.340108
0.891173 0.822873 0.360983
0.949798 0.835889 0.378622
0.992309 0.849546 0.395041
0.320928 0.854643 0.337652
0.360372 0.866896 0.343877
0.436637 0.86833 0.335348
0.561868 0.862699 0.323384
0.708003 0.866606 0.337209
0.825971 0.875624 0.359686
0.908568 0.88307 0.377539
0.965515 0.890837 0.392157
1 0.899825 0.404166
0.368399 0.922713 0.379507
0.402823 0.930144 0.381201
0.473182 0.927581 0.36878
0.591653 0.917922 0.351675
0.730541 0.916793 0.358831
0.84477 0.922255 0.377752
0.924315 0.926787 0.392721
0.978927 0.93138 0.40441
1 0.936645 0.413825
0 0.0416266 0.182605
0 0.0388647 0.220233
0.182025 0 0.30602
0.387213 0 0.197742
0.500847 0 0.141314
0.585138 0 0.127382
0.656245 0 0.134905
0.718746 0.00910964 0.154879
0.776074 0.0425727 0.184024
0 0.0958572 0.190204
0.00814832 0.108858 0.22739
0.179385 0.0748913 0.333013
0.41738 0.0437934 0.24976
0.554452 0.0604868 0.215351
0.660761 0.0894331 0.222065
0.747463 0.124529 0.245457
0.822385 0.16376 0.277836
0.889387 0.206897 0.316655
0.0640421 0.191989 0.235904
0.112673 0.220295 0.26038
0.184009 0.235386 0.29778
0.419486 0.207721 0.307103
0.58587 0.242084 0.309926
0.723659 0.281544 0.335988
0.823896 0.31989 0.364874
0.90248 0.360113 0.398733
0.968444 0.401663 0.436271
0.161288 0.359731 0.324788
0.223423 0.393347 0.359792
0.29778 0.39971 0.368826
0.409964 0.404608 0.367834
0.585855 0.437247 0.38294
0.737346 0.480278 0.411551
0.850141 0.519799 0.441703
0.931121 0.55407 0.470207
0.992187 0.586435 0.499077
0.218997 0.533272 0.383093
0.27306 0.563516 0.409903
0.328298 0.562463 0.394018
0.444846 0.566903 0.383581
0.609949 0.58613 0.411536
0.746548 0.619089 0.440864
0.854307 0.65687 0.47155
0.933135 0.68957 0.498604
0.990387 0.71754 0.523064
0.265003 0.675731 0.423743
0.307897 0.696803 0.437842
0.362554 0.692683 0.415824
0.477501 0.690257 0.401083
0.632349 0.70515 0.421866
0.764538 0.726024 0.450416
0.859113 0.748791 0.473075
0.93019 0.772335 0.495735
0.981659 0.793957 0.516518
0.315465 0.789883 0.466026
0.350729 0.803677 0.471839
0.402991 0.795605 0.445869
0.509834 0.784985 0.423117
0.652857 0.791135 0.431968
0.781552 0.809445 0.459937
0.873625 0.82417 0.480262
0.936461 0.839017 0.496376
0.981613 0.85359 0.511757
0.363424 0.877409 0.506264
0.392309 0.885176 0.505608
0.440681 0.873533 0.476005
0.541543 0.858228 0.447929
0.674205 0.85626 0.446525
0.79794 0.870054 0.470176
0.887007 0.881651 0.488746
0.947951 0.890929 0.50251
0.988388 0.900496 0.513741
0.404761 0.943084 0.541314
0.428656 0.946044 0.535744
0.473091 0.931441 0.503166
0.569497 0.913054 0.471168
0.694957 0.905592 0.462852
0.813794 0.914565 0.481392
0.899855 0.923293 0.49778
0.958465 0.929625 0.509438
0.997269 0.935378 0.518563
0 0.0545052 0.267338
0 0.0548257 0.303517
0.0611276 0.0175631 0.416739
0.402594 0 0.396246
0.54226 0 0.300771
0.62916 0 0.263676
0.70013 0 0.257023
0.761608 0 0.269429
0.818021 0.0233463 0.294453
0 0.116304 0.281514
0 0.133089 0.324269
0.0929732 0.122286 0.430838
0.437446 0.036347 0.461204
0.599557 0.0383459 0.375006
0.701579 0.0654307 0.351522
0.785702 0.10074 0.359228
0.858671 0.140551 0.384085
0.923522 0.183291 0.418601
0.0242008 0.228367 0.315022
0.0796063 0.263401 0.355245
0.165835 0.282658 0.418006
0.426505 0.217136 0.530083
0.628473 0.210193 0.450599
0.751049 0.245594 0.441901
0.846662 0.288289 0.462058
0.923751 0.331777 0.493736
0.988067 0.374258 0.529686
0.175845 0.387289 0.431739
0.244327 0.42887 0.473106
0.320546 0.444587 0.485191
0.390677 0.439094 0.492424
0.602426 0.413809 0.501976
0.740337 0.455146 0.51838
0.854078 0.498741 0.552728
0.940337 0.538293 0.586236
1 0.574029 0.61799
0.287602 0.578058 0.538796
0.357702 0.620096 0.582254
0.436835 0.630869 0.59646
0.496864 0.593225 0.562814
0.588602 0.586709 0.550225
0.720745 0.61442 0.566384
0.831754 0.650462 0.592187
0.916548 0.684657 0.619684
0.979507 0.715099 0.645869
0.365713 0.731151 0.616434
0.420645 0.76022 0.645701
0.48661 0.763867 0.648249
0.52047 0.713634 0.584115
0.614557 0.706111 0.562036
0.736767 0.720211 0.58294
0.832135 0.743511 0.604288
0.908415 0.772076 0.628443
0.96492 0.798093 0.650614
0.423316 0.846616 0.673655
0.463935 0.863752 0.689097
0.509285 0.85272 0.670756
0.540902 0.802197 0.597818
0.637125 0.791241 0.574197
0.752483 0.802152 0.590112
0.844678 0.816999 0.610117
0.910414 0.833936 0.626627
0.959533 0.851759 0.643381
0.46865 0.932479 0.717128
0.498848 0.940948 0.722286
0.531212 0.920867 0.690608
0.563012 0.869459 0.614237
0.657282 0.853819 0.58703
0.766171 0.859968 0.596231
0.856672 0.873411 0.616007
0.920485 0.884749 0.630365
0.963668 0.896269 0.641901
0.506111 0.996643 0.752087
0.528634 0.998825 0.749767
0.553079 0.973251 0.710262
0.58436 0.920241 0.631327
0.675258 0.900114 0.600031
0.77937 0.902022 0.60383
0.867567 0.913298 0.621714
0.929488 0.922454 0.634607
0.971069 0.930007 0.644068
0 0.0645151 0.32845
0 0.0665904 0.364553
0 0.0407721 0.468467
0.344671 0 0.544808
0.56228 0 0.439002
0.66247 0 0.390539
0.737285 0 0.377951
0.800366 0 0.385214
0.857237 0.0118105 0.406455
0 0.131151 0.348791
0 0.149401 0.393606
0.0523232 0.147616 0.494667
0.375982 0.0669871 0.616434
0.623926 0.0355077 0.522377
0.737194 0.0571756 0.482353
0.823072 0.0896925 0.480278
0.895994 0.127672 0.497307
0.959777 0.168704 0.525765
0 0.251347 0.380697
0.0513313 0.289082 0.429526
0.150591 0.317006 0.507668
0.361669 0.279026 0.66038
0.660395 0.209781 0.614527
0.78703 0.231861 0.572412
0.876554 0.268055 0.572061
0.949584 0.307637 0.589899
1 0.347173 0.616846
0.161746 0.410407 0.492699
0.230747 0.457847 0.536675
0.313222 0.493874 0.564782
0.39649 0.495064 0.604364
0.623819 0.421927 0.678203
0.769268 0.425193 0.624384
0.866285 0.457603 0.626535
0.944671 0.494987 0.648249
1 0.531304 0.67631
0.300786 0.596506 0.622858
0.370977 0.639048 0.666545
0.46511 0.665736 0.695506
0.530251 0.636973 0.666789
0.576349 0.612299 0.647166
0.72842 0.595468 0.65507
0.827634 0.627375 0.670497
0.909529 0.661265 0.698299
0.971984 0.69189 0.725139
0.405509 0.762387 0.723598
0.465766 0.795544 0.758129
0.553277 0.815763 0.781826
0.618555 0.781933 0.753033
0.651713 0.724941 0.699474
0.719005 0.719448 0.688701
0.809415 0.737728 0.699916
0.884337 0.762417 0.717571
0.940597 0.786053 0.736812
0.480186 0.884565 0.79678
0.528374 0.906889 0.82005
0.599619 0.913787 0.829206
0.658534 0.878401 0.795224
0.668635 0.808759 0.714931
0.737789 0.802319 0.697902
0.821546 0.810941 0.711391
0.884947 0.825544 0.724956
0.933913 0.843565 0.740414
0.536614 0.975021 0.852308
0.57496 0.988861 0.866468
0.631952 0.984787 0.862776
0.677668 0.941497 0.815686
0.682994 0.869001 0.724804
0.753979 0.860563 0.707027
0.833295 0.866926 0.717098
0.894301 0.875715 0.729366
0.936477 0.886122 0.73959
0.580484 1 0.895277
0.611307 1 0.902388
0.657404 1 0.889097
0.691615 0.986099 0.829801
0.697261 0.91313 0.735561
0.767956 0.902159 0.716014
0.843183 0.905577 0.72192
0.902754 0.912978 0.733562
0.94342 0.91957 0.742092
0 0.0725109 0.368994
0 0.0763714 0.405814
0 0.0564889 0.503822
0.28336 0 0.624262
0.55993 0 0.549264
0.684749 0 0.488106
0.764981 0 0.471824
0.830701 0 0.478523
0.889113 0.00973526 0.498924
0 0.144289 0.396216
0 0.164218 0.442939
0.0322881 0.166491 0.540795
0.318273 0.101457 0.691829
0.622736 0.0465858 0.641062
0.762798 0.059144 0.585718
0.853391 0.0895857 0.577981
0.927474 0.126497 0.592447
0.991241 0.166445 0.618265
0 0.271183 0.432593
0.0366217 0.309651 0.484977
0.137819 0.338094 0.566537
0.330404 0.319554 0.722744
0.653941 0.233371 0.748165
0.812696 0.235462 0.681666
0.904585 0.266499 0.670405
0.97673 0.302678 0.682002
1 0.339437 0.703731
0.149203 0.434226 0.53666
0.21619 0.48249 0.58143
0.302312 0.524407 0.621988
0.405341 0.539055 0.687587
0.595361 0.477989 0.803006
0.798886 0.426581 0.744015
0.894224 0.446342 0.722255
0.964996 0.475624 0.728161
1 0.506264 0.74461
0.305348 0.613428 0.676616
0.373388 0.655421 0.718685
0.467384 0.68719 0.748837
0.541283 0.683024 0.734859
0.586374 0.657801 0.732174
0.746197 0.600626 0.77908
0.846845 0.604898 0.743481
0.915358 0.62887 0.747509
0.970626 0.655741 0.764569
0.418616 0.777615 0.786374
0.478035 0.810254 0.820386
0.566323 0.831769 0.845182
0.650065 0.8168 0.834501
0.678965 0.756817 0.776211
0.710262 0.735073 0.755932
0.814038 0.72636 0.76321
0.880827 0.747402 0.774136
0.934081 0.769329 0.792203
0.50396 0.905287 0.868437
0.553719 0.929 0.893477
0.631678 0.941512 0.909361
0.717525 0.92845 0.901442
0.73814 0.856825 0.834485
0.760159 0.812543 0.79237
0.809369 0.810773 0.786389
0.868955 0.821729 0.793194
0.916091 0.836667 0.80354
0.56611 0.997589 0.928801
0.607141 1 0.9458
0.674311 1 0.952285
0.754086 1 0.939437
0.766979 0.923644 0.864927
0.772641 0.870237 0.803555
0.822766 0.867048 0.793317
0.87805 0.87155 0.801205
0.918059 0.879774 0.808942
0.613901 1 0.975464
0.648188 1 0.986236
0.70634 1 0.985199
0.77731 1 0.964218
0.782574 0.967956 0.881651
0.783642 0.911025 0.81146
0.834226 0.905974 0.800153
0.886305 0.908537 0.805386
0.924575 0.912917 0.812024
0 0.0794232 0.396658
0 0.0847791 0.434256
0 0.0686198 0.529595
0.243915 0 0.668437
0.550362 0 0.62826
0.697505 0 0.564187
0.786297 0 0.542092
0.855116 0 0.54818
0.915328 0.013489 0.5691
0 0.156069 0.429831
0 0.177951 0.478492
0.0248417 0.183062 0.575097
0.286931 0.129351 0.734752
0.61384 0.0640116 0.725704
0.778103 0.0674144 0.667185
0.877638 0.0955825 0.652308
0.953368 0.131777 0.664515
1 0.170977 0.689189
0 0.289372 0.472526
0.0334478 0.328923 0.527474
0.135561 0.358007 0.611139
0.318257 0.34699 0.764004
0.636881 0.263127 0.835172
0.825803 0.247837 0.7691
0.927001 0.272755 0.746029
0.999924 0.30634 0.753307
1 0.341283 0.772656
0.145113 0.456535 0.572396
0.211154 0.504936 0.618402
0.296941 0.54612 0.664103
0.411872 0.569421 0.744549
0.58291 0.524727 0.86952
0.808499 0.445838 0.845777
0.917418 0.4495 0.80235
0.986542 0.47396 0.799329
1 0.501137 0.810208
0.31017 0.631296 0.715297
0.375891 0.672663 0.755764
0.465309 0.705119 0.783551
0.547875 0.718273 0.785229
0.601602 0.697215 0.79855
0.731258 0.64213 0.871015
0.868864 0.605936 0.826169
0.935241 0.620325 0.813703
0.984741 0.64062 0.819562
0.426886 0.790143 0.827695
0.484703 0.82179 0.860487
0.570916 0.842802 0.883757
0.664469 0.841474 0.883421
0.691737 0.791562 0.827085
0.715557 0.764889 0.812802
0.826566 0.728664 0.846922
0.894865 0.733013 0.824384
0.939773 0.749081 0.827665
0.515145 0.917174 0.913283
0.564248 0.940551 0.938064
0.642161 0.953475 0.954437
0.737636 0.95021 0.956176
0.764019 0.884474 0.894728
0.778149 0.832105 0.844175
0.803113 0.819684 0.831724
0.872053 0.815747 0.837736
0.914595 0.828473 0.844541
0.581323 1 0.976974
0.622858 1 0.994781
0.692531 1 1
0.784726 1 1
0.811276 0.96173 0.941787
0.815808 0.898009 0.881483
0.835187 0.871717 0.856352
0.869932 0.871687 0.853223
0.907668 0.877836 0.85716
0.63064 1 1
0.665736 1 1
0.727626 1 1
0.81239 1 1
0.839063 1 0.970703
0.834943 0.942107 0.901671
0.844038 0.910277 0.864057
0.878859 0.908553 0.857786
0.913878 0.910582 0.862058
0 0.0861219 0.416648
0 0.0927749 0.455131
0 0.0791333 0.549523
0.222858 0.0105898 0.696544
0.542855 0 0.682216
0.706371 0 0.619883
0.802853 0 0.595483
0.875471 0 0.59971
0.93727 0.0209049 0.62063
0 0.167498 0.455039
0 0.190875 0.505119
0.0255589 0.198627 0.60206
0.274235 0.152117 0.764904
0.608087 0.0829786 0.784176
0.789715 0.0797436 0.728099
0.896422 0.105623 0.7093
0.974945 0.140856 0.718196
1 0.179156 0.741405
0 0.306432 0.503578
0.0375067 0.346853 0.560265
0.140749 0.377157 0.645899
0.318212 0.36994 0.796216
0.626093 0.29073 0.890959
0.834653 0.264149 0.833875
0.944137 0.283467 0.804669
1 0.314229 0.806332
1 0.347234 0.823072
0.148501 0.477302 0.602289
0.213504 0.525093 0.648722
0.299458 0.565942 0.697978
0.417945 0.591043 0.783551
0.582254 0.556924 0.911849
0.810483 0.470436 0.91783
0.932494 0.459953 0.866072
1 0.479011 0.852979
1 0.50399 0.860166
0.31722 0.648814 0.744823
0.38114 0.689738 0.784176
0.466911 0.722316 0.810254
0.554116 0.74342 0.821866
0.615518 0.727077 0.846159
0.72781 0.679026 0.922454
0.878874 0.619654 0.896498
0.952728 0.622385 0.868589
1 0.639002 0.868513
0.435523 0.803006 0.857816
0.492042 0.833997 0.889677
0.576074 0.85452 0.911421
0.672953 0.860746 0.915541
0.701961 0.820447 0.865492
0.726345 0.791836 0.857664
0.815641 0.754833 0.907454
0.909636 0.733303 0.878843
0.953552 0.743862 0.872206
0.522698 0.926146 0.942626
0.570932 0.948974 0.966842
0.647501 0.961257 0.982315
0.745937 0.962051 0.987182
0.778881 0.905379 0.932509
0.786435 0.853895 0.877394
0.803967 0.837064 0.866987
0.880537 0.81622 0.892241
0.925292 0.820401 0.879011
0.590387 1 1
0.631357 1 1
0.700816 1 1
0.795544 1 1
0.830793 0.982132 0.98439
0.832425 0.915434 0.920974
0.845792 0.882292 0.889418
0.865888 0.876524 0.883116
0.909773 0.875212 0.887785
0.640803 1 1
0.675807 1 1
0.738643 1 1
0.827237 1 1
0.865965 1 1
0.861967 0.964813 0.950423
0.86836 0.923903 0.911849
0.885191 0.910231 0.898604
0.908888 0.911116 0.897276
