lut_library/店主推荐/709通用轻创意3.cube
# 版权归凌孟成所有，侵权必究
# Created by: Lutify.me
# Copyright: (c) Copyright Lutify.me 2016, G.T. Colord LTD
# Website: https://lutify.me
# Contact: help@lutify.me
LUT_3D_SIZE 33
0.004181 0.002777 0.003143
0.042694 0.008392 0.005280
0.081757 0.013916 0.003998
0.121277 0.019562 0.001068
0.161804 0.025238 0.000000
0.202789 0.030914 0.000000
0.246155 0.036865 0.000000
0.288879 0.042145 0.000000
0.330200 0.046936 0.000000
0.365143 0.050659 0.000000
0.398895 0.053955 0.000000
0.431702 0.056793 0.000000
0.464111 0.059479 0.000000
0.495422 0.062317 0.000000
0.523895 0.065857 0.000000
0.550964 0.069275 0.000000
0.577301 0.072601 0.000000
0.604034 0.075928 0.000000
0.631073 0.079346 0.000000
0.658569 0.082825 0.000000
0.686432 0.086304 0.000000
0.714630 0.089874 0.000000
0.743073 0.093445 0.000000
0.770630 0.096893 0.000000
0.797607 0.100281 0.000000
0.825134 0.103760 0.000000
0.853210 0.107300 0.000000
0.881866 0.110870 0.000000
0.911072 0.114563 0.000000
0.940735 0.118286 0.000000
0.970734 0.122070 0.000000
0.999390 0.126526 0.000000
0.999908 0.131653 0.000000
0.004028 0.036804 0.022308
0.039520 0.037231 0.007812
0.077576 0.039398 0.006165
0.112061 0.043945 0.006439
0.146759 0.049774 0.002808
0.184814 0.055664 0.000000
0.222931 0.061493 0.000000
0.263214 0.067566 0.000000
0.303589 0.072906 0.000000
0.342682 0.078918 0.000000
0.378448 0.083191 0.000000
0.413666 0.087372 0.000000
0.446167 0.090973 0.000000
0.478333 0.093933 0.000000
0.509705 0.097290 0.000000
0.540833 0.100342 0.000000
0.569824 0.103363 0.000000
0.597321 0.106110 0.000000
0.624451 0.109314 0.000000
0.652130 0.112457 0.000000
0.680176 0.115662 0.000000
0.708588 0.119019 0.000000
0.737549 0.122375 0.000000
0.766907 0.125916 0.000000
0.795227 0.129333 0.000000
0.823669 0.133667 0.000000
0.851746 0.137665 0.000000
0.880463 0.141998 0.000000
0.909607 0.146881 0.000000
0.939209 0.151123 0.000000
0.969177 0.155975 0.000000
0.996460 0.160828 0.000000
0.999603 0.165924 0.000000
0.003662 0.069427 0.040710
0.035706 0.069916 0.026245
0.074615 0.071014 0.012207
0.113312 0.073120 0.005920
0.147339 0.075500 0.007263
0.181610 0.079681 0.003510
0.216614 0.085022 0.000000
0.251740 0.090881 0.000000
0.288025 0.097107 0.000000
0.324921 0.103668 0.000000
0.361755 0.110107 0.000000
0.398773 0.115173 0.000000
0.432495 0.119659 0.000000
0.464630 0.123566 0.000000
0.496613 0.126984 0.000000
0.528809 0.130463 0.000000
0.561890 0.133118 0.000000
0.591278 0.136292 0.000000
0.618896 0.139313 0.000000
0.646667 0.142273 0.000000
0.674774 0.145416 0.000000
0.703400 0.148651 0.000000
0.732452 0.151978 0.000000
0.762085 0.155609 0.000000
0.792236 0.159180 0.000000
0.821625 0.163361 0.000000
0.850433 0.167786 0.000000
0.879150 0.172516 0.000000
0.908325 0.177460 0.000000
0.937958 0.182434 0.000000
0.967957 0.187469 0.000000
0.993622 0.192596 0.000000
0.999725 0.197968 0.000000
0.002838 0.099823 0.057678
0.031586 0.100372 0.043152
0.070648 0.101532 0.029144
0.109253 0.103668 0.015808
0.149445 0.106415 0.006714
0.185120 0.108185 0.006073
0.219910 0.111450 0.004272
0.255035 0.115784 0.000000
0.289093 0.120850 0.000000
0.325226 0.126709 0.000000
0.361633 0.132507 0.000000
0.398499 0.138519 0.000000
0.430115 0.143738 0.000000
0.460815 0.148529 0.000000
0.491486 0.153015 0.000000
0.520844 0.157623 0.000000
0.553314 0.161377 0.000000
0.585602 0.164978 0.000000
0.615204 0.168457 0.000000
0.642914 0.171814 0.000000
0.670990 0.175232 0.000000
0.699615 0.178741 0.000000
0.728699 0.182495 0.000000
0.758301 0.186157 0.000000
0.788513 0.190002 0.000000
0.819214 0.194122 0.000000
0.849030 0.198364 0.000000
0.878082 0.202698 0.000000
0.907318 0.207367 0.000000
0.937012 0.212036 0.000000
0.967041 0.216827 0.000000
0.991302 0.221680 0.000000
1.000000 0.226685 0.000000
0.001709 0.130463 0.075867
0.027161 0.130768 0.059967
0.066254 0.131897 0.045898
0.104858 0.133911 0.032532
0.144958 0.136627 0.018890
0.185089 0.139465 0.008087
0.223877 0.141937 0.003815
0.258850 0.144257 0.003662
0.292603 0.147705 0.000000
0.328278 0.152344 0.000000
0.364075 0.157410 0.000000
0.399658 0.162811 0.000000
0.434143 0.168213 0.000000
0.464722 0.172821 0.000000
0.494598 0.177124 0.000000
0.524261 0.181610 0.000000
0.555573 0.185669 0.000000
0.585815 0.190399 0.000000
0.614563 0.194855 0.000000
0.641846 0.198730 0.000000
0.668243 0.202850 0.000000
0.696838 0.206451 0.000000
0.725891 0.210297 0.000000
0.755524 0.214203 0.000000
0.785706 0.218170 0.000000
0.816498 0.222229 0.000000
0.847595 0.226532 0.000000
0.877563 0.231018 0.000000
0.906921 0.235382 0.000000
0.936646 0.239990 0.000000
0.966705 0.244781 0.000000
0.989685 0.249512 0.000000
1.000000 0.254456 0.000000
0.000732 0.160736 0.094269
0.021515 0.161224 0.078094
0.061554 0.162048 0.062805
0.100067 0.163971 0.049408
0.140411 0.166534 0.035461
0.180725 0.169403 0.021698
0.221375 0.172485 0.009216
0.261932 0.175751 0.002197
0.296295 0.177429 0.002625
0.331512 0.180573 0.000366
0.366577 0.184509 0.000000
0.401459 0.189026 0.000000
0.436920 0.193787 0.000000
0.469025 0.198486 0.000000
0.499451 0.202393 0.000000
0.529633 0.206421 0.000000
0.558502 0.210724 0.000000
0.589294 0.215057 0.000000
0.621216 0.219177 0.000000
0.648987 0.223328 0.000000
0.676422 0.227173 0.000000
0.701782 0.231628 0.000000
0.729279 0.235718 0.000000
0.757202 0.240051 0.000000
0.785492 0.244629 0.000000
0.814270 0.249451 0.000000
0.845490 0.253784 0.000000
0.876831 0.258209 0.000000
0.906921 0.262756 0.000000
0.936707 0.267242 0.000000
0.966888 0.271912 0.000000
0.989075 0.276733 0.000000
1.000000 0.281616 0.000000
0.000153 0.190979 0.112976
0.015045 0.191864 0.096954
0.055084 0.192780 0.081543
0.093994 0.194427 0.067444
0.135101 0.196991 0.053040
0.175934 0.199768 0.038879
0.216919 0.202728 0.024506
0.257477 0.205872 0.010590
0.297150 0.209106 0.002747
0.335541 0.211914 0.000397
0.370697 0.214539 0.000458
0.404877 0.217743 0.000000
0.440063 0.221832 0.000000
0.473480 0.225830 0.000000
0.504883 0.229523 0.000000
0.534332 0.233032 0.000000
0.563599 0.236816 0.000000
0.594666 0.240936 0.000000
0.626282 0.245026 0.000000
0.657349 0.249237 0.000000
0.683502 0.253052 0.000000
0.711182 0.256744 0.000000
0.739136 0.260681 0.000000
0.765533 0.265106 0.000000
0.794312 0.269379 0.000000
0.823547 0.273895 0.000000
0.853241 0.278687 0.000000
0.883301 0.283630 0.000000
0.912201 0.288696 0.000000
0.942749 0.293152 0.000000
0.970581 0.298431 0.000000
0.989899 0.303802 0.000000
1.000000 0.308533 0.000000
0.000000 0.220306 0.130920
0.009399 0.221252 0.115784
0.047638 0.222443 0.100311
0.086823 0.224030 0.085968
0.128967 0.226593 0.070984
0.170410 0.229340 0.056396
0.211823 0.232330 0.041809
0.252808 0.235535 0.027252
0.292542 0.238617 0.013184
0.333008 0.242218 0.003479
0.373047 0.245941 0.000183
0.407959 0.248047 0.000122
0.443451 0.251160 0.000000
0.477570 0.254578 0.000000
0.509338 0.257690 0.000000
0.538147 0.260712 0.000000
0.569305 0.264099 0.000000
0.599304 0.267639 0.000000
0.631287 0.271545 0.000000
0.663696 0.275452 0.000000
0.692810 0.279144 0.000000
0.719177 0.282715 0.000000
0.745667 0.286499 0.000000
0.774414 0.290314 0.000000
0.803680 0.294312 0.000000
0.831207 0.298767 0.000000
0.861359 0.303223 0.000000
0.891968 0.307861 0.000000
0.922516 0.312653 0.000000
0.951508 0.317474 0.000000
0.978638 0.322449 0.000000
0.997620 0.326721 0.000000
1.000000 0.332031 0.000000
0.000000 0.248596 0.148071
0.005341 0.249542 0.133514
0.039581 0.250763 0.118896
0.079010 0.252411 0.104340
0.121582 0.255005 0.089111
0.164246 0.257843 0.073944
0.206238 0.260834 0.059021
0.247711 0.264008 0.044220
0.287872 0.267242 0.029846
0.328278 0.270844 0.015137
0.368195 0.274445 0.004486
0.408325 0.278381 0.000061
0.446320 0.281372 0.000000
0.480591 0.283905 0.000000
0.513336 0.286530 0.000000
0.543671 0.289093 0.000000
0.573914 0.291870 0.000000
0.604401 0.294891 0.000000
0.635223 0.298157 0.000000
0.668213 0.301880 0.000000
0.698456 0.305267 0.000000
0.727600 0.308746 0.000000
0.754547 0.312134 0.000000
0.783752 0.315521 0.000000
0.811371 0.319427 0.000000
0.839294 0.323578 0.000000
0.869812 0.327698 0.000000
0.900818 0.331848 0.000000
0.932129 0.336365 0.000000
0.963043 0.340851 0.000000
0.987061 0.345337 0.000000
1.000000 0.349976 0.000000
1.000000 0.354584 0.000000
0.000000 0.276642 0.165161
0.002289 0.277740 0.151306
0.031860 0.278931 0.137207
0.068756 0.280396 0.123383
0.112640 0.282990 0.107513
0.156281 0.285797 0.091888
0.199982 0.288818 0.076172
0.242035 0.291962 0.060944
0.282806 0.295135 0.046204
0.323303 0.298645 0.031219
0.363281 0.302246 0.016510
0.403351 0.306122 0.004913
0.444000 0.310089 0.000000
0.483337 0.313690 0.000000
0.517059 0.315552 0.000000
0.549164 0.317719 0.000000
0.578613 0.319641 0.000000
0.609558 0.322113 0.000000
0.640808 0.324860 0.000000
0.672607 0.327911 0.000000
0.704041 0.331299 0.000000
0.735962 0.334442 0.000000
0.763397 0.337402 0.000000
0.791077 0.340546 0.000000
0.819092 0.343994 0.000000
0.847412 0.347687 0.000000
0.878296 0.351471 0.000000
0.909668 0.355377 0.000000
0.939056 0.359924 0.000000
0.970642 0.364258 0.000000
0.992523 0.368500 0.000000
1.000000 0.372620 0.000000
1.000000 0.377014 0.000000
0.000000 0.303406 0.181580
0.000580 0.304657 0.167725
0.025879 0.305939 0.154327
0.061218 0.307373 0.140961
0.101959 0.309845 0.126038
0.147217 0.312683 0.109680
0.192200 0.315735 0.093353
0.235931 0.318939 0.077393
0.277344 0.322144 0.062256
0.318329 0.325653 0.046906
0.358398 0.329224 0.031952
0.398560 0.333038 0.017120
0.439087 0.337067 0.005798
0.479584 0.341095 0.000000
0.519989 0.344910 0.000000
0.552216 0.346283 0.000000
0.583435 0.347870 0.000000
0.613495 0.349518 0.000000
0.645081 0.351837 0.000000
0.677185 0.354370 0.000000
0.709503 0.357208 0.000000
0.742371 0.360321 0.000000
0.768677 0.362762 0.000000
0.798584 0.365540 0.000000
0.826935 0.368561 0.000000
0.855652 0.371796 0.000000
0.886902 0.375336 0.000000
0.916412 0.379120 0.000000
0.948486 0.382904 0.000000
0.976654 0.387390 0.000000
0.999664 0.391266 0.000000
1.000000 0.395355 0.000000
1.000000 0.399414 0.000000
0.000000 0.329041 0.197479
0.000000 0.330505 0.183594
0.022888 0.331940 0.170166
0.055267 0.333405 0.157532
0.093719 0.335815 0.143341
0.135651 0.338593 0.127960
0.183502 0.341858 0.110504
0.228455 0.345123 0.093933
0.271393 0.348450 0.078033
0.312866 0.351990 0.062256
0.353455 0.355621 0.046997
0.393799 0.359497 0.031830
0.434326 0.363434 0.018433
0.474701 0.367493 0.006744
0.516296 0.371704 0.000000
0.553894 0.374878 0.000000
0.587036 0.376465 0.000000
0.617493 0.377472 0.000000
0.649567 0.379181 0.000000
0.681946 0.381317 0.000000
0.715118 0.383698 0.000000
0.747345 0.386139 0.000000
0.777405 0.388458 0.000000
0.806213 0.390961 0.000000
0.834991 0.393555 0.000000
0.864044 0.396362 0.000000
0.893524 0.399597 0.000000
0.923340 0.403015 0.000000
0.955597 0.406586 0.000000
0.985382 0.410309 0.000000
1.000000 0.414429 0.000000
1.000000 0.418182 0.000000
1.000000 0.422028 0.000000
0.000000 0.353729 0.212646
0.000000 0.355194 0.198883
0.020416 0.356628 0.185394
0.051849 0.358093 0.172699
0.084534 0.360321 0.160278
0.125275 0.363098 0.145294
0.173187 0.366302 0.127625
0.220734 0.369690 0.109955
0.264709 0.373047 0.093536
0.307251 0.376556 0.077209
0.348175 0.380188 0.061371
0.388763 0.384033 0.045776
0.429291 0.388123 0.032410
0.469666 0.392151 0.019531
0.511139 0.396393 0.006744
0.550110 0.399994 0.000580
0.586273 0.402740 0.000000
0.622589 0.405609 0.000000
0.653656 0.406281 0.000000
0.684937 0.407349 0.000000
0.718292 0.409241 0.000000
0.751648 0.411346 0.000000
0.783783 0.413727 0.000000
0.811401 0.415558 0.000000
0.840515 0.417786 0.000000
0.869904 0.420258 0.000000
0.899719 0.423035 0.000000
0.932037 0.426056 0.000000
0.962341 0.429413 0.000000
0.989746 0.432922 0.000000
1.000000 0.436432 0.000000
1.000000 0.440155 0.000000
1.000000 0.443970 0.000000
0.000000 0.377838 0.227478
0.000000 0.379242 0.213715
0.017639 0.380676 0.200317
0.048523 0.382141 0.187531
0.081177 0.384338 0.175049
0.114594 0.386780 0.162354
0.162445 0.389984 0.144623
0.211212 0.393402 0.126373
0.257660 0.396820 0.108856
0.300812 0.400330 0.092163
0.342621 0.403961 0.075745
0.383575 0.407806 0.059570
0.424316 0.411896 0.045898
0.464630 0.416046 0.033112
0.505951 0.420319 0.019989
0.545166 0.424011 0.007355
0.582794 0.427307 0.001556
0.619110 0.430115 0.000000
0.656128 0.432922 0.000000
0.689209 0.433929 0.000000
0.723053 0.435333 0.000000
0.755493 0.436707 0.000000
0.787354 0.438324 0.000000
0.818390 0.440247 0.000000
0.847839 0.442261 0.000000
0.877594 0.444366 0.000000
0.907776 0.446686 0.000000
0.938232 0.449249 0.000000
0.968689 0.452087 0.000000
0.997925 0.455322 0.000000
1.000000 0.458679 0.000000
1.000000 0.462006 0.000000
1.000000 0.465393 0.000000
0.000000 0.401489 0.242126
0.000000 0.402893 0.228302
0.015625 0.404358 0.214935
0.045349 0.405823 0.202057
0.077942 0.407990 0.189545
0.111328 0.410431 0.176819
0.148682 0.413208 0.162476
0.199799 0.416718 0.143250
0.249634 0.420227 0.124420
0.294342 0.423798 0.106964
0.336700 0.427399 0.090118
0.378326 0.431274 0.073151
0.419159 0.435333 0.059387
0.459625 0.439484 0.046448
0.500793 0.443787 0.033386
0.540680 0.447632 0.020599
0.579285 0.451172 0.008118
0.615570 0.453888 0.002258
0.652496 0.456696 0.000000
0.690216 0.459564 0.000000
0.725800 0.461182 0.000000
0.758606 0.461823 0.000000
0.793457 0.463531 0.000000
0.824921 0.464905 0.000000
0.852692 0.466125 0.000000
0.882721 0.467712 0.000000
0.913177 0.469788 0.000000
0.943939 0.472046 0.000000
0.974579 0.474670 0.000000
0.999603 0.477417 0.000000
1.000000 0.480255 0.000000
1.000000 0.483490 0.000000
1.000000 0.486816 0.000000
0.000000 0.424530 0.256744
0.000000 0.426025 0.242859
0.013947 0.427551 0.229370
0.042084 0.429108 0.216522
0.074738 0.431335 0.203888
0.107086 0.433777 0.191406
0.142212 0.436493 0.177765
0.188080 0.439758 0.160126
0.240265 0.443359 0.140320
0.287079 0.446991 0.121948
0.330536 0.450653 0.104523
0.372742 0.454498 0.087128
0.414001 0.458618 0.072784
0.454681 0.462769 0.059692
0.495819 0.467102 0.046692
0.536499 0.471252 0.033722
0.575684 0.474915 0.021118
0.612000 0.477722 0.009125
0.648865 0.480591 0.002411
0.686584 0.483246 0.000000
0.725281 0.486206 0.000000
0.761688 0.487671 0.000000
0.797028 0.488861 0.000000
0.829285 0.489868 0.000000
0.857452 0.490417 0.000000
0.887787 0.491852 0.000000
0.918518 0.493530 0.000000
0.949524 0.495514 0.000000
0.980560 0.497650 0.000000
0.999878 0.500031 0.000000
1.000000 0.502594 0.000000
1.000000 0.505341 0.000000
1.000000 0.508606 0.000000
0.000000 0.447205 0.271393
0.000000 0.448792 0.257538
0.012207 0.450439 0.243958
0.038879 0.452148 0.230927
0.071564 0.454468 0.218231
0.103821 0.456940 0.205658
0.135712 0.459656 0.193024
0.179504 0.462891 0.176056
0.229950 0.466461 0.156555
0.278320 0.470123 0.137543
0.323883 0.473877 0.119171
0.366882 0.477814 0.101318
0.408661 0.481903 0.086578
0.449615 0.486115 0.073029
0.490845 0.490509 0.059998
0.531494 0.494659 0.047058
0.572113 0.498779 0.034119
0.608337 0.501587 0.022186
0.645294 0.504425 0.009949
0.682953 0.507324 0.002106
0.721619 0.510101 0.000000
0.761261 0.512939 0.000000
0.800507 0.515137 0.000000
0.833344 0.515686 0.000000
0.864044 0.516083 0.000000
0.894714 0.517090 0.000000
0.923706 0.518036 0.000000
0.955078 0.519562 0.000000
0.986572 0.521332 0.000000
0.999512 0.523376 0.000000
1.000000 0.525543 0.000000
1.000000 0.528290 0.000000
1.000000 0.531128 0.000000
0.000000 0.469452 0.286377
0.000000 0.470978 0.272461
0.009979 0.472656 0.258911
0.035675 0.474426 0.245911
0.068329 0.476715 0.233124
0.100739 0.479218 0.220490
0.132416 0.481873 0.207764
0.170349 0.485016 0.192505
0.217133 0.488464 0.174133
0.270874 0.492523 0.152710
0.317078 0.496399 0.134094
0.360840 0.500458 0.115814
0.403290 0.504791 0.100037
0.444489 0.509125 0.086212
0.485779 0.513733 0.073273
0.527252 0.518280 0.060211
0.568268 0.522552 0.047211
0.604614 0.525604 0.035339
0.641632 0.528625 0.023163
0.679352 0.531494 0.010712
0.717865 0.534515 0.001373
0.757446 0.537384 0.000000
0.798401 0.540344 0.000000
0.836456 0.542175 0.000000
0.868500 0.542389 0.000000
0.899506 0.543060 0.000000
0.928833 0.543335 0.000000
0.960480 0.544647 0.000000
0.992249 0.546051 0.000000
0.999359 0.547791 0.000000
1.000000 0.549561 0.000000
1.000000 0.551788 0.000000
1.000000 0.554199 0.000000
0.000000 0.491943 0.301575
0.000000 0.493439 0.287781
0.007233 0.495148 0.274353
0.032318 0.496979 0.261353
0.065063 0.499268 0.248535
0.097290 0.501740 0.235870
0.129089 0.504456 0.223114
0.162567 0.507355 0.209412
0.203705 0.510742 0.192749
0.259766 0.514923 0.170441
0.309906 0.519012 0.149811
0.354462 0.523193 0.131195
0.397644 0.527618 0.113983
0.439240 0.532104 0.099426
0.480591 0.536804 0.086487
0.522430 0.541534 0.073425
0.564331 0.546265 0.060303
0.600861 0.549347 0.048370
0.637756 0.552429 0.036285
0.675507 0.555603 0.023956
0.713989 0.558594 0.011353
0.753510 0.561493 0.000122
0.794312 0.564575 0.000000
0.835114 0.567352 0.000000
0.874603 0.569763 0.000000
0.903961 0.569305 0.000000
0.933594 0.569305 0.000000
0.965546 0.570129 0.000000
0.994904 0.571320 0.000000
0.999939 0.572144 0.000000
1.000000 0.573792 0.000000
1.000000 0.575653 0.000000
1.000000 0.578186 0.000000
0.000000 0.514771 0.317474
0.000000 0.516266 0.303741
0.005005 0.517944 0.290283
0.028870 0.519958 0.277344
0.061523 0.522278 0.264618
0.093842 0.524719 0.251923
0.125702 0.527435 0.239166
0.156860 0.530273 0.226349
0.189575 0.533295 0.212769
0.248749 0.537598 0.189117
0.300873 0.541809 0.167725
0.347748 0.546051 0.147675
0.391541 0.550476 0.129150
0.433838 0.555023 0.112671
0.475403 0.559753 0.099670
0.517303 0.564575 0.086609
0.559845 0.569427 0.073334
0.596527 0.572662 0.061401
0.633698 0.575836 0.049286
0.671417 0.578979 0.036926
0.709839 0.582123 0.024323
0.749298 0.585205 0.011566
0.789978 0.588348 0.000366
0.831085 0.591278 0.000000
0.872437 0.594025 0.000000
0.907959 0.595978 0.000000
0.940002 0.596222 0.000000
0.970154 0.596069 0.000000
0.994232 0.596252 0.000000
1.000000 0.597992 0.000000
1.000000 0.598816 0.000000
1.000000 0.600250 0.000000
1.000000 0.602142 0.000000
0.000000 0.538055 0.333984
0.000000 0.539490 0.320343
0.002777 0.541229 0.306885
0.025299 0.543335 0.293976
0.058075 0.545654 0.281281
0.090240 0.548126 0.268707
0.122101 0.550842 0.256042
0.153229 0.553680 0.243378
0.183838 0.556671 0.230591
0.235962 0.560699 0.209778
0.291016 0.565002 0.187225
0.339569 0.569336 0.166534
0.385010 0.573853 0.145844
0.427917 0.578461 0.128052
0.470184 0.583221 0.113129
0.512177 0.588074 0.100037
0.554749 0.593079 0.086823
0.592316 0.596497 0.074646
0.629517 0.599731 0.062531
0.667206 0.602875 0.050201
0.705658 0.605988 0.037567
0.745026 0.609131 0.024628
0.785614 0.612396 0.011292
0.827484 0.615540 0.001587
0.869507 0.618591 0.000000
0.905640 0.620361 0.000000
0.941925 0.622284 0.000000
0.974457 0.622620 0.000000
0.995361 0.623047 0.000000
1.000000 0.623016 0.000000
1.000000 0.624115 0.000000
1.000000 0.625275 0.000000
1.000000 0.626678 0.000000
0.000000 0.561707 0.350830
0.000000 0.563202 0.337097
0.000488 0.564941 0.323883
0.021729 0.567139 0.311035
0.054474 0.569519 0.298401
0.086609 0.571991 0.285919
0.118530 0.574707 0.273254
0.149628 0.577576 0.260651
0.180145 0.580536 0.248108
0.227692 0.584442 0.229065
0.279572 0.588654 0.208038
0.330688 0.593109 0.186401
0.377380 0.597717 0.165344
0.421722 0.602356 0.144470
0.464264 0.607178 0.128326
0.506775 0.612091 0.113831
0.549347 0.617126 0.100616
0.587494 0.620728 0.088318
0.625305 0.624115 0.076080
0.663116 0.627319 0.063721
0.701447 0.630463 0.051147
0.740753 0.633606 0.038208
0.781219 0.636810 0.024872
0.823029 0.640106 0.011108
0.866089 0.643341 0.002319
0.902740 0.645355 0.000000
0.939453 0.647156 0.000000
0.976440 0.649109 0.000000
0.995209 0.649261 0.000000
1.000000 0.649658 0.000000
1.000000 0.650299 0.000000
1.000000 0.651276 0.000000
1.000000 0.652191 0.000000
0.000000 0.585876 0.368286
0.000000 0.587280 0.354675
0.000000 0.589142 0.341492
0.018524 0.591492 0.328766
0.050720 0.593872 0.316132
0.082916 0.596344 0.303650
0.114624 0.599091 0.291168
0.145752 0.601959 0.278656
0.176300 0.604950 0.266205
0.212036 0.608398 0.251617
0.263397 0.612640 0.231018
0.321350 0.617371 0.207642
0.369354 0.622101 0.186127
0.414551 0.626801 0.165039
0.458527 0.631714 0.143097
0.501221 0.636688 0.128265
0.544098 0.641785 0.114655
0.582825 0.645630 0.102264
0.620941 0.649139 0.089935
0.658813 0.652344 0.077576
0.697205 0.655518 0.065002
0.736359 0.658691 0.052155
0.776825 0.661865 0.038788
0.818481 0.665222 0.025085
0.861511 0.668518 0.010864
0.899780 0.670715 0.002838
0.936951 0.672668 0.000000
0.973907 0.674500 0.000000
0.995575 0.676483 0.000000
1.000000 0.677460 0.000000
1.000000 0.677795 0.000000
1.000000 0.677521 0.000000
1.000000 0.678253 0.000000
0.000000 0.609406 0.385559
0.000000 0.611206 0.372314
0.000000 0.613129 0.359222
0.015991 0.615570 0.346558
0.046814 0.618134 0.334137
0.079071 0.620667 0.321716
0.110779 0.623535 0.309357
0.141968 0.626617 0.297028
0.172516 0.629639 0.284698
0.204437 0.633148 0.271606
0.249939 0.637238 0.253479
0.309479 0.642090 0.229828
0.360779 0.646973 0.208160
0.407013 0.651794 0.186829
0.451447 0.656738 0.164856
0.495575 0.661835 0.142944
0.538452 0.666992 0.129089
0.577942 0.671021 0.116516
0.616547 0.674652 0.104095
0.654358 0.677917 0.091766
0.692749 0.681152 0.079224
0.731903 0.684357 0.066376
0.772339 0.687622 0.053101
0.813965 0.690948 0.039398
0.856842 0.694275 0.025238
0.896301 0.696686 0.011871
0.934265 0.698914 0.003113
0.971283 0.700714 0.000000
0.994812 0.702576 0.000000
1.000000 0.704559 0.000000
1.000000 0.706299 0.000000
1.000000 0.705536 0.000000
1.000000 0.706024 0.000000
0.000000 0.632690 0.402893
0.000000 0.634705 0.389709
0.000000 0.637024 0.376953
0.014313 0.639587 0.364532
0.042969 0.642273 0.352203
0.075317 0.645050 0.339935
0.107025 0.648102 0.327728
0.137970 0.651337 0.315643
0.168549 0.654694 0.303589
0.198090 0.658295 0.291504
0.240234 0.662445 0.274750
0.298767 0.667419 0.251984
0.350616 0.672363 0.230469
0.398804 0.677307 0.209473
0.443939 0.682343 0.187500
0.488525 0.687500 0.165649
0.532867 0.692749 0.143799
0.572754 0.696930 0.131134
0.612000 0.700775 0.118591
0.649719 0.704071 0.106323
0.688232 0.707306 0.093719
0.727570 0.710571 0.080841
0.767914 0.713867 0.067596
0.809387 0.717224 0.053986
0.852203 0.720551 0.039856
0.892303 0.723206 0.026367
0.931549 0.725525 0.013062
0.968567 0.727295 0.003265
0.994171 0.729309 0.000000
1.000000 0.731171 0.000000
1.000000 0.733124 0.000000
1.000000 0.735046 0.000000
1.000000 0.735077 0.000000
0.000000 0.656128 0.420471
0.000000 0.658478 0.407684
0.000000 0.660706 0.394867
0.012543 0.663300 0.382538
0.039307 0.665985 0.370270
0.071411 0.668762 0.358154
0.103180 0.671783 0.346039
0.134247 0.675049 0.334076
0.164581 0.678406 0.322174
0.194305 0.682037 0.310425
0.233124 0.686218 0.295135
0.287689 0.691162 0.274078
0.341888 0.696594 0.252655
0.391052 0.701782 0.231964
0.436615 0.707245 0.211609
0.481415 0.712677 0.189056
0.526093 0.718140 0.166656
0.568207 0.723022 0.145630
0.607391 0.727051 0.133179
0.645081 0.730621 0.121063
0.683624 0.734100 0.108582
0.723022 0.737457 0.095703
0.763306 0.740784 0.082520
0.804688 0.744171 0.068939
0.847382 0.747589 0.054901
0.889374 0.750580 0.040894
0.928558 0.752808 0.027557
0.965637 0.754639 0.014801
0.993561 0.756561 0.003479
1.000000 0.758545 0.000000
1.000000 0.760376 0.000000
1.000000 0.762299 0.000000
1.000000 0.764160 0.000000
0.000000 0.680023 0.438538
0.000000 0.682495 0.425781
0.000000 0.684937 0.413208
0.010468 0.687500 0.400909
0.035370 0.690186 0.388763
0.067535 0.692963 0.376678
0.099335 0.696014 0.364594
0.130219 0.699249 0.352814
0.160797 0.702667 0.341034
0.190369 0.706268 0.329407
0.225128 0.710266 0.315887
0.276886 0.715332 0.296143
0.332214 0.720886 0.274719
0.383240 0.726410 0.254364
0.429108 0.731995 0.234558
0.473969 0.737701 0.214050
0.518982 0.743500 0.190948
0.561279 0.748505 0.169525
0.602478 0.752930 0.148102
0.640198 0.756683 0.136078
0.678894 0.760376 0.123199
0.718231 0.763947 0.110474
0.758301 0.767365 0.097412
0.799835 0.770874 0.083832
