lut_library/店主推荐/709通用轻创意.cube
# 版权归凌孟成所有，侵权必究
# Created by: Lutify.me
# Copyright: (c) Copyright Lutify.me 2016, G.T. Colord LTD
# Website: https://lutify.me
# Contact: help@lutify.me
LUT_3D_SIZE 5
0.000000 0.004883 0.035278
0.084625 0.016022 0.026825
0.299683 0.017029 0.015594
0.514221 0.026489 0.026398
0.701202 0.040405 0.036011
0.032898 0.183990 0.111481
0.213013 0.133728 0.020325
0.382416 0.153168 0.019623
0.544495 0.155334 0.027954
0.680328 0.176788 0.034912
0.106323 0.352783 0.167175
0.251587 0.333099 0.161743
0.505310 0.313171 0.034851
0.666473 0.343018 0.035950
0.787476 0.388062 0.082611
0.115234 0.531494 0.181335
0.222839 0.564728 0.167114
0.493469 0.506653 0.111908
0.699493 0.512817 0.069763
0.808197 0.565430 0.148102
0.064026 0.728302 0.172852
0.172089 0.757904 0.160858
0.497162 0.713287 0.125031
0.687286 0.705017 0.069000
0.804138 0.733734 0.166016
0.000000 0.034241 0.074554
0.103882 0.047699 0.125031
0.384857 0.030243 0.082886
0.608612 0.031219 0.051025
0.770599 0.039551 0.043488
0.000000 0.187439 0.174225
0.111908 0.225311 0.218658
0.416412 0.222931 0.166382
0.634277 0.188751 0.083588
0.751404 0.192596 0.052216
0.052673 0.372894 0.219727
0.151825 0.413269 0.235779
0.502411 0.383453 0.185059
0.682648 0.383270 0.091980
0.797424 0.424805 0.127686
0.094299 0.558167 0.228180
0.141876 0.598083 0.231934
0.490967 0.553711 0.190002
0.708588 0.556946 0.145844
0.813599 0.594635 0.179169
0.052124 0.740936 0.223633
0.168793 0.773743 0.228638
0.527039 0.757843 0.212952
0.707214 0.734802 0.157104
0.820953 0.760193 0.248260
0.000000 0.074890 0.115021
0.013458 0.118927 0.191681
0.391602 0.071014 0.182465
0.629669 0.040771 0.135254
0.786835 0.040375 0.109924
0.000000 0.205566 0.218781
0.034515 0.254364 0.282776
0.428925 0.260620 0.289917
0.682373 0.241730 0.223328
0.800995 0.250122 0.192322
0.000000 0.361359 0.318298
0.054932 0.429596 0.375000
0.431091 0.501587 0.460083
0.697144 0.484283 0.312103
0.818359 0.487671 0.249329
0.003845 0.570343 0.304962
0.063110 0.614807 0.321045
0.500397 0.655701 0.360870
0.727661 0.635010 0.341675
0.835083 0.648682 0.294434
0.010559 0.751526 0.280457
0.144745 0.788940 0.314667
0.545258 0.810547 0.335724
0.731750 0.775818 0.307953
0.851532 0.804565 0.420715
0.000000 0.113953 0.153412
0.000000 0.154572 0.204193
0.346954 0.138062 0.317810
0.569611 0.109131 0.292358
0.785217 0.062500 0.214264
0.000000 0.228821 0.254517
0.033173 0.283173 0.329590
0.365387 0.300934 0.483368
0.632507 0.275940 0.417633
0.833893 0.260529 0.364502
0.000000 0.380066 0.387360
0.038361 0.455353 0.479706
0.410828 0.532257 0.535919
0.727020 0.530396 0.543823
0.880341 0.530823 0.483795
0.000000 0.551910 0.467163
0.074402 0.622253 0.521362
0.478516 0.683044 0.577545
0.743195 0.713593 0.614014
0.874207 0.721741 0.558899
0.000000 0.751465 0.452759
0.089142 0.795227 0.496674
0.511749 0.847778 0.571442
0.770691 0.852173 0.601685
0.887756 0.852142 0.634705
0.000000 0.157593 0.198120
0.000000 0.201599 0.256378
0.187378 0.267426 0.523834
0.492828 0.248932 0.511475
0.697266 0.175812 0.574036
0.000000 0.265167 0.314392
0.051666 0.324188 0.393951
0.255035 0.377594 0.603943
0.584778 0.333893 0.600189
0.759155 0.292480 0.632538
0.000000 0.408081 0.470337
0.063110 0.497650 0.572479
0.382385 0.572632 0.630524
0.699982 0.560974 0.699829
0.833649 0.555389 0.698364
0.000000 0.568726 0.571442
0.103546 0.651428 0.658417
0.437256 0.709229 0.689240
0.742584 0.742004 0.727051
0.876678 0.747284 0.738495
0.000000 0.753357 0.627380
0.166870 0.805023 0.670898
0.493744 0.843048 0.704742
0.773376 0.875275 0.733826
0.914886 0.885162 0.762939
