lut_library/店主推荐/709通用轻创意.cube
# 版权归凌孟成所有，侵权必究
# Created by: Lutify.me
# Copyright: (c) Copyright Lutify.me 2016, G.T. Colord LTD
# Website: https://lutify.me
# Contact: help@lutify.me
LUT_3D_SIZE 9
0.000000 0.004883 0.035278
0.002350 0.006927 0.029938
0.084625 0.016022 0.026825
0.198120 0.017395 0.018127
0.299683 0.017029 0.015594
0.417175 0.021637 0.021423
0.514221 0.026489 0.026398
0.616272 0.031738 0.031647
0.701202 0.040405 0.036011
0.000671 0.092010 0.068573
0.054321 0.073090 0.051086
0.148834 0.070343 0.019257
0.234344 0.075714 0.012238
0.321442 0.077332 0.016510
0.412872 0.067963 0.021179
0.494232 0.058685 0.025360
0.606750 0.056000 0.031158
0.661987 0.063232 0.033997
0.032898 0.183990 0.111481
0.082520 0.167480 0.100800
0.213013 0.133728 0.020325
0.300385 0.143738 0.015564
0.382416 0.153168 0.019623
0.471008 0.158600 0.024170
0.544495 0.155334 0.027954
0.629791 0.148499 0.032318
0.680328 0.176788 0.034912
0.078827 0.268738 0.145630
0.096283 0.264343 0.140625
0.241821 0.235626 0.117462
0.370758 0.221466 0.022583
0.460876 0.234131 0.024902
0.548096 0.246216 0.028442
0.616974 0.253632 0.031677
0.684753 0.260437 0.035126
0.734619 0.283569 0.037720
0.106323 0.352783 0.167175
0.114868 0.354034 0.166534
0.251587 0.333099 0.161743
0.386322 0.314178 0.081024
0.505310 0.313171 0.034851
0.592407 0.329773 0.034912
0.666473 0.343018 0.035950
0.729706 0.353455 0.039124
0.787476 0.388062 0.082611
0.117371 0.438812 0.178101
0.123108 0.446472 0.178345
0.244080 0.455139 0.167664
0.378204 0.415710 0.145020
0.505920 0.406616 0.074554
0.610748 0.409637 0.049927
0.688324 0.426605 0.045807
0.749756 0.438568 0.044373
0.802979 0.487610 0.138550
0.115234 0.531494 0.181335
0.118103 0.541412 0.181152
0.222839 0.564728 0.167114
0.373535 0.514435 0.155487
0.493469 0.506653 0.111908
0.604218 0.506592 0.080658
0.699493 0.512817 0.069763
0.761780 0.524902 0.063141
0.808197 0.565430 0.148102
0.096741 0.634827 0.177155
0.096344 0.646759 0.176392
0.185974 0.669556 0.161530
0.369019 0.641174 0.144806
0.487000 0.602905 0.120819
0.590424 0.606293 0.085907
0.696991 0.614502 0.085968
0.764771 0.619354 0.086609
0.805817 0.645599 0.173950
0.064026 0.728302 0.172852
0.066071 0.731537 0.172943
0.172089 0.757904 0.160858
0.368073 0.753357 0.147766
0.497162 0.713287 0.125031
0.586243 0.695953 0.090363
0.687286 0.705017 0.069000
0.764008 0.716339 0.089752
0.804138 0.733734 0.166016
0.000000 0.015961 0.054199
0.000580 0.024536 0.077332
0.109375 0.023560 0.067444
0.236694 0.026917 0.054291
0.364716 0.022858 0.038483
0.489380 0.025116 0.027893
0.569061 0.029205 0.029694
0.657898 0.033783 0.033783
0.729065 0.037598 0.037415
0.000000 0.094757 0.100098
0.001831 0.102509 0.111389
0.122742 0.108093 0.104401
0.241699 0.107605 0.087524
0.364777 0.094727 0.059967
0.474304 0.071625 0.036713
0.549438 0.055756 0.030701
0.644226 0.048645 0.033081
0.696686 0.054718 0.035767
0.001923 0.187622 0.136536
0.019867 0.194763 0.142212
0.193390 0.176514 0.123688
0.307098 0.173187 0.077118
0.410553 0.167511 0.035522
0.490784 0.168427 0.025299
0.558258 0.166382 0.028656
0.636108 0.161743 0.032654
0.689209 0.187134 0.035370
0.059723 0.277161 0.168060
0.071747 0.285309 0.172211
0.220642 0.266998 0.162048
0.364532 0.248077 0.081146
0.464569 0.247894 0.032776
0.549561 0.257294 0.029022
0.624817 0.265045 0.032104
0.691559 0.271301 0.035492
0.744843 0.293427 0.038483
0.096161 0.363892 0.188721
0.103333 0.374939 0.192078
0.222412 0.382141 0.182709
0.367676 0.343292 0.141266
0.499969 0.330780 0.059845
0.589355 0.340912 0.038025
0.669006 0.354675 0.037659
0.733673 0.364349 0.039337
0.791138 0.403534 0.097137
0.110474 0.451843 0.198151
0.113800 0.465546 0.200470
0.207397 0.488525 0.188934
0.367584 0.436890 0.173218
0.498810 0.430389 0.111725
0.607117 0.425507 0.069885
0.689423 0.439545 0.054382
0.753937 0.450104 0.048187
0.805206 0.500488 0.146606
0.108704 0.544647 0.200775
0.109375 0.559418 0.201965
0.184265 0.582947 0.189423
0.369690 0.549225 0.178345
0.489868 0.524353 0.131653
0.601379 0.524597 0.103394
0.701172 0.529236 0.089325
0.765991 0.539764 0.080719
0.809540 0.577576 0.156342
0.089813 0.647308 0.197266
0.087372 0.662781 0.197510
0.157715 0.683441 0.189728
0.365601 0.674072 0.173981
0.490479 0.624298 0.149170
0.591492 0.622314 0.104584
0.699127 0.629578 0.102753
0.769073 0.633789 0.103516
0.806946 0.656738 0.181549
0.059052 0.734283 0.195740
0.061371 0.739014 0.198883
0.177094 0.765808 0.191620
0.380402 0.770203 0.181122
0.512360 0.734924 0.165466
0.597931 0.712677 0.136169
0.694733 0.717926 0.096344
0.769867 0.727295 0.114166
0.808563 0.741608 0.187531
0.000000 0.034241 0.074554
0.000000 0.045898 0.090607
0.103882 0.047699 0.125031
0.254608 0.041992 0.106934
0.384857 0.030243 0.082886
0.517303 0.026855 0.062805
0.608612 0.031219 0.051025
0.704468 0.036163 0.045135
0.770599 0.039551 0.043488
0.000000 0.103241 0.125031
0.000000 0.117645 0.141602
0.107513 0.131714 0.175140
0.264648 0.127747 0.146729
0.400116 0.121094 0.127045
0.534698 0.100189 0.102112
0.629395 0.073822 0.076141
0.728241 0.047821 0.052490
0.770905 0.051483 0.051575
0.000000 0.187439 0.174225
0.000000 0.200592 0.185364
0.111908 0.225311 0.218658
0.274658 0.227661 0.193848
0.416412 0.222931 0.166382
0.541931 0.207733 0.125061
0.634277 0.188751 0.083588
0.704193 0.171692 0.054077
0.751404 0.192596 0.052216
0.000397 0.280853 0.201477
0.006439 0.291138 0.207642
0.141144 0.317688 0.228577
0.337341 0.301849 0.210754
0.469391 0.302795 0.170746
0.573059 0.296600 0.123810
0.655579 0.288422 0.075439
0.718597 0.284546 0.049683
0.772186 0.308044 0.061096
0.052673 0.372894 0.219727
0.064270 0.386169 0.224030
0.151825 0.413269 0.235779
0.348816 0.384552 0.217468
0.502411 0.383453 0.185059
0.598267 0.384674 0.141693
0.682648 0.383270 0.091980
0.747437 0.382294 0.062592
0.797424 0.424805 0.127686
0.085876 0.465576 0.226318
0.091522 0.479584 0.229889
0.149689 0.508148 0.235504
0.357422 0.490967 0.223236
0.493591 0.468658 0.185852
0.613770 0.467072 0.162048
0.697906 0.472198 0.120361
0.760529 0.474030 0.089447
0.808868 0.517242 0.165649
0.094299 0.558167 0.228180
0.096191 0.572083 0.230743
0.141876 0.598083 0.231934
0.356720 0.599091 0.218353
0.490967 0.553711 0.190002
0.602753 0.553406 0.161133
0.708588 0.556946 0.145844
0.772430 0.562469 0.123291
0.813599 0.594635 0.179169
0.079895 0.659271 0.225006
0.078430 0.673218 0.226288
0.122406 0.696167 0.224945
0.352081 0.711304 0.212463
0.499786 0.660095 0.197784
0.596832 0.645264 0.156158
0.704437 0.650635 0.146698
0.776520 0.653961 0.145508
0.813843 0.675262 0.216125
0.052124 0.740936 0.223633
0.055908 0.747681 0.229095
0.168793 0.773743 0.228638
0.387146 0.790863 0.222900
0.527039 0.757843 0.212952
0.611908 0.730530 0.193817
0.707214 0.734802 0.157104
0.780640 0.743927 0.173126
0.820953 0.760193 0.248260
0.000000 0.054047 0.094360
0.000000 0.062225 0.105835
0.088806 0.082123 0.177490
0.251678 0.058624 0.160217
0.396576 0.051636 0.136353
0.528870 0.034027 0.109711
0.621185 0.032837 0.090210
0.720398 0.036957 0.076965
0.783417 0.040222 0.073029
0.000000 0.117645 0.144135
0.000000 0.131927 0.161407
0.045624 0.158142 0.200378
0.257843 0.145325 0.200287
0.413513 0.135803 0.175934
0.559662 0.113678 0.147827
0.654724 0.086273 0.120392
0.753662 0.054657 0.091400
0.798309 0.064209 0.090729
0.000000 0.193237 0.197296
0.000000 0.203796 0.207489
0.058716 0.239746 0.253052
0.263855 0.250214 0.272980
0.427368 0.248199 0.236542
0.550232 0.241821 0.208862
0.650116 0.226105 0.174988
0.736237 0.202881 0.135040
0.787445 0.217773 0.123688
0.000000 0.273590 0.243713
0.000000 0.292236 0.257019
0.081055 0.326080 0.292053
0.264313 0.358948 0.338745
0.444855 0.357178 0.284210
0.566742 0.350830 0.241821
0.673340 0.339050 0.193146
0.746338 0.322449 0.143951
0.794830 0.341827 0.145599
0.000000 0.373169 0.258270
0.000488 0.387726 0.265167
0.085236 0.419739 0.284943
0.311798 0.458893 0.310730
0.488770 0.436462 0.298187
0.597717 0.437653 0.254395
0.694489 0.435913 0.208099
0.762848 0.426239 0.160614
0.807495 0.455933 0.187439
0.030121 0.473236 0.263855
0.040649 0.488312 0.268646
0.103638 0.519348 0.279785
0.319061 0.554321 0.292053
0.488800 0.513184 0.274658
0.616882 0.515411 0.267975
0.709564 0.520020 0.224426
0.773224 0.515594 0.181488
0.817200 0.543549 0.212708
0.058746 0.567932 0.260010
0.063873 0.582123 0.263184
0.109894 0.609161 0.271423
0.321533 0.641754 0.274658
0.494415 0.595978 0.267426
0.606018 0.590759 0.244080
0.721039 0.597778 0.240814
0.783478 0.597778 0.203064
0.824097 0.620483 0.229767
0.057220 0.668365 0.252197
0.058502 0.681335 0.254486
0.098572 0.704590 0.261108
0.323151 0.733429 0.259705
0.507935 0.700439 0.255402
0.604889 0.673553 0.231171
0.714355 0.679443 0.223663
0.789093 0.682312 0.221924
0.827423 0.701233 0.281952
0.035400 0.746490 0.249420
0.042297 0.755951 0.256500
0.162109 0.781311 0.268799
0.381195 0.807434 0.267670
0.538635 0.782349 0.266968
0.628235 0.755402 0.255219
0.720276 0.755890 0.231140
0.793732 0.765656 0.247955
0.836243 0.782562 0.329498
0.000000 0.074890 0.115021
0.000000 0.080933 0.123840
0.013458 0.118927 0.191681
0.238098 0.081726 0.204712
0.391602 0.071014 0.182465
0.535126 0.057678 0.159424
0.629669 0.040771 0.135254
0.729919 0.037720 0.115936
0.786835 0.040375 0.109924
0.000000 0.133881 0.162781
0.000000 0.149078 0.182159
0.017883 0.173218 0.211884
0.247864 0.165344 0.247559
0.403778 0.150299 0.224365
0.564789 0.128662 0.193756
0.662384 0.102478 0.163177
0.761292 0.068939 0.134399
0.805054 0.082184 0.135620
0.000000 0.205566 0.218781
0.000000 0.215057 0.229034
0.034515 0.254364 0.282776
0.218140 0.279816 0.334564
0.428925 0.260620 0.289917
0.582458 0.252808 0.252960
0.682373 0.241730 0.223328
0.761108 0.228271 0.195221
0.800995 0.250122 0.192322
0.000000 0.282104 0.275513
0.000000 0.292786 0.285217
0.035187 0.341217 0.343506
0.235596 0.376495 0.384369
0.449707 0.381805 0.371338
0.575348 0.380890 0.325378
0.690399 0.370850 0.273132
0.767303 0.352783 0.221588
0.811707 0.374207 0.219208
0.000000 0.361359 0.318298
0.000000 0.384338 0.334839
0.054932 0.429596 0.375000
0.273773 0.467712 0.419037
0.431091 0.501587 0.460083
0.588196 0.488922 0.376068
0.697144 0.484283 0.312103
0.771637 0.471802 0.254395
0.818359 0.487671 0.249329
0.000000 0.471741 0.315918
0.000000 0.487061 0.323273
0.043701 0.519745 0.341400
0.291412 0.566956 0.386749
0.492767 0.576447 0.398102
0.613861 0.562195 0.389771
0.714813 0.563507 0.326569
0.782562 0.557068 0.272064
0.827728 0.572449 0.272308
0.003845 0.570343 0.304962
0.012421 0.584778 0.310272
0.063110 0.614807 0.321045
0.305115 0.654022 0.358734
0.500397 0.655701 0.360870
0.607758 0.626862 0.338043
0.727661 0.635010 0.341675
0.793488 0.634216 0.291168
0.835083 0.648682 0.294434
0.021912 0.673096 0.290009
0.026886 0.685852 0.293640
0.072937 0.710541 0.302643
0.309875 0.740875 0.325714
0.507446 0.740021 0.329681
0.612274 0.703186 0.315704
0.720001 0.705597 0.299286
0.799988 0.710083 0.305878
0.840759 0.725037 0.350647
0.010559 0.751526 0.280457
0.020782 0.763245 0.290436
0.144745 0.788940 0.314667
0.375122 0.814606 0.325531
0.545258 0.810547 0.335724
0.644653 0.784576 0.325806
0.731750 0.775818 0.307953
0.804474 0.785004 0.317902
0.851532 0.804565 0.420715
0.000000 0.094269 0.134033
0.000000 0.102570 0.144867
0.000000 0.136871 0.189209
0.228210 0.125366 0.244049
0.362610 0.093719 0.244019
0.510040 0.086182 0.219513
0.624298 0.072540 0.196106
0.727051 0.047638 0.169037
0.787292 0.041748 0.154297
0.000000 0.148529 0.178925
0.000000 0.165314 0.201233
0.006409 0.189240 0.230499
0.201904 0.198120 0.341064
0.360687 0.173553 0.293243
0.531921 0.150299 0.263489
0.654175 0.124817 0.228699
0.757477 0.090820 0.188812
0.805878 0.096924 0.183441
0.000000 0.216980 0.236511
0.000000 0.227600 0.249390
0.030609 0.268372 0.306061
0.175293 0.302063 0.361725
0.390747 0.280121 0.368988
0.559723 0.269379 0.336304
0.691406 0.252930 0.287903
0.783417 0.234467 0.244568
0.836060 0.252655 0.240692
0.000000 0.292633 0.300659
0.000000 0.301880 0.310333
0.028656 0.352875 0.382721
0.218079 0.393646 0.421112
0.405304 0.407898 0.476135
0.586578 0.394562 0.421661
0.719116 0.387756 0.369293
0.781464 0.381561 0.323517
0.828735 0.397247 0.306610
0.000000 0.369202 0.353058
0.000000 0.383392 0.365356
0.034058 0.443909 0.430481
0.254547 0.480591 0.474487
0.426331 0.515228 0.495361
0.604523 0.515381 0.488068
0.715790 0.521729 0.445557
0.789978 0.514252 0.383545
0.839661 0.520874 0.349396
0.000000 0.456238 0.392059
0.000000 0.484192 0.411591
0.048401 0.528870 0.448792
0.287903 0.567841 0.489746
0.467468 0.595978 0.518402
0.595673 0.616791 0.545685
0.719452 0.615753 0.490448
0.793793 0.612030 0.434937
0.846313 0.612213 0.390503
0.000000 0.562073 0.391357
0.000000 0.579620 0.399658
0.040100 0.611481 0.419739
0.287079 0.657318 0.466492
0.485870 0.688263 0.499634
0.626648 0.684937 0.509033
0.736786 0.682709 0.507904
0.806122 0.683380 0.453308
0.854065 0.687714 0.423340
0.000000 0.667755 0.372223
0.000000 0.681244 0.380402
0.035065 0.709656 0.398041
0.288025 0.747772 0.445404
0.489868 0.769745 0.468292
0.632324 0.764557 0.476868
0.729767 0.743469 0.460632
0.815033 0.748688 0.468933
0.862610 0.758026 0.473724
0.000000 0.756042 0.355591
0.000000 0.767975 0.369812
0.086975 0.795258 0.394928
0.345642 0.824829 0.446075
0.520691 0.841522 0.455902
0.657135 0.836578 0.470398
0.746490 0.813354 0.462311
0.818878 0.816681 0.459106
0.873535 0.834534 0.555084
0.000000 0.113953 0.153412
0.000000 0.123779 0.165619
0.000000 0.154572 0.204193
0.141235 0.182434 0.339935
0.346954 0.138062 0.317810
0.451050 0.123535 0.312317
0.569611 0.109131 0.292358
0.699432 0.098328 0.259857
0.785217 0.062500 0.214264
0.000000 0.163971 0.196442
0.000000 0.182343 0.221191
0.002960 0.205750 0.251038
0.120972 0.237640 0.359833
0.342651 0.202301 0.352478
0.469727 0.172668 0.363831
0.581024 0.151306 0.346954
0.706299 0.135712 0.326416
0.781616 0.131470 0.298615
0.000000 0.228821 0.254517
0.000000 0.242889 0.274658
0.033173 0.283173 0.329590
0.156921 0.319427 0.391052
0.365387 0.300934 0.483368
0.509491 0.288971 0.434235
0.632507 0.275940 0.417633
0.749420 0.255463 0.391937
0.833893 0.260529 0.364502
0.000000 0.303528 0.325500
0.000000 0.313141 0.337402
0.032867 0.367004 0.418243
0.213409 0.411469 0.455597
0.367584 0.433960 0.527527
0.554230 0.410706 0.501221
0.688690 0.404388 0.489044
0.796936 0.387756 0.455963
0.866089 0.394806 0.424011
0.000000 0.380066 0.387360
0.000000 0.391235 0.398193
0.038361 0.455353 0.479706
0.245178 0.496429 0.515320
0.410828 0.532257 0.535919
0.577667 0.534027 0.563263
0.727020 0.530396 0.543823
0.821747 0.523773 0.506653
0.880341 0.530823 0.483795
0.000000 0.461273 0.431915
0.000000 0.483673 0.450958
0.037720 0.544495 0.511230
0.276184 0.579498 0.549286
0.451447 0.605560 0.570190
0.595215 0.629791 0.584198
0.745117 0.629639 0.578308
0.818298 0.633484 0.553986
0.872589 0.639282 0.531281
0.000000 0.551910 0.467163
0.000000 0.581055 0.487000
0.074402 0.622253 0.521362
0.307556 0.658539 0.555786
0.478516 0.683044 0.577545
0.628845 0.702911 0.599426
0.743195 0.713593 0.614014
0.817535 0.718475 0.585205
0.874207 0.721741 0.558899
0.000000 0.653381 0.466583
0.000000 0.673462 0.475922
0.057465 0.704681 0.499481
0.306732 0.743866 0.541443
0.488098 0.768829 0.570343
0.639404 0.786102 0.591064
0.751831 0.776978 0.604370
0.828186 0.779419 0.603058
0.880829 0.785431 0.584869
0.000000 0.751465 0.452759
0.000000 0.766174 0.463440
0.089142 0.795227 0.496674
0.332703 0.828156 0.542664
0.511749 0.847778 0.571442
0.651978 0.860718 0.583801
0.770691 0.852173 0.601685
0.832642 0.842529 0.593964
0.887756 0.852142 0.634705
0.000000 0.135345 0.174896
0.000000 0.147095 0.189453
0.000000 0.175293 0.225677
0.047699 0.223694 0.324432
0.291382 0.211609 0.416321
0.441711 0.174561 0.409546
0.525116 0.152924 0.420532
0.620300 0.145447 0.412689
0.715179 0.128754 0.400330
0.000000 0.183411 0.220642
0.000000 0.201294 0.243378
0.001434 0.224915 0.276215
0.074860 0.264160 0.364105
0.278320 0.250000 0.505127
0.449554 0.219452 0.441589
0.553833 0.181824 0.464203
0.641052 0.169250 0.464478
0.722778 0.158020 0.446472
0.000000 0.243896 0.278107
0.000000 0.264069 0.312103
0.039062 0.301270 0.358093
0.142548 0.340393 0.428009
0.294922 0.340454 0.569000
0.493286 0.313416 0.514862
0.605927 0.290466 0.523102
0.684509 0.284271 0.518524
0.777039 0.279297 0.509705
0.000000 0.316254 0.354614
0.000000 0.330597 0.376556
0.040741 0.386749 0.454010
0.211609 0.432922 0.494446
0.342285 0.456573 0.575226
0.538788 0.430786 0.612701
0.662750 0.417175 0.580139
0.738556 0.415527 0.574890
0.827332 0.405609 0.565674
0.000000 0.392975 0.425903
0.000000 0.404846 0.439880
0.047791 0.471985 0.528168
0.239380 0.518158 0.558105
0.392487 0.552246 0.581024
0.553772 0.552917 0.644165
0.696899 0.549835 0.618073
0.779877 0.545288 0.621002
0.863647 0.539825 0.608887
0.000000 0.473114 0.478333
0.000000 0.492859 0.498138
0.058441 0.556396 0.572754
0.272766 0.594849 0.601105
0.427551 0.624420 0.616180
0.589203 0.645905 0.633972
0.721405 0.649323 0.646118
0.809753 0.645416 0.651733
0.892609 0.640869 0.634613
0.000000 0.555756 0.515991
0.000000 0.584808 0.540985
0.062897 0.639130 0.593140
0.298553 0.671326 0.624359
0.462982 0.691956 0.642273
0.613251 0.712799 0.653412
0.748566 0.727875 0.672028
0.835754 0.729492 0.673340
0.901337 0.733063 0.657013
0.000000 0.654297 0.549438
0.000000 0.678558 0.565735
0.111542 0.715363 0.598846
0.327118 0.745178 0.626678
0.484009 0.764526 0.644012
0.633118 0.782471 0.659912
0.769592 0.796021 0.684906
0.839325 0.803833 0.692383
0.896454 0.808563 0.677704
0.000000 0.745728 0.547668
0.000000 0.763947 0.558044
0.114838 0.795013 0.587006
0.334015 0.824860 0.619843
0.497070 0.844604 0.642792
0.648529 0.862488 0.663727
0.779114 0.873199 0.686218
0.850891 0.866974 0.695404
0.902100 0.869873 0.705841
0.000000 0.157593 0.198120
0.000000 0.172028 0.216644
0.000000 0.201599 0.256378
0.021454 0.248230 0.340607
0.187378 0.267426 0.523834
0.389343 0.253510 0.534882
0.492828 0.248932 0.511475
0.617828 0.199432 0.550934
0.697266 0.175812 0.574036
0.000000 0.207306 0.251434
0.000000 0.222290 0.269012
0.001160 0.248260 0.308746
0.058533 0.288086 0.391510
0.201233 0.298981 0.555389
0.413300 0.273041 0.574158
0.512909 0.262878 0.534180
0.629395 0.216187 0.565765
0.711426 0.190063 0.589447
0.000000 0.265167 0.314392
0.000000 0.290375 0.354431
0.051666 0.324188 0.393951
0.133759 0.366302 0.473724
0.255035 0.377594 0.603943
0.457123 0.347321 0.660278
0.584778 0.333893 0.600189
0.674286 0.312469 0.609650
0.759155 0.292480 0.632538
0.000000 0.333496 0.394012
0.000000 0.359039 0.434448
0.057739 0.411896 0.494843
0.213654 0.458160 0.537842
0.320465 0.481049 0.626862
0.492737 0.461792 0.703369
0.656677 0.443604 0.660767
0.728119 0.435791 0.654205
0.804169 0.418182 0.671539
0.000000 0.408081 0.470337
0.000000 0.432465 0.505035
0.063110 0.497650 0.572479
0.240173 0.543152 0.603363
0.382385 0.572632 0.630524
0.534180 0.575226 0.698242
0.699982 0.560974 0.699829
0.768524 0.560791 0.684875
0.833649 0.555389 0.698364
0.000000 0.487366 0.529327
0.000000 0.510559 0.557281
0.081299 0.576752 0.625305
0.267090 0.616913 0.646393
0.407074 0.645996 0.663452
0.580841 0.661774 0.686523
0.723236 0.656708 0.720886
0.792267 0.662384 0.704651
0.853790 0.659729 0.719421
0.000000 0.568726 0.571442
0.000000 0.599915 0.602997
0.103546 0.651428 0.658417
0.296417 0.684845 0.676666
0.437256 0.709229 0.689240
0.593872 0.731262 0.698334
0.742584 0.742004 0.727051
0.818878 0.745941 0.724396
0.876678 0.747284 0.738495
0.000000 0.661652 0.607605
0.000000 0.689697 0.631104
0.114380 0.731659 0.670410
0.314087 0.755768 0.691895
0.470703 0.772675 0.706329
0.623260 0.789246 0.717743
0.759308 0.807129 0.728302
0.844482 0.814056 0.743195
0.903473 0.817352 0.751831
0.000000 0.753357 0.627380
0.000000 0.773682 0.640991
0.166870 0.805023 0.670898
0.342163 0.826691 0.690582
0.493744 0.843048 0.704742
0.640930 0.858490 0.717957
0.773376 0.875275 0.733826
0.859314 0.880951 0.754578
0.914886 0.885162 0.762939
