lut_library/店主推荐/709通用轻创意3.cube
# 版权归凌孟成所有，侵权必究
# Created by: Lutify.me
# Copyright: (c) Copyright Lutify.me 2016, G.T. Colord LTD
# Website: https://lutify.me
# Contact: help@lutify.me
LUT_3D_SIZE 5
0.004181 0.002777 0.003143
0.330200 0.046936 0.000000
0.577301 0.072601 0.000000
0.797607 0.100281 0.000000
0.999908 0.131653 0.000000
0.000000 0.248596 0.148071
0.287872 0.267242 0.029846
0.573914 0.291870 0.000000
0.811371 0.319427 0.000000
1.000000 0.354584 0.000000
0.000000 0.447205 0.271393
0.229950 0.466461 0.156555
0.572113 0.498779 0.034119
0.864044 0.516083 0.000000
1.000000 0.531128 0.000000
0.000000 0.632690 0.402893
0.168549 0.654694 0.303589
0.532867 0.692749 0.143799
0.852203 0.720551 0.039856
1.000000 0.735077 0.000000
0.000000 0.834869 0.551971
0.135590 0.858826 0.462067
0.476471 0.899872 0.336487
0.805389 0.933136 0.195374
1.000000 0.954071 0.052216
0.020233 0.003540 0.238434
0.405670 0.017487 0.088074
0.606232 0.053589 0.023132
0.804932 0.090668 0.000000
1.000000 0.129974 0.000000
0.000000 0.254913 0.404968
0.259705 0.274963 0.284729
0.543274 0.316254 0.211304
0.791382 0.348541 0.144470
1.000000 0.382446 0.080048
0.000000 0.458313 0.530487
0.156372 0.476044 0.437561
0.539459 0.507050 0.300964
0.815369 0.524292 0.212708
1.000000 0.552643 0.148743
0.000000 0.647644 0.648682
0.129486 0.669403 0.558807
0.493744 0.706848 0.433899
0.818451 0.732605 0.314087
1.000000 0.742432 0.214996
0.000000 0.849213 0.776886
0.100769 0.872742 0.689331
0.441528 0.914520 0.576630
0.767792 0.945984 0.460785
1.000000 0.965973 0.342468
0.165985 0.009308 0.377991
0.455872 0.020721 0.270782
0.641693 0.028015 0.196411
0.853485 0.050232 0.122986
1.000000 0.089508 0.062256
0.000000 0.258362 0.604980
0.266602 0.280060 0.479889
0.571472 0.297668 0.374237
0.806183 0.335052 0.303223
1.000000 0.382782 0.256958
0.000000 0.468231 0.734711
0.147980 0.488037 0.640778
0.519348 0.516113 0.516235
0.783813 0.553345 0.453613
1.000000 0.587067 0.387054
0.000000 0.663422 0.850616
0.097656 0.684875 0.766113
0.467865 0.719910 0.645447
0.788391 0.743713 0.534180
1.000000 0.758087 0.459778
0.000000 0.866364 0.969116
0.070343 0.890686 0.886566
0.418213 0.931152 0.777191
0.743835 0.960938 0.667236
1.000000 0.979065 0.555908
0.222717 0.012573 0.524200
0.449097 0.021515 0.442780
0.646149 0.029266 0.368988
0.857513 0.037628 0.296539
1.000000 0.052795 0.210480
0.000000 0.259399 0.754364
0.297516 0.276459 0.647125
0.566254 0.288055 0.555115
0.828583 0.300537 0.461945
1.000000 0.336365 0.381927
0.000000 0.475189 0.930695
0.215790 0.499390 0.808685
0.515564 0.519775 0.710632
0.799957 0.534637 0.610199
1.000000 0.574768 0.535095
0.000000 0.675690 1.000000
0.066223 0.698151 0.971436
0.459137 0.728760 0.844727
0.761322 0.749786 0.744110
1.000000 0.784515 0.678253
0.000000 0.883118 1.000000
0.038849 0.908386 1.000000
0.407013 0.944000 0.975891
0.723053 0.971283 0.872894
1.000000 0.988159 0.765594
0.226898 0.013855 0.698395
0.430847 0.021912 0.626373
0.627777 0.029694 0.556458
0.834106 0.037811 0.478760
1.000000 0.047760 0.399414
0.054779 0.253052 0.908875
0.323914 0.263214 0.816406
0.557343 0.271545 0.734344
0.807556 0.284271 0.647980
1.000000 0.304871 0.559631
0.000000 0.487579 1.000000
0.254852 0.504150 0.987610
0.522308 0.519958 0.901306
0.784027 0.532227 0.808716
1.000000 0.545441 0.709106
0.000000 0.688751 1.000000
0.186493 0.714203 1.000000
0.464966 0.734039 1.000000
0.745850 0.749969 0.943573
1.000000 0.763885 0.841125
0.000000 0.901855 1.000000
0.119415 0.929932 1.000000
0.410583 0.953766 1.000000
0.703827 0.975616 1.000000
0.999847 0.992126 0.972168
