lut_library/店主推荐/709通用轻创意3.cube
# 版权归凌孟成所有，侵权必究
# Created by: Lutify.me
# Copyright: (c) Copyright Lutify.me 2016, G.T. Colord LTD
# Website: https://lutify.me
# Contact: help@lutify.me
LUT_3D_SIZE 9
0.004181 0.002777 0.003143
0.161804 0.025238 0.000000
0.330200 0.046936 0.000000
0.464111 0.059479 0.000000
0.577301 0.072601 0.000000
0.686432 0.086304 0.000000
0.797607 0.100281 0.000000
0.911072 0.114563 0.000000
0.999908 0.131653 0.000000
0.001709 0.130463 0.075867
0.144958 0.136627 0.018890
0.292603 0.147705 0.000000
0.434143 0.168213 0.000000
0.555573 0.185669 0.000000
0.668243 0.202850 0.000000
0.785706 0.218170 0.000000
0.906921 0.235382 0.000000
1.000000 0.254456 0.000000
0.000000 0.248596 0.148071
0.121582 0.255005 0.089111
0.287872 0.267242 0.029846
0.446320 0.281372 0.000000
0.573914 0.291870 0.000000
0.698456 0.305267 0.000000
0.811371 0.319427 0.000000
0.932129 0.336365 0.000000
1.000000 0.354584 0.000000
0.000000 0.353729 0.212646
0.084534 0.360321 0.160278
0.264709 0.373047 0.093536
0.429291 0.388123 0.032410
0.586273 0.402740 0.000000
0.718292 0.409241 0.000000
0.840515 0.417786 0.000000
0.962341 0.429413 0.000000
1.000000 0.443970 0.000000
0.000000 0.447205 0.271393
0.071564 0.454468 0.218231
0.229950 0.466461 0.156555
0.408661 0.481903 0.086578
0.572113 0.498779 0.034119
0.721619 0.510101 0.000000
0.864044 0.516083 0.000000
0.986572 0.521332 0.000000
1.000000 0.531128 0.000000
0.000000 0.538055 0.333984
0.058075 0.545654 0.281281
0.183838 0.556671 0.230591
0.385010 0.573853 0.145844
0.554749 0.593079 0.086823
0.705658 0.605988 0.037567
0.869507 0.618591 0.000000
0.995361 0.623047 0.000000
1.000000 0.626678 0.000000
0.000000 0.632690 0.402893
0.042969 0.642273 0.352203
0.168549 0.654694 0.303589
0.350616 0.672363 0.230469
0.532867 0.692749 0.143799
0.688232 0.707306 0.093719
0.852203 0.720551 0.039856
0.994171 0.729309 0.000000
1.000000 0.735077 0.000000
0.000000 0.729675 0.476135
0.027374 0.740204 0.427032
0.152649 0.752716 0.379974
0.311493 0.770630 0.319946
0.504517 0.793823 0.241699
0.668030 0.811340 0.158356
0.831970 0.826477 0.099274
0.991364 0.837769 0.045654
1.000000 0.846375 0.000946
0.000000 0.834869 0.551971
0.011261 0.845825 0.505768
0.135590 0.858826 0.462067
0.273865 0.876190 0.411652
0.476471 0.899872 0.336487
0.639801 0.917999 0.269409
0.805389 0.933136 0.195374
0.975677 0.945618 0.108490
1.000000 0.954071 0.052216
0.006958 0.004456 0.127563
0.221466 0.014191 0.039337
0.357422 0.036499 0.003937
0.474243 0.058502 0.000000
0.577423 0.074158 0.000000
0.685974 0.087738 0.000000
0.793854 0.101288 0.000000
0.907104 0.115540 0.000000
1.000000 0.130646 0.000000
0.000000 0.131866 0.208344
0.129761 0.139679 0.143860
0.280304 0.161591 0.107117
0.429199 0.183624 0.068756
0.558289 0.198425 0.030304
0.675293 0.211243 0.002930
0.793701 0.225616 0.000000
0.912537 0.242584 0.000000
1.000000 0.261841 0.000000
0.000000 0.251190 0.281036
0.098480 0.258118 0.221222
0.272858 0.270050 0.158386
0.427917 0.283142 0.109467
0.555664 0.298401 0.072571
0.680939 0.314636 0.036896
0.793915 0.330902 0.012573
0.913666 0.350128 0.003113
1.000000 0.367767 0.000000
0.000000 0.357910 0.347534
0.064148 0.364441 0.294708
0.243286 0.376373 0.229156
0.416077 0.391174 0.164612
0.570801 0.403076 0.101654
0.703217 0.411438 0.056000
0.824402 0.422546 0.026123
0.944366 0.437256 0.007111
1.000000 0.453857 0.000000
0.000000 0.452972 0.408661
0.050598 0.459930 0.356262
0.194244 0.470459 0.302277
0.390411 0.486267 0.229065
0.557312 0.501831 0.158722
0.711761 0.512756 0.089111
0.846710 0.517426 0.047028
0.968567 0.525299 0.021484
1.000000 0.537445 0.002228
0.000000 0.544250 0.469666
0.037079 0.552277 0.418762
0.162354 0.562988 0.371521
0.360901 0.579956 0.298065
0.536804 0.598602 0.227203
0.691437 0.610718 0.156708
0.856995 0.622528 0.088959
0.985046 0.625183 0.044708
1.000000 0.631256 0.015961
0.000000 0.639771 0.534027
0.022583 0.650146 0.486145
0.147522 0.662354 0.440613
0.321777 0.678894 0.376312
0.511200 0.699341 0.303925
0.668488 0.712799 0.237579
0.838287 0.725769 0.157257
0.991608 0.733643 0.092560
1.000000 0.737488 0.043060
0.000000 0.736603 0.598663
0.011353 0.747375 0.552307
0.132904 0.760223 0.508881
0.275055 0.777740 0.459106
0.483246 0.801605 0.384521
0.643463 0.818237 0.322479
0.811066 0.833130 0.251831
0.973602 0.843750 0.179077
1.000000 0.852081 0.115784
0.000000 0.841125 0.668732
0.004944 0.852051 0.623047
0.117554 0.864929 0.579895
0.249725 0.882477 0.535309
0.457153 0.906769 0.464355
0.618744 0.924347 0.405640
0.783936 0.939606 0.343048
0.950256 0.951630 0.277832
1.000000 0.960022 0.215088
0.020233 0.003540 0.238434
0.295532 0.013184 0.137817
0.405670 0.017487 0.088074
0.509369 0.035736 0.051086
0.606232 0.053589 0.023132
0.706299 0.072083 0.004822
0.804932 0.090668 0.000000
0.912140 0.109192 0.000000
1.000000 0.129974 0.000000
0.000000 0.134033 0.331085
0.117950 0.143402 0.268036
0.295044 0.155090 0.204651
0.440308 0.178619 0.159393
0.561493 0.198395 0.129486
0.670807 0.214508 0.103119
0.790527 0.228546 0.071289
0.908478 0.246033 0.042755
0.999878 0.265900 0.018738
0.000000 0.254913 0.404968
0.074371 0.262939 0.350647
0.259705 0.274963 0.284729
0.412994 0.297943 0.245544
0.543274 0.316254 0.211304
0.671722 0.333069 0.176605
0.791382 0.348541 0.144470
0.918518 0.365601 0.111084
1.000000 0.382446 0.080048
0.000000 0.362549 0.471313
0.044739 0.369934 0.422180
0.220886 0.381439 0.360077
0.403473 0.396271 0.294891
0.545868 0.406891 0.249878
0.677063 0.422974 0.216980
0.795380 0.438660 0.187988
0.918610 0.456696 0.159698
1.000000 0.473755 0.127289
0.000000 0.458313 0.530487
0.031433 0.466156 0.481995
0.156372 0.476044 0.437561
0.372589 0.492737 0.362366
0.539459 0.507050 0.300964
0.686157 0.515259 0.248444
0.815369 0.524292 0.212708
0.939789 0.536957 0.180756
1.000000 0.552643 0.148743
0.000000 0.550079 0.587555
0.018524 0.559326 0.540253
0.143341 0.570129 0.496307
0.339264 0.587311 0.428650
0.517212 0.605225 0.366638
0.671997 0.617157 0.308624
0.832123 0.626678 0.248138
0.957794 0.630707 0.211487
1.000000 0.640930 0.175995
0.000000 0.647644 0.648682
0.009674 0.658051 0.602386
0.129486 0.669403 0.558807
0.292877 0.686035 0.502869
0.493744 0.706848 0.433899
0.648865 0.719574 0.376923
0.818451 0.732605 0.314087
0.969299 0.739990 0.256592
1.000000 0.742432 0.214996
0.000000 0.744690 0.710114
0.004456 0.755432 0.664551
0.115601 0.768066 0.621887
0.255219 0.785858 0.575653
0.467316 0.809967 0.504486
0.625031 0.825562 0.448151
0.793091 0.840546 0.387238
0.951660 0.850708 0.327911
1.000000 0.858917 0.269287
0.000000 0.849213 0.776886
0.000519 0.860077 0.731628
0.100769 0.872742 0.689331
0.228485 0.890289 0.647522
0.441528 0.914520 0.576630
0.601471 0.930878 0.520325
0.767792 0.945984 0.460785
0.931519 0.957428 0.400513
1.000000 0.965973 0.342468
0.096008 0.005981 0.314636
0.314178 0.014587 0.235870
0.444092 0.019684 0.183929
0.529083 0.022980 0.145264
0.635010 0.033325 0.106659
0.732025 0.051392 0.076477
0.833649 0.068085 0.048096
0.939941 0.087891 0.023773
1.000000 0.107544 0.002869
0.000000 0.134064 0.433929
0.119781 0.144531 0.369415
0.300598 0.155853 0.306488
0.459137 0.162903 0.248535
0.590057 0.174438 0.200592
0.696136 0.191437 0.169617
0.808319 0.210419 0.142151
0.917877 0.233337 0.120575
1.000000 0.259247 0.101532
0.000000 0.257599 0.512054
0.068054 0.266632 0.456299
0.257416 0.278442 0.390076
0.427277 0.290436 0.330902
0.553680 0.311737 0.292999
0.669800 0.334351 0.268463
0.786713 0.353149 0.242615
0.913605 0.371124 0.212616
1.000000 0.389496 0.184631
0.000000 0.366608 0.579315
0.027954 0.374817 0.532471
0.212463 0.386597 0.467773
0.398895 0.401398 0.403931
0.532074 0.421021 0.371277
0.667511 0.440125 0.337830
0.789825 0.455963 0.306763
0.920380 0.473145 0.274200
1.000000 0.490051 0.243286
0.000000 0.463837 0.638824
0.014557 0.472382 0.592499
0.139435 0.482086 0.548584
0.364685 0.498962 0.471161
0.527557 0.511963 0.413727
0.667236 0.521881 0.373322
0.791351 0.537476 0.346252
0.915833 0.555115 0.319794
1.000000 0.573212 0.289398
0.000000 0.557617 0.695221
0.008667 0.567047 0.649811
0.126343 0.577789 0.607056
0.327393 0.595215 0.538727
0.503448 0.611511 0.478149
0.659637 0.623169 0.421844
0.808685 0.630829 0.373352
0.934479 0.639923 0.342041
1.000000 0.654510 0.314178
0.000000 0.656738 0.755157
0.003784 0.666565 0.710205
0.112732 0.677795 0.667877
0.273926 0.694519 0.614349
0.478333 0.713898 0.544800
0.634979 0.726257 0.488617
0.803467 0.738464 0.427826
0.948334 0.743835 0.375977
1.000000 0.748779 0.342529
0.000000 0.753845 0.812622
0.000000 0.764984 0.769196
0.099213 0.777771 0.728088
0.238129 0.795959 0.684387
0.452606 0.819336 0.613983
0.609894 0.833923 0.558685
0.779877 0.848694 0.498627
0.934814 0.857758 0.441528
1.000000 0.865417 0.383636
0.000000 0.857727 0.874115
0.000000 0.868896 0.830963
0.085083 0.882050 0.790863
0.211914 0.900055 0.752411
0.428619 0.924103 0.681976
0.585724 0.939178 0.628174
0.753754 0.954071 0.569122
0.914490 0.964478 0.510559
1.000000 0.972809 0.453125
0.165985 0.009308 0.377991
0.328827 0.015717 0.318390
0.455872 0.020721 0.270782
0.542633 0.024109 0.232574
0.641693 0.028015 0.196411
0.753326 0.032410 0.156708
0.853485 0.050232 0.122986
0.962067 0.069061 0.091034
1.000000 0.089508 0.062256
0.000000 0.131683 0.511078
0.138763 0.141968 0.450287
0.315765 0.150818 0.389923
0.462402 0.154724 0.336578
0.598969 0.154144 0.284271
0.721191 0.160339 0.238708
0.831879 0.180481 0.203827
0.940735 0.205658 0.177429
1.000000 0.233887 0.154694
0.000000 0.258362 0.604980
0.083893 0.268524 0.541077
0.266602 0.280060 0.479889
0.426331 0.290131 0.425476
0.571472 0.297668 0.374237
0.692627 0.313232 0.333282
0.806183 0.335052 0.303223
0.923370 0.357941 0.277222
1.000000 0.382782 0.256958
0.000000 0.369324 0.674133
0.013367 0.377777 0.629517
0.220154 0.390900 0.559906
0.398987 0.404419 0.500763
0.544495 0.413574 0.449860
0.673706 0.435760 0.413605
0.786530 0.457581 0.390015
0.915070 0.477203 0.360657
1.000000 0.494324 0.330505
0.000000 0.468231 0.734711
0.008026 0.476929 0.690125
0.147980 0.488037 0.640778
0.365448 0.504669 0.568878
0.519348 0.516113 0.516235
0.656891 0.536591 0.484650
0.783813 0.553345 0.453613
0.914978 0.570099 0.420258
1.000000 0.587067 0.387054
0.000000 0.563660 0.791687
0.003693 0.573120 0.747467
0.111053 0.584290 0.706909
0.327026 0.602539 0.636139
0.494049 0.617035 0.580414
0.650604 0.628662 0.526245
0.787384 0.637756 0.489166
0.911957 0.653137 0.462952
1.000000 0.672333 0.437286
0.000000 0.663422 0.850616
0.000000 0.673248 0.806671
0.097656 0.684875 0.766113
0.280426 0.702667 0.707245
0.467865 0.719910 0.645447
0.624573 0.732269 0.591492
0.788391 0.743713 0.534180
0.926910 0.748230 0.489807
1.000000 0.758087 0.459778
0.000000 0.762329 0.908325
0.000000 0.773315 0.865204
0.084167 0.786530 0.825623
0.231445 0.805206 0.780273
0.441772 0.826660 0.712341
0.598846 0.841278 0.659424
0.768982 0.855713 0.601349
0.919312 0.863708 0.546997
1.000000 0.870636 0.492706
0.000000 0.866364 0.969116
0.000000 0.877319 0.926025
0.070343 0.890686 0.886566
0.208038 0.909027 0.844574
0.418213 0.931152 0.777191
0.575012 0.945923 0.724426
0.743835 0.960938 0.667236
0.899384 0.970551 0.611877
1.000000 0.979065 0.555908
0.200500 0.011169 0.449432
0.338348 0.016632 0.400543
0.452393 0.021118 0.358856
0.559204 0.025330 0.319153
0.638428 0.028412 0.282471
0.746490 0.032684 0.244995
0.865234 0.037384 0.202972
0.980530 0.051422 0.163727
1.000000 0.071198 0.131470
0.005890 0.125122 0.583221
0.173218 0.133759 0.522919
0.328705 0.138367 0.467285
0.471161 0.138336 0.413574
0.595459 0.139526 0.366058
0.722076 0.143677 0.319550
0.850891 0.149780 0.273407
0.961029 0.173370 0.239471
1.000000 0.204193 0.213287
0.000000 0.258911 0.683960
0.110962 0.269135 0.621857
0.285095 0.279755 0.563629
0.428619 0.287262 0.513153
0.571960 0.293976 0.462128
0.699310 0.299713 0.415466
0.826355 0.313171 0.371063
0.941284 0.336212 0.338989
1.000000 0.360535 0.312561
0.000000 0.371826 0.771667
0.038422 0.381683 0.714233
0.238739 0.394165 0.647095
0.399750 0.405060 0.592651
0.543243 0.413635 0.542267
0.686035 0.421112 0.490967
0.807983 0.438171 0.450409
0.929565 0.462128 0.420776
1.000000 0.483795 0.395813
0.000000 0.472260 0.834076
0.003448 0.481018 0.790710
0.183685 0.494263 0.724121
0.368530 0.508148 0.662811
0.516418 0.518158 0.611420
0.668945 0.527527 0.557648
0.787537 0.548920 0.524445
0.910614 0.571838 0.499359
1.000000 0.590271 0.470123
0.000000 0.569611 0.892426
0.000000 0.579224 0.849670
0.095367 0.590515 0.809601
0.334137 0.608917 0.730835
0.489258 0.621063 0.678009
0.644287 0.632538 0.625427
0.774109 0.650177 0.594086
0.905518 0.667206 0.561737
1.000000 0.684845 0.528931
0.000000 0.670227 0.951813
0.000000 0.680176 0.909180
0.081818 0.692078 0.869385
0.294067 0.710632 0.800415
0.461945 0.724731 0.743958
0.618530 0.736633 0.689911
0.776001 0.746613 0.634033
0.907471 0.753326 0.597290
1.000000 0.769196 0.569885
0.000000 0.771240 0.997681
0.000000 0.782288 0.968018
0.068085 0.795929 0.929840
0.247681 0.815521 0.873627
0.434418 0.833466 0.812408
0.591248 0.847595 0.759338
0.756226 0.860046 0.702148
0.906158 0.867767 0.647522
1.000000 0.873383 0.598724
0.000000 0.875366 1.000000
0.000000 0.886475 1.000000
0.054382 0.900177 0.988892
0.210693 0.919037 0.942352
0.410095 0.938141 0.877228
0.566528 0.952362 0.824402
0.735809 0.966949 0.766876
0.885681 0.975311 0.712616
1.000000 0.983673 0.656372
0.222717 0.012573 0.524200
0.340393 0.017212 0.482025
0.449097 0.021515 0.442780
0.549408 0.025452 0.406036
0.646149 0.029266 0.368988
0.741028 0.033020 0.334900
0.857513 0.037628 0.296539
0.980865 0.042603 0.252380
1.000000 0.052795 0.210480
0.045685 0.116760 0.645325
0.204834 0.122284 0.590790
0.345459 0.126343 0.542114
0.475006 0.126587 0.495178
0.592377 0.129608 0.453217
0.718140 0.132843 0.408478
0.841248 0.140137 0.365234
0.971985 0.151733 0.321442
1.000000 0.170746 0.281525
0.000000 0.259399 0.754364
0.146454 0.268799 0.697327
0.297516 0.276459 0.647125
0.433899 0.282684 0.600922
0.566254 0.288055 0.555115
0.692139 0.293610 0.510712
0.828583 0.300537 0.461945
0.958984 0.311310 0.416229
1.000000 0.336365 0.381927
0.000000 0.373657 0.855347
0.089020 0.385193 0.787750
0.262360 0.396240 0.732178
0.402740 0.404480 0.685486
0.544586 0.412689 0.638031
0.677246 0.419220 0.591583
0.814453 0.425873 0.541656
0.949585 0.439789 0.494049
1.000000 0.462982 0.461792
0.000000 0.475189 0.930695
0.001617 0.485352 0.879364
0.215790 0.499390 0.808685
0.373291 0.510468 0.757874
0.515564 0.519775 0.710632
0.662018 0.528290 0.660706
0.799957 0.534637 0.610199
0.932892 0.552399 0.565521
1.000000 0.574768 0.535095
0.000000 0.574493 0.984741
0.000000 0.584259 0.949280
0.157959 0.598846 0.884644
0.342529 0.613678 0.826263
0.487091 0.623993 0.778534
0.641754 0.634644 0.726990
0.782684 0.641418 0.676208
0.909454 0.663055 0.639526
0.999908 0.685822 0.613892
0.000000 0.675690 1.000000
0.000000 0.686066 0.997375
0.066223 0.698151 0.971436
0.309082 0.716919 0.893616
0.459137 0.728760 0.844727
0.614563 0.740601 0.793457
0.761322 0.749786 0.744110
0.892700 0.766876 0.711517
1.000000 0.784515 0.678253
0.000000 0.778870 1.000000
0.000000 0.790405 1.000000
0.052368 0.804108 1.000000
0.274139 0.824799 0.963104
0.431213 0.839233 0.913055
0.586426 0.852600 0.862610
0.742950 0.863586 0.809784
0.892334 0.871429 0.756531
1.000000 0.878326 0.716370
0.000000 0.883118 1.000000
0.000000 0.894653 1.000000
0.038849 0.908386 1.000000
0.242676 0.928650 1.000000
0.407013 0.944000 0.975891
0.561218 0.958069 0.926270
0.723053 0.971283 0.872894
0.871521 0.979736 0.821045
1.000000 0.988159 0.765594
0.225861 0.013245 0.610229
0.339172 0.017731 0.569763
0.441376 0.021759 0.532776
0.538788 0.025604 0.497070
0.640289 0.029602 0.459961
0.735382 0.033325 0.420807
0.847534 0.037781 0.385742
0.970398 0.042664 0.345581
1.000000 0.047760 0.302734
0.087341 0.107330 0.713776
0.232269 0.113037 0.664124
0.362030 0.118195 0.619781
0.473907 0.122620 0.580566
0.589600 0.127197 0.540375
0.709595 0.131927 0.498688
0.830963 0.136719 0.456573
0.961792 0.141907 0.411652
1.000000 0.147980 0.365295
0.021667 0.258484 0.827942
0.174744 0.265411 0.776215
0.309784 0.271210 0.730225
0.440430 0.276215 0.685486
0.561676 0.280853 0.642822
0.686646 0.286285 0.599091
0.818665 0.293182 0.553680
0.950317 0.302185 0.509338
1.000000 0.312653 0.463928
0.000000 0.378235 0.923950
0.131866 0.387817 0.867401
0.275635 0.395660 0.819580
0.408813 0.403076 0.775085
0.544739 0.410339 0.729187
0.670380 0.416229 0.684875
0.806763 0.422974 0.637238
0.946747 0.430237 0.588379
1.000000 0.439911 0.541656
0.000000 0.480103 0.999054
0.073730 0.492096 0.950317
0.242035 0.502869 0.895874
0.378937 0.511292 0.850403
0.519379 0.520172 0.803741
0.654755 0.527191 0.756683
0.791748 0.533630 0.708221
0.938812 0.540680 0.656433
1.000000 0.553864 0.611206
0.000000 0.579926 1.000000
0.002289 0.591370 1.000000
0.202087 0.605988 0.968292
0.348663 0.616058 0.920197
0.489868 0.625671 0.873505
0.636688 0.634918 0.823883
0.774078 0.641327 0.775085
0.922668 0.648468 0.722626
1.000000 0.665222 0.681000
0.000000 0.682037 1.000000
0.000000 0.692200 1.000000
0.152557 0.707947 1.000000
0.318054 0.720581 0.986053
0.461182 0.731384 0.940765
0.612213 0.742218 0.890625
0.754456 0.749695 0.840759
0.903137 0.756927 0.788208
1.000000 0.778992 0.754608
0.000000 0.787598 1.000000
0.000000 0.798981 1.000000
0.091522 0.814453 1.000000
0.286865 0.831146 1.000000
0.432800 0.843262 0.996307
0.586853 0.856110 0.960175
0.733612 0.865112 0.909546
0.882294 0.872894 0.857239
0.997803 0.889771 0.827972
0.000000 0.892120 1.000000
0.000000 0.903442 1.000000
0.041412 0.917511 1.000000
0.260529 0.935730 1.000000
0.408112 0.948822 1.000000
0.560822 0.962311 1.000000
0.713287 0.973511 0.973175
0.861328 0.981781 0.921387
0.998230 0.990356 0.867310
0.226898 0.013855 0.698395
0.333466 0.018066 0.660889
0.430847 0.021912 0.626373
0.527252 0.025696 0.592194
0.627777 0.029694 0.556458
0.731384 0.033783 0.519379
0.834106 0.037811 0.478760
0.956635 0.042664 0.441467
1.000000 0.047760 0.399414
0.125031 0.109375 0.793060
0.254028 0.114502 0.748962
0.364777 0.118866 0.710480
0.473816 0.123169 0.672546
0.585144 0.127594 0.634216
0.699432 0.132111 0.594666
0.819916 0.136871 0.553253
0.950104 0.142029 0.508820
1.000000 0.147339 0.463409
0.054779 0.253052 0.908875
0.195038 0.258575 0.860657
0.323914 0.263214 0.816406
0.442352 0.267120 0.774933
0.557343 0.271545 0.734344
0.681519 0.276917 0.691071
0.807556 0.284271 0.647980
0.938690 0.293793 0.604279
1.000000 0.304871 0.559631
0.015167 0.380707 0.998169
0.156433 0.387604 0.956085
0.287170 0.394104 0.911926
0.416809 0.400970 0.868500
0.539001 0.406769 0.826080
0.663788 0.412689 0.782196
0.799408 0.419464 0.735046
0.934448 0.426575 0.687836
1.000000 0.434418 0.640411
0.000000 0.487579 1.000000
0.118744 0.496735 1.000000
0.254852 0.504150 0.987610
0.385864 0.511871 0.947021
0.522308 0.519958 0.901306
0.647736 0.525757 0.856812
0.784027 0.532227 0.808716
0.928864 0.539124 0.757690
1.000000 0.545441 0.709106
0.000000 0.588715 1.000000
0.072296 0.600250 1.000000
0.221069 0.609253 1.000000
0.355652 0.617920 0.999634
0.494537 0.627075 0.972107
0.629211 0.634369 0.925385
0.765869 0.640747 0.876892
0.913879 0.647827 0.824646
1.000000 0.653870 0.775940
0.000000 0.688751 1.000000
0.013611 0.702606 1.000000
0.186493 0.714203 1.000000
0.325745 0.723816 1.000000
0.464966 0.734039 1.000000
0.609192 0.743408 0.991791
0.745850 0.749969 0.943573
0.893921 0.757172 0.891266
1.000000 0.763885 0.841125
0.000000 0.797150 1.000000
0.000000 0.809296 1.000000
0.149963 0.824738 1.000000
0.295654 0.835785 1.000000
0.436035 0.847015 1.000000
0.586334 0.858856 1.000000
0.724640 0.866211 1.000000
0.872742 0.873383 0.960754
1.000000 0.880615 0.908752
0.000000 0.901855 1.000000
0.000000 0.912842 1.000000
0.119415 0.929932 1.000000
0.269745 0.941681 1.000000
0.410583 0.953766 1.000000
0.562042 0.966705 1.000000
0.703827 0.975616 1.000000
0.851379 0.983765 1.000000
0.999847 0.992126 0.972168
