lut_library/店主推荐/709通用轻创意.cube
# 版权归凌孟成所有，侵权必究
# Created by: Lutify.me
# Copyright: (c) Copyright Lutify.me 2016, G.T. Colord LTD
# Website: https://lutify.me
# Contact: help@lutify.me
LUT_3D_SIZE 33
0.000000 0.004883 0.035278
0.000000 0.005096 0.035431
0.000000 0.005127 0.034393
0.000031 0.005554 0.032074
0.002350 0.006927 0.029938
0.016998 0.008301 0.029083
0.038849 0.010712 0.028046
0.061676 0.013397 0.027161
0.084625 0.016022 0.026825
0.111542 0.017303 0.025146
0.139343 0.018005 0.023102
0.168579 0.017944 0.020721
0.198120 0.017395 0.018127
0.225586 0.017120 0.016052
0.250397 0.017029 0.015228
0.274139 0.016968 0.015228
0.299683 0.017029 0.015594
0.326935 0.017700 0.016785
0.354980 0.018921 0.018219
0.386719 0.020172 0.019836
0.417175 0.021637 0.021423
0.443115 0.022919 0.022736
0.466766 0.024078 0.023956
0.490356 0.025299 0.025177
0.514221 0.026489 0.026398
0.538483 0.027740 0.027649
0.563568 0.029022 0.028931
0.589935 0.030365 0.030273
0.616272 0.031738 0.031647
0.640747 0.033051 0.032867
0.663300 0.035156 0.034058
0.685364 0.038147 0.035187
0.701202 0.040405 0.036011
0.000000 0.022430 0.040222
0.000000 0.020630 0.039642
0.000000 0.019440 0.037994
0.001465 0.019073 0.034180
0.011292 0.019501 0.030945
0.030823 0.020813 0.029358
0.053589 0.022919 0.028107
0.076904 0.024811 0.026917
0.099731 0.026337 0.025269
0.126434 0.026672 0.022491
0.152740 0.026672 0.019287
0.179260 0.026276 0.016602
0.203918 0.026184 0.015137
0.225800 0.026337 0.014679
0.246613 0.025391 0.014801
0.267365 0.024170 0.014893
0.289490 0.022552 0.015076
0.316132 0.021210 0.016266
0.345764 0.021759 0.017761
0.379547 0.022552 0.019501
0.412079 0.023468 0.021149
0.439453 0.024323 0.022552
0.464294 0.025391 0.023834
0.488495 0.026581 0.025085
0.512726 0.027924 0.026306
0.538025 0.029541 0.027618
0.563934 0.031250 0.028931
0.590698 0.033020 0.030334
0.618103 0.035034 0.031738
0.642548 0.037201 0.032990
0.664581 0.039673 0.034119
0.682129 0.042175 0.035004
0.695099 0.044037 0.035706
0.000000 0.044403 0.048035
0.000000 0.042084 0.047119
0.000000 0.037506 0.043793
0.007629 0.036499 0.039886
0.024658 0.036407 0.035370
0.046844 0.037140 0.031555
0.070068 0.038422 0.028625
0.093079 0.039490 0.025482
0.115479 0.040375 0.022736
0.141327 0.040283 0.019043
0.166351 0.040497 0.016327
0.190643 0.040985 0.014374
0.214447 0.041260 0.013153
0.236694 0.041351 0.012573
0.256409 0.041046 0.013336
0.275604 0.040009 0.014191
0.295593 0.038849 0.015167
0.318481 0.036896 0.016357
0.343903 0.035278 0.017670
0.373260 0.034119 0.019165
0.403168 0.032990 0.020691
0.429504 0.032501 0.022034
0.454193 0.032410 0.023315
0.479279 0.032532 0.024597
0.505035 0.033264 0.025940
0.531982 0.034302 0.027313
0.560120 0.035370 0.028748
0.588531 0.037201 0.030212
0.618134 0.039185 0.031738
0.642883 0.041504 0.033020
0.664917 0.044159 0.034149
0.680573 0.046356 0.034943
0.689301 0.047546 0.035400
0.000000 0.067963 0.057983
0.000000 0.065186 0.056824
0.000366 0.061340 0.054169
0.018982 0.055450 0.047272
0.037933 0.054962 0.043488
0.063599 0.053711 0.034943
0.087311 0.054169 0.029694
0.110077 0.054932 0.025085
0.132385 0.055389 0.020599
0.156067 0.055542 0.016724
0.178436 0.056396 0.014618
0.200928 0.057495 0.013306
0.224304 0.058746 0.012512
0.246368 0.059692 0.012695
0.266571 0.059723 0.013672
0.286163 0.059021 0.014679
0.306427 0.057892 0.015747
0.328979 0.055450 0.016907
0.352722 0.053284 0.018127
0.377380 0.050293 0.019379
0.401550 0.047333 0.020599
0.423798 0.045074 0.021759
0.445618 0.043243 0.022858
0.469543 0.042694 0.024078
0.495544 0.042786 0.025452
0.522736 0.043243 0.026825
0.551392 0.044098 0.028320
0.581604 0.045380 0.029846
0.612061 0.047028 0.031403
0.636719 0.049255 0.032684
0.656708 0.051727 0.033722
0.670868 0.053864 0.034454
0.675568 0.054718 0.034698
0.000671 0.092010 0.068573
0.000397 0.088593 0.067230
0.003418 0.085114 0.065063
0.027039 0.078766 0.059601
0.054321 0.073090 0.051086
0.079498 0.071198 0.042297
0.103851 0.070038 0.031525
0.127441 0.069763 0.024414
0.148834 0.070343 0.019257
0.170959 0.070557 0.014923
0.191956 0.071503 0.011871
0.212311 0.073700 0.011658
0.234344 0.075714 0.012238
0.256927 0.077576 0.013214
0.278839 0.078217 0.014313
0.299988 0.077820 0.015411
0.321442 0.077332 0.016510
0.343689 0.075500 0.017639
0.366638 0.073822 0.018829
0.390472 0.071350 0.020050
0.412872 0.067963 0.021179
0.432312 0.065308 0.022186
0.451904 0.062927 0.023193
0.472107 0.060486 0.024231
0.494232 0.058685 0.025360
0.519196 0.057190 0.026672
0.546600 0.056335 0.028076
0.576111 0.056000 0.029572
0.606750 0.056000 0.031158
0.629944 0.057465 0.032318
0.647430 0.059509 0.033234
0.658630 0.061890 0.033813
0.661987 0.063232 0.033997
0.002747 0.115967 0.079437
0.002258 0.112274 0.077881
0.009949 0.108978 0.075623
0.034637 0.102966 0.071533
0.064331 0.095154 0.064545
0.095612 0.089111 0.050171
0.120087 0.086792 0.035461
0.143982 0.085327 0.024719
0.165558 0.085358 0.018768
0.186218 0.086090 0.014954
0.206604 0.087433 0.012604
0.227539 0.089539 0.011810
0.248505 0.092224 0.012756
0.269348 0.094421 0.013824
0.290131 0.095673 0.014893
0.311127 0.095978 0.015991
0.332977 0.095795 0.017090
0.356110 0.095306 0.018280
0.380280 0.094055 0.019501
0.405060 0.092285 0.020813
0.427582 0.089569 0.021942
0.445953 0.086395 0.022888
0.463501 0.083649 0.023773
0.481506 0.080505 0.024719
0.501312 0.077667 0.025726
0.524414 0.075317 0.026917
0.549896 0.073212 0.028229
0.577301 0.072021 0.029633
0.606232 0.071533 0.031128
0.627655 0.073151 0.032227
0.643250 0.075348 0.033020
0.651154 0.078064 0.033447
0.653229 0.080109 0.033539
0.008789 0.139374 0.090546
0.006531 0.135254 0.088898
0.016144 0.132202 0.086426
0.039276 0.127930 0.082977
0.073853 0.118042 0.076782
0.106873 0.110474 0.066010
0.135986 0.103943 0.042084
0.159698 0.101288 0.025970
0.182220 0.100372 0.016876
0.202820 0.101257 0.013428
0.222778 0.103241 0.012817
0.243256 0.105499 0.012482
0.264008 0.108521 0.013550
0.284393 0.111145 0.014587
0.303955 0.112823 0.015594
0.324677 0.113800 0.016663
0.346130 0.114288 0.017761
0.369171 0.114410 0.018951
0.393707 0.114258 0.020203
0.419403 0.113434 0.021515
0.442749 0.112000 0.022736
0.461304 0.109589 0.023682
0.477936 0.106506 0.024506
0.495819 0.103882 0.025452
0.514557 0.100952 0.026398
0.534393 0.097382 0.027435
0.556396 0.094208 0.028564
0.580139 0.090759 0.029785
0.604706 0.088440 0.031036
0.624817 0.088898 0.032104
0.638611 0.094574 0.032806
0.648071 0.099396 0.033295
0.652313 0.104340 0.033508
0.020142 0.161896 0.101288
0.017426 0.157806 0.099640
0.024506 0.154510 0.097229
0.043182 0.151917 0.093658
0.079254 0.142334 0.089325
0.116302 0.132446 0.080536
0.147736 0.125366 0.058228
0.175354 0.118164 0.029327
0.197723 0.116913 0.018585
0.218658 0.117706 0.013702
0.239044 0.119781 0.012512
0.259583 0.122681 0.013397
0.281158 0.125763 0.014435
0.302551 0.128601 0.015533
0.322327 0.130798 0.016541
0.342041 0.132507 0.017548
0.362457 0.133667 0.018616
0.383789 0.134888 0.019684
0.406738 0.135651 0.020874
0.431915 0.135803 0.022156
0.455963 0.135284 0.023438
0.475861 0.134033 0.024414
0.493164 0.132172 0.025330
0.511108 0.130157 0.026245
0.530273 0.128326 0.027222
0.550140 0.125732 0.028229
0.571045 0.122955 0.029297
0.593475 0.120178 0.030487
0.615936 0.116974 0.031616
0.635773 0.118042 0.032654
0.649841 0.124786 0.033386
0.660492 0.135010 0.033905
0.665558 0.140656 0.034180
0.032898 0.183990 0.111481
0.030121 0.179901 0.110016
0.034637 0.176392 0.107910
0.048492 0.173492 0.104370
0.082520 0.167480 0.100800
0.122742 0.155029 0.094940
0.156830 0.147552 0.079254
0.187256 0.139740 0.044067
0.213013 0.133728 0.020325
0.234497 0.134857 0.015381
0.255890 0.137238 0.013794
0.277618 0.140442 0.014557
0.300385 0.143738 0.015564
0.322388 0.146667 0.016541
0.342926 0.149139 0.017609
0.362579 0.151306 0.018616
0.382416 0.153168 0.019623
0.403229 0.155029 0.020691
0.425110 0.156647 0.021820
0.448395 0.157959 0.023010
0.471008 0.158600 0.024170
0.490997 0.158417 0.025208
0.507843 0.157471 0.026093
0.525452 0.156525 0.026978
0.544495 0.155334 0.027954
0.564758 0.153992 0.028992
0.585846 0.152710 0.030060
0.607635 0.150604 0.031189
0.629791 0.148499 0.032318
0.648956 0.148438 0.033325
0.663055 0.156158 0.034058
0.673828 0.166351 0.034607
0.680328 0.176788 0.034912
0.045807 0.205841 0.121155
0.043457 0.202484 0.120026
0.045715 0.199219 0.118378
0.055695 0.196686 0.115387
0.083435 0.194580 0.111786
0.127930 0.182007 0.109039
0.163208 0.172211 0.099060
0.196320 0.165466 0.072266
0.224609 0.156311 0.031097
0.250122 0.153198 0.016174
0.272400 0.156158 0.015594
0.295593 0.159607 0.015961
0.319397 0.163300 0.016937
0.342407 0.166473 0.017761
0.363678 0.169159 0.018768
0.383942 0.171509 0.019806
0.404541 0.173645 0.020752
0.425720 0.175995 0.021851
0.447235 0.178223 0.022949
0.469238 0.180328 0.024078
0.490906 0.182037 0.025177
0.510162 0.182953 0.026215
0.525726 0.183075 0.027008
0.540955 0.182983 0.027771
0.558014 0.182739 0.028625
0.577148 0.182526 0.029663
0.597656 0.182281 0.030670
0.619324 0.181885 0.031799
0.641785 0.181641 0.032928
0.662140 0.182617 0.033997
0.675903 0.189331 0.034698
0.685547 0.198364 0.035187
0.691467 0.207916 0.035492
0.058044 0.227264 0.130157
0.056091 0.224243 0.129303
0.057465 0.221741 0.128235
0.064545 0.219604 0.125885
0.085510 0.218353 0.122284
0.130951 0.210388 0.121246
0.168640 0.196930 0.115509
0.201569 0.190979 0.098633
0.233856 0.181671 0.056854
0.261993 0.174805 0.022980
0.288757 0.174866 0.017151
0.313141 0.178650 0.017578
0.337921 0.182617 0.018463
0.361725 0.186035 0.019226
0.383423 0.189026 0.020264
0.404236 0.191681 0.021271
0.425812 0.194000 0.021912
0.447296 0.196625 0.022949
0.468536 0.199158 0.024048
0.490662 0.201691 0.025177
0.512604 0.204163 0.026306
0.532227 0.205902 0.027344
0.547852 0.206726 0.028137
0.562317 0.207306 0.028870
0.577545 0.207855 0.029663
0.594330 0.208435 0.030518
0.612518 0.209229 0.031433
0.632355 0.209839 0.032471
0.653046 0.210571 0.033508
0.672699 0.212250 0.034515
0.686768 0.218750 0.035248
0.696442 0.227020 0.035767
0.703461 0.235962 0.036133
0.069092 0.248199 0.138336
0.067505 0.245514 0.137665
0.068573 0.243408 0.136841
0.074005 0.242279 0.135284
0.090912 0.241791 0.131927
0.131226 0.239136 0.130676
0.173553 0.223419 0.129089
0.205475 0.215485 0.119049
0.240326 0.209137 0.090179
0.270691 0.199066 0.041931
0.300507 0.195801 0.020691
0.329468 0.197845 0.019745
0.355377 0.201965 0.020294
0.379730 0.205566 0.020966
0.401825 0.208649 0.021820
0.422943 0.211517 0.022736
0.444489 0.214111 0.023315
0.466034 0.216888 0.024353
0.487793 0.219635 0.025360
0.509735 0.222504 0.026184
0.532043 0.225372 0.027344
0.552338 0.227783 0.028381
0.568939 0.229279 0.029205
0.583679 0.230286 0.029968
0.598999 0.231384 0.030731
0.615295 0.232513 0.031586
0.632355 0.233765 0.032471
0.649780 0.235291 0.033356
0.668304 0.236877 0.034302
0.686127 0.239319 0.035217
0.700409 0.245422 0.035950
0.710815 0.252747 0.036469
0.718536 0.260742 0.036865
0.078827 0.268738 0.145630
0.077637 0.266571 0.145264
0.078491 0.264832 0.144653
0.083099 0.264099 0.143585
0.096283 0.264343 0.140625
0.129395 0.264862 0.138214
0.176971 0.251801 0.139252
0.209930 0.239899 0.133636
0.241821 0.235626 0.117462
0.277679 0.227692 0.079865
0.309021 0.218689 0.032959
0.340363 0.219055 0.023743
0.370758 0.221466 0.022583
0.395538 0.225189 0.022980
0.418091 0.228363 0.023529
0.439575 0.231262 0.024170
0.460876 0.234131 0.024902
0.482239 0.237183 0.025940
0.504028 0.240173 0.026855
0.526154 0.243134 0.027496
0.548096 0.246216 0.028442
0.569244 0.248993 0.029358
0.586670 0.250977 0.030121
0.601776 0.252289 0.030884
0.616974 0.253632 0.031677
0.632935 0.255096 0.032471
0.649750 0.256836 0.033386
0.667175 0.258484 0.034271
0.684753 0.260437 0.035126
0.701935 0.263245 0.036041
0.716278 0.268890 0.036774
0.726929 0.275879 0.037323
0.734619 0.283569 0.037720
0.087341 0.289246 0.152100
0.086365 0.287292 0.151855
0.087128 0.285950 0.151550
0.091309 0.285675 0.150818
0.101318 0.286407 0.148285
0.128540 0.288300 0.144806
0.177155 0.280701 0.146027
0.213623 0.264313 0.144836
0.244019 0.258942 0.133423
0.277252 0.255554 0.112305
0.315338 0.246124 0.066956
0.348419 0.241486 0.034821
0.380890 0.242645 0.026489
0.409821 0.244751 0.024811
0.432220 0.248169 0.025848
0.454071 0.251251 0.026001
0.475677 0.254395 0.026428
0.497040 0.257599 0.027344
0.518555 0.260803 0.028168
0.540344 0.264069 0.028992
0.562225 0.267487 0.030060
0.583405 0.270599 0.030823
0.601959 0.272736 0.031250
0.617493 0.274414 0.031891
0.632538 0.275848 0.032654
0.648407 0.277435 0.033325
0.664673 0.279327 0.034149
0.681641 0.281250 0.034973
0.698853 0.283325 0.035889
0.715698 0.286041 0.036743
0.731506 0.291565 0.037598
0.744171 0.298492 0.038269
0.753479 0.306091 0.038788
0.094757 0.309998 0.157806
0.094025 0.308441 0.157745
0.094604 0.307312 0.157593
0.098236 0.307495 0.157288
0.106659 0.308624 0.155396
0.128296 0.311340 0.151184
0.175171 0.308746 0.151337
0.216492 0.291412 0.152924
0.247009 0.281097 0.146179
0.277496 0.279144 0.130188
0.313507 0.274658 0.102539
0.353394 0.265778 0.056610
0.387817 0.264435 0.036346
0.418365 0.265472 0.028320
0.444519 0.267670 0.027863
0.466339 0.271118 0.027954
0.487671 0.274628 0.028961
0.508972 0.278290 0.030060
0.530701 0.281616 0.030121
0.552643 0.285126 0.030365
0.574585 0.288818 0.031158
0.595947 0.292358 0.032043
0.614655 0.295135 0.032867
0.630981 0.297028 0.033539
0.645844 0.298767 0.034180
0.661407 0.300446 0.034790
0.677673 0.302429 0.035156
0.694397 0.304413 0.035736
0.710999 0.306854 0.036530
0.727722 0.309662 0.037567
0.747040 0.314880 0.039459
0.762482 0.322021 0.041290
0.772461 0.330078 0.043213
0.101074 0.331146 0.162811
0.100555 0.329834 0.162872
0.101013 0.328979 0.162811
0.104309 0.329529 0.162750
0.110840 0.331116 0.161530
0.128632 0.334320 0.157257
0.171509 0.335358 0.155609
0.217133 0.320862 0.157593
0.249512 0.305389 0.155914
0.279358 0.301361 0.143982
0.311890 0.299896 0.125366
0.350433 0.293762 0.090393
0.391022 0.286957 0.051849
0.423096 0.286499 0.036957
0.450653 0.288391 0.032959
0.476410 0.290192 0.029846
0.497833 0.293915 0.030396
0.519409 0.297791 0.030853
0.540497 0.301788 0.031952
0.562317 0.305908 0.033051
0.584167 0.309937 0.033508
0.606323 0.313782 0.033569
0.626007 0.317108 0.033905
0.642181 0.319519 0.034485
0.657349 0.321381 0.035278
0.672607 0.323486 0.036072
0.688538 0.325775 0.036835
0.705048 0.327911 0.037048
0.721344 0.330383 0.037781
0.737854 0.333435 0.038849
0.756836 0.341034 0.047852
0.773926 0.349304 0.054596
0.781677 0.359253 0.062256
0.106323 0.352783 0.167175
0.105927 0.351685 0.167297
0.106323 0.351135 0.167389
0.109375 0.352142 0.167297
0.114868 0.354034 0.166534
0.128143 0.357880 0.162354
0.167389 0.360840 0.159454
0.215668 0.350647 0.160675
0.251587 0.333099 0.161743
0.280884 0.323700 0.155090
0.311890 0.322876 0.139954
0.347198 0.321075 0.117737
0.386322 0.314178 0.081024
0.425323 0.308289 0.049011
0.454681 0.308685 0.039154
0.480469 0.310669 0.036194
0.505310 0.313171 0.034851
0.527344 0.316742 0.032654
0.549011 0.320770 0.032837
0.570404 0.325104 0.033722
0.592407 0.329773 0.034912
0.613953 0.334412 0.036011
0.633850 0.338318 0.036835
0.651031 0.340942 0.036499
0.666473 0.343018 0.035950
0.681793 0.345459 0.036743
0.697632 0.347961 0.037445
0.713654 0.350708 0.038269
0.729706 0.353455 0.039124
0.745544 0.357269 0.041229
0.764374 0.366089 0.055023
0.780609 0.377777 0.072449
0.787476 0.388062 0.082611
0.110565 0.374603 0.170837
0.110321 0.374054 0.171051
0.110504 0.373566 0.171234
0.113525 0.375427 0.171295
0.117889 0.377472 0.170929
0.126465 0.381836 0.166931
0.162567 0.385956 0.162506
0.212860 0.380859 0.163330
0.252411 0.363159 0.164948
0.282562 0.349152 0.162018
0.312958 0.345642 0.150604
0.345673 0.345337 0.133453
0.382843 0.342773 0.108215
0.421265 0.335876 0.074799
0.455017 0.330994 0.050598
0.483307 0.331329 0.042969
0.508362 0.333374 0.040009
0.532562 0.336456 0.038727
0.554291 0.340546 0.037903
0.576813 0.344421 0.035553
0.598724 0.348999 0.035400
0.620667 0.353973 0.036591
0.640778 0.358459 0.037689
0.657623 0.361664 0.038483
0.673004 0.364410 0.038910
0.688019 0.367096 0.039551
0.704102 0.369690 0.039215
0.720551 0.372223 0.038696
0.736328 0.375305 0.039520
0.752075 0.379150 0.041656
0.770477 0.390137 0.061890
0.785889 0.404663 0.088287
0.792297 0.415253 0.100372
0.113708 0.396179 0.173828
0.113525 0.395844 0.174103
0.113586 0.395660 0.174347
0.116547 0.398193 0.174408
0.120728 0.401031 0.174072
0.126434 0.405396 0.171173
0.157318 0.410797 0.164917
0.207977 0.410034 0.165375
0.251160 0.393677 0.166840
0.283691 0.377563 0.165833
0.313477 0.368530 0.160004
0.345551 0.368622 0.143402
0.379822 0.368317 0.125519
0.417603 0.364746 0.099487
0.452576 0.358948 0.073120
0.481659 0.354309 0.053955
0.509674 0.354492 0.047791
0.535614 0.356995 0.044159
0.559509 0.360321 0.042389
0.580963 0.364716 0.041626
0.602844 0.369263 0.040588
0.625671 0.373810 0.038605
0.646484 0.378143 0.038177
0.663849 0.381897 0.039124
0.679077 0.384888 0.039978
0.693848 0.387817 0.040802
0.709229 0.390900 0.041412
0.725372 0.393677 0.041351
0.741425 0.396637 0.040955
0.757263 0.400269 0.042206
0.774994 0.412567 0.066376
0.789703 0.430481 0.103760
0.795593 0.441528 0.118042
0.115906 0.417450 0.176178
0.115784 0.417389 0.176483
0.115692 0.417236 0.176758
0.118408 0.420502 0.176819
0.122498 0.423981 0.176483
0.127869 0.428558 0.174194
0.150818 0.435394 0.166321
0.202911 0.437225 0.166992
0.248199 0.424896 0.167358
0.283936 0.408173 0.167480
0.314178 0.394501 0.164246
0.345551 0.391846 0.153351
0.378296 0.391998 0.134705
0.413513 0.391449 0.117828
0.449554 0.387726 0.094666
0.479553 0.382446 0.073425
0.507874 0.378540 0.056793
0.534546 0.378571 0.050690
0.561249 0.380951 0.047974
0.585449 0.384613 0.046112
0.607361 0.389496 0.045288
0.629089 0.394318 0.044434
0.649811 0.398865 0.043152
0.668579 0.402252 0.041229
0.684631 0.405182 0.040405
0.699493 0.408234 0.041229
0.714539 0.411346 0.042023
0.729858 0.414642 0.042877
0.745636 0.417969 0.043488
0.761963 0.421875 0.045044
0.779755 0.434418 0.070557
0.794281 0.454193 0.114075
0.799805 0.465393 0.130463
0.117371 0.438812 0.178101
0.117279 0.439117 0.178436
0.117157 0.439056 0.178741
0.119476 0.442719 0.178711
0.123108 0.446472 0.178345
0.128540 0.451447 0.176331
0.145599 0.458771 0.168182
0.197968 0.462677 0.168213
0.244080 0.455139 0.167664
0.282654 0.438812 0.168121
0.314362 0.423187 0.165833
0.345032 0.414978 0.160004
0.378204 0.415710 0.145020
0.411255 0.415375 0.126465
0.445587 0.414551 0.110443
0.476593 0.410797 0.092377
0.505920 0.406616 0.074554
0.533081 0.403625 0.060242
0.558777 0.403564 0.054504
0.585693 0.406006 0.052429
0.610748 0.409637 0.049927
0.632507 0.414520 0.048859
0.653076 0.419373 0.048065
0.671692 0.423523 0.047241
0.688324 0.426605 0.045807
0.703644 0.429016 0.043915
0.719269 0.431641 0.042450
0.734650 0.435059 0.043304
0.749756 0.438568 0.044373
0.766022 0.443634 0.048889
0.784302 0.456299 0.075317
0.798126 0.476776 0.122345
0.802979 0.487610 0.138550
0.118134 0.460724 0.179688
0.118042 0.461243 0.180023
0.117920 0.461548 0.180328
0.119904 0.465210 0.180267
0.123199 0.469269 0.179779
0.128479 0.474060 0.178101
0.142487 0.481506 0.170746
0.191498 0.487152 0.168823
0.239044 0.483948 0.167236
0.279785 0.468658 0.167938
0.314178 0.452759 0.166168
0.344025 0.439606 0.162292
0.376862 0.437805 0.152740
0.410797 0.438873 0.135498
0.442688 0.438629 0.119080
0.472748 0.437042 0.106506
0.502899 0.434052 0.090912
0.531067 0.431213 0.075867
0.558472 0.429565 0.064880
0.583099 0.429291 0.058594
0.609924 0.431610 0.055878
0.635498 0.434998 0.053467
0.656738 0.439880 0.052246
0.675476 0.444397 0.051361
0.691895 0.447845 0.050537
0.706909 0.450623 0.049530
0.722321 0.453217 0.047424
0.738190 0.456146 0.045654
0.753784 0.459442 0.045441
0.769684 0.465302 0.052795
0.787628 0.478821 0.082550
0.800629 0.498260 0.127472
0.805115 0.508270 0.143402
0.118073 0.483551 0.180756
0.117950 0.484436 0.181061
0.117859 0.484985 0.181366
0.119415 0.488586 0.181335
0.122498 0.492554 0.180817
0.127594 0.497131 0.179535
0.141052 0.504486 0.172852
0.184448 0.511200 0.168854
0.234406 0.511230 0.167542
0.276367 0.498016 0.167206
0.312805 0.482452 0.165833
0.343842 0.467651 0.162292
0.375000 0.459808 0.156219
0.409485 0.461029 0.143036
0.441742 0.461945 0.126312
0.469666 0.461029 0.113342
0.498962 0.459839 0.103424
0.527832 0.458069 0.090210
0.555817 0.456268 0.077362
0.583038 0.455688 0.068481
0.607910 0.456055 0.063324
0.633636 0.457916 0.060516
0.658905 0.461334 0.058899
0.678925 0.465424 0.056396
0.695526 0.469116 0.054688
0.710266 0.472198 0.053741
0.725189 0.475159 0.052734
0.740692 0.478210 0.051239
0.756592 0.481354 0.049896
0.772888 0.487274 0.057098
0.790070 0.501526 0.090027
0.802002 0.519287 0.131836
0.806183 0.528229 0.146179
0.117126 0.507141 0.181274
0.116974 0.508301 0.181549
0.116821 0.509277 0.181854
0.118103 0.512665 0.181732
0.120667 0.516571 0.181274
0.125427 0.521057 0.180298
0.139099 0.528046 0.174622
0.176147 0.535248 0.168640
0.228760 0.538300 0.167175
0.271759 0.527710 0.165588
0.310516 0.512421 0.164825
0.343536 0.497589 0.161377
0.373779 0.485168 0.156586
0.407166 0.482788 0.148285
0.440369 0.484558 0.133606
0.468719 0.484344 0.118561
0.495239 0.483276 0.108368
0.523895 0.483093 0.100922
0.552490 0.482208 0.089600
0.580292 0.481354 0.078979
0.607300 0.481598 0.071686
0.632294 0.482635 0.067535
0.656860 0.484528 0.065308
0.680664 0.487671 0.064575
0.698700 0.490631 0.061523
0.713745 0.493591 0.059357
0.728516 0.496643 0.057800
0.743713 0.499878 0.056488
0.758881 0.503418 0.056122
0.775024 0.509399 0.063293
0.792664 0.524048 0.097565
0.803711 0.539215 0.134094
0.807526 0.547058 0.146515
0.115234 0.531494 0.181335
0.115051 0.532898 0.181580
0.114838 0.534149 0.181854
0.115784 0.537476 0.181702
0.118103 0.541412 0.181152
0.122131 0.545593 0.180206
0.135742 0.552063 0.176086
0.168823 0.559540 0.168976
0.222839 0.564728 0.167114
0.266479 0.557495 0.163757
0.306915 0.542969 0.162659
0.342621 0.528290 0.160248
0.373535 0.514435 0.155487
0.405029 0.505798 0.149506
0.438324 0.507019 0.138702
0.467804 0.507629 0.125153
0.493469 0.506653 0.111908
0.519928 0.506348 0.103607
0.548187 0.506714 0.098419
0.576538 0.506561 0.089050
0.604218 0.506592 0.080658
0.631561 0.507385 0.074524
0.656403 0.508911 0.071503
0.679352 0.510620 0.070129
0.699493 0.512817 0.069763
0.716064 0.515289 0.068115
0.731598 0.518097 0.066101
0.746643 0.521271 0.064026
0.761780 0.524902 0.063141
0.777008 0.530731 0.069916
0.794037 0.544983 0.103699
0.804474 0.558746 0.136322
0.808197 0.565430 0.148102
0.112396 0.556519 0.180878
0.112061 0.558441 0.181061
0.111786 0.559906 0.181274
0.112396 0.562988 0.181152
0.114441 0.566895 0.180481
0.118195 0.570984 0.179626
0.130524 0.576965 0.176727
0.161530 0.584351 0.169525
0.215668 0.590912 0.166687
0.260864 0.587097 0.161896
0.302521 0.573914 0.160034
0.340027 0.559509 0.157440
0.373291 0.545471 0.153595
0.403625 0.533264 0.147827
0.435913 0.529724 0.140808
0.466370 0.530975 0.129547
0.492706 0.530762 0.117432
0.517761 0.530334 0.105164
0.544281 0.530334 0.098938
0.572510 0.531158 0.095917
0.600586 0.531738 0.088470
0.628326 0.532501 0.082123
0.655396 0.533936 0.077545
0.679077 0.535583 0.075470
0.698853 0.536591 0.074707
0.715820 0.538116 0.074677
0.732391 0.540558 0.074738
0.748535 0.543396 0.073334
0.764008 0.546631 0.071259
0.779388 0.551758 0.075958
0.795288 0.565125 0.107666
0.804626 0.578461 0.141724
0.808075 0.584717 0.153442
0.108368 0.582275 0.179993
0.107941 0.584412 0.180115
0.107513 0.586426 0.180237
0.107819 0.589325 0.180115
0.109650 0.593079 0.179474
0.113068 0.596985 0.178619
0.123840 0.602631 0.176514
0.153595 0.609772 0.169708
0.206940 0.616943 0.165283
0.255005 0.616058 0.161224
0.297852 0.605347 0.157135
0.337494 0.590790 0.155090
0.372498 0.577148 0.150787
0.403778 0.563446 0.145538
0.434052 0.554535 0.139587
0.464417 0.554260 0.131470
0.491180 0.554840 0.121246
0.516693 0.554993 0.110046
0.542023 0.554626 0.098755
0.568451 0.554993 0.093658
0.596375 0.556610 0.093933
0.624481 0.557800 0.088104
0.652405 0.559296 0.083557
0.678406 0.561066 0.080566
