lut_library_archive/removed_20260629/extra/709复古年代.cube
# 版权归凌孟成所有，侵权必究
TITLE "LC_Terra_01"
#Input: Rec.709 Gamma 2.4
#Output: Rec.709 Gamma 2.4
#Created by: Evan Schneider of LUT Co
#Copyright: (c) Copyright LUT Co 2022
#Website: https://www.lutco.co
LUT_3D_SIZE 33
0.0287175 0.03299 0.00907912
0.031754 0.0357366 0.011902
0.035584 0.0372625 0.0126192
0.0402991 0.0372625 0.010605
0.0463569 0.0368963 0.0068513
0.0555428 0.0357519 0.000701915
0.0673381 0.0341192 0
0.0819715 0.0323491 0
0.0997177 0.0302434 0
0.119539 0.027985 0
0.141405 0.0254978 0
0.165225 0.0230716 0
0.190433 0.0211948 0
0.21593 0.0197604 0
0.240284 0.0188144 0
0.262913 0.0184024 0
0.284352 0.0185702 0
0.303899 0.0196689 0
0.322957 0.0215152 0
0.340948 0.0235752 0
0.358038 0.0258946 0
0.374624 0.0286107 0
0.390707 0.0318456 0
0.406378 0.0354925 0
0.421775 0.0395819 0
0.436377 0.0436713 0
0.450874 0.0480659 0
0.465141 0.0528725 0
0.479133 0.0580453 0
0.492973 0.0633707 0
0.506767 0.0690318 0
0.520058 0.074815 0
0.534463 0.0805829 0
0.0317845 0.0404974 0.0116884
0.0339513 0.0411536 0.0127413
0.0374304 0.0415198 0.0135653
0.0425269 0.041825 0.013138
0.0496529 0.0420844 0.0113527
0.0601816 0.0419776 0.00695811
0.073579 0.0412604 0.000854505
0.08925 0.0400092 0
0.107897 0.0384222 0
0.129366 0.0367742 0
0.153033 0.035172 0
0.178531 0.0336767 0
0.204868 0.0324407 0
0.230884 0.031754 0
0.256413 0.0317388 0
0.279973 0.0325628 0
0.301732 0.0338903 0
0.322087 0.0359197 0
0.341436 0.0383764 0
0.360082 0.0413825 0
0.378256 0.0447089 0
0.39559 0.0482795 0
0.412375 0.052079 0
0.428977 0.0565042 0
0.445029 0.0610666 0
0.460807 0.0658579 0
0.47602 0.0708476 0
0.490944 0.0760662 0
0.50602 0.0818799 0
0.520485 0.0877546 0
0.534798 0.0937972 0
0.548882 0.0999466 0
0.5635 0.106096 0
0.0335241 0.0453956 0.0145266
0.0365606 0.0472114 0.0149996
0.0410468 0.0487831 0.0175326
0.0473182 0.0499428 0.0191196
0.0563821 0.0505531 0.0188602
0.0681468 0.0509804 0.0159609
0.0831769 0.0509651 0.0108644
0.101015 0.0505074 0.0043946
0.121187 0.049546 0
0.144015 0.0483101 0
0.169558 0.0472877 0
0.196612 0.0465095 0
0.224369 0.0462196 0
0.251347 0.0464485 0
0.276707 0.0473335 0
0.300893 0.0491035 0
0.323079 0.0516823 0
0.343908 0.0546578 0
0.363973 0.0578317 0
0.383291 0.0614023 0
0.401923 0.0654154 0
0.420493 0.0699779 0
0.438254 0.0745708 0
0.455238 0.0793164 0
0.471824 0.0842756 0
0.487999 0.089601 0
0.504158 0.09514 0
0.520165 0.101183 0
0.535332 0.107134 0
0.550225 0.113329 0
0.564675 0.119829 0
0.579126 0.126497 0
0.594141 0.133104 0
0.0367895 0.0540475 0.0212711
0.040116 0.0569619 0.0208286
0.0458381 0.059617 0.0213931
0.0538033 0.0619059 0.025391
0.0659037 0.062974 0.0281834
0.0796216 0.0637522 0.0273594
0.0959945 0.0641031 0.0239719
0.115633 0.0641031 0.0185397
0.138247 0.063859 0.0121157
0.163226 0.063386 0.00514229
0.189944 0.0626993 0
0.218051 0.0623484 0
0.246479 0.0628214 0
0.274235 0.0641337 0
0.300221 0.0662089 0
0.324025 0.0688945 0
0.346349 0.0720836 0
0.367803 0.0758373 0
0.388586 0.079942 0
0.408728 0.0842451 0
0.428092 0.0890211 0
0.446937 0.0939193 0
0.465263 0.0990616 0
0.482948 0.104463 0
0.500069 0.109972 0
0.516609 0.115663 0
0.532982 0.122011 0
0.549004 0.128222 0
0.564446 0.134722 0
0.579309 0.141421 0
0.593683 0.148333 0.00344854
0.607736 0.155886 0.00753796
0.622171 0.163027 0.0110323
0.0419623 0.0659495 0.0279393
0.0454261 0.0702525 0.0306401
0.0514382 0.0744945 0.030396
0.0610819 0.0776379 0.0310216
0.076051 0.0792096 0.0362402
0.0935225 0.0803693 0.0393072
0.11249 0.0812238 0.0383917
0.134203 0.0815595 0.0347601
0.158953 0.0816358 0.0297551
0.185992 0.081529 0.0238041
0.214405 0.0815747 0.0177768
0.243458 0.0818647 0.0120394
0.272023 0.082887 0.00714122
0.29984 0.0851759 0.00389105
0.325628 0.0881208 0.00146487
0.349401 0.0917372 0
0.372045 0.0956588 0
0.393957 0.0999313 0
0.415244 0.104738 0
0.435996 0.109911 0.000213626
0.455665 0.115206 0.00149538
0.474617 0.120653 0.00297551
0.49305 0.126253 0.00491341
0.510979 0.132067 0.00726329
0.528511 0.138354 0.0100404
0.545113 0.144732 0.0127565
0.560998 0.151247 0.0155184
0.576364 0.158007 0.0184176
0.59118 0.165011 0.0215763
0.605844 0.172152 0.0248875
0.620249 0.179797 0.0287327
0.634073 0.187243 0.0324407
0.648676 0.194491 0.0357061
0.0483711 0.0805829 0.0350805
0.0525521 0.0861677 0.0396124
0.0588235 0.0920729 0.0431525
0.0683909 0.0972915 0.0423896
0.0860456 0.0997482 0.0434424
0.106889 0.101091 0.0493629
0.130358 0.10248 0.0521706
0.155917 0.103182 0.0514382
0.18323 0.103441 0.0482185
0.212238 0.103593 0.0437018
0.241993 0.104036 0.039292
0.271931 0.105104 0.03505
0.300694 0.107088 0.0316014
0.327443 0.109789 0.0288548
0.352285 0.11342 0.0272068
0.376211 0.117617 0.0263218
0.399069 0.122332 0.0259709
0.421332 0.127428 0.0263371
0.442802 0.132799 0.0269627
0.463294 0.138293 0.0279088
0.482948 0.144152 0.0290379
0.5019 0.150225 0.0304875
0.519936 0.156497 0.0321508
0.537423 0.163149 0.0340581
0.554421 0.169787 0.0362707
0.570779 0.17644 0.0386053
0.586603 0.183307 0.0411841
0.602045 0.190341 0.0437476
0.616922 0.197513 0.0467536
0.631769 0.205142 0.0502632
0.64596 0.212558 0.053727
0.660044 0.22002 0.0572824
0.674678 0.227344 0.060441
0.0554208 0.098024 0.041474
0.06009 0.104204 0.047364
0.0666056 0.111528 0.0525673
0.0770123 0.118975 0.0565347
0.0940108 0.124407 0.0552224
0.118639 0.126879 0.0569924
0.146014 0.127993 0.0625925
0.175952 0.128985 0.0648051
0.207797 0.129717 0.0644999
0.239948 0.130388 0.0623789
0.271092 0.131395 0.0597543
0.301518 0.133165 0.0570535
0.329564 0.135607 0.0547646
0.3552 0.139025 0.053254
0.379461 0.143175 0.0523079
0.402823 0.147845 0.0516823
0.425818 0.153262 0.0517281
0.447623 0.158785 0.051957
0.468681 0.164584 0.0526284
0.489158 0.170504 0.0535134
0.508537 0.176745 0.054551
0.527428 0.183261 0.0560922
0.545785 0.190036 0.057847
0.563256 0.196765 0.0596323
0.580224 0.203494 0.0617227
0.596582 0.210285 0.0639963
0.612314 0.217273 0.0663462
0.628 0.224537 0.0691997
0.643229 0.231861 0.0722515
0.657923 0.23917 0.0754406
0.672435 0.246509 0.0787518
0.686458 0.253971 0.0819562
0.701427 0.261143 0.0848402
0.0623941 0.117647 0.0470283
0.0673075 0.124712 0.0532387
0.0739757 0.132784 0.0593271
0.0854353 0.142168 0.0641947
0.101854 0.150912 0.0680095
0.12549 0.156832 0.0658732
0.156756 0.159014 0.0674601
0.190875 0.160037 0.0724193
0.227146 0.161059 0.0747387
0.26389 0.162615 0.0757305
0.297658 0.164401 0.0754711
0.32842 0.166659 0.0749523
0.355703 0.169665 0.0744335
0.381018 0.173373 0.0741588
0.40531 0.177783 0.0740063
0.429145 0.18294 0.074403
0.451575 0.188235 0.0747845
0.473381 0.193851 0.0754711
0.494438 0.199802 0.0762493
0.514809 0.205951 0.0774395
0.534493 0.212436 0.0787976
0.553597 0.21915 0.0806134
0.571817 0.225742 0.0824598
0.589334 0.232456 0.0843366
0.606409 0.239185 0.0865492
0.623026 0.24593 0.0889906
0.639109 0.25301 0.0915541
0.654917 0.260136 0.0942245
0.670268 0.26714 0.0971084
0.68513 0.274281 0.100191
0.699641 0.281559 0.10338
0.713985 0.288838 0.106523
0.729427 0.296178 0.109453
0.067277 0.139147 0.0493019
0.0724346 0.147158 0.0558633
0.0805829 0.155978 0.0628367
0.0930648 0.165789 0.0690623
0.110277 0.177066 0.0742809
0.133684 0.186526 0.0783703
0.164614 0.192691 0.0758831
0.203387 0.194827 0.0772412
0.243503 0.196612 0.0818341
0.283085 0.198505 0.0848402
0.32015 0.200931 0.0873732
0.35256 0.204105 0.0893416
0.380682 0.207813 0.090959
0.406928 0.21178 0.0923476
0.431876 0.21648 0.0936599
0.455436 0.221332 0.0947585
0.478233 0.22652 0.0962081
0.500069 0.232136 0.0974746
0.521324 0.237934 0.0990005
0.541955 0.244373 0.100755
0.561746 0.250599 0.102541
0.580697 0.257023 0.104295
0.598947 0.263539 0.106386
0.61677 0.270085 0.108522
0.63389 0.276814 0.110552
0.650797 0.28365 0.112993
0.666926 0.290303 0.115389
0.682734 0.297078 0.117754
0.698207 0.303944 0.120348
0.713252 0.310857 0.123217
0.728161 0.317983 0.126207
0.743023 0.325139 0.12929
0.758297 0.331899 0.131792
0.0715343 0.161929 0.0505684
0.0770886 0.170626 0.0573587
0.086656 0.179446 0.0645457
0.10016 0.189593 0.0719768
0.118608 0.201984 0.0788281
0.14374 0.214923 0.0850385
0.175158 0.224994 0.0892805
0.21384 0.231418 0.0866712
0.258549 0.234073 0.0879072
0.300404 0.236866 0.0921492
0.33904 0.240253 0.0964523
0.373297 0.244129 0.100984
0.40415 0.248737 0.104936
0.432151 0.253101 0.108202
0.457984 0.257633 0.11078
0.482307 0.26244 0.113008
0.505364 0.267536 0.115099
0.527779 0.272892 0.11725
0.54931 0.278965 0.119524
0.570016 0.284794 0.12166
0.5897 0.290852 0.12369
0.608911 0.296956 0.125872
0.627314 0.303197 0.127916
0.645274 0.309545 0.130129
0.662806 0.316152 0.132616
0.679423 0.322499 0.134737
0.695766 0.328786 0.137026
0.71191 0.335149 0.139284
0.727474 0.341726 0.141787
0.742885 0.348547 0.144503
0.758114 0.355398 0.147402
0.773053 0.361975 0.15021
0.788418 0.368353 0.152316
0.0755779 0.185809 0.0515755
0.0819867 0.194278 0.0582132
0.0926223 0.203082 0.0654459
0.107027 0.21323 0.0735027
0.126543 0.225788 0.0817426
0.153323 0.241047 0.0898604
0.187366 0.255085 0.0974289
0.226017 0.265293 0.101122
0.270329 0.272389 0.0979934
0.316533 0.276509 0.0994278
0.356435 0.28101 0.104234
0.391379 0.286305 0.110185
0.424079 0.291081 0.115801
0.454353 0.295735 0.120806
0.482002 0.300496 0.12488
0.507713 0.305272 0.128405
0.531807 0.310262 0.131579
0.555154 0.315816 0.134874
0.576928 0.321294 0.137636
0.598093 0.326833 0.140093
0.618112 0.332586 0.142641
0.637583 0.338399 0.145083
0.656641 0.34461 0.147646
0.674647 0.350454 0.149981
0.692027 0.356359 0.152026
0.708919 0.362249 0.154314
0.725658 0.368185 0.156527
0.741878 0.374273 0.15874
0.758038 0.380636 0.161456
0.773571 0.386816 0.164126
0.788769 0.393179 0.166598
0.803876 0.399451 0.16939
0.819562 0.405371 0.171557
0.0797284 0.209689 0.0521248
0.0872663 0.218128 0.058793
0.0984207 0.226963 0.0662394
0.113741 0.236881 0.0745251
0.134417 0.249424 0.0836957
0.162005 0.264881 0.0928817
0.198001 0.282048 0.10222
0.23978 0.296422 0.111238
0.283467 0.307668 0.113176
0.329366 0.316503 0.110521
0.372274 0.322728 0.112688
0.408804 0.328511 0.118242
0.441962 0.334157 0.124468
0.473228 0.339437 0.130434
0.502693 0.344381 0.135882
0.530434 0.349432 0.140948
0.556085 0.354376 0.145144
0.580301 0.359365 0.149172
0.603067 0.364569 0.152682
0.62472 0.369833 0.155886
0.64567 0.375128 0.158831
0.665766 0.380957 0.161868
0.685084 0.386404 0.164614
0.703517 0.391836 0.166873
0.721294 0.397131 0.169223
0.738506 0.402502 0.171374
0.755413 0.408042 0.173587
0.772442 0.413947 0.176211
0.788434 0.41973 0.178607
0.804227 0.425483 0.181094
0.819654 0.431296 0.183841
0.834699 0.437263 0.186481
0.850645 0.442924 0.188952
0.0848249 0.234226 0.0533913
0.0931411 0.24239 0.0598917
0.104738 0.251179 0.0673838
0.120943 0.261021 0.0758526
0.142473 0.272679 0.0849775
0.170596 0.287648 0.0951247
0.20766 0.306111 0.105806
0.252232 0.324559 0.116884
0.297719 0.339956 0.125872
0.342138 0.353002 0.126284
0.384817 0.363317 0.124163
0.424262 0.370581 0.126787
0.459739 0.376669 0.132677
0.491341 0.382605 0.139055
0.521691 0.388373 0.145068
0.549996 0.393454 0.150683
0.577127 0.398169 0.155901
0.60264 0.40293 0.160769
0.626642 0.407874 0.16495
0.649424 0.412848 0.16875
0.671489 0.418143 0.17261
0.692149 0.423072 0.175494
0.711879 0.427955 0.178454
0.730831 0.432868 0.180987
0.749249 0.437705 0.183352
0.7673 0.443 0.185916
0.784726 0.448051 0.188479
0.801541 0.453239 0.190768
0.818036 0.458534 0.19353
0.834012 0.463996 0.196094
0.849607 0.469444 0.199039
0.865034 0.475257 0.202213
0.880751 0.480415 0.20444
0.091249 0.259693 0.0552987
0.0998703 0.267674 0.0616464
0.112154 0.276097 0.0690166
0.128557 0.285237 0.0772717
0.150774 0.296162 0.0865797
0.179568 0.310338 0.0969558
0.21706 0.328573 0.108766
0.263386 0.349691 0.121508
0.311223 0.369177 0.133486
0.355535 0.385702 0.140856
0.396368 0.400244 0.139788
0.436759 0.411246 0.13846
0.474815 0.418967 0.141482
0.509422 0.425223 0.14725
0.540063 0.430945 0.153414
0.568658 0.436271 0.159152
0.595941 0.441337 0.164523
0.622263 0.446097 0.169741
0.647669 0.45098 0.174578
0.671672 0.455634 0.179004
0.694347 0.460182 0.183047
0.716014 0.464683 0.186374
0.736324 0.469078 0.189456
0.756024 0.473289 0.192309
0.775326 0.478004 0.195026
0.793637 0.482612 0.197955
0.81149 0.487282 0.200427
0.82884 0.491981 0.203235
0.845472 0.496864 0.205798
0.861616 0.501915 0.20882
0.87747 0.507469 0.21207
0.892805 0.512642 0.215228
0.908507 0.517464 0.218204
0.0990158 0.286732 0.0586252
0.108049 0.294194 0.0647135
0.12076 0.301778 0.0716564
0.137484 0.310216 0.0794995
0.160006 0.320241 0.0886244
0.189136 0.333364 0.0990921
0.226932 0.350896 0.111315
0.273182 0.372457 0.125002
0.322499 0.395209 0.139254
0.36791 0.415549 0.151141
0.408103 0.433234 0.155962
0.448127 0.448203 0.153872
0.487205 0.459266 0.153048
0.523766 0.46659 0.155795
0.556985 0.472328 0.160815
0.586786 0.477577 0.16672
0.614466 0.48275 0.172335
0.64094 0.488029 0.177478
0.666514 0.49276 0.182483
0.690929 0.497108 0.186755
0.714244 0.501213 0.190936
0.736828 0.50515 0.194812
0.757977 0.509056 0.198184
0.778714 0.513237 0.201556
0.798276 0.517205 0.204517
0.817075 0.521355 0.207446
0.835462 0.525643 0.210407
0.853086 0.530098 0.213382
0.870497 0.534874 0.216632
0.886641 0.53959 0.219883
0.90219 0.544396 0.223346
0.917327 0.549325 0.226932
0.933043 0.553826 0.230213
0.108507 0.315099 0.0629282
0.118013 0.32192 0.0687572
0.130739 0.328771 0.0753338
0.148104 0.336172 0.0828412
0.170825 0.345205 0.0915541
0.20029 0.357198 0.102022
0.237552 0.373053 0.114046
0.282994 0.394125 0.12845
0.332418 0.418585 0.143938
0.378607 0.44271 0.157961
0.419791 0.463691 0.168841
0.45922 0.481178 0.170932
0.498024 0.495354 0.167971
0.535622 0.505516 0.166705
0.570413 0.512413 0.168948
0.602731 0.517906 0.173587
0.632258 0.523018 0.179217
0.65922 0.527794 0.184527
0.684642 0.532448 0.189288
0.709102 0.53669 0.193774
0.732479 0.540627 0.197726
0.755001 0.544442 0.201572
0.776959 0.548043 0.205097
0.798016 0.551629 0.208789
0.818326 0.555322 0.212024
0.837873 0.559045 0.215503
0.856458 0.562951 0.218631
0.874556 0.5673 0.222248
0.891752 0.571618 0.225956
0.908019 0.576059 0.229648
0.923537 0.58056 0.233478
0.938735 0.585046 0.237446
0.954253 0.589288 0.240818
0.119753 0.343893 0.0681621
0.12958 0.350576 0.0737316
0.143038 0.356893 0.0800946
0.160952 0.363699 0.0874342
0.183825 0.371374 0.0957656
0.212985 0.381689 0.105638
0.24976 0.396078 0.117662
0.293523 0.415946 0.131853
0.341787 0.440772 0.147906
0.388327 0.467536 0.16405
0.430304 0.491112 0.177905
0.469642 0.510887 0.185794
0.508354 0.52755 0.18497
0.545998 0.540505 0.181338
0.581994 0.549935 0.179873
0.615793 0.556588 0.181903
0.646723 0.561593 0.185672
0.675364 0.565957 0.190494
0.701671 0.570062 0.195727
0.726223 0.574075 0.200122
0.749599 0.578042 0.204273
0.772183 0.581689 0.208011
0.793851 0.585092 0.211658
0.814954 0.58851 0.215
0.835462 0.591974 0.218769
0.855238 0.595575 0.222416
0.874495 0.599512 0.226474
0.892714 0.603174 0.230335
0.909819 0.607095 0.234333
0.926574 0.611139 0.238407
0.942123 0.615457 0.242634
0.957397 0.619974 0.246998
0.973114 0.623865 0.25066
0.131533 0.37229 0.0734264
0.142031 0.378683 0.0789502
0.156344 0.385046 0.0851759
0.174624 0.391135 0.0924392
0.198245 0.398062 0.100587
0.227619 0.407141 0.11017
0.26334 0.420035 0.121859
0.305425 0.43827 0.136034
0.351995 0.462821 0.1523
0.397177 0.490257 0.169406
0.439704 0.516289 0.184741
0.479912 0.538155 0.196918
0.518212 0.556619 0.20119
0.556191 0.572305 0.198764
0.592462 0.5841 0.194369
0.62678 0.592309 0.19295
0.658808 0.598062 0.194186
0.68867 0.602396 0.197452
0.716289 0.606271 0.201648
0.741848 0.609934 0.206149
0.765454 0.613321 0.210422
0.788205 0.616739 0.214481
0.809888 0.620203 0.218128
0.830991 0.623529 0.221775
0.851408 0.627008 0.225666
0.871153 0.630579 0.229633
0.890059 0.634104 0.233539
0.9084 0.637613 0.237919
0.925597 0.641291 0.241993
0.942168 0.645014 0.246265
0.958144 0.649149 0.250874
0.973312 0.653315 0.255329
0.989075 0.656916 0.259464
0.144259 0.400381 0.0789654
0.155535 0.406455 0.0843977
0.169879 0.412222 0.0903792
0.189151 0.417853 0.0974594
0.212985 0.424338 0.105592
0.242496 0.432654 0.115114
0.278141 0.444587 0.126879
0.318532 0.461448 0.140688
0.362509 0.484627 0.157015
0.406012 0.512184 0.174441
0.448859 0.539696 0.191073
0.489769 0.563592 0.205066
0.528374 0.583703 0.214862
0.565667 0.600656 0.216037
0.601984 0.614527 0.212055
0.636835 0.624857 0.207446
0.669444 0.631952 0.205509
0.699901 0.636866 0.2065
0.728527 0.640742 0.209079
0.75494 0.6439 0.212497
0.779736 0.646952 0.216403
0.803098 0.650004 0.220859
0.824994 0.6533 0.224842
0.84625 0.656718 0.228916
0.86656 0.660197 0.233051
0.886 0.663432 0.237125
0.904616 0.666773 0.241032
0.922606 0.670192 0.245335
0.939788 0.673762 0.249592
0.956344 0.677668 0.254261
0.972152 0.681285 0.258671
0.986954 0.6851 0.263249
1 0.688411 0.267521
0.157443 0.427573 0.0844587
0.168826 0.433402 0.0898451
0.183993 0.438773 0.0957198
0.203464 0.444022 0.102632
0.228244 0.449882 0.110658
0.257984 0.457801 0.120455
0.29276 0.468666 0.132052
0.331762 0.484443 0.1458
0.373022 0.506294 0.1617
0.414832 0.533349 0.179278
0.457389 0.561547 0.196674
0.499413 0.587411 0.212589
0.538262 0.608759 0.225254
0.575189 0.626703 0.231235
0.611017 0.641978 0.230182
0.645869 0.654154 0.225269
0.679408 0.663188 0.220951
0.710079 0.669154 0.218524
0.739025 0.67303 0.21857
0.766354 0.676127 0.220401
0.792142 0.679072 0.223606
0.816358 0.681956 0.227543
0.839246 0.685069 0.232212
0.860548 0.688106 0.236439
0.880598 0.69131 0.240818
0.900069 0.694484 0.245014
0.918502 0.697704 0.24921
0.936294 0.701045 0.253285
0.953399 0.704555 0.257847
0.969726 0.708049 0.26215
0.984939 0.711696 0.266636
0.99971 0.715267 0.271244
1 0.718379 0.275257
0.170779 0.453925 0.0899519
0.182879 0.459403 0.0952163
0.198398 0.464561 0.100999
0.218662 0.469596 0.107973
0.243381 0.47512 0.116182
0.273075 0.482139 0.125734
0.306859 0.492317 0.137224
0.344488 0.507118 0.150958
0.383658 0.527733 0.166918
0.424094 0.55404 0.184726
0.466194 0.5823 0.202518
0.508141 0.609262 0.219272
0.547768 0.632074 0.233768
0.58468 0.651041 0.243977
0.620249 0.667201 0.246754
0.654917 0.680903 0.244236
0.688243 0.691203 0.238834
0.719387 0.698436 0.234287
0.748547 0.703212 0.231571
0.776303 0.706661 0.231312
0.802792 0.709499 0.233127
0.828031 0.712505 0.236347
0.851484 0.71519 0.240116
0.873487 0.717891 0.244099
0.894087 0.720684 0.248646
0.913268 0.723751 0.252918
0.931731 0.726955 0.257313
0.949599 0.730251 0.261723
0.966262 0.733425 0.265965
0.982101 0.736721 0.270161
0.997238 0.740154 0.274891
1 0.743633 0.27924
1 0.746929 0.283726
0.184817 0.479454 0.0955215
0.196902 0.484657 0.100633
0.213046 0.48957 0.106493
0.233539 0.49424 0.113573
0.258412 0.499367 0.121645
0.287739 0.505928 0.131212
0.320928 0.515373 0.142535
0.35697 0.529259 0.156435
0.394247 0.54902 0.172488
0.433417 0.574197 0.190051
0.474845 0.601984 0.20824
0.51667 0.629389 0.225986
0.556649 0.65359 0.241596
0.594263 0.673671 0.254627
0.63003 0.690898 0.261845
0.664164 0.705196 0.262013
0.697047 0.716625 0.257939
0.728374 0.725109 0.252232
0.757702 0.730938 0.247364
0.786267 0.735317 0.245624
0.812909 0.738476 0.245518
0.838209 0.741115 0.246998
0.862547 0.743572 0.249805
0.885161 0.746136 0.253162
0.906279 0.74873 0.257099
0.926207 0.751644 0.261494
0.944656 0.754482 0.265858
0.962203 0.757458 0.270253
0.978653 0.760616 0.274449
0.994278 0.763745 0.278996
1 0.76704 0.283207
1 0.770489 0.287724
1 0.773388 0.291981
0.198917 0.504112 0.100999
0.211353 0.509331 0.106249
0.227756 0.513664 0.112306
0.248203 0.517906 0.119173
0.273426 0.522591 0.127413
0.302403 0.528817 0.137072
0.334905 0.537835 0.148684
0.369223 0.551141 0.162463
0.404791 0.569696 0.178164
0.442725 0.593652 0.19559
0.483345 0.620844 0.214267
0.524956 0.648463 0.232578
0.565484 0.673869 0.249638
0.603586 0.694972 0.264103
0.639261 0.712612 0.274723
0.673335 0.727687 0.27837
0.706157 0.740032 0.276432
0.737408 0.749493 0.271397
0.766812 0.756542 0.265629
0.795346 0.761471 0.261433
0.822339 0.76524 0.259693
0.848173 0.768093 0.259495
0.872541 0.770489 0.26096
0.89546 0.772854 0.263401
0.917311 0.775525 0.266926
0.93756 0.778012 0.270619
0.956436 0.780529 0.274525
0.973968 0.78323 0.278676
0.990326 0.786175 0.282856
1 0.789212 0.28748
1 0.792493 0.291783
1 0.795621 0.296101
1 0.798245 0.299977
0.213336 0.527901 0.107012
0.22565 0.532647 0.112184
0.242405 0.536736 0.118257
0.263066 0.540673 0.125093
0.287892 0.545022 0.13341
0.316518 0.550958 0.143114
0.347951 0.559564 0.154971
0.381079 0.572106 0.168673
0.415488 0.589746 0.184344
0.452033 0.612467 0.201556
0.491859 0.63888 0.220295
0.533257 0.666575 0.239414
0.574014 0.692439 0.25745
0.612482 0.714458 0.273121
0.648447 0.732876 0.285786
0.682475 0.748501 0.292775
0.715099 0.761639 0.293675
0.746548 0.77232 0.290303
0.775967 0.779904 0.284581
0.804257 0.785504 0.279072
0.83154 0.789837 0.275364
0.857404 0.79324 0.273793
0.882246 0.796094 0.274342
0.905516 0.798352 0.275486
0.92723 0.80058 0.277668
0.947662 0.802915 0.280659
0.967025 0.80528 0.284031
0.984848 0.807752 0.287724
1 0.810559 0.291722
1 0.813321 0.295796
1 0.816266 0.30016
1 0.819242 0.304341
1 0.821836 0.30837
0.227405 0.550607 0.112947
0.240085 0.554894 0.118318
0.256657 0.558831 0.124193
0.277607 0.562478 0.131289
0.302327 0.566812 0.139834
0.330312 0.572213 0.149798
0.360571 0.58027 0.161547
0.392157 0.592355 0.175006
0.425605 0.609171 0.1906
0.461494 0.630838 0.20795
0.500694 0.656474 0.226886
0.541314 0.683589 0.246479
0.582101 0.709697 0.265034
0.620981 0.732631 0.281865
0.65745 0.751842 0.29604
0.6916 0.768078 0.305989
0.724361 0.781796 0.309743
0.75552 0.792996 0.308263
0.784863 0.801556 0.303151
0.813092 0.807828 0.297368
0.840314 0.812634 0.29247
0.866468 0.816648 0.289433
0.891371 0.819684 0.288289
0.914794 0.822171 0.288457
0.936767 0.824323 0.289479
0.957351 0.826413 0.291386
0.976745 0.828595 0.294102
0.995224 0.831067 0.297658
1 0.833539 0.301122
1 0.836088 0.304753
1 0.838712 0.308766
1 0.841505 0.312978
1 0.843931 0.317082
0.24184 0.572183 0.11931
0.254368 0.576318 0.124483
0.271 0.579889 0.130571
0.291798 0.583459 0.137926
0.316136 0.587335 0.146563
0.343282 0.592584 0.156542
0.37261 0.600305 0.168185
0.403021 0.611795 0.181628
0.43566 0.627817 0.197162
0.470985 0.648508 0.214588
0.509377 0.673198 0.2336
0.549432 0.699825 0.253544
0.590005 0.725963 0.272633
0.629358 0.749523 0.290486
0.666163 0.769619 0.305669
0.700832 0.786435 0.317662
0.733303 0.800504 0.323995
0.764309 0.812192 0.324742
0.79382 0.821424 0.321279
0.822049 0.828382 0.315587
0.84921 0.834058 0.310262
0.875227 0.838239 0.305974
0.900053 0.84155 0.303304
0.923384 0.844312 0.302266
0.945724 0.846601 0.302525
0.966583 0.848844 0.303777
0.985931 0.850889 0.305699
1 0.852979 0.308263
1 0.855207 0.311574
1 0.857557 0.3149
1 0.860059 0.31873
1 0.862745 0.322683
1 0.864927 0.326726
0.255894 0.592767 0.125689
0.268345 0.596674 0.131136
0.285298 0.600168 0.13756
0.30547 0.603326 0.144854
0.329534 0.606851 0.153582
0.355703 0.611994 0.163394
0.384131 0.619471 0.175067
0.413886 0.630655 0.188693
0.445747 0.645792 0.204227
0.480247 0.665339 0.221332
0.517876 0.689158 0.240513
0.557595 0.715328 0.260563
0.597925 0.741436 0.28043
0.637415 0.765515 0.299001
0.674662 0.786068 0.314946
0.709453 0.803449 0.328161
0.742153 0.817975 0.337026
0.773175 0.830198 0.339849
0.802701 0.84004 0.338247
0.830945 0.847623 0.333471
0.857755 0.85362 0.327703
0.883955 0.858244 0.322698
0.908507 0.861952 0.318914
0.932036 0.864836 0.317143
0.954314 0.867445 0.316442
0.975006 0.869734 0.316884
0.994263 0.871763 0.318257
1 0.87361 0.320211
1 0.875654 0.32282
1 0.877836 0.326009
1 0.880308 0.329793
1 0.882689 0.333547
1 0.884672 0.337148
0.269795 0.612558 0.132723
0.282383 0.616083 0.138415
0.298848 0.619226 0.144671
0.318868 0.622217 0.152117
0.342367 0.625635 0.160723
0.367819 0.630488 0.17052
0.395148 0.637903 0.182269
0.42417 0.648417 0.195758
0.455512 0.662898 0.211292
