lut_library_archive/removed_20260629/extra/709复古年代.cube
# 版权归凌孟成所有，侵权必究
TITLE "LC_Terra_01"
#Input: Rec.709 Gamma 2.4
#Output: Rec.709 Gamma 2.4
#Created by: Evan Schneider of LUT Co
#Copyright: (c) Copyright LUT Co 2022
#Website: https://www.lutco.co
LUT_3D_SIZE 9
0.0287175 0.03299 0.00907912
0.0463569 0.0368963 0.0068513
0.0997177 0.0302434 0
0.190433 0.0211948 0
0.284352 0.0185702 0
0.358038 0.0258946 0
0.421775 0.0395819 0
0.479133 0.0580453 0
0.534463 0.0805829 0
0.0419623 0.0659495 0.0279393
0.076051 0.0792096 0.0362402
0.158953 0.0816358 0.0297551
0.272023 0.082887 0.00714122
0.372045 0.0956588 0
0.455665 0.115206 0.00149538
0.528511 0.138354 0.0100404
0.59118 0.165011 0.0215763
0.648676 0.194491 0.0357061
0.067277 0.139147 0.0493019
0.110277 0.177066 0.0742809
0.243503 0.196612 0.0818341
0.380682 0.207813 0.090959
0.478233 0.22652 0.0962081
0.561746 0.250599 0.102541
0.63389 0.276814 0.110552
0.698207 0.303944 0.120348
0.758297 0.331899 0.131792
0.0848249 0.234226 0.0533913
0.142473 0.272679 0.0849775
0.297719 0.339956 0.125872
0.459739 0.376669 0.132677
0.577127 0.398169 0.155901
0.671489 0.418143 0.17261
0.749249 0.437705 0.183352
0.818036 0.458534 0.19353
0.880751 0.480415 0.20444
0.119753 0.343893 0.0681621
0.183825 0.371374 0.0957656
0.341787 0.440772 0.147906
0.508354 0.52755 0.18497
0.646723 0.561593 0.185672
0.749599 0.578042 0.204273
0.835462 0.591974 0.218769
0.909819 0.607095 0.234333
0.973114 0.623865 0.25066
0.170779 0.453925 0.0899519
0.243381 0.47512 0.116182
0.383658 0.527733 0.166918
0.547768 0.632074 0.233768
0.688243 0.691203 0.238834
0.802792 0.709499 0.233127
0.894087 0.720684 0.248646
0.966262 0.733425 0.265965
1 0.746929 0.283726
0.227405 0.550607 0.112947
0.302327 0.566812 0.139834
0.425605 0.609171 0.1906
0.582101 0.709697 0.265034
0.724361 0.781796 0.309743
0.840314 0.812634 0.29247
0.936767 0.824323 0.289479
1 0.833539 0.301122
1 0.843931 0.317082
0.283635 0.631098 0.14023
0.354269 0.643534 0.168048
0.465064 0.679164 0.218448
0.613077 0.769955 0.295735
0.759274 0.849897 0.359304
0.874983 0.888579 0.362036
0.969772 0.904875 0.347189
1 0.913359 0.349447
1 0.920882 0.361273
0.335027 0.696254 0.171954
0.397879 0.70663 0.198734
0.501015 0.737255 0.247959
0.642649 0.819425 0.325475
0.791074 0.902739 0.396872
0.908003 0.945418 0.424842
0.998611 0.964904 0.416037
1 0.974533 0.413336
1 0.981003 0.420783
0.0292821 0.035523 0.0359808
0.0433051 0.0387884 0.0154421
0.0943923 0.0343633 0
0.184207 0.0266423 0
0.280781 0.0252689 0
0.356359 0.0337072 0
0.421469 0.0482795 0
0.480568 0.0678416 0
0.536751 0.0911421 0
0.0429999 0.0705272 0.0508125
0.0745708 0.0855268 0.0623636
0.154513 0.0897231 0.0475471
0.267002 0.0913863 0.0227207
0.369665 0.104906 0.0142061
0.454612 0.125643 0.0168154
0.527398 0.149844 0.0250706
0.590188 0.177295 0.0361639
0.647059 0.206973 0.0499123
0.0686809 0.151553 0.0708324
0.114092 0.184558 0.0979019
0.246342 0.20473 0.10721
0.378058 0.216114 0.112963
0.473655 0.235004 0.114778
0.557107 0.260075 0.119615
0.629358 0.287007 0.127092
0.693568 0.314534 0.136629
0.753185 0.342245 0.147356
0.0876173 0.247929 0.0728008
0.147311 0.281849 0.105013
0.30013 0.345525 0.151324
0.461692 0.384985 0.159304
0.578531 0.40708 0.184573
0.670298 0.426596 0.200473
0.746685 0.446799 0.21178
0.813733 0.466926 0.221881
0.874342 0.488212 0.233173
0.120806 0.353063 0.0844434
0.183886 0.376608 0.111971
0.335927 0.437201 0.169299
0.506203 0.532204 0.218875
0.649042 0.570779 0.218387
0.751934 0.587823 0.24033
0.836973 0.601221 0.256992
0.909148 0.61529 0.272908
0.970092 0.631144 0.288579
0.17084 0.461982 0.106371
0.24004 0.478447 0.132555
0.373465 0.520073 0.184237
0.540688 0.630091 0.260761
0.686625 0.697154 0.27715
0.804822 0.718746 0.273136
0.894942 0.729305 0.289387
0.965942 0.741192 0.306645
1 0.753658 0.323842
0.225132 0.556909 0.131212
0.296468 0.56878 0.158083
0.414816 0.601495 0.206973
0.570199 0.701335 0.287098
0.71899 0.782605 0.344213
0.84004 0.819654 0.333028
0.936751 0.831357 0.329351
1 0.840177 0.341314
1 0.850126 0.35761
0.279057 0.635721 0.160372
0.347555 0.644541 0.18674
0.453651 0.671534 0.234058
0.598474 0.75816 0.31371
0.750668 0.846754 0.387274
0.87219 0.892515 0.401816
0.967788 0.910216 0.387289
1 0.91873 0.38941
1 0.926009 0.401358
0.329229 0.699641 0.192325
0.390036 0.706722 0.217151
0.488899 0.729244 0.263066
0.626261 0.805676 0.340764
0.779309 0.896376 0.420569
0.902327 0.946166 0.460319
0.994995 0.968429 0.455497
1 0.978469 0.452384
1 0.984955 0.459281
0.0250858 0.0366369 0.0737163
0.0541695 0.0332189 0.0764019
0.105348 0.0330358 0.0133364
0.185962 0.0290074 0
0.278798 0.030396 0
0.353994 0.0407111 0
0.41912 0.056672 0
0.478859 0.0771191 0
0.535378 0.101076 0
0.0419776 0.0764324 0.0905623
0.0781567 0.088777 0.118746
0.153903 0.0970169 0.0733959
0.258762 0.0997024 0.0457923
0.360586 0.113008 0.035462
0.445945 0.134874 0.0381933
0.518135 0.16051 0.0456397
0.580652 0.1888 0.0568551
0.636942 0.218448 0.0702831
0.0626078 0.17261 0.109468
0.113283 0.196368 0.145357
0.234302 0.209934 0.15906
0.353872 0.220035 0.145129
0.447242 0.238483 0.136645
0.531441 0.264851 0.139086
0.605234 0.294072 0.146761
0.669917 0.323186 0.157031
0.728511 0.351171 0.168093
0.0848402 0.27245 0.109407
0.148531 0.300099 0.149035
0.286305 0.342168 0.202625
0.443656 0.38201 0.215732
0.556405 0.403647 0.240589
0.64242 0.423728 0.251606
0.716793 0.44596 0.260624
0.782864 0.468818 0.270466
0.841611 0.490715 0.280552
0.114488 0.369619 0.117433
0.179202 0.388861 0.151675
0.316442 0.424399 0.209247
0.483864 0.522698 0.277592
0.630991 0.568292 0.282628
0.7355 0.588602 0.309514
0.820966 0.604227 0.329061
0.890303 0.619364 0.343969
0.947097 0.634043 0.35729
0.159487 0.473838 0.141619
0.224399 0.481865 0.16875
0.344869 0.500343 0.213321
0.509392 0.606775 0.301396
0.665782 0.6916 0.343801
0.792538 0.722759 0.346685
0.883757 0.735958 0.367575
0.953475 0.747234 0.384619
1 0.75816 0.400793
0.209827 0.565896 0.169192
0.278035 0.57055 0.194705
0.385351 0.581628 0.234104
0.530007 0.665965 0.31548
0.692088 0.768353 0.399084
0.824247 0.820142 0.406195
0.926055 0.837598 0.406638
0.998993 0.845945 0.419394
1 0.855253 0.435477
0.261219 0.64239 0.198901
0.327581 0.644617 0.223545
0.424201 0.65301 0.261082
0.555993 0.719921 0.336156
0.717449 0.82504 0.429129
0.849943 0.885496 0.468513
0.954635 0.913909 0.463325
1 0.923232 0.465385
1 0.930327 0.477531
0.309804 0.704479 0.230884
0.369696 0.705364 0.253773
0.45893 0.711299 0.289479
0.582666 0.766964 0.359686
0.740261 0.868528 0.454063
0.875288 0.933288 0.515633
0.977859 0.967315 0.526329
1 0.981552 0.525719
1 0.988281 0.532036
0.0163119 0.0365454 0.156207
0.0330816 0.036759 0.184283
0.160006 0.0151064 0.126131
0.243427 0.0152895 0.0348058
0.314214 0.024033 0.000228885
0.378851 0.0387579 0
0.439078 0.0576486 0
0.496147 0.079942 0
0.550958 0.104936 0.0151217
0.0381628 0.0839246 0.180606
0.0619821 0.100557 0.223438
0.215869 0.0840925 0.200122
0.309499 0.0944839 0.106905
0.386313 0.112459 0.0841382
0.461906 0.136706 0.081651
0.528969 0.164279 0.0865949
0.588327 0.19382 0.0961166
0.642054 0.224018 0.108034
0.0578317 0.191699 0.214328
0.0972305 0.217197 0.247562
0.235767 0.212345 0.277134
0.342306 0.225589 0.194675
0.42501 0.242786 0.169039
0.503014 0.266224 0.164431
0.576257 0.296529 0.171939
0.640391 0.326986 0.183551
0.697841 0.356085 0.196933
0.0680705 0.325261 0.221256
0.128573 0.347692 0.256855
0.271199 0.349538 0.292424
0.403952 0.369162 0.313954
0.497185 0.385534 0.308919
0.575555 0.40444 0.300435
0.646448 0.42797 0.301183
0.711879 0.454795 0.309651
0.771252 0.481132 0.321355
0.0937667 0.426749 0.210544
0.162905 0.435248 0.24065
0.306127 0.440467 0.29073
0.441764 0.497963 0.358694
0.578363 0.540871 0.373938
0.678553 0.561837 0.400702
0.757366 0.580331 0.415793
0.82237 0.598825 0.427176
0.877867 0.617517 0.438636
0.132265 0.516075 0.2206
0.199222 0.51136 0.241871
0.32462 0.509209 0.284611
0.455756 0.561761 0.358206
0.60972 0.658763 0.431189
0.741344 0.699031 0.442069
0.835142 0.718608 0.470603
0.909087 0.734844 0.492485
0.968124 0.748989 0.509575
0.177783 0.599466 0.24242
0.247013 0.590707 0.262425
0.349767 0.574289 0.290913
0.468864 0.612573 0.35555
0.629465 0.72433 0.458457
0.771023 0.794202 0.499199
0.884565 0.824384 0.510979
0.962371 0.839384 0.532464
1 0.851743 0.550652
0.226917 0.669596 0.270222
0.29485 0.659464 0.289082
0.384009 0.640574 0.313573
0.48806 0.661784 0.364096
0.640604 0.763653 0.467033
0.792065 0.851743 0.546914
0.909834 0.897017 0.56202
0.994461 0.916442 0.573053
1 0.927367 0.58909
0.275547 0.727123 0.30103
0.336797 0.716304 0.318456
0.417792 0.698116 0.341009
0.512673 0.709239 0.382803
0.653544 0.796017 0.476921
0.811444 0.892592 0.572595
0.926635 0.94226 0.611582
1 0.968887 0.621241
1 0.98201 0.632105
0.00344854 0.0340581 0.256809
0.0239109 0.0368505 0.286687
0.111574 0.0224155 0.323461
0.30901 0 0.182589
0.376425 0.0114595 0.08748
0.434821 0.0290227 0.0609751
0.490517 0.0504616 0.0563363
0.544518 0.0744793 0.0637369
0.596796 0.101061 0.0756237
0.0302129 0.0897993 0.291035
0.0549477 0.110445 0.339849
0.17171 0.102678 0.395407
0.380728 0.0814832 0.283528
0.45272 0.104448 0.190204
0.519234 0.130861 0.162325
0.581292 0.159274 0.158511
0.635309 0.190082 0.160403
0.685832 0.220569 0.169787
0.0505684 0.211078 0.321859
0.0833143 0.24065 0.36463
0.197559 0.241932 0.411399
0.411933 0.215274 0.376013
0.477928 0.236225 0.279576
0.538689 0.261372 0.248814
0.599603 0.292149 0.241459
0.657755 0.323476 0.247776
0.711788 0.353109 0.2589
0.0636912 0.352911 0.359503
0.125505 0.377966 0.397269
0.253513 0.378973 0.416312
0.402319 0.369162 0.441596
0.479255 0.385519 0.365286
0.545052 0.401984 0.340948
0.607874 0.421714 0.333547
0.666545 0.444984 0.337255
0.721981 0.470542 0.347402
0.0833906 0.485801 0.369177
0.154665 0.503471 0.400336
0.289631 0.499672 0.420615
0.420798 0.499596 0.456138
0.529213 0.519188 0.475288
0.606149 0.531899 0.471443
0.671534 0.546777 0.464439
0.729244 0.564172 0.464179
0.781353 0.583444 0.469429
0.11046 0.590066 0.368658
0.182971 0.592187 0.385733
0.312032 0.56968 0.396719
0.440787 0.575051 0.449271
0.557458 0.628275 0.510918
0.674586 0.660639 0.525734
0.759899 0.677089 0.549432
0.826001 0.692622 0.564065
0.879545 0.708064 0.575311
0.148257 0.670527 0.374258
0.221988 0.659953 0.383352
0.333898 0.621164 0.388373
0.451621 0.62533 0.440711
0.568353 0.676829 0.512749
0.702785 0.752804 0.573739
0.812268 0.782986 0.585443
0.889616 0.800076 0.609613
0.950896 0.815534 0.629496
0.1953 0.733959 0.390768
0.266835 0.717144 0.396689
0.359915 0.671061 0.397345
0.463813 0.666728 0.439597
0.57615 0.711254 0.508934
0.720409 0.803677 0.597192
0.838865 0.855665 0.630137
0.928557 0.88014 0.644877
0.991028 0.895033 0.665553
0.243824 0.785428 0.413443
0.308049 0.765805 0.418158
0.389136 0.719585 0.417929
0.479438 0.704051 0.446693
0.58558 0.740993 0.509926
0.728527 0.832761 0.603265
0.857114 0.898924 0.667796
0.948791 0.933684 0.685695
1 0.951659 0.700557
0 0.0312505 0.347631
0.0145724 0.0356298 0.378637
0.0698558 0.0327153 0.437995
0.296605 0 0.386572
0.430014 0 0.253193
0.491569 0.0184176 0.173907
0.546715 0.0426795 0.14519
0.600443 0.0682078 0.142016
0.654154 0.0945602 0.152728
0.0212406 0.0931106 0.388037
0.048661 0.115618 0.43772
0.137194 0.120729 0.508202
0.374792 0.0884108 0.492821
0.516396 0.0941634 0.376181
0.584878 0.121721 0.301808
0.643763 0.151232 0.275517
0.697032 0.181476 0.269352
0.746838 0.211551 0.27335
0.0425574 0.222278 0.415686
0.0712291 0.257786 0.468742
0.183078 0.266682 0.522805
0.392721 0.239033 0.564126
0.547845 0.231159 0.470146
0.607172 0.255375 0.387472
0.659998 0.285389 0.35874
0.713451 0.315709 0.353017
0.764767 0.344762 0.357061
0.0571298 0.37406 0.465217
0.118853 0.405493 0.505257
0.243214 0.409689 0.525597
0.377417 0.399802 0.561486
0.540688 0.380209 0.534173
0.596262 0.396002 0.451377
0.644205 0.416327 0.422354
0.692607 0.439155 0.411978
0.740932 0.463294 0.414054
0.0805066 0.510704 0.492927
0.157168 0.532799 0.527687
0.293523 0.531762 0.548318
0.409384 0.52694 0.562737
0.525902 0.520043 0.585
0.590341 0.531426 0.522087
0.642756 0.543481 0.500328
0.692531 0.557366 0.492821
0.738766 0.573602 0.493492
0.106798 0.630381 0.50869
0.188083 0.642267 0.533532
0.317128 0.635416 0.550011
0.432563 0.62858 0.567697
0.541573 0.628534 0.596323
0.632456 0.643839 0.607355
0.695766 0.651225 0.606485
0.747845 0.661494 0.60148
0.793973 0.673991 0.600961
0.143923 0.723201 0.521675
0.225299 0.724224 0.536538
0.338064 0.703578 0.540108
0.447913 0.683192 0.55111
0.558877 0.689448 0.59443
0.657832 0.729564 0.637369
0.753658 0.750149 0.647105
0.822278 0.761944 0.665034
0.875624 0.774166 0.676631
0.189899 0.792844 0.535958
0.26537 0.78584 0.543084
0.359731 0.750622 0.53434
0.461189 0.71841 0.540917
0.568627 0.728222 0.588067
0.669749 0.768505 0.641764
0.778973 0.820783 0.68304
0.862898 0.84097 0.69247
0.922423 0.853971 0.711086
0.236835 0.846937 0.552972
0.302495 0.834684 0.555322
0.384298 0.789853 0.539498
0.475013 0.748653 0.540413
0.577081 0.757122 0.585733
0.677226 0.794858 0.64065
0.795727 0.860426 0.703487
0.884398 0.894896 0.726864
0.950729 0.912032 0.738613
0 0.0304417 0.423255
0.00714122 0.0365606 0.455756
0.0504463 0.0394141 0.518746
0.254704 0.00520333 0.52221
0.438117 0 0.426001
0.537911 0.00708019 0.326665
0.598535 0.0332189 0.272312
0.653223 0.0605783 0.254902
0.70869 0.0876783 0.257694
0.0149386 0.0982986 0.468009
0.0437171 0.122225 0.516732
0.118196 0.133883 0.589105
0.344228 0.105043 0.61854
0.529397 0.0962844 0.552148
0.638498 0.114 0.464836
0.705577 0.142535 0.413001
0.758648 0.173129 0.390646
0.808759 0.203769 0.385794
0.0365911 0.232013 0.493126
0.0620584 0.269352 0.548562
0.170321 0.283894 0.606302
0.366873 0.26598 0.660929
0.556802 0.24593 0.641505
0.668574 0.254765 0.554742
0.728923 0.281209 0.496498
0.778424 0.310338 0.471733
0.827527 0.338598 0.4654
0.0496681 0.39028 0.541115
0.106889 0.424231 0.582055
0.236316 0.43476 0.613657
0.37322 0.42855 0.651041
0.534157 0.406119 0.685389
0.658946 0.397421 0.610864
0.710491 0.413184 0.545571
0.75172 0.434852 0.518105
0.795453 0.458091 0.51017
0.0777752 0.530648 0.581674
0.156268 0.555154 0.615549
0.296468 0.561471 0.637491
0.405631 0.556222 0.647807
0.507012 0.547097 0.676005
0.642908 0.529183 0.65362
0.690791 0.539086 0.590906
0.727703 0.553811 0.566995
0.765881 0.569757 0.558373
0.107088 0.651255 0.605356
0.192828 0.665003 0.630518
0.325948 0.664332 0.651102
0.439063 0.656947 0.665278
0.533394 0.650614 0.675196
0.630289 0.644984 0.691264
0.684596 0.652659 0.64538
0.726055 0.660807 0.629618
0.766003 0.67039 0.623682
0.147356 0.750027 0.624872
0.233585 0.755489 0.642603
0.352285 0.748425 0.657221
0.460517 0.737652 0.669215
0.556924 0.730724 0.682383
0.647456 0.730129 0.703197
0.721248 0.740566 0.708843
0.774304 0.744839 0.709194
0.815732 0.752163 0.705272
0.19556 0.825895 0.64242
0.274846 0.825422 0.654582
0.377172 0.809873 0.660609
0.476783 0.789151 0.663935
0.571496 0.77438 0.674571
0.665217 0.778973 0.706065
0.744701 0.805707 0.732662
0.819745 0.818235 0.738445
0.87248 0.826246 0.751537
0.242756 0.88484 0.660594
0.310689 0.88043 0.668208
0.400839 0.856107 0.665904
0.489982 0.822309 0.658564
0.58201 0.801633 0.668223
0.67599 0.810437 0.704036
0.758785 0.83743 0.739849
0.840146 0.870665 0.765927
0.901625 0.882994 0.772305
0 0.0310521 0.482918
0.00285344 0.0392309 0.517113
0.0425727 0.0455177 0.580285
0.221714 0.0186313 0.607248
0.425055 0 0.551125
0.555505 0.00445563 0.464881
0.638849 0.0265354 0.40145
0.70103 0.0538491 0.371038
0.759426 0.0818494 0.365011
0.0109407 0.105364 0.531197
0.0406195 0.130953 0.579171
0.108232 0.146426 0.650614
0.32166 0.122057 0.694896
0.520943 0.107271 0.672343
0.66009 0.115694 0.60238
0.750362 0.138277 0.544427
0.813138 0.167224 0.510048
0.866011 0.197803 0.495598
0.0329595 0.243503 0.556222
0.0576181 0.281743 0.611551
0.161791 0.297826 0.668009
0.350607 0.284962 0.723217
0.54165 0.266117 0.744396
0.689952 0.264485 0.68838
0.779797 0.281819 0.627619
0.83949 0.307195 0.589456
0.888899 0.334066 0.571618
0.0449989 0.405585 0.60032
0.0984817 0.43975 0.641245
0.229343 0.452461 0.677363
0.371588 0.451362 0.719051
0.519509 0.435401 0.766445
0.676448 0.415717 0.74229
0.766934 0.418677 0.675608
0.817227 0.436011 0.63122
0.857877 0.458152 0.609705
0.0754253 0.548775 0.64593
0.152941 0.573739 0.677699
0.294087 0.584649 0.700465
0.40621 0.582437 0.717357
0.507271 0.573541 0.745418
0.641123 0.552438 0.768536
0.74342 0.542916 0.709178
0.785992 0.553231 0.661051
0.817594 0.568658 0.638727
0.10901 0.668589 0.674571
0.197009 0.683116 0.699077
0.333059 0.687526 0.721782
0.446479 0.684169 0.735561
0.533089 0.674479 0.738903
0.615488 0.665904 0.758831
0.726711 0.651072 0.739849
0.767575 0.657969 0.695323
0.797299 0.668894 0.677623
0.151751 0.766476 0.696345
0.240391 0.773068 0.714305
0.361288 0.770581 0.732341
0.47129 0.762737 0.746014
0.563394 0.752346 0.753796
0.641047 0.746151 0.760311
0.720913 0.741344 0.771893
0.766766 0.747234 0.738735
0.800565 0.753155 0.727031
0.201541 0.84477 0.716167
0.282368 0.846784 0.729854
0.38883 0.838865 0.742443
0.49276 0.826505 0.75227
0.583154 0.814694 0.75938
0.663401 0.808072 0.768658
0.737911 0.80647 0.78265
0.796292 0.813214 0.786068
0.838621 0.815976 0.786007
0.249271 0.906462 0.735561
0.318837 0.905455 0.746014
0.415549 0.891386 0.752941
0.511788 0.87187 0.755642
0.598337 0.854673 0.758587
0.679255 0.843397 0.766751
0.756207 0.845014 0.788571
0.815961 0.861692 0.804776
0.871931 0.868589 0.807706
0 0.0327764 0.52874
0.000747692 0.0429847 0.564492
0.0407874 0.0518349 0.627634
0.202396 0.031342 0.665217
0.412665 0.00700389 0.635019
0.558923 0.00920119 0.567666
0.661021 0.0268101 0.50869
0.736645 0.0515297 0.474266
0.801953 0.0789502 0.462928
0.00886549 0.113909 0.579828
0.0393378 0.141207 0.627695
0.104128 0.159045 0.698131
0.308171 0.138338 0.7476
0.511345 0.121508 0.751431
0.666773 0.124254 0.70106
0.775219 0.141695 0.647532
0.851484 0.167071 0.610254
0.911116 0.196109 0.59057
0.0310674 0.256367 0.60589
0.0556039 0.295186 0.660624
0.158907 0.311788 0.716335
0.343206 0.301228 0.770474
0.527794 0.285328 0.808789
0.692393 0.27837 0.78024
0.806226 0.288518 0.727108
0.881544 0.308766 0.686671
0.937865 0.333028 0.662837
0.0425574 0.420523 0.646845
0.0950332 0.454505 0.68806
0.224796 0.465934 0.724468
0.370932 0.468849 0.769482
0.513008 0.458198 0.820417
0.672648 0.437552 0.827222
0.793851 0.432197 0.77705
0.864881 0.443275 0.730053
0.912291 0.462318 0.700542
0.0742809 0.565118 0.693736
0.150973 0.590097 0.72401
0.29041 0.600397 0.745693
0.408469 0.603235 0.770291
0.510887 0.596414 0.799512
0.632319 0.578698 0.832334
0.760967 0.559869 0.806653
0.831815 0.560891 0.755413
0.869932 0.572503 0.720745
0.111604 0.684108 0.725567
0.201068 0.698756 0.749187
0.336522 0.704845 0.771008
0.451728 0.707042 0.786969
0.537087 0.69662 0.791699
0.617334 0.686305 0.81004
0.727092 0.66865 0.824552
0.808286 0.661555 0.779461
0.842603 0.669093 0.744259
0.157198 0.780194 0.748272
0.246723 0.78735 0.766293
0.367788 0.787305 0.785153
0.481407 0.784146 0.801663
0.571542 0.773465 0.806424
0.64097 0.763302 0.806165
0.708873 0.756481 0.820752
0.799039 0.74548 0.806302
0.832578 0.751003 0.773693
0.207385 0.857542 0.76849
0.28838 0.860548 0.782666
0.396201 0.855116 0.797406
0.503883 0.846464 0.810101
0.592935 0.833524 0.815473
0.668223 0.82295 0.819257
0.732479 0.817594 0.823774
0.796567 0.814008 0.831815
0.833188 0.818402 0.807752
0.255573 0.920027 0.788281
0.325429 0.920256 0.800183
0.425238 0.910079 0.8103
0.526925 0.896529 0.81857
0.613138 0.881514 0.822141
0.687739 0.870314 0.826062
0.753475 0.864393 0.831769
0.811704 0.86247 0.841337
0.85597 0.866178 0.843168
