lut_library_archive/removed_20260629/extra/709复古年代.cube
# 版权归凌孟成所有，侵权必究
TITLE "LC_Terra_01"
#Input: Rec.709 Gamma 2.4
#Output: Rec.709 Gamma 2.4
#Created by: Evan Schneider of LUT Co
#Copyright: (c) Copyright LUT Co 2022
#Website: https://www.lutco.co
LUT_3D_SIZE 5
0.0287175 0.03299 0.00907912
0.0997177 0.0302434 0
0.284352 0.0185702 0
0.421775 0.0395819 0
0.534463 0.0805829 0
0.067277 0.139147 0.0493019
0.243503 0.196612 0.0818341
0.478233 0.22652 0.0962081
0.63389 0.276814 0.110552
0.758297 0.331899 0.131792
0.119753 0.343893 0.0681621
0.341787 0.440772 0.147906
0.646723 0.561593 0.185672
0.835462 0.591974 0.218769
0.973114 0.623865 0.25066
0.227405 0.550607 0.112947
0.425605 0.609171 0.1906
0.724361 0.781796 0.309743
0.936767 0.824323 0.289479
1 0.843931 0.317082
0.335027 0.696254 0.171954
0.501015 0.737255 0.247959
0.791074 0.902739 0.396872
0.998611 0.964904 0.416037
1 0.981003 0.420783
0.0250858 0.0366369 0.0737163
0.105348 0.0330358 0.0133364
0.278798 0.030396 0
0.41912 0.056672 0
0.535378 0.101076 0
0.0626078 0.17261 0.109468
0.234302 0.209934 0.15906
0.447242 0.238483 0.136645
0.605234 0.294072 0.146761
0.728511 0.351171 0.168093
0.114488 0.369619 0.117433
0.316442 0.424399 0.209247
0.630991 0.568292 0.282628
0.820966 0.604227 0.329061
0.947097 0.634043 0.35729
0.209827 0.565896 0.169192
0.385351 0.581628 0.234104
0.692088 0.768353 0.399084
0.926055 0.837598 0.406638
1 0.855253 0.435477
0.309804 0.704479 0.230884
0.45893 0.711299 0.289479
0.740261 0.868528 0.454063
0.977859 0.967315 0.526329
1 0.988281 0.532036
0.00344854 0.0340581 0.256809
0.111574 0.0224155 0.323461
0.376425 0.0114595 0.08748
0.490517 0.0504616 0.0563363
0.596796 0.101061 0.0756237
0.0505684 0.211078 0.321859
0.197559 0.241932 0.411399
0.477928 0.236225 0.279576
0.599603 0.292149 0.241459
0.711788 0.353109 0.2589
0.0833906 0.485801 0.369177
0.289631 0.499672 0.420615
0.529213 0.519188 0.475288
0.671534 0.546777 0.464439
0.781353 0.583444 0.469429
0.148257 0.670527 0.374258
0.333898 0.621164 0.388373
0.568353 0.676829 0.512749
0.812268 0.782986 0.585443
0.950896 0.815534 0.629496
0.243824 0.785428 0.413443
0.389136 0.719585 0.417929
0.58558 0.740993 0.509926
0.857114 0.898924 0.667796
1 0.951659 0.700557
0 0.0304417 0.423255
0.0504463 0.0394141 0.518746
0.438117 0 0.426001
0.598535 0.0332189 0.272312
0.70869 0.0876783 0.257694
0.0365911 0.232013 0.493126
0.170321 0.283894 0.606302
0.556802 0.24593 0.641505
0.728923 0.281209 0.496498
0.827527 0.338598 0.4654
0.0777752 0.530648 0.581674
0.296468 0.561471 0.637491
0.507012 0.547097 0.676005
0.690791 0.539086 0.590906
0.765881 0.569757 0.558373
0.147356 0.750027 0.624872
0.352285 0.748425 0.657221
0.556924 0.730724 0.682383
0.721248 0.740566 0.708843
0.815732 0.752163 0.705272
0.242756 0.88484 0.660594
0.400839 0.856107 0.665904
0.58201 0.801633 0.668223
0.758785 0.83743 0.739849
0.901625 0.882994 0.772305
0 0.0327764 0.52874
0.0407874 0.0518349 0.627634
0.412665 0.00700389 0.635019
0.661021 0.0268101 0.50869
0.801953 0.0789502 0.462928
0.0310674 0.256367 0.60589
0.158907 0.311788 0.716335
0.527794 0.285328 0.808789
0.806226 0.288518 0.727108
0.937865 0.333028 0.662837
0.0742809 0.565118 0.693736
0.29041 0.600397 0.745693
0.510887 0.596414 0.799512
0.760967 0.559869 0.806653
0.869932 0.572503 0.720745
0.157198 0.780194 0.748272
0.367788 0.787305 0.785153
0.571542 0.773465 0.806424
0.708873 0.756481 0.820752
0.832578 0.751003 0.773693
0.255573 0.920027 0.788281
0.425238 0.910079 0.8103
0.613138 0.881514 0.822141
0.753475 0.864393 0.831769
0.85597 0.866178 0.843168
