lut_library_archive/removed_20260629/extra/正片11.5.cube
LUT_3D_SIZE 5
DOMAIN_MIN 0.000000 0.000000 0.000000
DOMAIN_MAX 0.903226 0.903226 0.903226
0.000000 0.000000 0.000000
0.169162 0.027344 0.004761
0.450050 0.026642 0.000000
0.733272 0.000000 0.000000
0.961883 0.000000 0.000000
0.000000 0.173617 0.032288
0.155398 0.180972 0.028992
0.451423 0.235874 0.000000
0.733181 0.238071 0.000000
0.961273 0.222049 0.000000
0.000000 0.402686 0.000000
0.160342 0.399664 0.013581
0.385779 0.411719 0.000000
0.709529 0.479377 0.000000
0.958770 0.478096 0.000000
0.000000 0.635340 0.000000
0.129061 0.633631 0.000000
0.391272 0.627161 0.084565
0.622400 0.645808 0.000000
0.917510 0.697749 0.000000
0.000000 0.885771 0.065339
0.144411 0.885039 0.095247
0.423133 0.882689 0.162661
0.649073 0.883696 0.215854
0.874968 0.897795 0.088045
0.000000 0.004028 0.189059
0.164767 0.008972 0.193210
0.439979 0.000000 0.215732
0.736843 0.000000 0.205936
0.962310 0.000000 0.207980
0.000000 0.191287 0.195468
0.165835 0.201480 0.206271
0.458564 0.200809 0.207095
0.736233 0.195071 0.204257
0.961486 0.198489 0.207980
0.000000 0.415961 0.204746
0.134157 0.427649 0.199893
0.402899 0.429877 0.197024
0.726986 0.482887 0.196933
0.958373 0.473915 0.208988
0.000000 0.644068 0.199496
0.054200 0.648798 0.190005
0.393866 0.640558 0.216068
0.629053 0.653407 0.179232
0.922728 0.699489 0.170626
0.000000 0.888914 0.207858
0.089143 0.888518 0.216312
0.417578 0.885496 0.253391
0.650294 0.884245 0.300999
0.875578 0.898283 0.226902
0.000000 0.000000 0.427619
0.168429 0.000000 0.431342
0.409339 0.000000 0.441260
0.663691 0.000000 0.447028
0.942718 0.000000 0.464027
0.000000 0.183871 0.441199
0.113283 0.173526 0.446723
0.418952 0.160861 0.454505
0.682307 0.105409 0.455512
0.947753 0.180026 0.474464
0.000000 0.436011 0.446693
0.000000 0.445655 0.457313
0.451972 0.481453 0.496590
0.730831 0.492103 0.505638
0.950530 0.500694 0.509789
0.000000 0.661952 0.434882
0.000000 0.667567 0.435309
0.408057 0.682582 0.453681
0.655787 0.680232 0.453223
0.935882 0.718959 0.493538
0.000000 0.895781 0.431983
0.000000 0.896330 0.428290
0.396399 0.895384 0.440711
0.656062 0.888090 0.484474
0.878386 0.899748 0.446693
0.000000 0.000000 0.666865
0.144472 0.000000 0.668238
0.402258 0.000000 0.672572
0.643824 0.000000 0.679194
0.895232 0.000000 0.678798
0.000000 0.143374 0.673945
0.000000 0.134859 0.675044
0.391730 0.095979 0.678584
0.647456 0.000000 0.684596
0.897215 0.000000 0.676295
0.000000 0.414984 0.680476
0.000000 0.411658 0.685237
0.377752 0.410224 0.697993
0.663081 0.412970 0.703120
0.910307 0.371252 0.680507
0.000000 0.666773 0.683284
0.000000 0.670405 0.687373
0.370947 0.685420 0.702754
0.713039 0.732692 0.746029
0.935393 0.748867 0.757168
0.000000 0.908019 0.672877
0.000000 0.908659 0.670466
0.311009 0.908934 0.664759
0.658076 0.903807 0.686641
0.886259 0.903319 0.690120
0.000000 0.000000 0.914427
0.105226 0.000000 0.914702
0.397498 0.000000 0.915557
0.638056 0.000000 0.916808
0.880766 0.000000 0.918090
0.000000 0.085267 0.915709
0.000000 0.058412 0.915923
0.378119 0.000000 0.916564
0.632868 0.000000 0.917571
0.881102 0.000000 0.918639
0.000000 0.377600 0.917876
0.000000 0.366766 0.918456
0.323949 0.356023 0.918944
0.619623 0.343328 0.919463
0.882994 0.330053 0.919829
0.000000 0.645563 0.917967
0.000000 0.642542 0.918364
0.285679 0.635401 0.919432
0.624903 0.643030 0.920195
0.888945 0.647913 0.920195
0.000000 0.901671 0.917144
0.000000 0.901946 0.917266
0.262089 0.903319 0.917571
0.624720 0.906920 0.918517
0.923552 0.931701 0.938170
