lut_library_archive/removed_20260629/extra/正片11.5.cube
LUT_3D_SIZE 8
DOMAIN_MIN 0.000000 0.000000 0.000000
DOMAIN_MAX 0.903226 0.903226 0.903226
0.000000 0.000000 0.000000
0.091035 0.009125 0.001434
0.202640 0.034302 0.002502
0.362310 0.046052 0.000000
0.536767 0.000000 0.000000
0.696254 0.000000 0.000000
0.837766 0.000000 0.000000
0.961883 0.000000 0.000000
0.003418 0.097169 0.015747
0.083864 0.099336 0.017975
0.202579 0.119509 0.001404
0.362768 0.135439 0.000000
0.537072 0.136385 0.000000
0.696223 0.127382 0.000000
0.837644 0.109987 0.000000
0.961700 0.092012 0.000000
0.000000 0.204562 0.031250
0.083803 0.203403 0.040955
0.184756 0.213352 0.023011
0.352728 0.253971 0.000000
0.537896 0.274754 0.000000
0.696254 0.276188 0.000000
0.837278 0.269200 0.000000
0.961028 0.259983 0.000000
0.000000 0.336858 0.000000
0.058839 0.335882 0.008698
0.190982 0.332555 0.048249
0.316991 0.346502 0.000000
0.494331 0.384009 0.000000
0.694484 0.420356 0.000000
0.836393 0.416175 0.000000
0.959747 0.406317 0.000000
0.000000 0.467597 0.000000
0.000000 0.466804 0.000000
0.189883 0.463691 0.007568
0.317113 0.461982 0.051331
0.452399 0.475898 0.000000
0.621027 0.510033 0.000000
0.813382 0.547997 0.000000
0.957580 0.549371 0.000000
0.000000 0.601038 0.000000
0.000000 0.600458 0.000000
0.179538 0.598383 0.000000
0.323980 0.594476 0.059541
0.453223 0.598352 0.033509
0.588159 0.611536 0.000000
0.746181 0.635676 0.000000
0.927794 0.670832 0.000000
0.000000 0.739681 0.000000
0.000000 0.739345 0.000000
0.170596 0.738094 0.000000
0.331060 0.735744 0.065980
0.465400 0.732692 0.119051
0.592798 0.741054 0.072206
0.728756 0.752132 0.000000
0.881773 0.770382 0.000000
0.000000 0.885771 0.065339
0.000000 0.885557 0.076143
0.194766 0.884764 0.103822
0.353155 0.883482 0.141421
0.490333 0.881895 0.185672
0.618830 0.881590 0.224460
0.742947 0.889952 0.181064
0.874968 0.897795 0.088045
0.000000 0.002045 0.102876
0.086885 0.014679 0.103426
0.200259 0.004791 0.111391
0.365911 0.000000 0.103304
0.539574 0.000000 0.092226
0.697902 0.000000 0.075441
0.838712 0.000000 0.057923
0.962249 0.000000 0.046601
0.000000 0.101717 0.103456
0.085176 0.104494 0.105806
0.205234 0.107820 0.105684
0.366186 0.106447 0.100862
0.539666 0.095338 0.088533
0.697841 0.079042 0.071778
0.838560 0.058595 0.050843
0.962036 0.037903 0.042084
0.000000 0.211460 0.110536
0.070436 0.216648 0.107485
0.190646 0.221653 0.105837
0.363622 0.253758 0.092897
0.540093 0.264775 0.076020
0.697688 0.264256 0.054017
0.838010 0.258457 0.020935
0.961303 0.251957 0.023072
0.000000 0.343236 0.113252
0.000000 0.346807 0.102266
0.191806 0.342809 0.114137
0.323033 0.353155 0.096925
0.503319 0.387549 0.056825
0.697169 0.417090 0.000000
0.836881 0.411841 0.000000
0.959869 0.403052 0.000000
0.000000 0.473701 0.105562
0.000000 0.475044 0.094636
0.185092 0.471504 0.107973
0.319738 0.467536 0.123384
0.456977 0.480812 0.080110
0.627222 0.513512 0.000000
0.816953 0.548272 0.000000
0.957580 0.548058 0.000000
0.000000 0.606104 0.084504
0.000000 0.605921 0.084474
0.170840 0.603632 0.099397
0.323705 0.599390 0.122835
0.454719 0.601709 0.122530
0.590509 0.614313 0.032776
0.749783 0.637812 0.000000
0.929381 0.671107 0.000000
0.000000 0.742458 0.075471
0.000000 0.742123 0.081147
0.159915 0.740749 0.099458
0.328527 0.738186 0.126802
0.465370 0.734859 0.160403
0.593256 0.742306 0.135470
0.729549 0.753079 0.000000
0.883391 0.771145 0.000000
0.000000 0.886870 0.126558
0.000000 0.886625 0.131624
0.186130 0.885801 0.148836
0.350317 0.884367 0.176730
0.489540 0.882628 0.213901
0.619226 0.881773 0.252018
0.743099 0.890135 0.213779
0.875120 0.897917 0.145510
0.000000 0.002594 0.222293
0.083925 0.005768 0.223514
0.196262 0.000000 0.228000
0.337133 0.000000 0.240269
0.522484 0.000000 0.252964
0.696193 0.000000 0.251469
0.839963 0.000000 0.248264
0.962066 0.000000 0.250889
0.000000 0.103731 0.227634
0.061280 0.099397 0.229892
0.198306 0.096162 0.233249
0.346563 0.060945 0.241917
0.531029 0.000000 0.250919
0.700832 0.000000 0.247807
0.839719 0.000000 0.248173
0.961791 0.000000 0.251072
0.000000 0.225681 0.230869
0.000000 0.228946 0.234592
0.201053 0.239658 0.245762
0.372717 0.240696 0.247959
0.544671 0.237827 0.247349
0.700160 0.235813 0.246860
0.838895 0.236484 0.247929
0.960906 0.241459 0.251438
0.000000 0.355505 0.236698
0.000000 0.359594 0.236271
0.187381 0.371008 0.240299
0.341588 0.372747 0.240269
0.531731 0.400122 0.241001
0.698817 0.407599 0.245731
0.837339 0.403571 0.247593
0.959136 0.399634 0.252537
0.000000 0.482704 0.236301
0.000000 0.486030 0.234867
0.166140 0.496284 0.233890
0.331212 0.488960 0.245945
0.472328 0.497353 0.230594
0.647547 0.526085 0.220584
0.828305 0.552728 0.242832
0.956512 0.547234 0.254917
0.000000 0.612634 0.233799
0.000000 0.614923 0.231968
0.138033 0.621424 0.226688
0.323644 0.615961 0.239017
0.461891 0.612909 0.247745
0.599237 0.623926 0.219333
0.761837 0.645533 0.193088
0.934386 0.673579 0.231937
0.000000 0.746914 0.230045
0.000000 0.747921 0.227390
0.115541 0.749874 0.223728
0.320348 0.746609 0.237369
0.465827 0.742367 0.257633
0.595636 0.746487 0.251804
0.732570 0.756435 0.213138
0.888792 0.773922 0.159854
0.000000 0.889586 0.238987
0.000000 0.889769 0.237308
0.151522 0.889342 0.246372
0.340368 0.887480 0.264652
0.486549 0.885222 0.291661
0.620661 0.882841 0.327825
0.743740 0.890715 0.301701
0.875822 0.898466 0.256352
0.000000 0.000000 0.359442
0.063294 0.000000 0.360815
0.203189 0.000000 0.365026
0.337255 0.000000 0.371008
0.477394 0.000000 0.373083
0.649653 0.000000 0.389014
0.815488 0.000000 0.396551
0.954040 0.000000 0.402838
0.000000 0.091035 0.366125
0.000000 0.087953 0.367163
0.196689 0.073793 0.370306
0.340307 0.000275 0.375525
0.481697 0.000000 0.374701
0.655695 0.000000 0.390600
0.819089 0.000000 0.398199
0.955444 0.000000 0.407202
0.000000 0.229648 0.372045
0.000000 0.226780 0.375860
0.174105 0.221347 0.385473
0.350256 0.220615 0.389624
0.500542 0.204196 0.384619
0.676539 0.205295 0.399847
0.831205 0.227970 0.410407
0.957183 0.269352 0.422217
0.000000 0.366857 0.375586
0.000000 0.369909 0.378882
0.159274 0.380591 0.390600
0.367132 0.399786 0.412116
0.545678 0.403662 0.417823
0.698390 0.404883 0.418860
0.834989 0.408637 0.420722
0.955322 0.414862 0.424170
0.000000 0.498573 0.373205
0.000000 0.501701 0.374151
0.129397 0.511742 0.378790
0.347112 0.527031 0.394934
0.501549 0.527611 0.397711
0.680140 0.551659 0.407141
0.832334 0.560540 0.422919
0.952575 0.556298 0.427344
0.000000 0.623621 0.366766
0.000000 0.625727 0.366552
0.095613 0.632654 0.367620
0.325536 0.642847 0.378210
0.480690 0.635279 0.391516
0.616175 0.641382 0.375463
0.781796 0.661128 0.371374
0.941314 0.684840 0.415778
0.000000 0.753506 0.362524
0.000000 0.754452 0.361303
0.000000 0.757473 0.358801
0.309087 0.761624 0.365026
0.469184 0.755734 0.379248
0.602960 0.753841 0.386481
0.738857 0.762600 0.358434
0.897673 0.779355 0.337652
0.000000 0.893278 0.366827
0.000000 0.893462 0.365423
0.003143 0.893950 0.361852
0.321080 0.893217 0.373693
0.481392 0.890013 0.394537
0.621759 0.886534 0.423468
0.745998 0.891508 0.416419
0.877226 0.899260 0.381201
0.000000 0.000000 0.494911
0.000000 0.000000 0.495888
0.199130 0.000000 0.499153
0.337438 0.000000 0.503899
0.478370 0.000000 0.510185
0.615503 0.000000 0.509911
0.767178 0.000000 0.513634
0.928985 0.000000 0.524620
0.000000 0.071717 0.500145
0.000000 0.065949 0.500908
0.186465 0.009247 0.503532
0.335393 0.000000 0.507774
0.480812 0.000000 0.513756
0.618341 0.000000 0.511498
0.771023 0.000000 0.515038
0.930694 0.000000 0.525689
0.000000 0.211460 0.510216
0.000000 0.205936 0.513390
0.141115 0.201175 0.516777
0.330541 0.196262 0.520409
0.489631 0.188479 0.525811
0.627741 0.157748 0.517327
0.784390 0.132326 0.521996
0.936400 0.181125 0.532799
0.000000 0.361578 0.512718
0.000000 0.361639 0.515709
0.098299 0.362982 0.526238
0.331029 0.367834 0.542229
0.506065 0.370275 0.547204
0.643458 0.350072 0.529168
0.807065 0.371771 0.543847
0.944640 0.411810 0.559869
0.000000 0.503349 0.516228
0.000000 0.505913 0.519066
0.049104 0.514977 0.528893
0.330022 0.531701 0.547204
0.532189 0.559869 0.575586
0.692622 0.570764 0.584710
0.827237 0.573724 0.585504
0.945861 0.578241 0.587182
0.000000 0.637995 0.511040
0.000000 0.640314 0.512108
0.000000 0.647486 0.515801
0.303807 0.657191 0.523613
0.503197 0.669245 0.544457
0.645319 0.668605 0.550469
0.808896 0.691432 0.565332
0.942931 0.704311 0.589288
0.000000 0.762966 0.499794
0.000000 0.763912 0.499367
0.000000 0.766751 0.498238
0.277928 0.770748 0.499062
0.473854 0.774777 0.515251
0.621088 0.766842 0.533043
0.750179 0.772549 0.513695
0.908690 0.790158 0.515740
0.000000 0.898680 0.498695
0.000000 0.898894 0.497566
0.000000 0.899382 0.494331
0.271183 0.899626 0.491035
0.472389 0.897490 0.511070
0.622889 0.892363 0.532830
0.751125 0.892424 0.542992
0.879850 0.900359 0.514794
0.000000 0.000000 0.632258
0.000000 0.000000 0.632837
0.189731 0.000000 0.634577
0.334203 0.000000 0.637446
0.471992 0.000000 0.641230
0.611048 0.000000 0.645869
0.752346 0.000000 0.647028
0.895232 0.000000 0.641779
0.000000 0.000000 0.635157
0.000000 0.000000 0.635584
0.172000 0.000000 0.637171
0.328588 0.000000 0.639734
0.471015 0.000000 0.643336
0.612329 0.000000 0.647791
0.753689 0.000000 0.647578
0.895872 0.000000 0.640803
0.000000 0.184634 0.643488
0.000000 0.183474 0.643824
0.098024 0.178836 0.645106
0.312322 0.168765 0.647303
0.468788 0.154208 0.650538
0.617212 0.135744 0.654688
0.758267 0.000000 0.649744
0.902251 0.000000 0.642023
0.000000 0.345678 0.646754
0.000000 0.343694 0.648463
0.000000 0.338445 0.654719
0.295018 0.335210 0.660182
0.469764 0.334234 0.663050
0.626886 0.334234 0.666865
0.765896 0.301610 0.653651
0.913420 0.289830 0.648768
0.000000 0.491524 0.648585
0.000000 0.491707 0.650263
0.000000 0.492988 0.656001
0.289067 0.498054 0.666804
0.484077 0.512169 0.681270
0.645136 0.517906 0.685084
0.776150 0.487068 0.661341
0.926848 0.522393 0.676600
0.000000 0.634668 0.650599
0.000000 0.636011 0.652064
0.000000 0.640894 0.657435
0.281193 0.650355 0.667475
0.485817 0.667597 0.683986
0.679133 0.700496 0.714443
0.821561 0.713741 0.725032
0.937194 0.717220 0.725673
0.000000 0.772274 0.645960
0.000000 0.773342 0.646265
0.000000 0.776883 0.647272
0.224674 0.782498 0.648829
0.448585 0.787076 0.653620
0.642084 0.793668 0.675074
0.773495 0.792020 0.680049
0.923583 0.815122 0.701442
0.000000 0.905943 0.636927
0.000000 0.906157 0.636133
0.000000 0.906706 0.633417
0.201053 0.907073 0.629389
0.430243 0.905913 0.630488
0.620752 0.902342 0.651148
0.762112 0.895323 0.673030
0.884489 0.902403 0.654322
0.000000 0.000000 0.772427
0.000000 0.000000 0.772641
0.178134 0.000000 0.773342
0.330785 0.000000 0.774624
0.468238 0.000000 0.776272
0.604822 0.000000 0.778286
0.744106 0.000000 0.780636
0.895171 0.000000 0.788479
0.000000 0.000000 0.773526
0.000000 0.000000 0.773709
0.155520 0.000000 0.774411
0.322881 0.000000 0.775570
0.465034 0.000000 0.777157
0.603967 0.000000 0.779110
0.744503 0.000000 0.781338
0.895628 0.000000 0.788327
0.000000 0.162295 0.777035
0.000000 0.159884 0.777188
0.000000 0.151217 0.777768
0.297978 0.133547 0.778744
0.455390 0.104005 0.780117
0.601434 0.026032 0.781857
0.746151 0.000000 0.783932
0.897185 0.000000 0.787716
0.000000 0.320439 0.780545
0.000000 0.316777 0.781216
0.000000 0.307927 0.783047
0.261234 0.303777 0.783902
0.442634 0.298161 0.785061
0.599054 0.291203 0.786587
0.749722 0.282841 0.788418
0.899687 0.229435 0.786038
0.000000 0.475288 0.781338
0.000000 0.473915 0.781949
0.000000 0.469490 0.784237
0.230045 0.463569 0.788418
0.434089 0.462593 0.791897
0.601099 0.463569 0.793240
0.756893 0.466835 0.794919
0.901854 0.434089 0.784268
0.000000 0.621332 0.782223
0.000000 0.621027 0.782712
0.000000 0.620325 0.784726
0.213077 0.620050 0.788449
0.433692 0.625544 0.794583
0.622278 0.643702 0.804166
0.772702 0.649134 0.806790
0.903929 0.615442 0.785031
0.000000 0.764584 0.782925
0.000000 0.765011 0.783383
0.000000 0.766567 0.785061
0.189181 0.769863 0.788266
0.429053 0.776577 0.793973
0.623835 0.790372 0.805600
0.808347 0.823026 0.834165
0.931395 0.836851 0.844633
0.000000 0.910765 0.784085
0.000000 0.911131 0.783810
0.000000 0.912291 0.782773
0.000000 0.913817 0.780697
0.384710 0.914702 0.778866
0.588647 0.912779 0.779507
0.772549 0.909941 0.795804
0.895048 0.908721 0.800534
0.000000 0.000000 0.914427
0.000000 0.000000 0.914519
0.164218 0.000000 0.914794
0.326757 0.000000 0.915251
0.466560 0.000000 0.915892
0.603723 0.000000 0.916625
0.741482 0.000000 0.917357
0.880766 0.000000 0.918090
0.000000 0.000000 0.914855
0.000000 0.000000 0.914916
0.137850 0.000000 0.915190
0.317967 0.000000 0.915618
0.462348 0.000000 0.916197
0.601648 0.000000 0.916838
0.740810 0.000000 0.917571
0.880858 0.000000 0.918273
0.000000 0.136873 0.916075
0.000000 0.133608 0.916106
0.000000 0.120455 0.916320
0.288884 0.092134 0.916655
0.448920 0.000000 0.917113
0.595331 0.000000 0.917632
0.738582 0.000000 0.918212
0.881224 0.000000 0.918791
0.000000 0.292302 0.917693
0.000000 0.291478 0.917723
0.000000 0.287999 0.917845
0.240330 0.281651 0.918090
0.428443 0.272679 0.918395
0.585962 0.260472 0.918761
0.735470 0.244053 0.919158
0.882200 0.223911 0.919554
0.000000 0.457771 0.917937
0.000000 0.455512 0.918090
0.000000 0.447730 0.918639
0.167605 0.434607 0.919554
0.405005 0.431769 0.919707
0.576654 0.428962 0.919860
0.733761 0.427039 0.919951
0.884062 0.427253 0.919921
0.000000 0.608911 0.917998
0.000000 0.607813 0.918120
0.000000 0.603967 0.918547
0.140200 0.597955 0.919219
0.397467 0.596216 0.919860
0.581079 0.600732 0.920104
0.738857 0.602380 0.920073
0.887602 0.605127 0.920043
0.000000 0.754849 0.917845
0.000000 0.754452 0.917906
0.000000 0.752987 0.918212
0.096498 0.751278 0.918639
0.391455 0.751980 0.919005
0.582391 0.756374 0.919646
0.756435 0.770199 0.921324
0.895598 0.775540 0.921874
0.000000 0.901671 0.917144
0.000000 0.901732 0.917174
0.000000 0.902068 0.917327
0.000000 0.902739 0.917479
0.383276 0.903990 0.917662
0.579095 0.906096 0.918181
0.759213 0.910887 0.920867
0.923552 0.931701 0.938170
