lut_library_archive/removed_20260629/extra/正片11.5.cube
LUT_3D_SIZE 32
DOMAIN_MIN 0.0 0.0 0.0
DOMAIN_MAX 1.0 1.0 1.0
0.000000 0.000000 0.000000
0.018280 0.000488 0.000580
0.043030 0.002258 0.000855
0.071107 0.004120 0.000397
0.091035 0.009125 0.001434
0.113649 0.013092 0.002747
0.139376 0.019654 0.003632
0.169162 0.027344 0.004761
0.202640 0.034302 0.002502
0.238956 0.042817 0.000000
0.278355 0.046296 0.000000
0.319554 0.048341 0.000000
0.362310 0.046052 0.000000
0.405982 0.038911 0.000000
0.450050 0.026642 0.000000
0.493721 0.010956 0.000000
0.536767 0.000000 0.000000
0.578912 0.000000 0.000000
0.619257 0.000000 0.000000
0.658259 0.000000 0.000000
0.696254 0.000000 0.000000
0.733272 0.000000 0.000000
0.769253 0.000000 0.000000
0.804044 0.000000 0.000000
0.837766 0.000000 0.000000
0.870359 0.000000 0.000000
0.901946 0.000000 0.000000
0.932464 0.000000 0.000000
0.961883 0.000000 0.000000
0.990234 0.000000 0.000000
1.000000 0.000000 0.000000
1.000000 0.000000 0.000000
0.000275 0.022187 0.001434
0.015686 0.024292 0.001923
0.042206 0.025849 0.000031
0.070314 0.027955 0.000702
0.090517 0.030549 0.001923
0.113222 0.035737 0.003113
0.139467 0.041810 0.003998
0.169070 0.049928 0.003937
0.202640 0.057710 0.002441
0.239017 0.061952 0.000458
0.278386 0.064790 0.000000
0.319646 0.066072 0.000000
0.362402 0.065492 0.000000
0.406104 0.063569 0.000000
0.450141 0.059144 0.000000
0.493812 0.047791 0.000000
0.536797 0.034211 0.000000
0.578912 0.016846 0.000000
0.619257 0.000000 0.000000
0.658228 0.000000 0.000000
0.696223 0.000000 0.000000
0.733242 0.000000 0.000000
0.769223 0.000000 0.000000
0.804044 0.000000 0.000000
0.837736 0.000000 0.000000
0.870359 0.000000 0.000000
0.901946 0.000000 0.000000
0.932433 0.000000 0.000000
0.961852 0.000000 0.000000
0.990234 0.000000 0.000000
1.000000 0.000000 0.000000
1.000000 0.000000 0.000000
0.000549 0.051148 0.003265
0.016083 0.050935 0.005035
0.038148 0.053498 0.004181
0.068940 0.056001 0.002564
0.090333 0.056703 0.002777
0.113100 0.059205 0.004059
0.139162 0.062684 0.003693
0.169100 0.066896 0.004486
0.202609 0.071382 0.002838
0.239078 0.075593 0.000000
0.278294 0.078920 0.000000
0.319585 0.080690 0.000000
0.362371 0.080842 0.000000
0.406195 0.079988 0.000000
0.450050 0.077546 0.000000
0.493843 0.073152 0.000000
0.536858 0.068757 0.000000
0.578912 0.063416 0.000000
0.619379 0.053223 0.000000
0.658259 0.038148 0.000000
0.696284 0.016449 0.000000
0.733242 0.000000 0.000000
0.769192 0.000000 0.000000
0.804044 0.000000 0.000000
0.837766 0.000000 0.000000
0.870359 0.000000 0.000000
0.901946 0.000000 0.000000
0.932433 0.000000 0.000000
0.961822 0.000000 0.000000
0.990204 0.000000 0.000000
1.000000 0.000000 0.000000
1.000000 0.000000 0.000000
0.000855 0.076783 0.008026
0.016541 0.076356 0.009918
0.037079 0.075990 0.013794
0.065797 0.077760 0.008911
0.087831 0.078492 0.005768
0.112459 0.081117 0.004334
0.138949 0.084474 0.004730
0.168856 0.089052 0.003998
0.202487 0.093690 0.001831
0.239109 0.098299 0.000000
0.278447 0.102022 0.000000
0.319799 0.104494 0.000000
0.362524 0.106416 0.000000
0.406287 0.106538 0.000000
0.450233 0.105776 0.000000
0.493996 0.104097 0.000000
0.536980 0.101534 0.000000
0.578973 0.099153 0.000000
0.619287 0.095430 0.000000
0.658228 0.091157 0.000000
0.696254 0.085512 0.000000
0.733242 0.079011 0.000000
0.769192 0.071809 0.000000
0.804013 0.062776 0.000000
0.837705 0.049653 0.000000
0.870298 0.028351 0.000000
0.901915 0.006470 0.000000
0.932372 0.000000 0.000000
0.961791 0.000000 0.000000
0.990143 0.000000 0.000000
1.000000 0.000000 0.000000
1.000000 0.000000 0.000000
0.003418 0.097169 0.015747
0.017548 0.096895 0.018738
0.037079 0.096376 0.021637
0.063478 0.096559 0.024933
0.083864 0.099336 0.017975
0.108003 0.102419 0.010925
0.136355 0.107759 0.007904
0.168856 0.113893 0.004547
0.202579 0.119509 0.001404
0.239170 0.124880 0.000000
0.278477 0.129427 0.000000
0.319921 0.132967 0.000000
0.362768 0.135439 0.000000
0.406470 0.136843 0.000000
0.450446 0.137331 0.000000
0.494057 0.137301 0.000000
0.537072 0.136385 0.000000
0.579004 0.135470 0.000000
0.619379 0.133089 0.000000
0.658320 0.130434 0.000000
0.696223 0.127382 0.000000
0.733272 0.123354 0.000000
0.769162 0.119417 0.000000
0.804013 0.114717 0.000000
0.837644 0.109987 0.000000
0.870268 0.105135 0.000000
0.901823 0.100496 0.000000
0.932311 0.095888 0.000000
0.961700 0.092012 0.000000
0.990051 0.088777 0.000000
1.000000 0.086305 0.000000
1.000000 0.085328 0.000000
0.004456 0.119997 0.023896
0.018738 0.119539 0.026947
0.037140 0.119203 0.028809
0.063691 0.118685 0.032380
0.082673 0.119905 0.033539
0.104768 0.123537 0.025177
0.130068 0.127749 0.016327
0.162997 0.136538 0.010132
0.200534 0.145632 0.001617
0.239384 0.152712 0.000000
0.278721 0.158175 0.000000
0.320256 0.162570 0.000000
0.363043 0.165957 0.000000
0.406744 0.168307 0.000000
0.450660 0.169986 0.000000
0.494331 0.170718 0.000000
0.537224 0.171054 0.000000
0.579126 0.170962 0.000000
0.619348 0.169955 0.000000
0.658289 0.168276 0.000000
0.696254 0.165988 0.000000
0.733242 0.163149 0.000000
0.769131 0.160220 0.000000
0.803952 0.156954 0.000000
0.837613 0.153750 0.000000
0.870176 0.149966 0.000000
0.901762 0.146975 0.000000
0.932189 0.143618 0.000000
0.961578 0.140932 0.000000
0.989929 0.138491 0.000000
1.000000 0.136721 0.000000
1.000000 0.135439 0.000000
0.000336 0.145235 0.029511
0.014679 0.145052 0.031403
0.034424 0.144747 0.033234
0.063600 0.144259 0.037842
0.083680 0.143435 0.043183
0.104555 0.146304 0.038209
0.128420 0.150790 0.029023
0.155062 0.155520 0.018189
0.192111 0.166873 0.009033
0.233494 0.177584 0.000000
0.278447 0.187381 0.000000
0.320592 0.192996 0.000000
0.363378 0.197177 0.000000
0.407080 0.200473 0.000000
0.451057 0.202701 0.000000
0.494606 0.204593 0.000000
0.537438 0.205631 0.000000
0.579339 0.206210 0.000000
0.619501 0.205875 0.000000
0.658350 0.204746 0.000000
0.696223 0.203281 0.000000
0.733242 0.201175 0.000000
0.769070 0.198947 0.000000
0.803922 0.196109 0.000000
0.837522 0.193576 0.000000
0.870054 0.190616 0.000000
0.901640 0.187869 0.000000
0.932067 0.185306 0.000000
0.961456 0.182803 0.000000
0.989776 0.180697 0.000000
1.000000 0.178805 0.000000
1.000000 0.177493 0.000000
0.000000 0.173617 0.032288
0.005432 0.173434 0.034150
0.026581 0.173312 0.034791
0.062165 0.172824 0.038270
0.084199 0.172061 0.043549
0.105837 0.171817 0.047608
0.129213 0.176211 0.040345
0.155398 0.180972 0.028992
0.183536 0.185824 0.016999
0.223331 0.198123 0.001801
0.267948 0.210147 0.000000
0.315465 0.220676 0.000000
0.363867 0.228763 0.000000
0.407538 0.232792 0.000000
0.451423 0.235874 0.000000
0.494881 0.238407 0.000000
0.537652 0.240146 0.000000
0.579492 0.241276 0.000000
0.619562 0.241520 0.000000
0.658381 0.240940 0.000000
0.696284 0.239750 0.000000
0.733181 0.238071 0.000000
0.769070 0.236240 0.000000
0.803799 0.234073 0.000000
0.837400 0.231662 0.000000
0.869963 0.229282 0.000000
0.901457 0.226871 0.000000
0.931914 0.224308 0.000000
0.961273 0.222049 0.000000
0.989593 0.219883 0.000000
1.000000 0.218082 0.000000
1.000000 0.216556 0.000000
0.000000 0.204562 0.031250
0.000000 0.204410 0.032013
0.013275 0.204288 0.033722
0.057313 0.203861 0.037171
0.083803 0.203403 0.040955
0.107332 0.202609 0.046632
0.130739 0.203952 0.047364
0.156710 0.208408 0.035767
0.184756 0.213352 0.023011
0.214450 0.217838 0.008820
0.255955 0.230167 0.000000
0.303075 0.242802 0.000000
0.352728 0.253971 0.000000
0.404303 0.263554 0.000000
0.451850 0.269413 0.000000
0.495216 0.272465 0.000000
0.537896 0.274754 0.000000
0.579736 0.276677 0.000000
0.619654 0.277165 0.000000
0.658442 0.276829 0.000000
0.696254 0.276188 0.000000
0.733181 0.274815 0.000000
0.768978 0.273228 0.000000
0.803708 0.271305 0.000000
0.837278 0.269200 0.000000
0.869780 0.266758 0.000000
0.901305 0.264591 0.000000
0.931701 0.262242 0.000000
0.961028 0.259983 0.000000
0.989380 0.257847 0.000000
1.000000 0.255802 0.000000
1.000000 0.254124 0.000000
0.000000 0.237034 0.026246
0.000000 0.236881 0.027008
0.000000 0.236728 0.028656
0.045655 0.236515 0.030762
0.081453 0.235966 0.035645
0.107759 0.235325 0.040986
0.132692 0.234501 0.049317
0.158419 0.237217 0.043732
0.186252 0.241825 0.029480
0.216159 0.246647 0.013092
0.247013 0.250492 0.000000
0.289158 0.261814 0.000000
0.338384 0.275273 0.000000
0.389624 0.286992 0.000000
0.441962 0.297276 0.000000
0.494423 0.306096 0.000000
0.538262 0.309697 0.000000
0.579950 0.311742 0.000000
0.619745 0.312657 0.000000
0.658412 0.312688 0.000000
0.696254 0.312261 0.000000
0.733059 0.311284 0.000000
0.768887 0.309850 0.000000
0.803586 0.308110 0.000000
0.837125 0.306065 0.000000
0.869596 0.303929 0.000000
0.901091 0.301732 0.000000
0.931487 0.299474 0.000000
0.960815 0.297063 0.000000
0.989075 0.294835 0.000000
1.000000 0.292760 0.000000
1.000000 0.290654 0.000000
0.000000 0.270298 0.019318
0.000000 0.270085 0.020172
0.000000 0.269932 0.020691
0.023102 0.269688 0.023835
0.076722 0.269139 0.028626
0.106935 0.268620 0.034730
0.134218 0.267857 0.042481
0.159945 0.267033 0.051301
0.187778 0.271122 0.038361
0.217411 0.275639 0.020508
0.248997 0.280186 0.000397
0.281682 0.284184 0.000000
0.322576 0.293309 0.000000
0.373541 0.307286 0.000000
0.425788 0.319860 0.000000
0.478401 0.330724 0.000000
0.530571 0.340185 0.000000
0.580011 0.347326 0.000000
0.619837 0.348363 0.000000
0.658473 0.348699 0.000000
0.696254 0.348394 0.000000
0.733028 0.347631 0.000000
0.768795 0.346441 0.000000
0.803403 0.344793 0.000000
0.836942 0.342931 0.000000
0.869383 0.340734 0.000000
0.900816 0.338537 0.000000
0.931182 0.336156 0.000000
0.960510 0.333745 0.000000
0.988769 0.331395 0.000000
1.000000 0.329076 0.000000
1.000000 0.326940 0.000000
0.000000 0.303655 0.009735
0.000000 0.303532 0.010468
0.000000 0.303380 0.012085
0.000000 0.303044 0.015259
0.069612 0.302586 0.019898
0.104097 0.301976 0.025971
0.133944 0.301274 0.034577
0.161959 0.300389 0.044617
0.189364 0.300816 0.048157
0.218753 0.304814 0.029633
0.249790 0.309117 0.009277
0.282689 0.313512 0.000000
0.317021 0.317601 0.000000
0.355901 0.324224 0.000000
0.407904 0.338964 0.000000
0.460670 0.352087 0.000000
0.513359 0.363745 0.000000
0.565148 0.373846 0.000000
0.615106 0.381598 0.000000
0.658473 0.384894 0.000000
0.696193 0.384741 0.000000
0.732906 0.384039 0.000000
0.768582 0.382971 0.000000
0.803189 0.381506 0.000000
0.836698 0.379583 0.000000
0.869108 0.377417 0.000000
0.900511 0.375189 0.000000
0.930846 0.372717 0.000000
0.960113 0.370214 0.000000
0.988403 0.367651 0.000000
1.000000 0.365148 0.000000
1.000000 0.362615 0.000000
0.000000 0.336858 0.000000
0.000000 0.336736 0.000610
0.000000 0.336584 0.001099
0.000000 0.336339 0.004150
0.058839 0.335882 0.008698
0.099641 0.335271 0.014679
0.132448 0.334539 0.024231
0.162448 0.333654 0.035187
0.190982 0.332555 0.048249
0.219852 0.334386 0.043366
0.250767 0.338293 0.020752
0.283177 0.342351 0.000000
0.316991 0.346502 0.000000
0.352392 0.350744 0.000000
0.388617 0.354437 0.000000
0.441321 0.370123 0.000000
0.494331 0.384009 0.000000
0.546593 0.396277 0.000000
0.597925 0.406622 0.000000
0.647333 0.414588 0.000000
0.694484 0.420356 0.000000
0.732784 0.420630 0.000000
0.768368 0.419562 0.000000
0.802945 0.418036 0.000000
0.836393 0.416175 0.000000
0.868772 0.414008 0.000000
0.900206 0.411658 0.000000
0.930480 0.409064 0.000000
0.959747 0.406317 0.000000
0.987976 0.403601 0.000000
1.000000 0.400763 0.000000
1.000000 0.397986 0.000000
0.000000 0.369940 0.000000
0.000000 0.369787 0.000000
0.000000 0.369726 0.000000
0.000000 0.369482 0.000000
0.030121 0.369024 0.000000
0.093874 0.368322 0.005371
0.129763 0.367651 0.013642
0.161898 0.366766 0.025544
0.192172 0.365667 0.039948
0.221164 0.364508 0.054200
0.251621 0.367681 0.035798
0.283574 0.371374 0.009644
0.316838 0.375250 0.000000
0.351385 0.379217 0.000000
0.387182 0.383215 0.000000
0.422827 0.386297 0.000000
0.473610 0.400702 0.000000
0.526421 0.415412 0.000000
0.579004 0.428504 0.000000
0.629969 0.439124 0.000000
0.678798 0.447150 0.000000
0.725216 0.452979 0.000000
0.768154 0.456306 0.000000
0.802670 0.454780 0.000000
0.836027 0.452796 0.000000
0.868437 0.450446 0.000000
0.899779 0.447913 0.000000
0.930053 0.445167 0.000000
0.959289 0.442298 0.000000
0.987488 0.439338 0.000000
1.000000 0.436225 0.000000
1.000000 0.433204 0.000000
0.000000 0.402686 0.000000
0.000000 0.402594 0.000000
0.000000 0.402472 0.000000
0.000000 0.402228 0.000000
0.000000 0.401770 0.000000
0.085939 0.401251 0.000000
0.125826 0.400580 0.002808
0.160342 0.399664 0.013581
0.192142 0.398627 0.028809
0.222751 0.397375 0.046418
0.252537 0.396979 0.054414
0.284031 0.400458 0.028534
0.316838 0.404089 0.000000
0.350713 0.407874 0.000000
0.385779 0.411719 0.000000
0.421515 0.415564 0.000000
0.456519 0.418128 0.000000
0.504631 0.430945 0.000000
0.557977 0.446754 0.000000
0.610803 0.460609 0.000000
0.661341 0.471321 0.000000
0.709529 0.479377 0.000000
0.755154 0.485176 0.000000
0.798215 0.488930 0.000000
0.835660 0.489204 0.000000
0.867979 0.486885 0.000000
0.899321 0.484108 0.000000
0.929564 0.481209 0.000000
0.958770 0.478096 0.000000
0.986938 0.474922 0.000000
1.000000 0.471626 0.000000
1.000000 0.468208 0.000000
0.000000 0.435309 0.000000
0.000000 0.435248 0.000000
0.000000 0.435065 0.000000
0.000000 0.434852 0.000000
0.000000 0.434424 0.000000
0.075319 0.433875 0.000000
0.121004 0.433082 0.000000
0.157717 0.432349 0.002564
0.191409 0.431312 0.018708
0.223087 0.430121 0.036194
0.253849 0.428687 0.054627
0.284733 0.429633 0.052399
0.316960 0.432959 0.021271
0.350164 0.436530 0.000000
0.384375 0.440162 0.000000
0.419409 0.443854 0.000000
0.455085 0.447547 0.000000
0.489540 0.449866 0.000000
0.535241 0.461280 0.000000
0.589685 0.478523 0.000000
0.642115 0.492378 0.000000
0.692226 0.503105 0.000000
0.739712 0.511162 0.000000
0.784512 0.516808 0.000000
0.826596 0.520378 0.000000
0.866056 0.522240 0.000000
0.898833 0.520195 0.000000
0.929046 0.517113 0.000000
0.958221 0.513787 0.000000
0.986389 0.510369 0.000000
1.000000 0.506706 0.000000
1.000000 0.503075 0.000000
0.000000 0.467597 0.000000
0.000000 0.467506 0.000000
0.000000 0.467445 0.000000
0.000000 0.467201 0.000000
0.000000 0.466804 0.000000
0.060792 0.466285 0.000000
0.114687 0.465522 0.000000
0.154330 0.464698 0.000000
0.189883 0.463691 0.007568
0.222965 0.462531 0.025971
0.254795 0.461158 0.048341
0.285618 0.459632 0.063264
0.317113 0.461982 0.051331
0.349859 0.465278 0.015015
0.383307 0.468727 0.000000
0.417517 0.472267 0.000000
0.452399 0.475898 0.000000
0.487861 0.479622 0.000000
0.522606 0.482429 0.000000
0.566461 0.492500 0.000000
0.621027 0.510033 0.000000
0.673060 0.523857 0.000000
0.722591 0.534539 0.000000
0.769406 0.542565 0.000000
0.813382 0.547997 0.000000
0.854612 0.551415 0.000000
0.893095 0.553063 0.000000
0.928435 0.552972 0.000000
0.957580 0.549371 0.000000
0.985718 0.545678 0.000000
1.000000 0.541802 0.000000
1.000000 0.537835 0.000000
0.000000 0.499672 0.000000
0.000000 0.499611 0.000000
0.000000 0.499519 0.000000
0.000000 0.499214 0.000000
0.000000 0.498848 0.000000
0.022156 0.498390 0.000000
0.107118 0.497780 0.000000
0.150271 0.496925 0.000000
0.187564 0.495979 0.000000
0.222293 0.494881 0.017365
0.255100 0.493660 0.039887
0.286778 0.492195 0.060426
0.317876 0.491218 0.068910
0.350103 0.494453 0.050233
0.383093 0.497902 0.008331
0.416724 0.501427 0.000000
0.451118 0.505150 0.000000
0.485969 0.508934 0.000000
0.521355 0.512871 0.000000
0.556695 0.516197 0.000000
0.597742 0.523796 0.000000
0.652094 0.541314 0.000000
0.703853 0.555169 0.000000
0.752804 0.565789 0.000000
0.798825 0.573541 0.000000
0.842069 0.578943 0.000000
0.882383 0.582177 0.000000
0.919768 0.583490 0.000000
0.954314 0.583246 0.000000
0.985016 0.580896 0.000000
1.000000 0.576745 0.000000
1.000000 0.572442 0.000000
0.000000 0.532464 0.000000
0.000000 0.532403 0.000000
0.000000 0.532311 0.000000
0.000000 0.532097 0.000000
0.000000 0.531823 0.000000
0.000000 0.531365 0.000000
0.098360 0.530785 0.000000
0.145632 0.530053 0.000000
0.185122 0.529290 0.000000
0.221103 0.528252 0.006409
0.255161 0.527123 0.028565
0.288060 0.525841 0.053742
0.319982 0.524498 0.068330
0.351415 0.525048 0.068788
0.384070 0.528435 0.044617
0.417304 0.531945 0.000000
0.451148 0.535637 0.000000
0.485389 0.539422 0.000000
0.520165 0.543145 0.000000
0.555383 0.546960 0.000000
0.591180 0.550408 0.000000
0.629114 0.555077 0.000000
0.683223 0.572595 0.000000
0.734524 0.586358 0.000000
0.782864 0.596826 0.000000
0.828305 0.604547 0.000000
0.870726 0.609705 0.000000
0.909941 0.612573 0.000000
0.946136 0.613550 0.000000
0.979553 0.612940 0.000000
1.000000 0.610986 0.000000
1.000000 0.606958 0.000000
0.000000 0.566613 0.000000
0.000000 0.566522 0.000000
0.000000 0.566430 0.000000
0.000000 0.566308 0.000000
0.000000 0.566033 0.000000
0.000000 0.565637 0.000000
0.088045 0.565087 0.000000
0.140627 0.564446 0.000000
0.182376 0.563745 0.000000
0.220035 0.562860 0.000000
0.255436 0.561913 0.015198
0.289372 0.560754 0.043244
0.322179 0.559472 0.063447
0.353948 0.558221 0.076081
0.386053 0.560143 0.068238
0.418677 0.563409 0.038422
0.451942 0.566827 0.000000
0.485512 0.570306 0.000000
0.519524 0.573846 0.000000
0.554192 0.577356 0.000000
0.589410 0.580835 0.000000
0.625574 0.584558 0.000000
0.663020 0.588617 0.000000
0.714412 0.603937 0.000000
0.765347 0.617670 0.000000
0.813260 0.628107 0.000000
0.857969 0.635523 0.000000
0.899321 0.640314 0.000000
0.937285 0.642786 0.000000
0.972290 0.643305 0.000000
1.000000 0.642267 0.000000
1.000000 0.639887 0.000000
0.000000 0.601038 0.000000
0.000000 0.600977 0.000000
0.000000 0.600885 0.000000
0.000000 0.600763 0.000000
0.000000 0.600458 0.000000
0.000000 0.600153 0.000000
0.074647 0.599664 0.000000
0.134615 0.599084 0.000000
0.179538 0.598383 0.000000
0.218906 0.597589 0.000000
0.255467 0.596674 0.004364
0.290379 0.595636 0.032990
0.323980 0.594476 0.059541
0.356603 0.593286 0.072786
0.388342 0.592126 0.084718
0.420508 0.595209 0.068513
0.453223 0.598352 0.033509
0.486244 0.601617 0.000000
0.519554 0.604944 0.000000
0.553521 0.608209 0.000000
0.588159 0.611536 0.000000
0.623346 0.614801 0.000000
0.659907 0.618524 0.000000
0.697597 0.622766 0.000000
0.746181 0.635676 0.000000
0.796750 0.649348 0.000000
0.843992 0.659602 0.000000
0.887724 0.666651 0.000000
0.927794 0.670832 0.000000
0.964477 0.672816 0.000000
0.998169 0.672847 0.000000
1.000000 0.671260 0.000000
0.000000 0.635340 0.000000
0.000000 0.635309 0.000000
0.000000 0.635248 0.000000
0.000000 0.635126 0.000000
0.000000 0.634913 0.000000
0.000000 0.634577 0.000000
0.058747 0.634150 0.000000
0.129061 0.633631 0.000000
0.176516 0.633021 0.000000
0.217594 0.632227 0.000000
0.255283 0.631464 0.000000
0.291112 0.630518 0.024994
0.325597 0.629480 0.055482
0.358862 0.628382 0.071199
0.391272 0.627161 0.084565
0.422980 0.627405 0.087709
0.455055 0.630304 0.071015
0.487526 0.633356 0.034913
0.520287 0.636500 0.000000
0.553765 0.639612 0.000000
0.587793 0.642756 0.000000
0.622400 0.645808 0.000000
0.657618 0.648920 0.000000
0.694148 0.652644 0.000000
0.732662 0.657374 0.000000
0.778714 0.668147 0.000000
0.828855 0.681636 0.000000
0.875151 0.691432 0.000000
0.917510 0.697749 0.000000
0.956176 0.701320 0.000000
0.991516 0.702663 0.000000
1.000000 0.702083 0.000000
0.000000 0.669795 0.000000
0.000000 0.669734 0.000000
0.000000 0.669734 0.000000
0.000000 0.669551 0.000000
0.000000 0.669368 0.000000
0.000000 0.669032 0.000000
0.019745 0.668757 0.000000
0.123323 0.668238 0.000000
0.173617 0.667720 0.000000
0.216342 0.667018 0.000000
0.255222 0.666285 0.000000
0.291905 0.665461 0.021973
0.327001 0.664515 0.053773
0.361089 0.663508 0.071687
0.393988 0.662470 0.084749
0.426032 0.661402 0.097444
0.457588 0.662837 0.092592
0.489540 0.665675 0.075380
0.521843 0.668635 0.042786
0.554772 0.671626 0.000000
0.588312 0.674617 0.000000
0.622400 0.677546 0.000000
0.657069 0.680598 0.000000
0.692317 0.683467 0.000000
0.728756 0.687007 0.000000
0.768460 0.692683 0.000000
0.812253 0.701442 0.000000
0.861509 0.714412 0.000000
0.906432 0.723415 0.000000
0.947326 0.728939 0.000000
0.984497 0.731746 0.000000
1.000000 0.732357 0.000000
0.000000 0.704494 0.000000
0.000000 0.704463 0.000000
0.000000 0.704402 0.000000
0.000000 0.704280 0.000000
0.000000 0.704067 0.000000
0.000000 0.703822 0.000000
0.000000 0.703548 0.000000
0.118166 0.703090 0.000000
0.171633 0.702602 0.000000
0.215579 0.702022 0.000000
0.255528 0.701350 0.000000
0.292882 0.700649 0.025513
0.328801 0.699825 0.058289
0.363317 0.698970 0.074098
0.396857 0.698054 0.087678
0.429389 0.697139 0.100526
0.461097 0.696193 0.112856
0.492561 0.698817 0.100710
0.524437 0.701595 0.083589
0.556847 0.704494 0.057710
0.589960 0.707332 0.000000
0.623560 0.710231 0.000000
0.657771 0.713100 0.000000
0.692531 0.715969 0.000000
0.727749 0.718776 0.000000
0.763943 0.721889 0.000000
0.804959 0.728695 0.000000
0.846708 0.735561 0.000000
0.894560 0.747646 0.000000
0.937865 0.755520 0.000000
0.977081 0.760189 0.000000
1.000000 0.762112 0.000000
0.000000 0.739681 0.000000
0.000000 0.739651 0.000000
0.000000 0.739620 0.000000
0.000000 0.739528 0.000000
0.000000 0.739345 0.000000
0.000000 0.739132 0.000000
0.000000 0.738857 0.000000
0.114412 0.738521 0.000000
0.170596 0.738094 0.000000
0.216068 0.737575 0.000000
0.256474 0.737057 0.004700
0.294682 0.736416 0.039887
0.331060 0.735744 0.065980
0.366064 0.735012 0.080140
0.400122 0.734249 0.093782
0.433143 0.733486 0.106661
0.465400 0.732692 0.119051
0.496834 0.732906 0.124636
0.528191 0.735592 0.111513
0.560266 0.738308 0.094789
0.592798 0.741054 0.072206
0.626001 0.743832 0.010834
0.659754 0.746609 0.000000
0.693965 0.749355 0.000000
0.728756 0.752132 0.000000
0.764004 0.754788 0.000000
0.799680 0.757412 0.000000
0.842069 0.765347 0.000000
0.881773 0.770382 0.000000
0.927825 0.781094 0.000000
0.969299 0.787869 0.000000
1.000000 0.791409 0.000000
0.000000 0.775631 0.000000
0.000000 0.775601 0.000000
0.000000 0.775570 0.000000
0.000000 0.775479 0.000000
0.000000 0.775357 0.000000
0.000000 0.775174 0.000000
0.000000 0.774929 0.000000
0.114199 0.774624 0.000000
0.171450 0.774258 0.000000
0.217350 0.773831 0.000000
0.258732 0.773342 0.031281
0.297307 0.772854 0.061616
0.334203 0.772244 0.076631
0.369665 0.771695 0.090761
0.404028 0.771023 0.103578
0.437446 0.770443 0.116213
0.470100 0.769772 0.128450
0.502129 0.769131 0.140810
0.533440 0.770413 0.139132
0.564935 0.773037 0.126284
0.597040 0.775662 0.110658
0.629725 0.778317 0.090791
0.662898 0.780972 0.060578
0.696590 0.783658 0.000000
0.730800 0.786252 0.000000
0.765499 0.788785 0.000000
0.800687 0.791287 0.000000
0.836240 0.793729 0.000000
0.879210 0.802182 0.000000
0.917906 0.806332 0.000000
0.961151 0.814817 0.000000
1.000000 0.820249 0.000000
0.000000 0.812161 0.000000
0.000000 0.812131 0.000000
0.000000 0.812100 0.000000
0.000000 0.812039 0.000000
0.000000 0.811887 0.000000
0.000000 0.811765 0.000000
0.000000 0.811551 0.000000
0.117739 0.811307 0.000000
0.175051 0.810971 0.014405
0.221103 0.810666 0.045930
0.262669 0.810208 0.066499
0.301579 0.809812 0.080323
0.338598 0.809323 0.093538
0.374304 0.808835 0.105592
0.408942 0.808316 0.117952
0.442664 0.807797 0.129915
0.475624 0.807309 0.142184
0.508080 0.806790 0.154391
0.540215 0.806271 0.166659
0.571160 0.808469 0.158358
0.602594 0.810941 0.146426
0.634699 0.813413 0.132387
0.667262 0.815915 0.114717
0.700313 0.818387 0.091249
0.733883 0.820859 0.050965
0.767910 0.823239 0.000000
0.802396 0.825559 0.000000
0.837308 0.827848 0.000000
0.872648 0.830014 0.000000
0.915984 0.838895 0.000000
0.954131 0.842618 0.000000
0.994293 0.848631 0.000000
0.000000 0.849058 0.000000
0.000000 0.849027 0.000000
0.000000 0.848997 0.000000
0.000000 0.848936 0.000000
0.000000 0.848814 0.000000
0.000000 0.848692 0.013703
0.000916 0.848478 0.033173
0.127413 0.848295 0.055695
0.182162 0.848020 0.069245
0.227634 0.847715 0.081178
0.269108 0.847349 0.091951
0.307744 0.846983 0.103426
0.344762 0.846586 0.114656
0.380468 0.846159 0.125948
0.415198 0.845731 0.137545
0.449042 0.845274 0.149203
0.482246 0.844846 0.161166
0.514977 0.844419 0.173068
0.547417 0.843961 0.185428
0.579156 0.844144 0.193027
0.609796 0.846403 0.183597
0.641016 0.848692 0.172610
