lut_library_archive/removed_20260629/extra/自然11.5.cube
LUT_3D_SIZE 8
DOMAIN_MIN 0.000000 0.000000 0.000000
DOMAIN_MAX 0.903226 0.903226 0.903226
0.000000 0.000000 0.000000
0.127871 0.018219 0.017548
0.260655 0.040528 0.039765
0.398718 0.050263 0.051301
0.542535 0.073671 0.075105
0.690669 0.101503 0.101808
0.832731 0.135836 0.135531
0.954162 0.181247 0.181308
0.024811 0.129702 0.024140
0.131228 0.131136 0.031769
0.258824 0.134646 0.044373
0.396277 0.140688 0.058503
0.539849 0.151736 0.078676
0.688380 0.167239 0.103700
0.831174 0.188510 0.137636
0.953124 0.220523 0.182986
0.051423 0.264958 0.051057
0.139590 0.265629 0.055451
0.267613 0.267613 0.062745
0.393256 0.266361 0.073426
0.530877 0.274144 0.090852
0.680629 0.287266 0.113191
0.825467 0.301305 0.144167
0.949462 0.318395 0.188754
0.083772 0.405951 0.082582
0.154086 0.406409 0.084352
0.278386 0.407935 0.090730
0.410895 0.411048 0.101076
0.540887 0.410803 0.112673
0.667018 0.409400 0.123873
0.815396 0.424018 0.152377
0.942962 0.434546 0.196597
0.119478 0.555718 0.119112
0.176761 0.556054 0.120150
0.295171 0.557580 0.124208
0.426917 0.560082 0.132021
0.563226 0.563195 0.142641
0.695460 0.562310 0.155642
0.815030 0.554589 0.170413
0.933806 0.553918 0.204288
0.158938 0.706264 0.158572
0.204959 0.706447 0.159976
0.313939 0.707088 0.163546
0.441932 0.708278 0.169711
0.575616 0.709743 0.180148
0.711421 0.711574 0.192721
0.837919 0.706081 0.215763
0.940337 0.688441 0.242863
0.214542 0.842191 0.214237
0.248722 0.842130 0.215427
0.340490 0.841886 0.219089
0.457160 0.841398 0.226535
0.582483 0.840604 0.237369
0.710414 0.839445 0.251926
0.837858 0.837858 0.270634
0.951049 0.827481 0.306249
0.294835 0.951171 0.294713
0.317723 0.950958 0.296086
0.386114 0.950225 0.300511
0.482856 0.948943 0.308232
0.592950 0.947051 0.319921
0.708278 0.944579 0.336187
0.824399 0.941650 0.356939
0.938415 0.938476 0.383276
0.014130 0.014862 0.127230
0.127504 0.022278 0.127504
0.259037 0.050385 0.135958
0.397498 0.075196 0.146975
0.541833 0.094575 0.159854
0.690547 0.117861 0.174685
0.832792 0.149691 0.196475
0.953887 0.194766 0.229831
0.023957 0.129915 0.130068
0.130678 0.130678 0.130678
0.258885 0.138430 0.138735
0.395361 0.147555 0.147799
0.539483 0.160403 0.160159
0.688441 0.175570 0.175357
0.831235 0.197543 0.197238
0.952850 0.230900 0.230777
0.061677 0.263371 0.139834
0.142702 0.262303 0.142580
0.264744 0.264866 0.145937
0.389410 0.265843 0.149935
0.531182 0.277348 0.162203
0.681086 0.290776 0.177676
0.825742 0.305333 0.199374
0.949279 0.323919 0.233738
0.092500 0.403754 0.156832
0.158999 0.403143 0.159304
0.278630 0.405127 0.161990
0.408423 0.408453 0.167544
0.537652 0.409186 0.173190
0.667781 0.410956 0.179751
0.815824 0.425849 0.201846
0.942901 0.437507 0.237766
0.127291 0.553094 0.179690
0.180972 0.553491 0.180453
0.295872 0.555108 0.183261
0.426001 0.557824 0.188083
0.561303 0.561303 0.194766
0.693141 0.560815 0.203311
0.813352 0.553979 0.212345
0.933806 0.555383 0.241733
0.164034 0.704646 0.207309
0.208255 0.704860 0.208255
0.315282 0.705531 0.210941
0.442023 0.706813 0.215976
0.575128 0.708492 0.223667
0.710445 0.710475 0.234257
0.836484 0.705379 0.252598
0.939239 0.688563 0.274479
0.221073 0.841276 0.252781
0.253910 0.841215 0.253758
0.343694 0.841032 0.256931
0.458900 0.840604 0.263279
0.583429 0.839872 0.272679
0.710658 0.838834 0.285191
0.837400 0.837430 0.301884
0.950011 0.827329 0.334508
0.303990 0.950500 0.324529
0.325780 0.950286 0.325658
0.392248 0.949615 0.329534
0.487251 0.948363 0.336767
0.595911 0.946502 0.347753
0.710018 0.944152 0.362524
0.825162 0.941344 0.382055
0.938262 0.938293 0.406928
0.028107 0.027955 0.258640
0.132387 0.028809 0.257267
0.256046 0.057160 0.255955
0.388922 0.079957 0.264439
0.537987 0.108553 0.281529
0.693965 0.138064 0.299779
0.834867 0.176303 0.317052
0.953613 0.230076 0.341619
0.051240 0.136141 0.259281
0.137118 0.137026 0.258061
0.256931 0.139620 0.256931
0.390539 0.151369 0.266819
0.539635 0.169558 0.283482
0.692256 0.188846 0.299840
0.833371 0.216434 0.316655
0.952636 0.259525 0.341650
0.070436 0.263371 0.263493
0.145113 0.262608 0.262791
0.263401 0.263401 0.263401
0.394049 0.271885 0.272099
0.536187 0.284123 0.284031
0.685145 0.297581 0.297581
0.828061 0.315435 0.315465
0.949187 0.341650 0.341558
0.098848 0.402564 0.276219
0.162142 0.401251 0.276432
0.277165 0.399481 0.277256
0.403143 0.403082 0.280766
0.528893 0.403662 0.282841
0.672297 0.415534 0.293370
0.818387 0.431312 0.312505
0.942992 0.447639 0.341283
0.130159 0.551873 0.293797
0.183444 0.550713 0.294347
0.295262 0.548608 0.295293
0.422309 0.551720 0.298558
0.555657 0.555749 0.303258
0.686091 0.555779 0.307378
0.807767 0.551049 0.310613
0.934112 0.560784 0.339391
0.168063 0.702968 0.314305
0.212833 0.702052 0.315404
0.318151 0.700832 0.317937
0.442023 0.702419 0.321691
0.573144 0.704555 0.327245
0.707027 0.707027 0.334783
0.831662 0.702724 0.347173
0.935454 0.688655 0.359625
0.232700 0.839567 0.347143
0.267399 0.838865 0.349981
0.354772 0.838102 0.354742
0.465522 0.837888 0.359350
0.586786 0.837491 0.366522
0.711482 0.836820 0.376410
0.835904 0.835966 0.389776
0.946349 0.826932 0.415717
0.328923 0.948577 0.405951
0.353735 0.947967 0.410651
0.414099 0.947356 0.414038
0.502861 0.946197 0.420111
0.606409 0.944579 0.429145
0.716426 0.942504 0.441688
0.827939 0.940124 0.458534
0.937652 0.937652 0.479286
0.031312 0.031647 0.396063
0.137270 0.041566 0.394293
0.262425 0.064790 0.389044
0.387304 0.083009 0.387396
0.520867 0.103761 0.395178
0.677607 0.129488 0.416480
0.828428 0.182315 0.437598
0.951415 0.274083 0.467689
0.066438 0.143069 0.395300
0.144259 0.143862 0.394049
0.264439 0.145907 0.389532
0.387671 0.151369 0.387732
0.521263 0.162814 0.395789
0.679042 0.183352 0.417975
0.829252 0.226230 0.439918
0.951385 0.307225 0.472480
0.088228 0.273014 0.400153
0.155886 0.273075 0.399145
0.270848 0.270817 0.393744
0.390326 0.269841 0.390265
0.527825 0.280522 0.402258
0.684535 0.300420 0.423865
0.832120 0.336797 0.449958
0.949004 0.381872 0.476204
0.107485 0.403723 0.403662
0.165805 0.402716 0.402655
0.278599 0.400366 0.400397
0.399207 0.399207 0.399207
0.535973 0.410040 0.410040
0.682918 0.425422 0.425422
0.824002 0.445563 0.445533
0.943206 0.472053 0.472053
0.134127 0.550439 0.420020
0.185245 0.549432 0.419654
0.295201 0.546593 0.418250
0.416876 0.543572 0.416632
0.547875 0.547936 0.421057
0.675013 0.546715 0.421363
0.810056 0.556115 0.434363
0.934752 0.574304 0.465003
0.172091 0.701747 0.438697
0.215579 0.700923 0.438727
0.319615 0.698451 0.439399
0.441230 0.695613 0.441260
0.570031 0.698329 0.446143
0.701534 0.701595 0.453162
0.823514 0.698146 0.460792
0.928862 0.688136 0.466255
0.239628 0.838651 0.460456
0.273289 0.838010 0.461921
0.364538 0.835752 0.467994
0.478065 0.833249 0.478035
0.593622 0.833371 0.484199
0.713588 0.833433 0.492805
0.833524 0.833555 0.504051
0.940185 0.826505 0.522515
0.339086 0.947692 0.498238
0.363897 0.947021 0.502007
0.439063 0.944671 0.516350
0.530632 0.942412 0.530602
0.625177 0.941253 0.537713
0.727504 0.939818 0.547112
0.832486 0.938231 0.559411
0.936675 0.936706 0.574640
0.061585 0.060517 0.539452
0.145754 0.065248 0.537957
0.272801 0.077729 0.532464
0.395819 0.091829 0.523369
0.523278 0.106538 0.523400
0.663081 0.121279 0.533989
0.811154 0.161349 0.550774
0.941039 0.252964 0.569543
0.079988 0.151949 0.539269
0.153231 0.152743 0.537896
0.274876 0.155001 0.532921
0.396887 0.157717 0.523919
0.523400 0.164797 0.523491
0.663264 0.174411 0.534295
0.812009 0.207187 0.552056
0.941131 0.286442 0.572015
0.104799 0.282841 0.542962
0.166171 0.282597 0.540826
0.281102 0.280827 0.535698
0.400763 0.277958 0.527184
0.524865 0.278996 0.524804
0.664271 0.286290 0.535485
0.815152 0.317235 0.557336
0.941192 0.382300 0.582483
0.121248 0.417884 0.549401
0.177127 0.417456 0.548333
0.290623 0.415595 0.545006
0.409033 0.409003 0.535607
0.529351 0.404761 0.529412
0.671901 0.416449 0.543023
0.820829 0.453285 0.570886
0.941375 0.508721 0.605188
0.140261 0.553002 0.553155
0.189639 0.552148 0.552178
0.297704 0.549004 0.548974
0.417823 0.544366 0.544366
0.539361 0.539361 0.539361
0.682063 0.554986 0.555047
0.819486 0.577325 0.577203
0.935668 0.603998 0.603937
0.177737 0.700252 0.567956
0.219364 0.699550 0.567620
0.321324 0.697169 0.566705
0.441901 0.693599 0.565667
0.564843 0.689906 0.564752
0.694057 0.694057 0.571008
0.811704 0.689448 0.570947
0.925444 0.694911 0.586816
0.250217 0.837308 0.583093
0.282078 0.836728 0.583856
0.370855 0.834592 0.586786
0.485359 0.831052 0.593347
0.600122 0.827909 0.600031
0.714900 0.828946 0.606744
0.830289 0.830320 0.615503
0.933013 0.824552 0.624842
0.354192 0.946349 0.604700
0.377905 0.945708 0.607202
0.449348 0.943511 0.616175
0.544610 0.940337 0.629694
0.643336 0.937621 0.643305
0.738338 0.936919 0.650324
0.837003 0.936217 0.659388
0.935698 0.935729 0.670405
0.083131 0.082338 0.686793
0.157473 0.085939 0.685664
0.282963 0.094911 0.681666
0.410895 0.104891 0.674434
0.534691 0.110811 0.664729
0.666255 0.124514 0.666346
0.802609 0.153262 0.672755
0.927703 0.220981 0.676478
0.098146 0.162966 0.686885
0.164218 0.163577 0.685725
0.285435 0.166140 0.681971
0.411994 0.168063 0.674830
0.534966 0.168582 0.664698
0.666407 0.177096 0.666438
0.802640 0.198215 0.672847
0.927886 0.256016 0.677607
0.123354 0.292912 0.688533
0.177951 0.292882 0.687648
0.291997 0.291752 0.683833
0.415442 0.289220 0.677058
0.536889 0.284764 0.666529
0.667170 0.288457 0.667109
0.802640 0.303655 0.673487
0.928374 0.352148 0.682124
0.148501 0.431067 0.697292
0.196780 0.430518 0.695705
0.304631 0.428138 0.690303
0.423285 0.423102 0.682368
0.542290 0.414801 0.671748
0.669093 0.413977 0.669154
0.802884 0.427832 0.675380
0.929229 0.477760 0.692866
0.169650 0.566644 0.699550
0.213413 0.566400 0.699001
0.317998 0.565515 0.696620
0.439368 0.564141 0.692775
0.554376 0.554345 0.681697
0.673121 0.545708 0.673152
0.807340 0.563806 0.683864
0.931151 0.613642 0.713375
0.195926 0.702083 0.702083
0.234470 0.701503 0.701534
0.331518 0.699489 0.699550
0.449531 0.695949 0.696040
0.567071 0.690700 0.690669
0.681819 0.681758 0.681788
0.815427 0.701503 0.701503
0.929076 0.725521 0.725521
0.264073 0.835721 0.708614
0.294285 0.835111 0.708766
0.380041 0.833097 0.709163
0.489754 0.829862 0.710262
0.602472 0.826169 0.711452
0.713344 0.821897 0.713344
0.824857 0.824887 0.720211
0.923796 0.819059 0.719539
0.374060 0.944610 0.716915
0.396002 0.944030 0.718196
0.461830 0.942077 0.722530
0.551476 0.939300 0.729152
0.651240 0.936065 0.738552
0.749508 0.933410 0.749508
0.841611 0.933867 0.755917
0.934600 0.934600 0.763760
0.115084 0.114168 0.821775
0.174166 0.117342 0.821103
0.292515 0.125216 0.818692
0.419440 0.133761 0.814298
0.545800 0.140017 0.807706
0.671443 0.146212 0.801602
0.802304 0.165591 0.802304
0.923888 0.224674 0.798367
0.128664 0.181216 0.821866
0.182650 0.182071 0.821195
0.295842 0.184939 0.818906
0.421057 0.188571 0.814511
0.546624 0.190921 0.807980
0.671656 0.193240 0.801572
0.802274 0.207736 0.802274
0.923644 0.257328 0.798459
0.160098 0.306493 0.822751
0.203830 0.306462 0.822110
0.306950 0.306645 0.819821
0.426856 0.306340 0.815610
0.549767 0.304265 0.809018
0.672206 0.300908 0.801480
0.802304 0.310338 0.802274
0.922820 0.346807 0.799100
0.201785 0.441993 0.826200
0.238865 0.442634 0.825315
0.331579 0.443671 0.822324
0.441199 0.441016 0.818082
0.557488 0.435798 0.811429
0.674128 0.426246 0.801846
0.802457 0.433356 0.802426
0.921386 0.461524 0.800565
0.236332 0.575921 0.830686
0.269871 0.576806 0.830320
0.361425 0.580224 0.829068
0.471138 0.582361 0.823941
0.575586 0.575555 0.816098
0.682521 0.562249 0.805936
0.803098 0.561547 0.803128
0.919554 0.583551 0.803464
0.268193 0.705196 0.830961
0.297765 0.705470 0.830655
0.382544 0.706844 0.829526
0.490486 0.708797 0.827573
0.601617 0.710201 0.824674
0.701259 0.701167 0.814267
0.805081 0.690120 0.805112
0.919860 0.711330 0.813199
0.308446 0.831510 0.831540
0.334508 0.831296 0.831296
0.409827 0.830411 0.830442
0.507591 0.828916 0.828977
0.613519 0.826505 0.826535
0.717433 0.822080 0.822080
0.811307 0.811276 0.811276
0.925597 0.831815 0.831846
0.396429 0.942657 0.829709
0.415961 0.942138 0.829984
0.475563 0.940520 0.830900
0.560174 0.938079 0.832547
0.656794 0.935119 0.835508
0.752956 0.932403 0.839475
0.842802 0.930541 0.842771
0.932799 0.932799 0.848661
0.160128 0.159335 0.933776
0.203037 0.161654 0.933471
0.304936 0.169253 0.932280
0.424262 0.179934 0.930175
0.547448 0.191836 0.926970
0.670283 0.200839 0.922576
0.794369 0.216464 0.919860
0.919646 0.247593 0.919677
0.173404 0.210758 0.933745
0.212802 0.212192 0.933410
0.310369 0.216678 0.932250
0.427314 0.223941 0.930144
0.549218 0.232120 0.926940
0.671168 0.238163 0.922545
0.794614 0.250431 0.919707
0.919554 0.277256 0.919585
0.211887 0.326513 0.933684
0.243351 0.327123 0.933410
0.329229 0.329046 0.932250
0.438636 0.331914 0.930175
0.555749 0.334874 0.927001
0.674556 0.336034 0.922606
0.795499 0.341344 0.919249
0.919097 0.362158 0.919158
0.277317 0.462623 0.933806
0.300267 0.462745 0.933532
0.368627 0.463294 0.932372
0.463966 0.463691 0.930327
0.571099 0.463386 0.927153
0.682643 0.460639 0.922759
0.797696 0.458289 0.918456
0.918425 0.472419 0.918456
0.324041 0.588525 0.936034
0.348089 0.590478 0.935546
0.418494 0.596551 0.933898
0.509941 0.603113 0.930938
0.599176 0.599115 0.927855
0.697475 0.592157 0.923430
0.801297 0.580682 0.917540
0.917662 0.591333 0.917723
0.364843 0.708888 0.936004
0.386603 0.710323 0.935821
0.452155 0.715053 0.935119
0.541985 0.722103 0.933989
0.637568 0.728145 0.931060
0.723568 0.723507 0.925750
0.812039 0.709773 0.919127
0.917296 0.710048 0.917327
0.405554 0.824460 0.935180
0.424018 0.825040 0.935058
0.480598 0.826841 0.934569
0.563012 0.829801 0.933776
0.657465 0.833982 0.932677
0.751888 0.838285 0.931304
0.831357 0.831296 0.924987
0.918303 0.819944 0.918303
0.449073 0.934722 0.934722
0.464454 0.934630 0.934691
0.513573 0.934356 0.934417
0.588128 0.933959 0.933989
0.674922 0.933379 0.933440
0.762753 0.932708 0.932738
0.846372 0.931243 0.931243
0.922545 0.922545 0.922545
