lut_library_archive/removed_20260629/extra/自然11.5.cube
LUT_3D_SIZE 5
DOMAIN_MIN 0.000000 0.000000 0.000000
DOMAIN_MAX 0.903226 0.903226 0.903226
0.000000 0.000000 0.000000
0.226932 0.035370 0.036439
0.469703 0.064271 0.063691
0.727321 0.109316 0.109316
0.954162 0.181247 0.181308
0.043427 0.230777 0.043091
0.233188 0.233036 0.054200
0.461250 0.237827 0.076997
0.720363 0.259861 0.117433
0.950652 0.291142 0.186801
0.101930 0.479744 0.101045
0.254154 0.481147 0.106386
0.486427 0.486458 0.122072
0.711147 0.482826 0.141329
0.938720 0.494270 0.200473
0.170535 0.742428 0.170382
0.290440 0.742794 0.173861
0.511254 0.744198 0.186465
0.745846 0.745907 0.209079
0.943206 0.723476 0.256870
0.294835 0.951171 0.294713
0.365515 0.950500 0.298711
0.536889 0.948058 0.313756
0.737362 0.943877 0.341039
0.938415 0.938476 0.383276
0.026612 0.025788 0.225101
0.223819 0.045411 0.223575
0.465553 0.095521 0.243717
0.729366 0.140902 0.271183
0.953674 0.218723 0.310552
0.061891 0.229496 0.229435
0.229953 0.229953 0.229953
0.464271 0.246860 0.246830
0.722927 0.270146 0.270146
0.950317 0.311192 0.311009
0.113649 0.476326 0.254246
0.256168 0.473762 0.255955
0.479835 0.479957 0.262852
0.703944 0.479164 0.266819
0.938811 0.501244 0.311803
0.180301 0.739437 0.292363
0.296269 0.738582 0.295933
0.511467 0.740444 0.303532
0.743069 0.743099 0.318425
0.939574 0.723629 0.347631
0.324620 0.948943 0.384649
0.388067 0.948302 0.387976
0.549157 0.946136 0.399634
0.742489 0.942443 0.421942
0.937835 0.937865 0.457679
0.047578 0.046662 0.467048
0.236118 0.067018 0.461524
0.454627 0.096010 0.454566
0.706813 0.131716 0.478706
0.946654 0.264683 0.517510
0.093812 0.245090 0.468910
0.244144 0.244053 0.463783
0.456092 0.243992 0.456123
0.711391 0.268040 0.483589
0.946532 0.365545 0.530663
0.123903 0.477485 0.477455
0.258579 0.474342 0.474342
0.468635 0.468635 0.468635
0.718532 0.495308 0.495399
0.939239 0.540124 0.540124
0.189029 0.737514 0.507286
0.301366 0.735195 0.507805
0.512322 0.729519 0.512230
0.734615 0.734646 0.523980
0.927642 0.722835 0.532799
0.346044 0.947082 0.550286
0.421912 0.944854 0.561334
0.587915 0.939940 0.587854
0.758236 0.938109 0.601434
0.936187 0.936217 0.622522
0.090333 0.089479 0.722408
0.253330 0.098756 0.718959
0.476570 0.113252 0.706844
0.701656 0.131167 0.701625
0.925261 0.215854 0.705135
0.123781 0.262486 0.723537
0.262516 0.262425 0.720302
0.479377 0.259678 0.708583
0.702052 0.262272 0.702144
0.924559 0.315099 0.706752
0.171054 0.501793 0.733822
0.291264 0.502403 0.731868
0.493782 0.493690 0.717617
0.705043 0.482734 0.705043
0.926543 0.535088 0.723232
0.218479 0.737148 0.737209
0.319890 0.735470 0.735500
0.519036 0.729946 0.730037
0.716060 0.715999 0.716030
0.927825 0.753811 0.753780
0.379706 0.944121 0.745205
0.445960 0.942260 0.748501
0.602380 0.937469 0.758267
0.774105 0.932586 0.774105
0.934264 0.934264 0.785855
0.160128 0.159335 0.933776
0.276829 0.167208 0.932677
0.485847 0.185855 0.928679
0.700710 0.202152 0.921294
0.919646 0.247593 0.919677
0.199680 0.294926 0.933715
0.297581 0.297215 0.932616
0.493843 0.303838 0.928679
0.703243 0.308141 0.921294
0.919249 0.337194 0.919280
0.300603 0.525658 0.934813
0.378546 0.532647 0.933104
0.533623 0.533532 0.929015
0.716030 0.524193 0.921660
0.918059 0.531151 0.918059
0.374609 0.738155 0.935790
0.439948 0.742092 0.935149
0.595819 0.753079 0.933227
0.752377 0.752316 0.925414
0.917357 0.738521 0.917388
0.449073 0.934722 0.934722
0.498421 0.934447 0.934508
0.630823 0.933684 0.933745
0.784115 0.932494 0.932525
0.922545 0.922545 0.922545
