lut_library_archive/removed_20260629/extra/自然11.5.cube
LUT_3D_SIZE 32
DOMAIN_MIN 0.0 0.0 0.0
DOMAIN_MAX 1.0 1.0 1.0
0.000000 0.000000 0.000000
0.033478 0.002594 0.002167
0.065553 0.005371 0.005035
0.095644 0.010315 0.011658
0.127871 0.018219 0.017548
0.160586 0.025238 0.024048
0.193545 0.029725 0.031250
0.226932 0.035370 0.036439
0.260655 0.040528 0.039765
0.294560 0.044770 0.042206
0.329107 0.043854 0.044953
0.363622 0.049042 0.047150
0.398718 0.050263 0.051301
0.434089 0.058350 0.057923
0.469703 0.064271 0.063691
0.505852 0.068971 0.068849
0.542535 0.073671 0.075105
0.579492 0.081331 0.080598
0.616602 0.087343 0.087556
0.653651 0.094179 0.094728
0.690669 0.101503 0.101808
0.727321 0.109316 0.109316
0.763485 0.117433 0.117403
0.798703 0.126345 0.126162
0.832731 0.135836 0.135531
0.865446 0.145724 0.145602
0.896544 0.156924 0.156771
0.926055 0.168612 0.168582
0.954162 0.181247 0.181308
0.981048 0.194858 0.194461
1.000000 0.209476 0.209262
1.000000 0.225315 0.224949
0.003296 0.035706 0.002411
0.035950 0.036133 0.003693
0.066102 0.037934 0.005585
0.095705 0.044312 0.011048
0.127840 0.050874 0.019104
0.160555 0.056153 0.025605
0.193515 0.059571 0.031617
0.226688 0.062043 0.036866
0.260441 0.064088 0.040162
0.294469 0.065187 0.042695
0.328801 0.065949 0.045319
0.363470 0.067048 0.048341
0.398444 0.069093 0.052308
0.433845 0.072755 0.058106
0.469520 0.076967 0.063813
0.505638 0.081544 0.069703
0.542229 0.086580 0.075074
0.579248 0.092042 0.080964
0.616236 0.097749 0.087892
0.653407 0.104402 0.094148
0.690364 0.110597 0.101350
0.727169 0.117220 0.109102
0.763241 0.124880 0.117617
0.798520 0.132753 0.126406
0.832578 0.141939 0.135744
0.865293 0.151644 0.145907
0.896422 0.162081 0.156374
0.925933 0.173587 0.168460
0.954070 0.185824 0.181430
0.980957 0.198947 0.194583
1.000000 0.213107 0.209567
1.000000 0.228733 0.225437
0.005646 0.066712 0.007111
0.039734 0.067201 0.007202
0.067567 0.067414 0.008118
0.096101 0.069001 0.013794
0.127962 0.071809 0.019684
0.160586 0.074495 0.028290
0.193423 0.076722 0.032013
0.226352 0.078340 0.039582
0.260166 0.080293 0.041688
0.294072 0.081209 0.044282
0.328527 0.082094 0.045686
0.363104 0.083436 0.048585
0.398077 0.084413 0.053498
0.433509 0.087892 0.059785
0.469123 0.091676 0.064790
0.505364 0.095369 0.069398
0.541924 0.099886 0.075807
0.578851 0.104402 0.082277
0.616022 0.109682 0.087892
0.653071 0.115450 0.095247
0.690059 0.121370 0.102052
0.726864 0.127413 0.109102
0.763027 0.134615 0.117372
0.798245 0.141970 0.126375
0.832395 0.150210 0.135714
0.865110 0.159030 0.146548
0.896208 0.169345 0.157504
0.925780 0.180026 0.168856
0.953918 0.191653 0.181308
0.980835 0.204257 0.195377
1.000000 0.217716 0.209812
1.000000 0.232853 0.225559
0.015656 0.096712 0.015595
0.047272 0.096864 0.014710
0.070253 0.096986 0.016724
0.097993 0.098024 0.019135
0.129152 0.099367 0.025269
0.160433 0.101045 0.029786
0.192844 0.102754 0.035767
0.226108 0.104585 0.040833
0.259678 0.105806 0.042023
0.293492 0.106600 0.044617
0.327703 0.107668 0.047028
0.362463 0.109041 0.049470
0.397284 0.111299 0.054017
0.432593 0.113771 0.060548
0.468391 0.116304 0.065522
0.504601 0.119783 0.071138
0.541100 0.123140 0.077699
0.578058 0.127535 0.083009
0.615229 0.131411 0.089204
0.652338 0.135927 0.095674
0.689448 0.141299 0.102632
0.726253 0.146548 0.110506
0.762478 0.152682 0.118227
0.797757 0.159304 0.126955
0.831937 0.166537 0.136568
0.864652 0.174411 0.146731
0.895842 0.183017 0.157687
0.925414 0.192905 0.169558
0.953613 0.203494 0.182315
0.980560 0.215183 0.195651
1.000000 0.227756 0.209964
1.000000 0.242039 0.226078
0.024811 0.129702 0.024140
0.054841 0.129793 0.025422
0.074037 0.130037 0.026215
0.100893 0.130526 0.029816
0.131228 0.131136 0.031769
0.162722 0.132387 0.035065
0.193576 0.132815 0.039582
0.225345 0.133669 0.042084
0.258824 0.134646 0.044373
0.292454 0.136080 0.047517
0.326757 0.137453 0.049165
0.361303 0.138827 0.053223
0.396277 0.140688 0.058503
0.431525 0.143008 0.062898
0.467201 0.145754 0.067109
0.503380 0.148348 0.072999
0.539849 0.151736 0.078676
0.576837 0.155367 0.084504
0.614038 0.158480 0.090822
0.651301 0.162509 0.097383
0.688380 0.167239 0.103700
0.725307 0.171786 0.111635
0.761563 0.176638 0.119509
0.796963 0.182559 0.127871
0.831174 0.188510 0.137636
0.864012 0.195254 0.147372
0.895201 0.202914 0.158724
0.924865 0.211246 0.170138
0.953124 0.220523 0.182986
0.980133 0.231083 0.196475
1.000000 0.242527 0.210727
1.000000 0.255528 0.226993
0.034577 0.162966 0.033997
0.061097 0.163302 0.032898
0.077546 0.163333 0.034882
0.103456 0.163729 0.036286
0.133700 0.164248 0.038117
0.164889 0.165042 0.039307
0.196780 0.165774 0.042084
0.227481 0.165438 0.044343
0.258366 0.165255 0.045930
0.291234 0.166506 0.048890
0.325261 0.168002 0.052094
0.359869 0.169558 0.055970
0.394629 0.171450 0.060853
0.429969 0.173587 0.065095
0.465553 0.176028 0.070283
0.501671 0.178744 0.075746
0.538293 0.181857 0.081117
0.575189 0.184909 0.087007
0.612390 0.188266 0.093050
0.649744 0.191928 0.098848
0.686976 0.195560 0.105776
0.724025 0.199649 0.113283
0.760372 0.203830 0.121218
0.795834 0.208865 0.129610
0.830137 0.214115 0.138705
0.863096 0.219852 0.148959
0.894377 0.226535 0.159609
0.924132 0.233585 0.171603
0.952453 0.241581 0.183902
0.979553 0.250645 0.197665
1.000000 0.260960 0.212039
1.000000 0.272648 0.227817
0.038514 0.196872 0.038178
0.063203 0.196994 0.038239
0.079194 0.197024 0.039124
0.105440 0.197391 0.040406
0.135653 0.197757 0.041108
0.167056 0.198306 0.043305
0.199069 0.198947 0.044831
0.231327 0.199527 0.048463
0.261997 0.199100 0.049775
0.292699 0.198703 0.053101
0.323644 0.198459 0.057435
0.357977 0.200443 0.060334
0.392676 0.202335 0.063935
0.427893 0.204654 0.068544
0.463661 0.207095 0.072938
0.499702 0.209689 0.079164
0.536248 0.212558 0.083650
0.573175 0.215640 0.089296
0.610407 0.218906 0.095033
0.647883 0.222080 0.101198
0.685267 0.225498 0.107851
0.722347 0.229313 0.114931
0.758785 0.233341 0.122469
0.794400 0.237400 0.130800
0.828885 0.241855 0.140139
0.861906 0.246799 0.150271
0.893339 0.252476 0.160678
0.923217 0.258457 0.173098
0.951659 0.265263 0.185061
0.978820 0.273289 0.198947
1.000000 0.282048 0.213077
1.000000 0.292454 0.229160
0.043427 0.230777 0.043091
0.064759 0.230686 0.043336
0.081758 0.230961 0.043885
0.107607 0.231113 0.045228
0.137423 0.231540 0.045808
0.168887 0.231907 0.048524
0.200656 0.232334 0.052155
0.233188 0.233036 0.054200
0.266026 0.233982 0.058656
0.296574 0.232914 0.060243
0.327276 0.232303 0.062684
0.358068 0.231937 0.064790
0.390387 0.232639 0.068452
0.425544 0.235080 0.071931
0.461250 0.237827 0.076997
0.497322 0.240543 0.081788
0.533715 0.243412 0.087526
0.570733 0.246494 0.091981
0.608057 0.249607 0.097719
0.645624 0.252781 0.104067
0.683070 0.256382 0.110170
0.720363 0.259861 0.117433
0.756985 0.263554 0.124758
0.792752 0.267094 0.133242
0.827329 0.270878 0.142061
0.860502 0.275425 0.152132
0.892088 0.280125 0.162539
0.922087 0.285069 0.174502
0.950652 0.291142 0.186801
0.977935 0.297795 0.200381
1.000000 0.305577 0.214908
1.000000 0.314824 0.230930
0.051423 0.264958 0.051057
0.068971 0.265049 0.051911
0.084443 0.265019 0.052552
0.110079 0.265141 0.053529
0.139590 0.265629 0.055451
0.170779 0.265843 0.057130
0.202823 0.266453 0.059144
0.234867 0.266972 0.060700
0.267613 0.267613 0.062745
0.300816 0.268742 0.065797
0.331823 0.267918 0.067597
0.362524 0.266941 0.070069
0.393256 0.266361 0.073426
0.424079 0.266148 0.076295
0.458442 0.268254 0.081422
0.494453 0.271122 0.086122
0.530877 0.274144 0.090852
0.567956 0.277287 0.095796
0.605341 0.280674 0.100923
0.642939 0.283940 0.106447
0.680629 0.287266 0.113191
0.718074 0.290471 0.119814
0.754849 0.294102 0.127047
0.790738 0.297520 0.135286
0.825467 0.301305 0.144167
0.858854 0.304814 0.153872
0.890562 0.308873 0.164828
0.920745 0.313298 0.176089
0.949462 0.318395 0.188754
0.976898 0.323980 0.201816
1.000000 0.330785 0.216709
1.000000 0.338781 0.232547
0.060670 0.299413 0.060426
0.073976 0.299474 0.060456
0.088716 0.299596 0.060700
0.113161 0.299840 0.061158
0.142611 0.300053 0.061372
0.173251 0.300389 0.063050
0.204868 0.300694 0.064485
0.237095 0.301152 0.067048
0.269627 0.301915 0.069123
0.302586 0.302617 0.071229
0.335943 0.303624 0.073823
0.367620 0.303075 0.076661
0.398291 0.302129 0.079866
0.429023 0.301427 0.082856
0.459876 0.300999 0.086061
0.491341 0.301335 0.089662
0.527764 0.304448 0.094331
0.564660 0.307836 0.098726
0.602136 0.311223 0.104036
0.639918 0.314763 0.109438
0.677729 0.318303 0.115419
0.715297 0.321691 0.122164
0.752285 0.325017 0.129549
0.788418 0.328496 0.137148
0.823362 0.331762 0.146059
0.856931 0.335027 0.155978
0.888853 0.338659 0.166110
0.919219 0.342229 0.178164
0.948119 0.346532 0.190585
0.975708 0.351354 0.203708
1.000000 0.357183 0.218601
1.000000 0.364141 0.234409
0.067536 0.334417 0.066590
0.078614 0.334447 0.067414
0.093477 0.334508 0.067628
0.117037 0.334722 0.067659
0.145724 0.334905 0.068605
0.176059 0.335241 0.069673
0.207614 0.335637 0.071168
0.239811 0.336126 0.072999
0.272221 0.336675 0.075624
0.304967 0.337346 0.078096
0.338079 0.338048 0.080873
0.371527 0.339208 0.083284
0.404059 0.339269 0.086275
0.434882 0.338109 0.089479
0.465736 0.337255 0.092500
0.496498 0.336614 0.095674
0.527337 0.336309 0.098421
0.560937 0.337896 0.102358
0.598505 0.341527 0.107301
0.636530 0.345342 0.112520
0.674495 0.349096 0.118349
0.712276 0.352514 0.124788
0.749538 0.355993 0.131838
0.785794 0.359350 0.139742
0.820981 0.362585 0.148531
0.854795 0.365576 0.158236
0.886900 0.368627 0.168215
0.917479 0.371862 0.179599
0.946563 0.375402 0.192508
0.974365 0.379492 0.205509
1.000000 0.384619 0.220432
1.000000 0.390753 0.236912
0.075044 0.369848 0.074586
0.085664 0.369879 0.075288
0.098604 0.369970 0.075837
0.121523 0.370092 0.075868
0.149538 0.370397 0.076265
0.179507 0.370642 0.077790
0.210819 0.370977 0.079438
0.242588 0.371466 0.081361
0.275090 0.372015 0.082643
0.307866 0.372656 0.084565
0.340856 0.373419 0.088075
0.374182 0.374243 0.090059
0.407874 0.375189 0.093019
0.441352 0.376074 0.096681
0.472084 0.374823 0.099580
0.502861 0.373663 0.102419
0.533837 0.372839 0.105287
0.564691 0.372442 0.107790
0.595819 0.372107 0.111269
0.632746 0.375372 0.115602
0.670985 0.379370 0.120851
0.708888 0.383276 0.127443
0.746304 0.386755 0.134432
0.782895 0.390204 0.141695
0.818326 0.393256 0.150729
0.852354 0.396277 0.160342
0.884733 0.398962 0.170535
0.915557 0.401740 0.181888
0.944854 0.404822 0.194736
0.972839 0.408423 0.207980
0.999603 0.412665 0.223026
1.000000 0.417975 0.239139
0.083772 0.405951 0.082582
0.093263 0.405982 0.083223
0.105135 0.406012 0.083711
0.126833 0.406134 0.084016
0.154086 0.406409 0.084352
0.183658 0.406592 0.085451
0.214420 0.407080 0.086763
0.246006 0.407568 0.088746
0.278386 0.407935 0.090730
0.311070 0.408667 0.092622
0.344121 0.409430 0.094911
0.377417 0.410132 0.098238
0.410895 0.411048 0.101076
0.444739 0.412085 0.103761
0.479194 0.413519 0.107668
0.510063 0.412085 0.109651
0.540887 0.410803 0.112673
0.571771 0.409796 0.114931
0.602808 0.409003 0.118074
0.634302 0.408789 0.120302
0.667018 0.409400 0.123873
0.705165 0.413519 0.129763
0.742824 0.417395 0.136538
0.779660 0.420813 0.144381
0.815396 0.424018 0.152377
0.849668 0.426795 0.161837
0.882414 0.429358 0.172122
0.913390 0.431983 0.183993
0.942962 0.434546 0.196597
0.971191 0.437568 0.210330
0.998169 0.441260 0.225040
1.000000 0.445808 0.241703
0.092317 0.442603 0.091890
0.101778 0.442573 0.092470
0.112306 0.442664 0.092897
0.132876 0.442756 0.093141
0.159091 0.442939 0.093477
0.187930 0.443214 0.094881
0.218601 0.443641 0.095766
0.250156 0.444068 0.097719
0.282170 0.444556 0.099428
0.314763 0.445167 0.101320
0.347906 0.445808 0.103151
0.381079 0.446662 0.105562
0.414557 0.447486 0.108797
0.448402 0.448402 0.110780
0.482368 0.449439 0.114534
0.517845 0.451698 0.118196
0.548669 0.449958 0.120546
0.579583 0.448493 0.122957
0.610254 0.447181 0.125154
0.641382 0.446235 0.127474
0.672755 0.445686 0.130678
0.704341 0.445472 0.134005
0.739101 0.447425 0.138888
0.776181 0.451240 0.146517
0.812161 0.454536 0.154238
0.846769 0.457343 0.164126
0.879759 0.459724 0.174472
0.911070 0.462104 0.185824
0.940917 0.464393 0.198459
0.969390 0.466987 0.212192
0.996582 0.470192 0.227573
1.000000 0.474159 0.244205
0.101930 0.479744 0.101045
0.110262 0.479713 0.101076
0.119966 0.479744 0.101228
0.139712 0.479927 0.101625
0.164736 0.480140 0.102602
0.192966 0.480476 0.103578
0.223178 0.480812 0.104616
0.254154 0.481147 0.106386
0.286168 0.481666 0.107637
0.318853 0.482338 0.109224
0.351690 0.482887 0.111543
0.385016 0.483619 0.113710
0.418494 0.484474 0.115969
0.452461 0.485481 0.118685
0.486427 0.486458 0.122072
0.520714 0.487495 0.124941
0.557183 0.490517 0.128878
0.587823 0.488472 0.130465
0.618250 0.486275 0.132692
0.648981 0.484779 0.135439
0.679957 0.483558 0.138674
0.711147 0.482826 0.141329
0.742245 0.482216 0.145022
0.773342 0.481788 0.148562
0.808713 0.484657 0.156497
0.843595 0.487556 0.165621
0.876890 0.490028 0.176364
0.908568 0.492195 0.187747
0.938720 0.494270 0.200473
0.967437 0.496620 0.214389
0.994903 0.499336 0.229892
1.000000 0.502770 0.246952
0.110353 0.517540 0.110109
0.118471 0.517479 0.110353
0.127443 0.517540 0.110262
0.146181 0.517632 0.111086
0.170504 0.517723 0.111543
0.198550 0.518090 0.112184
0.227695 0.518486 0.113497
0.258610 0.518914 0.114778
0.290501 0.519402 0.116304
0.322972 0.519951 0.117739
0.355932 0.520592 0.119356
0.389227 0.521355 0.121492
0.422644 0.522118 0.124117
0.456641 0.522972 0.126223
0.490669 0.523949 0.129488
0.525078 0.524956 0.131868
0.559503 0.526055 0.135317
0.596033 0.528954 0.138949
0.626703 0.526635 0.141360
0.656977 0.524346 0.143801
0.687526 0.522484 0.146487
0.718196 0.521019 0.149722
0.748867 0.519799 0.152682
0.779263 0.518730 0.156893
0.809506 0.517754 0.161257
0.840238 0.517601 0.167269
0.873869 0.520012 0.177981
0.905852 0.522210 0.189609
0.936278 0.524193 0.202853
0.965332 0.526177 0.216831
0.993103 0.528557 0.232670
1.000000 0.531609 0.249668
0.119478 0.555718 0.119112
0.126162 0.555688 0.119326
0.135561 0.555749 0.119234
0.153140 0.555932 0.119753
0.176761 0.556054 0.120150
0.203861 0.556359 0.121279
0.232914 0.556695 0.122072
0.263401 0.557031 0.123293
0.295171 0.557580 0.124208
0.327245 0.558160 0.125887
0.360174 0.558648 0.128084
0.393317 0.559411 0.129976
0.426917 0.560082 0.132021
0.460670 0.560754 0.134859
0.494759 0.561486 0.136904
0.528832 0.562432 0.139315
0.563226 0.563195 0.142641
0.597772 0.564233 0.145724
0.633783 0.566583 0.149722
0.665339 0.564935 0.152926
0.695460 0.562310 0.155642
0.725582 0.560021 0.158328
0.755581 0.557946 0.162173
0.785428 0.556237 0.165988
0.815030 0.554589 0.170413
0.844144 0.553063 0.175875
0.872770 0.551629 0.181491
0.902983 0.552117 0.191287
0.933806 0.553918 0.204288
0.963134 0.555810 0.219028
0.991211 0.557885 0.234714
1.000000 0.560601 0.252598
0.128084 0.593927 0.128206
0.135103 0.593927 0.128359
0.143404 0.593988 0.128450
0.160403 0.594018 0.128817
0.183078 0.594202 0.129671
0.209476 0.594446 0.129824
0.238285 0.594659 0.130770
0.268223 0.594995 0.131868
0.299535 0.595361 0.133272
0.331548 0.595758 0.135195
0.364172 0.596307 0.136324
0.397223 0.596826 0.138460
0.430671 0.597406 0.140688
0.464454 0.598077 0.142641
0.498390 0.598718 0.145174
0.532464 0.599542 0.147555
0.566735 0.600336 0.151064
0.601129 0.601129 0.153841
0.635676 0.602045 0.156619
0.671382 0.604059 0.161593
0.703639 0.602930 0.165133
0.733120 0.599725 0.168490
0.762570 0.596857 0.171695
0.791867 0.594293 0.175784
0.820645 0.591913 0.180270
0.849119 0.589624 0.185641
0.876982 0.587488 0.191806
0.904448 0.585504 0.198886
0.931518 0.583978 0.206760
0.960815 0.585260 0.221012
0.989197 0.587182 0.237186
1.000000 0.589563 0.255344
0.138003 0.631678 0.137362
0.143984 0.631647 0.138033
0.152132 0.631678 0.137972
0.167880 0.631739 0.138430
0.189700 0.631952 0.138705
0.215457 0.632136 0.139345
0.243351 0.632380 0.140505
0.273320 0.632593 0.141360
0.304234 0.632990 0.142641
0.335882 0.633356 0.144228
0.368322 0.633753 0.145480
0.401190 0.634180 0.147463
0.434394 0.634730 0.149966
0.468055 0.635309 0.151766
0.501915 0.635950 0.153933
0.535943 0.636591 0.156344
0.570001 0.637293 0.159457
0.604334 0.638025 0.162081
0.638758 0.638758 0.165255
0.673274 0.639582 0.168551
0.708522 0.641077 0.173892
0.740902 0.640162 0.178622
0.769741 0.636439 0.182040
0.798276 0.632990 0.186191
0.826413 0.629633 0.191073
0.854124 0.626520 0.196170
0.881285 0.623590 0.202640
0.908080 0.620874 0.209506
0.934478 0.618647 0.217929
0.960662 0.616938 0.227451
0.987121 0.616419 0.239414
1.000000 0.618616 0.257816
0.148348 0.669215 0.147555
0.153841 0.669276 0.147829
0.161440 0.669245 0.147799
0.176425 0.669398 0.148165
0.197116 0.669490 0.149081
0.221988 0.669612 0.149691
0.249180 0.669825 0.150637
0.278447 0.669978 0.151705
0.308965 0.670283 0.152773
0.340368 0.670649 0.154055
0.372442 0.671015 0.155489
0.405097 0.671351 0.157626
0.438239 0.671839 0.159487
0.471687 0.672297 0.161624
0.505211 0.672786 0.164065
0.539055 0.673274 0.166476
0.573114 0.673945 0.168734
0.607172 0.674495 0.171969
0.641413 0.675074 0.174746
0.675685 0.675654 0.178164
0.709987 0.676356 0.181643
0.744594 0.677363 0.187198
0.776913 0.676570 0.194064
0.804776 0.672053 0.197757
0.832181 0.667842 0.202976
0.859129 0.663722 0.208103
0.885557 0.659907 0.214664
0.911681 0.656489 0.221897
0.937438 0.653559 0.230076
0.962982 0.651179 0.239231
0.988373 0.649439 0.250034
1.000000 0.648646 0.263096
0.158938 0.706264 0.158572
0.164248 0.706264 0.158694
0.171176 0.706355 0.158755
0.185428 0.706416 0.159121
0.204959 0.706447 0.159976
0.229068 0.706569 0.160555
0.255528 0.706752 0.161410
0.283879 0.706874 0.162417
0.313939 0.707088 0.163546
0.345006 0.707301 0.165042
0.376776 0.707607 0.166110
0.409125 0.707942 0.168063
0.441932 0.708278 0.169711
0.474983 0.708614 0.172396
0.508263 0.708980 0.174716
0.541894 0.709346 0.177218
0.575616 0.709743 0.180148
0.609613 0.710231 0.182681
0.643549 0.710658 0.185794
0.677485 0.711086 0.189731
0.711421 0.711574 0.192721
0.745510 0.711971 0.196658
0.779416 0.712459 0.202243
0.811307 0.711391 0.210788
0.837919 0.706081 0.215763
0.864134 0.701106 0.220951
0.889830 0.696468 0.227665
0.915221 0.692256 0.234653
0.940337 0.688441 0.242863
0.965270 0.685420 0.252323
0.990051 0.683009 0.263249
1.000000 0.681605 0.276249
0.170535 0.742428 0.170382
0.175418 0.742397 0.170626
0.181765 0.742428 0.170596
0.195193 0.742519 0.171023
0.213962 0.742550 0.171572
0.236942 0.742641 0.172335
0.262730 0.742733 0.173159
0.290440 0.742794 0.173861
0.319677 0.743008 0.175021
0.349950 0.743130 0.176822
0.381231 0.743343 0.178195
0.413245 0.743496 0.180056
0.445563 0.743740 0.181888
0.478248 0.743984 0.183902
0.511254 0.744198 0.186465
0.544518 0.744442 0.189303
0.577844 0.744656 0.191836
0.611444 0.744900 0.195102
0.645014 0.745174 0.198367
0.678676 0.745418 0.201450
0.712306 0.745693 0.205509
0.745846 0.745907 0.209079
0.779446 0.746120 0.213230
0.812619 0.746120 0.219028
0.843595 0.744656 0.229679
0.869017 0.738674 0.235111
0.894041 0.733089 0.241459
0.918730 0.727993 0.248692
0.943206 0.723476 0.256870
0.967498 0.719631 0.266453
0.991669 0.716579 0.277653
1.000000 0.714534 0.290593
0.183597 0.777310 0.183719
0.188235 0.777340 0.183810
0.193759 0.777371 0.183993
0.206699 0.777310 0.183871
0.224155 0.777401 0.184573
0.245853 0.777462 0.185061
0.270542 0.777462 0.186099
0.297185 0.777523 0.187320
0.325811 0.777646 0.188296
0.355291 0.777707 0.189883
0.386023 0.777768 0.191440
0.417304 0.777829 0.193301
0.449134 0.777951 0.195163
0.481453 0.778042 0.197696
0.514031 0.778134 0.199802
0.546746 0.778225 0.202518
0.579675 0.778286 0.205356
0.612757 0.778347 0.208652
0.645960 0.778439 0.211978
0.679133 0.778470 0.215152
0.712337 0.778470 0.219425
0.745388 0.778470 0.223392
0.778439 0.778500 0.227726
0.811368 0.778439 0.231998
0.843839 0.778103 0.237888
0.873533 0.775906 0.249882
0.898100 0.769650 0.256931
0.922148 0.763729 0.264134
0.945953 0.758358 0.272099
0.969635 0.753719 0.281621
0.993164 0.749966 0.292882
1.000000 0.747250 0.305730
0.198550 0.810697 0.197940
0.202365 0.810727 0.198245
0.207797 0.810666 0.198245
0.218875 0.810666 0.198978
0.235721 0.810666 0.199100
0.255924 0.810697 0.200015
0.279515 0.810666 0.200748
0.305150 0.810697 0.201480
0.332586 0.810666 0.202945
0.361395 0.810636 0.204532
0.391211 0.810605 0.206332
0.421729 0.810636 0.208072
0.452949 0.810575 0.209842
0.484596 0.810513 0.212284
0.516533 0.810483 0.214481
0.548730 0.810391 0.217533
0.581140 0.810300 0.220554
0.613672 0.810178 0.223972
0.646357 0.810056 0.227054
0.678981 0.809903 0.230625
0.711635 0.809751 0.234653
0.744137 0.809537 0.239078
0.776669 0.809323 0.243565
0.809079 0.809049 0.248081
0.841245 0.808835 0.253117
0.873167 0.808377 0.258549
0.901244 0.805234 0.272099
0.925414 0.799191 0.280552
0.948547 0.793057 0.288762
0.971618 0.787686 0.298009
0.994537 0.783230 0.308965
1.000000 0.779812 0.322393
0.214542 0.842191 0.214237
0.217929 0.842191 0.214359
0.223148 0.842191 0.214115
0.233249 0.842161 0.215000
0.248722 0.842130 0.215427
0.267552 0.842100 0.216098
0.289616 0.842039 0.216892
0.314031 0.841978 0.217990
0.340490 0.841886 0.219089
0.368261 0.841764 0.220676
0.396979 0.841703 0.222263
0.426795 0.841550 0.224491
0.457160 0.841398 0.226535
0.487953 0.841215 0.228672
0.519219 0.841062 0.231479
0.550713 0.840848 0.234165
0.582483 0.840604 0.237369
0.614343 0.840360 0.240421
0.646387 0.840055 0.244053
0.678492 0.839750 0.247837
0.710414 0.839445 0.251926
0.742428 0.839078 0.256260
0.774380 0.838682 0.260502
0.806180 0.838254 0.265263
0.837858 0.837858 0.270634
0.869291 0.837430 0.275547
0.900603 0.836973 0.281346
0.927398 0.833280 0.295781
0.951049 0.827481 0.306249
0.973419 0.821317 0.315892
0.995758 0.816098 0.326604
1.000000 0.812009 0.340093
0.232212 0.871855 0.231724
0.235569 0.871855 0.232181
0.239933 0.871824 0.232517
0.249393 0.871794 0.232517
0.263127 0.871702 0.233219
0.280827 0.871641 0.233921
0.301335 0.871580 0.234653
0.324498 0.871427 0.235508
0.349462 0.871275 0.236912
0.375860 0.871153 0.238407
0.403693 0.870939 0.240513
0.432441 0.870726 0.242252
0.461769 0.870542 0.244175
0.491920 0.870268 0.246677
0.522148 0.869993 0.249638
0.553002 0.869657 0.252445
0.584039 0.869322 0.255589
0.615259 0.868956 0.258885
0.646540 0.868559 0.262425
0.677882 0.868132 0.266178
0.709285 0.867674 0.270329
0.740658 0.867185 0.274784
0.771908 0.866728 0.279301
0.803098 0.866178 0.284398
0.834165 0.865660 0.289189
0.864988 0.865080 0.295079
0.895689 0.864469 0.300725
0.926146 0.863890 0.306767
0.952026 0.860014 0.321630
0.975097 0.854520 0.334661
0.996796 0.848600 0.345647
1.000000 0.843778 0.358953
0.251499 0.899779 0.251133
0.254459 0.899748 0.251530
0.258427 0.899718 0.251438
0.266850 0.899718 0.251865
0.279515 0.899596 0.252415
0.295659 0.899535 0.253086
0.314702 0.899382 0.254185
0.336370 0.899229 0.255375
0.359991 0.899046 0.256779
0.385138 0.898863 0.258091
0.411566 0.898619 0.259648
0.439155 0.898375 0.261997
0.467506 0.898070 0.263890
0.496529 0.897734 0.266300
0.525902 0.897398 0.269230
0.555840 0.897002 0.272068
0.586084 0.896574 0.275090
0.616449 0.896117 0.278752
0.647059 0.895628 0.282292
0.677668 0.895109 0.286320
0.708278 0.894591 0.290471
0.739010 0.894011 0.294835
0.769589 0.893400 0.299626
0.800107 0.892790 0.304875
0.830503 0.892149 0.310033
0.860716 0.891508 0.315587
0.890776 0.890837 0.321691
0.920623 0.890135 0.327916
0.950195 0.889464 0.334264
0.975219 0.885618 0.349798
0.997650 0.880491 0.365820
1.000000 0.874937 0.379095
0.272404 0.926177 0.272007
0.275090 0.926146 0.272465
0.278660 0.926116 0.272679
0.286076 0.926085 0.272770
0.297612 0.925994 0.273350
0.312444 0.925872 0.274144
0.329870 0.925750 0.275273
0.349859 0.925566 0.276097
0.371984 0.925353 0.277470
0.395850 0.925109 0.279210
0.420996 0.924804 0.281102
0.447242 0.924529 0.282994
0.474372 0.924163 0.285191
0.502281 0.923796 0.287785
0.530755 0.923369 0.290593
0.559686 0.922942 0.293706
0.588891 0.922484 0.296727
0.618433 0.921935 0.300023
0.648096 0.921386 0.303929
0.678004 0.920806 0.307866
0.707881 0.920195 0.312383
0.737789 0.919554 0.316899
