lut_library_archive/removed_20260629/抖音热门推荐/抖音热门推荐05.cube
# 版权归凌孟成所有，侵权必究
# Created by Adobe Lightroom plugin Export LUT (1.24.0)
# www.johnrellis.com/lightroom/exportlut.htm
# Preset: INS风格-缇米设计05
# Color profile: C:\Program Files (x86)\Common Files\Adobe\Color\Profiles\Recommended\VideoHD.icc
LUT_3D_SIZE 8
DOMAIN_MIN 0.000000 0.000000 0.000000
DOMAIN_MAX 0.903226 0.903226 0.903226
0.028687 0.035340 0.052186
0.083986 0.047486 0.059541
0.179019 0.075898 0.076692
0.376532 0.009796 0.069734
0.625452 0.000000 0.026398
0.823178 0.084901 0.000000
0.920317 0.285191 0.000000
0.973175 0.405554 0.108125
0.038544 0.082185 0.083772
0.069459 0.083284 0.089845
0.171084 0.102144 0.082124
0.348638 0.102052 0.075349
0.591821 0.000000 0.037385
0.789853 0.120638 0.000000
0.897063 0.272007 0.000000
0.959960 0.393957 0.082033
0.000000 0.189212 0.126467
0.033783 0.186130 0.134554
0.162844 0.190951 0.154421
0.370214 0.228824 0.107088
0.606439 0.234073 0.038819
0.788510 0.289738 0.000000
0.898009 0.388281 0.010040
0.957916 0.470680 0.145266
0.000000 0.417700 0.225376
0.000000 0.411414 0.232242
0.248234 0.406806 0.266911
0.448096 0.447608 0.322057
0.659388 0.490425 0.251438
0.777371 0.463172 0.071260
0.873014 0.501061 0.118807
0.936065 0.544823 0.192813
0.199557 0.632685 0.387213
0.264988 0.629114 0.392004
0.418738 0.620508 0.417975
0.552026 0.620356 0.458808
0.645533 0.626673 0.493965
0.746273 0.636530 0.434333
0.832364 0.615412 0.300847
0.903319 0.614466 0.235172
0.485328 0.743252 0.544335
0.513451 0.746883 0.556847
0.566369 0.742031 0.569665
0.636042 0.734676 0.594629
0.692409 0.733333 0.614679
0.741115 0.737758 0.641291
0.798062 0.745876 0.621088
0.868711 0.736843 0.535363
0.633600 0.811307 0.676204
0.640986 0.811612 0.679500
0.661555 0.808591 0.684565
0.695766 0.804410 0.696529
0.730404 0.799252 0.709957
0.763272 0.801114 0.723140
0.795193 0.805814 0.740108
0.837583 0.816190 0.737911
0.715877 0.874388 0.771328
0.718807 0.874052 0.772061
0.731594 0.873259 0.776181
0.755032 0.872404 0.785092
0.772366 0.861845 0.783566
0.802335 0.863493 0.797574
0.831357 0.867765 0.811093
0.856626 0.871031 0.823117
0.024598 0.050782 0.093233
0.083650 0.050141 0.096773
0.174136 0.071229 0.100404
0.353796 0.053986 0.108339
0.599329 0.000000 0.104372
0.786618 0.054627 0.093751
0.891020 0.248264 0.090455
0.954009 0.372107 0.125795
0.027680 0.089509 0.101350
0.079377 0.092561 0.105287
0.174990 0.106386 0.108980
0.351690 0.112337 0.111482
0.590356 0.044495 0.105867
0.774990 0.134798 0.095338
0.878447 0.257176 0.087892
0.944854 0.370062 0.117098
0.000000 0.195621 0.149783
0.031067 0.195895 0.155428
0.168521 0.200046 0.176791
0.367926 0.230014 0.132906
0.590631 0.234379 0.114168
0.763882 0.274693 0.103212
0.871244 0.352178 0.103243
0.940215 0.439094 0.147158
0.000000 0.402838 0.235386
0.000000 0.398871 0.242191
0.243565 0.394873 0.276188
0.404700 0.412390 0.310918
0.609155 0.442969 0.239292
0.740078 0.422858 0.119722
0.846250 0.463081 0.129549
0.918822 0.514122 0.178714
0.179141 0.626093 0.391974
0.246677 0.621088 0.394690
0.401648 0.609094 0.414984
0.530846 0.601648 0.447669
0.621851 0.603082 0.475410
0.728969 0.615503 0.416388
0.820157 0.597223 0.288243
0.893278 0.599145 0.230747
0.465431 0.734920 0.535363
0.483558 0.733944 0.539055
0.543633 0.729427 0.553002
0.621149 0.723384 0.580499
0.682765 0.723568 0.603906
0.735622 0.731136 0.634730
0.793606 0.738857 0.611994
0.863432 0.727565 0.521721
0.619715 0.804318 0.664973
0.623713 0.802548 0.664302
0.645808 0.799222 0.669337
0.684108 0.795682 0.683467
0.723690 0.792630 0.701778
0.757321 0.794553 0.715450
0.788083 0.797665 0.730617
0.830076 0.806943 0.725704
0.706905 0.869139 0.763394
0.711421 0.869780 0.765743
0.724239 0.868742 0.769558
0.748348 0.868009 0.778775
0.777554 0.866239 0.790738
0.803983 0.864927 0.800534
0.830350 0.866880 0.810544
0.855467 0.869902 0.822171
0.000000 0.089143 0.169406
0.000000 0.077272 0.180667
0.202304 0.044099 0.206546
0.444678 0.000000 0.205539
0.665003 0.000000 0.219608
0.820462 0.211460 0.235691
0.903166 0.332586 0.247379
0.956390 0.429328 0.272374
0.000000 0.122377 0.181460
0.000000 0.115816 0.192599
0.211826 0.108248 0.216159
0.432013 0.102663 0.212833
0.653529 0.133791 0.224094
0.806302 0.235233 0.234562
0.892912 0.334783 0.240543
0.949371 0.427527 0.263828
0.000000 0.226902 0.236667
0.000000 0.233524 0.241276
0.211429 0.252201 0.259586
0.434730 0.267979 0.245731
0.656336 0.293156 0.245945
0.794705 0.341741 0.245182
0.881102 0.406104 0.251408
0.939666 0.474037 0.276829
0.000000 0.450721 0.325261
0.000000 0.455421 0.331762
0.299718 0.457343 0.359350
0.466896 0.465461 0.398138
0.645258 0.477699 0.319066
0.767361 0.471351 0.264469
0.858000 0.503746 0.273472
0.921263 0.543725 0.301640
0.227146 0.641535 0.455055
0.293706 0.640223 0.459785
0.437995 0.633845 0.476112
0.565972 0.626429 0.510643
0.646509 0.631037 0.535851
0.739132 0.632746 0.468879
0.822965 0.605219 0.344762
0.894163 0.614710 0.327916
0.486854 0.740139 0.572564
0.507744 0.740047 0.577783
0.556054 0.735988 0.584466
0.629053 0.728786 0.605859
0.687404 0.726986 0.627436
0.736294 0.734463 0.654719
0.792691 0.741115 0.628077
0.863127 0.729335 0.542077
0.632197 0.809415 0.687465
0.633539 0.808225 0.685237
0.653407 0.804135 0.687892
0.688808 0.799619 0.698207
0.727382 0.795163 0.714534
0.760433 0.798001 0.727779
0.792264 0.803494 0.744350
0.835111 0.813565 0.738674
0.705928 0.871336 0.769741
0.708400 0.870512 0.769711
0.721431 0.869322 0.773159
0.747982 0.869688 0.783871
0.777737 0.867735 0.795163
0.806363 0.867216 0.807004
0.833097 0.869657 0.817258
0.857939 0.872709 0.828397
0.000000 0.121584 0.314061
0.000000 0.110475 0.329717
0.107912 0.099245 0.375097
0.486915 0.000000 0.408362
0.742885 0.000000 0.399542
0.846677 0.244419 0.392432
0.898131 0.392309 0.408087
0.942687 0.472358 0.419471
0.000000 0.172213 0.336950
0.000000 0.161105 0.347753
0.129732 0.144411 0.389075
0.504875 0.044678 0.421271
0.743740 0.112856 0.410040
0.839597 0.296086 0.403204
0.893278 0.407752 0.409979
0.939483 0.480629 0.420111
0.000000 0.285740 0.358953
0.000000 0.292027 0.363287
0.165225 0.291295 0.404913
0.524224 0.291691 0.442176
0.721004 0.352544 0.435554
0.818235 0.434150 0.441321
0.884215 0.491432 0.444312
0.933623 0.533532 0.446723
0.000000 0.484413 0.460761
0.000000 0.487282 0.462867
0.258946 0.499550 0.474128
0.527184 0.521080 0.502281
0.676600 0.517388 0.462531
0.780911 0.529015 0.448737
0.855924 0.549584 0.442390
0.914397 0.578332 0.448310
0.140139 0.673823 0.555779
0.245762 0.671443 0.555047
0.441932 0.667140 0.561120
0.602930 0.663783 0.589593
0.674617 0.666316 0.612879
0.752041 0.653620 0.539452
0.827909 0.627161 0.457984
0.892363 0.641932 0.465583
0.497841 0.756802 0.630457
0.525017 0.759518 0.638544
0.582971 0.755703 0.646754
0.655268 0.750790 0.663844
0.708186 0.746181 0.682277
0.744991 0.749233 0.697017
0.795254 0.749081 0.659480
0.864561 0.730526 0.570550
0.625452 0.815732 0.708553
0.633906 0.815732 0.711055
0.663172 0.814664 0.719448
0.698970 0.812192 0.728267
0.737423 0.807645 0.740932
0.768734 0.807645 0.751766
0.797726 0.811307 0.764065
0.839902 0.818906 0.751827
0.703609 0.877928 0.784390
0.707759 0.877623 0.785489
0.725277 0.876707 0.790768
0.747982 0.875364 0.795834
0.779080 0.872709 0.805509
0.809506 0.870756 0.817350
0.836606 0.873411 0.827268
0.862272 0.877592 0.839078
0.000000 0.185061 0.493294
0.000000 0.176028 0.504875
0.000000 0.159640 0.537560
0.459602 0.074891 0.594720
0.751858 0.000000 0.610773
0.873838 0.271397 0.585779
0.906889 0.428534 0.557122
0.928527 0.550256 0.582238
0.000000 0.235813 0.506645
0.000000 0.227390 0.517510
0.000000 0.200443 0.548150
0.473243 0.165866 0.600061
0.752010 0.181582 0.614252
0.867613 0.320256 0.588067
0.901122 0.451728 0.561852
0.922454 0.565942 0.590143
0.000000 0.369024 0.514916
0.000000 0.371954 0.524224
0.000000 0.353491 0.557641
0.487037 0.340032 0.604883
0.735866 0.368353 0.614954
0.836149 0.437354 0.585779
0.877684 0.518425 0.573632
0.911284 0.583215 0.586694
0.000000 0.509575 0.553063
0.000000 0.512413 0.554864
0.263310 0.526390 0.564874
0.507286 0.538811 0.608515
0.715694 0.558556 0.632319
0.794949 0.585473 0.611719
0.844724 0.612055 0.605921
0.899443 0.622614 0.591089
0.090974 0.659449 0.625696
0.212497 0.660914 0.627832
0.397375 0.665217 0.634943
0.568261 0.674220 0.648005
0.683742 0.681361 0.662989
0.755886 0.663264 0.618433
0.821561 0.659144 0.598657
0.883024 0.664027 0.585626
0.408453 0.757870 0.676326
0.433417 0.757321 0.676722
0.510124 0.752590 0.675044
0.614649 0.747585 0.680171
0.701625 0.744930 0.700740
0.744778 0.752682 0.722225
0.795193 0.744259 0.673243
0.864317 0.718715 0.591302
0.586877 0.819821 0.729885
0.593500 0.818631 0.729335
0.622889 0.815885 0.730587
0.677913 0.814725 0.741176
0.731289 0.812589 0.755001
0.768978 0.809812 0.767453
0.797452 0.812802 0.777554
0.838804 0.813901 0.751675
0.656580 0.877104 0.781643
0.661982 0.876677 0.782345
0.684199 0.875364 0.786252
0.727565 0.876524 0.799771
0.768307 0.874815 0.810605
0.805570 0.871794 0.822995
0.834745 0.873045 0.833097
0.860441 0.876493 0.843320
0.000000 0.281834 0.649470
0.000000 0.274540 0.655634
0.000000 0.238499 0.674830
0.371435 0.245853 0.711452
0.730709 0.248753 0.746578
0.857755 0.360967 0.735409
0.915496 0.480232 0.707179
0.938811 0.577722 0.689387
0.000000 0.315404 0.642573
0.000000 0.307347 0.647181
0.000000 0.267521 0.667079
0.362005 0.270848 0.699458
0.719265 0.277562 0.737057
0.849027 0.376837 0.728176
0.908537 0.487098 0.701656
0.933806 0.579156 0.685298
0.000000 0.458503 0.654292
0.000000 0.455329 0.658503
0.000000 0.427405 0.676692
0.405371 0.397833 0.701900
0.710872 0.428046 0.737209
0.831296 0.488533 0.729641
0.888823 0.559411 0.707088
0.919707 0.621210 0.695857
0.000000 0.568078 0.645197
0.000000 0.569146 0.647028
0.322332 0.580285 0.667781
0.502525 0.581292 0.707301
0.694972 0.598596 0.742794
0.806760 0.626429 0.741756
0.860472 0.657130 0.725338
0.900450 0.684169 0.718685
0.238499 0.662104 0.682765
0.282902 0.662562 0.683467
0.406836 0.666285 0.687343
0.548180 0.675898 0.696345
0.670497 0.689204 0.726864
0.776547 0.705104 0.740505
0.826993 0.712764 0.727504
0.875303 0.722072 0.722499
0.426123 0.751339 0.727535
0.449744 0.753079 0.730129
0.511864 0.753780 0.732662
0.601099 0.756252 0.738338
0.689052 0.761318 0.746792
0.755825 0.769406 0.760372
0.804929 0.753658 0.726009
0.865812 0.749660 0.709377
0.554284 0.830167 0.779202
0.564477 0.831144 0.780941
0.596796 0.831052 0.782315
0.651453 0.828794 0.782223
0.713954 0.826627 0.784268
0.774716 0.823392 0.795315
0.806241 0.824552 0.805142
0.848081 0.814237 0.761654
0.620417 0.884489 0.809293
0.624292 0.883757 0.808621
0.644282 0.882414 0.808530
0.683589 0.881651 0.811429
0.738582 0.879667 0.818296
0.796963 0.877287 0.832486
0.835660 0.876219 0.845426
0.862455 0.879454 0.854734
0.000000 0.380591 0.746883
0.000000 0.376440 0.751247
0.000000 0.342473 0.761318
0.276097 0.336767 0.778408
0.632105 0.360693 0.797879
0.813657 0.428077 0.812314
0.894041 0.510826 0.800229
0.937285 0.587121 0.778042
0.000000 0.399908 0.738155
0.000000 0.396765 0.743130
0.000000 0.365270 0.753750
0.264805 0.349371 0.770260
0.620966 0.369909 0.789792
0.805173 0.427375 0.804074
0.886931 0.502007 0.791073
0.931518 0.574578 0.767971
0.000000 0.507500 0.739132
0.000000 0.503075 0.741512
0.000000 0.479133 0.750515
0.323491 0.441382 0.768154
0.618616 0.465705 0.785763
0.793790 0.513207 0.802976
0.874784 0.571191 0.794644
0.923033 0.630243 0.780087
0.000000 0.606165 0.732357
0.133028 0.605402 0.733700
0.337194 0.606958 0.742885
0.458778 0.590478 0.761959
0.620996 0.587976 0.783139
0.780270 0.626886 0.806577
0.856626 0.659358 0.801297
0.908934 0.689357 0.790738
0.230961 0.670344 0.729183
0.258946 0.668818 0.727718
0.361089 0.668238 0.726955
0.501152 0.674800 0.739040
0.627375 0.679805 0.768917
0.752956 0.698939 0.797971
0.835477 0.716457 0.799893
0.892760 0.735836 0.795193
0.395331 0.741543 0.758511
0.412146 0.741909 0.759060
0.469978 0.742611 0.760403
0.556298 0.744869 0.763363
0.648341 0.749844 0.767941
0.736233 0.764462 0.796780
0.827573 0.780392 0.814145
0.877501 0.783139 0.803281
0.524468 0.813107 0.798245
0.534936 0.813870 0.799344
0.567346 0.814206 0.800687
0.621027 0.815915 0.804227
0.682094 0.819120 0.809506
0.750240 0.825834 0.818418
0.812711 0.833463 0.830289
0.858518 0.812650 0.793179
0.585901 0.884062 0.841489
0.591180 0.884459 0.842069
0.614221 0.886748 0.845365
0.651301 0.889097 0.849149
0.704707 0.889250 0.850706
0.770016 0.887114 0.851926
0.836118 0.884520 0.862821
0.868101 0.886137 0.872679
0.000000 0.486519 0.815885
0.000000 0.482826 0.818082
0.000000 0.456306 0.822599
0.252110 0.429786 0.833707
0.569543 0.453407 0.845060
0.753567 0.496498 0.858976
0.864500 0.559655 0.865476
0.929259 0.617456 0.856229
0.000000 0.497292 0.810422
0.000000 0.494270 0.812741
0.000000 0.471046 0.818357
0.245243 0.438392 0.829526
0.563470 0.460853 0.841123
0.748623 0.502037 0.855436
0.860380 0.560204 0.861906
0.925597 0.615045 0.852506
0.000000 0.559136 0.803769
0.000000 0.555840 0.805447
0.000000 0.537774 0.810544
0.313817 0.506126 0.825315
0.563653 0.517113 0.836728
0.737850 0.549615 0.850584
0.851194 0.598199 0.859464
0.917388 0.642969 0.851682
0.171695 0.630671 0.793301
0.232242 0.631861 0.795285
0.339818 0.628351 0.800900
0.428748 0.609308 0.813657
0.562707 0.593286 0.830076
0.723964 0.622766 0.846159
0.839261 0.661036 0.859556
0.907103 0.690425 0.854551
0.097871 0.680537 0.776822
0.179995 0.681270 0.778958
0.307134 0.679652 0.783963
0.473976 0.684749 0.797086
0.581140 0.676783 0.816159
0.701137 0.683040 0.837278
0.825101 0.714931 0.859159
0.897642 0.736385 0.858671
0.293889 0.739773 0.792721
0.306218 0.738491 0.791684
0.360967 0.735164 0.789334
0.453407 0.732357 0.787808
0.568536 0.734432 0.794095
0.691493 0.748501 0.829892
0.810147 0.773800 0.864622
0.892668 0.791806 0.869902
0.448371 0.808347 0.826627
0.456489 0.808011 0.826444
0.490028 0.806882 0.825956
0.550103 0.806638 0.826780
0.622004 0.807401 0.828794
0.696529 0.810819 0.833555
0.784451 0.821622 0.858122
0.881254 0.838773 0.875120
0.551873 0.873991 0.862608
0.556268 0.873747 0.862455
0.576440 0.873655 0.862913
0.614496 0.874723 0.865019
0.665919 0.876158 0.867857
0.729397 0.878599 0.872190
0.805661 0.883909 0.880095
0.872374 0.891814 0.891844
