lut_library_archive/removed_20260629/抖音热门推荐/抖音热门推荐06.cube
# 版权归凌孟成所有，侵权必究
# Created by Adobe Lightroom plugin Export LUT (1.24.0)
# www.johnrellis.com/lightroom/exportlut.htm
# Preset: INS风格-缇米设计06
# Color profile: C:\Program Files (x86)\Common Files\Adobe\Color\Profiles\Recommended\VideoHD.icc
LUT_3D_SIZE 5
DOMAIN_MIN 0.000000 0.000000 0.000000
DOMAIN_MAX 0.903226 0.903226 0.903226
0.194888 0.137697 0.111269
0.361913 0.143374 0.115724
0.855650 0.109834 0.102724
1.000000 0.431769 0.304906
1.000000 0.658747 0.597314
0.205020 0.240360 0.132235
0.328893 0.281407 0.134951
0.752987 0.335149 0.014221
1.000000 0.491035 0.280674
1.000000 0.683619 0.601678
0.000000 0.534081 0.257267
0.242741 0.480659 0.235752
0.737423 0.696895 0.466835
0.916716 0.616449 0.173587
1.000000 0.735775 0.565759
0.311009 0.773404 0.529503
0.349371 0.756313 0.512627
0.467323 0.702846 0.472908
0.878325 0.864042 0.758572
0.983978 0.857633 0.726314
0.686641 0.919921 0.798215
0.695247 0.917113 0.796963
0.713375 0.899138 0.782132
0.821164 0.909911 0.823972
0.953307 0.947784 0.903166
0.202396 0.168948 0.164340
0.366033 0.134157 0.212009
0.877317 0.142031 0.278202
1.000000 0.505425 0.473762
1.000000 0.684932 0.655604
0.177127 0.316228 0.205386
0.378027 0.332769 0.236790
0.808286 0.399695 0.280735
1.000000 0.540581 0.444556
1.000000 0.699702 0.650477
0.206973 0.611963 0.382269
0.329259 0.567468 0.352789
0.729061 0.694209 0.526604
0.907805 0.618097 0.291905
1.000000 0.750698 0.626825
0.419471 0.793942 0.593866
0.441566 0.778866 0.577447
0.499794 0.700496 0.510735
0.877897 0.865721 0.775143
0.980621 0.857206 0.734951
0.701564 0.922637 0.809903
0.708461 0.919707 0.807858
0.738491 0.908171 0.803983
0.826688 0.912505 0.833188
0.954772 0.949798 0.909117
0.000000 0.315099 0.519615
0.208194 0.246342 0.583978
0.858762 0.193423 0.691829
1.000000 0.549889 0.701320
1.000000 0.754116 0.789151
0.257389 0.508537 0.557305
0.386450 0.489082 0.609430
0.841215 0.456703 0.697627
0.993988 0.644709 0.721920
1.000000 0.789609 0.808865
0.117281 0.761410 0.675319
0.445197 0.764126 0.690181
0.768490 0.756069 0.727443
0.919005 0.754604 0.713466
1.000000 0.816342 0.794553
0.542321 0.858305 0.735134
0.597864 0.848569 0.736995
0.685603 0.804349 0.715633
0.881651 0.875914 0.827787
0.972900 0.850767 0.751644
0.715724 0.934569 0.838315
0.741756 0.931792 0.843717
0.774166 0.920684 0.839811
0.817014 0.905669 0.836728
0.953979 0.950072 0.916869
0.000000 0.558282 0.820554
0.236515 0.516686 0.835477
0.717952 0.455848 0.871885
0.993530 0.583856 0.882689
1.000000 0.757839 0.868589
0.449012 0.677485 0.818265
0.491585 0.656367 0.829679
0.722927 0.589776 0.864927
0.972656 0.656336 0.877806
1.000000 0.783078 0.871305
0.585016 0.799832 0.826413
0.645991 0.801694 0.827665
0.776883 0.806760 0.849760
0.922942 0.798459 0.869963
0.992248 0.854032 0.887266
0.634150 0.906065 0.863645
0.675074 0.904570 0.865782
0.791440 0.903380 0.877043
0.895995 0.896391 0.888579
0.969879 0.895628 0.884642
0.692866 0.961456 0.880644
0.717983 0.959106 0.882994
0.794797 0.950317 0.890959
0.862913 0.930022 0.891173
0.955718 0.953826 0.934264
0.549432 0.741909 0.923583
0.565820 0.726558 0.927245
0.681117 0.682429 0.941070
0.910796 0.672175 0.954803
1.000000 0.773159 0.949920
0.619684 0.783108 0.917235
0.630213 0.771786 0.920897
0.697475 0.724453 0.935424
0.900999 0.710811 0.949798
1.000000 0.790402 0.947753
0.698848 0.853696 0.906828
0.720211 0.852811 0.909300
0.782193 0.843931 0.921660
0.879393 0.813657 0.939239
0.992126 0.850614 0.946624
0.697566 0.907866 0.921721
0.720699 0.906676 0.921324
0.804257 0.906828 0.922972
0.893187 0.911955 0.936278
0.973266 0.915740 0.951110
0.709743 0.969696 0.935698
0.732387 0.968383 0.936522
0.810300 0.965087 0.941527
0.895964 0.962066 0.949248
0.958526 0.959472 0.957427
