lut_library_archive/removed_20260629/抖音热门推荐/抖音热门推荐03.cube
# 版权归凌孟成所有，侵权必究
# Created by Adobe Lightroom plugin Export LUT (1.24.0)
# www.johnrellis.com/lightroom/exportlut.htm
# Preset: INS风格-缇米设计03
# Color profile: C:\Program Files (x86)\Common Files\Adobe\Color\Profiles\Recommended\VideoHD.icc
LUT_3D_SIZE 32
DOMAIN_MIN 0.0 0.0 0.0
DOMAIN_MAX 1.0 1.0 1.0
0.123201 0.104616 0.101534
0.123201 0.104616 0.101534
0.129824 0.104341 0.101778
0.161440 0.101656 0.101839
0.207187 0.102937 0.103944
0.269139 0.101595 0.108156
0.335149 0.095216 0.111025
0.399695 0.079744 0.113527
0.461372 0.041688 0.115511
0.520531 0.005493 0.117708
0.577874 0.000000 0.119539
0.631281 0.000000 0.121340
0.679500 0.017578 0.123445
0.720516 0.100618 0.125734
0.755398 0.146944 0.128573
0.786007 0.189303 0.131991
0.824247 0.240787 0.138552
0.859983 0.289342 0.148714
0.887663 0.332341 0.162051
0.907439 0.373327 0.180026
0.922118 0.410285 0.202304
0.934234 0.442267 0.227787
0.945403 0.468727 0.255680
0.955993 0.492012 0.285832
0.965240 0.513115 0.317723
0.972778 0.533349 0.351476
0.978302 0.553918 0.387182
0.981903 0.575555 0.424720
0.983673 0.598535 0.463081
0.983948 0.622644 0.502190
0.982910 0.646784 0.542290
0.981140 0.668666 0.582696
0.123201 0.104616 0.101534
0.123201 0.104616 0.101534
0.131136 0.104128 0.101778
0.161837 0.103365 0.101595
0.206577 0.105531 0.103975
0.266423 0.105196 0.107881
0.330632 0.099611 0.110964
0.393622 0.088930 0.113313
0.454627 0.060151 0.115114
0.513176 0.025177 0.117281
0.569787 0.000000 0.119387
0.623224 0.000000 0.120943
0.671962 0.027314 0.123049
0.713893 0.099672 0.125185
0.749386 0.143343 0.127932
0.780636 0.185763 0.131289
0.817960 0.235691 0.137270
0.853086 0.281956 0.146395
0.881315 0.323735 0.158572
0.902190 0.363378 0.174868
0.917418 0.399908 0.194766
0.929656 0.432013 0.218235
0.940581 0.458839 0.244022
0.951232 0.482551 0.272160
0.960998 0.503929 0.302464
0.969451 0.524193 0.335119
0.976104 0.544640 0.370428
0.980682 0.566217 0.408240
0.983246 0.589441 0.447639
0.984161 0.613947 0.487709
0.983490 0.639063 0.528862
0.981903 0.662440 0.570245
0.123354 0.108248 0.102815
0.123415 0.108888 0.103090
0.129427 0.108675 0.104036
0.163333 0.114137 0.100649
0.207706 0.116884 0.104311
0.265110 0.118227 0.107790
0.327092 0.114809 0.110567
0.388312 0.107698 0.112734
0.447822 0.098573 0.114626
0.505547 0.087068 0.116609
0.561883 0.066316 0.118410
0.615351 0.060487 0.120119
0.664332 0.087495 0.121920
0.706935 0.116823 0.123995
0.743160 0.153048 0.126680
0.774838 0.191287 0.130129
0.811978 0.238743 0.135683
0.846403 0.282170 0.144137
0.875120 0.321935 0.155306
0.897307 0.360327 0.170626
0.913542 0.396307 0.189853
0.926146 0.428534 0.212314
0.937224 0.455512 0.237491
0.948058 0.479194 0.264927
0.958099 0.500420 0.294499
0.967071 0.520562 0.326452
0.974273 0.540978 0.361578
0.979492 0.562341 0.399237
0.982635 0.585412 0.438941
0.983886 0.610040 0.479713
0.983551 0.635279 0.521324
0.982086 0.659174 0.563134
0.130892 0.122896 0.108919
0.132998 0.122621 0.109560
0.141329 0.122316 0.111299
0.156802 0.127199 0.115663
0.209506 0.137972 0.108644
0.264897 0.140688 0.107485
0.323735 0.139925 0.109590
0.381964 0.136202 0.111574
0.440284 0.131258 0.113283
0.496773 0.125490 0.115145
0.552239 0.121096 0.116732
0.605127 0.120119 0.118471
0.654536 0.128145 0.120089
0.697719 0.146334 0.122194
0.734493 0.173159 0.124514
0.766598 0.205264 0.127871
0.803372 0.247776 0.132967
0.835843 0.285985 0.140291
0.864378 0.321508 0.150301
0.887724 0.356268 0.163760
0.905394 0.389837 0.180789
0.919005 0.421271 0.201633
0.930632 0.448859 0.225528
0.942138 0.473671 0.252689
0.953368 0.496223 0.282902
0.963561 0.517723 0.316594
0.972045 0.539178 0.353582
0.978088 0.561364 0.393256
0.981720 0.584894 0.434516
0.983276 0.609583 0.475959
0.983124 0.634394 0.517296
0.981933 0.657618 0.558190
0.146212 0.144869 0.119783
0.148318 0.144167 0.120119
0.157504 0.141878 0.122530
0.170260 0.146426 0.125765
0.200076 0.158206 0.135042
0.265446 0.170962 0.119295
0.314580 0.169924 0.107301
0.369970 0.168399 0.109224
0.425849 0.165866 0.110964
0.480934 0.163333 0.112490
0.535424 0.160952 0.114229
0.588617 0.161349 0.115816
0.638636 0.166201 0.117586
0.683650 0.178927 0.119478
0.722194 0.199100 0.121920
0.757778 0.228397 0.125185
0.793332 0.264256 0.129458
0.825681 0.298314 0.136080
0.854948 0.330877 0.145418
0.879850 0.362799 0.158541
0.898863 0.394446 0.175021
0.913481 0.424140 0.195315
0.925750 0.451026 0.218936
0.937774 0.475471 0.246159
0.949676 0.497993 0.276921
0.960601 0.519432 0.311192
0.969726 0.540581 0.348455
0.976318 0.562402 0.388159
0.980346 0.585443 0.429511
0.982238 0.609491 0.470893
0.982452 0.633722 0.512078
0.981506 0.656672 0.553033
0.160983 0.171817 0.131991
0.162631 0.171450 0.132540
0.171359 0.168368 0.134096
0.184665 0.166659 0.137423
0.210422 0.180209 0.145724
0.258244 0.203494 0.164004
0.329473 0.216190 0.136172
0.366217 0.205539 0.109987
0.412848 0.201877 0.107393
0.466896 0.200809 0.109163
0.520653 0.200381 0.110689
0.573571 0.201450 0.112215
0.624323 0.205966 0.114290
0.670466 0.215793 0.116213
0.710536 0.231785 0.118318
0.749813 0.258579 0.120882
0.784878 0.289525 0.124788
0.817472 0.320043 0.131258
0.847623 0.349493 0.140871
0.873564 0.378912 0.153933
0.893736 0.408026 0.171237
0.909209 0.435859 0.192233
0.946349 0.511681 0.278813
0.957366 0.531182 0.313634
0.966247 0.549950 0.349645
0.972564 0.569085 0.386572
0.976623 0.588861 0.424079
0.978912 0.609186 0.460853
0.979828 0.629755 0.497475
0.979706 0.649928 0.534081
0.979004 0.668116 0.570031
0.977630 0.684169 0.605188
0.180240 0.211582 0.150515
0.182559 0.210849 0.150820
0.191104 0.207401 0.152163
0.206485 0.200809 0.155673
0.228000 0.210819 0.162722
0.273564 0.237675 0.181125
0.345098 0.279667 0.216648
0.419471 0.288121 0.169711
0.445106 0.264195 0.123049
0.463813 0.243992 0.103639
0.518822 0.244846 0.105318
0.572839 0.247837 0.107149
0.623713 0.252995 0.108919
0.669795 0.262150 0.110536
0.712947 0.279881 0.112276
0.754452 0.308049 0.114565
0.790188 0.336858 0.119081
0.823636 0.364233 0.127565
0.854032 0.391699 0.140383
0.879667 0.419837 0.158175
0.899565 0.448615 0.182010
0.915953 0.476265 0.211978
0.931304 0.501732 0.247044
0.946105 0.524956 0.286107
0.958495 0.546410 0.327062
0.967254 0.566705 0.367559
0.972900 0.586542 0.406744
0.976226 0.606470 0.445106
0.977966 0.626581 0.482521
0.978515 0.646174 0.519463
0.978302 0.664485 0.556085
0.977478 0.680690 0.591974
0.199008 0.245579 0.168124
0.200931 0.245090 0.168551
0.208408 0.241581 0.169528
0.222812 0.234897 0.171969
0.241215 0.231052 0.177127
0.276707 0.257939 0.193210
0.335058 0.295811 0.221897
0.421088 0.351812 0.273716
0.492836 0.357122 0.215671
0.511925 0.324071 0.149050
0.503258 0.282841 0.104524
0.547387 0.280308 0.101717
0.598627 0.284916 0.102998
0.647822 0.293339 0.103944
0.696345 0.311101 0.104402
0.736416 0.332830 0.105592
0.771359 0.357061 0.109071
0.804471 0.380835 0.116243
0.836301 0.405005 0.128084
0.864683 0.430121 0.145388
0.887388 0.456062 0.168399
0.905608 0.481697 0.197665
0.921691 0.505913 0.232242
0.937407 0.528130 0.270756
0.951141 0.548943 0.311650
0.961578 0.568444 0.352300
0.968536 0.587762 0.392493
0.972930 0.607050 0.431891
0.975494 0.626612 0.470466
0.976684 0.645747 0.508446
0.977020 0.663752 0.546075
0.976715 0.679805 0.582849
0.220829 0.281682 0.189120
0.222660 0.280949 0.189242
0.228916 0.277897 0.189944
0.241489 0.271550 0.191806
0.258549 0.261570 0.195071
0.283391 0.277928 0.206271
0.333501 0.313878 0.233524
0.404700 0.363500 0.274784
0.499916 0.429847 0.345068
0.565270 0.431739 0.277073
0.580041 0.392584 0.189517
0.568414 0.342443 0.123110
0.574640 0.314397 0.095369
0.629236 0.325475 0.094820
0.677180 0.339666 0.093996
0.717494 0.357549 0.093965
0.753170 0.378607 0.096315
0.786435 0.400580 0.102693
0.819394 0.422553 0.114290
0.850126 0.445136 0.132052
0.875669 0.468482 0.155795
0.895720 0.491920 0.185611
0.912779 0.514488 0.220432
0.929137 0.535576 0.258885
0.943999 0.555291 0.299687
0.955718 0.573999 0.340826
0.963867 0.592676 0.381781
0.969146 0.611322 0.422187
0.972473 0.630030 0.461982
0.974334 0.648280 0.500694
0.975219 0.665492 0.539147
0.975433 0.680934 0.576471
0.243290 0.318639 0.212161
0.244511 0.317693 0.212253
0.250034 0.314763 0.212680
0.261021 0.308293 0.213657
0.275761 0.298741 0.215488
0.295171 0.294621 0.221469
0.333623 0.329870 0.244297
0.395270 0.375586 0.282750
0.475807 0.433295 0.337713
0.568353 0.503380 0.423224
0.620935 0.502434 0.351415
0.638727 0.466163 0.247532
0.633143 0.413703 0.158267
0.604303 0.350835 0.084291
0.651362 0.360906 0.078279
0.694697 0.377356 0.072938
0.732845 0.397833 0.070893
0.768002 0.419959 0.081575
0.802884 0.441718 0.096254
0.835935 0.462867 0.116365
0.863859 0.483375 0.142367
0.885374 0.503624 0.172549
0.902922 0.523339 0.206241
0.919066 0.542046 0.242679
0.934447 0.559747 0.281590
0.947448 0.577142 0.321569
0.957427 0.594842 0.362829
0.964294 0.613031 0.404730
0.968780 0.631464 0.446784
0.971557 0.649622 0.488167
0.973175 0.666712 0.528954
0.973938 0.682124 0.568566
0.263096 0.352697 0.234775
0.264042 0.352178 0.234867
0.269200 0.349340 0.235111
0.278691 0.343542 0.235569
0.292149 0.334661 0.236881
0.308629 0.322240 0.239078
0.336034 0.343725 0.254795
0.389776 0.387518 0.290867
0.462226 0.441840 0.342992
0.547387 0.505699 0.413977
0.626764 0.575830 0.510704
0.670741 0.575097 0.450263
0.685786 0.539025 0.329900
0.682551 0.487587 0.213138
0.662623 0.420752 0.110780
0.669642 0.394141 0.031800
0.710689 0.413886 0.023041
0.747646 0.435981 0.026184
0.783383 0.457374 0.051453
0.818357 0.477424 0.093294
0.849454 0.496345 0.123018
0.873747 0.515099 0.155673
0.893004 0.533837 0.191348
0.910002 0.551873 0.229099
0.926238 0.569085 0.268986
0.940368 0.585992 0.310094
0.951568 0.603113 0.352300
0.959503 0.620508 0.395514
0.964843 0.637964 0.439002
0.968444 0.655024 0.481666
0.970733 0.670985 0.523644
0.972076 0.685542 0.564294
0.282994 0.389288 0.260014
0.284306 0.388464 0.260075
0.288396 0.385931 0.260136
0.297032 0.380682 0.260288
0.308995 0.372290 0.260746
0.324376 0.360418 0.261784
0.344182 0.355810 0.267948
0.388464 0.401312 0.300877
0.457954 0.456611 0.354620
0.538720 0.518151 0.424689
0.611536 0.578454 0.502831
0.676936 0.639246 0.587182
0.741604 0.672999 0.585870
0.756069 0.632868 0.476295
0.755734 0.584131 0.334325
0.738643 0.528923 0.181613
0.718166 0.466590 0.000000
0.758755 0.489845 0.000000
0.798856 0.509667 0.000000
0.834501 0.527367 0.088319
0.862150 0.544518 0.136995
0.882963 0.561151 0.179812
0.900633 0.577173 0.221500
0.917296 0.592889 0.263890
0.931945 0.607996 0.306523
0.943664 0.622461 0.348943
0.952178 0.636347 0.390723
0.958282 0.649805 0.431312
0.962737 0.662837 0.471015
0.966064 0.675349 0.510216
0.968383 0.687312 0.548516
0.969543 0.699184 0.586023
0.311620 0.441077 0.299199
0.312261 0.440497 0.299016
0.316320 0.437720 0.298772
0.323888 0.432410 0.298222
0.335424 0.424140 0.297765
0.349676 0.412421 0.297490
0.366125 0.397070 0.297978
0.400732 0.424842 0.322606
0.463935 0.479805 0.375525
0.541711 0.538842 0.446265
0.611048 0.597589 0.523278
0.675410 0.655818 0.596735
0.732387 0.706600 0.670497
0.756497 0.702205 0.632502
0.772183 0.671504 0.540276
0.781003 0.626123 0.416236
0.774228 0.576318 0.264439
0.752987 0.522454 0.076204
0.769680 0.513146 0.000000
0.809171 0.531548 0.000000
0.842283 0.548486 0.091218
0.867124 0.565301 0.145083
0.886656 0.581811 0.191379
0.904326 0.598047 0.235874
0.920775 0.613336 0.280583
0.934569 0.627802 0.325353
0.945159 0.641657 0.370031
0.952819 0.654841 0.414160
0.958526 0.667414 0.457038
0.962829 0.679408 0.499092
0.965820 0.690974 0.539879
0.967559 0.702419 0.579278
0.335180 0.481270 0.333196
0.335546 0.480507 0.332738
0.338872 0.477394 0.331731
0.345159 0.471473 0.329961
0.354284 0.462623 0.327764
0.366247 0.450721 0.325566
0.380743 0.435309 0.323705
0.399939 0.427161 0.328252
0.450446 0.479652 0.372686
0.523125 0.535027 0.438239
0.591424 0.590234 0.510826
0.652003 0.645411 0.581537
0.711788 0.695094 0.646021
0.752956 0.730678 0.705989
0.771115 0.726253 0.676448
0.782986 0.702480 0.596735
0.794308 0.665431 0.489693
0.800046 0.618708 0.350988
0.791257 0.571496 0.190036
0.782834 0.535851 0.000000
0.821286 0.553735 0.000000
0.851377 0.571221 0.101747
0.873655 0.588647 0.159365
0.892485 0.605890 0.209354
0.910246 0.621698 0.257603
0.925872 0.636255 0.305425
0.938293 0.649683 0.352758
0.947417 0.662226 0.399969
0.954253 0.673854 0.445777
0.959442 0.684993 0.490120
0.963134 0.695949 0.533227
0.965362 0.707057 0.574456
0.358465 0.515496 0.365393
0.358831 0.514763 0.364935
0.361028 0.511894 0.363531
0.365789 0.506218 0.361028
0.373327 0.497627 0.357763
0.383276 0.486091 0.354131
0.395331 0.471656 0.350683
0.409094 0.454017 0.347692
0.444282 0.478340 0.374212
0.506767 0.532097 0.431586
0.574029 0.584466 0.500450
0.632349 0.637171 0.568902
0.691371 0.686275 0.631373
0.737362 0.721798 0.685939
0.770443 0.751003 0.732418
0.785031 0.745510 0.708583
0.793149 0.724025 0.643671
0.802090 0.696895 0.553033
0.812589 0.658900 0.434150
0.817929 0.615412 0.284855
0.812284 0.574334 0.080537
0.834653 0.577569 0.000000
0.860533 0.596002 0.117769
0.880797 0.614160 0.178714
0.899596 0.630671 0.232242
0.916899 0.645350 0.284092
0.931273 0.658656 0.335607
0.942077 0.670741 0.387121
0.950195 0.681910 0.437507
0.956268 0.692622 0.486091
0.960510 0.703517 0.533043
0.962951 0.714809 0.577356
0.381140 0.543847 0.395209
0.381689 0.543481 0.395239
0.383734 0.541314 0.394079
0.387793 0.537072 0.392035
0.394232 0.530205 0.389014
0.402777 0.520806 0.385595
0.413733 0.508843 0.382025
0.426307 0.493690 0.378698
0.443153 0.481086 0.379706
0.497078 0.533257 0.431189
0.561273 0.583246 0.495735
0.617243 0.632349 0.560296
0.673060 0.679316 0.619593
0.721981 0.714687 0.672419
0.755123 0.740993 0.714443
0.784024 0.768093 0.750362
0.796139 0.762387 0.730861
0.803006 0.740902 0.679286
0.809995 0.718044 0.604242
0.819059 0.690486 0.504753
0.829984 0.656184 0.377081
0.837247 0.620539 0.219425
0.846860 0.603388 0.000000
0.869627 0.623377 0.140993
0.889799 0.641230 0.205814
0.908843 0.656550 0.264744
0.925048 0.669551 0.321904
0.937377 0.680751 0.377935
0.946502 0.690913 0.431800
0.953185 0.700710 0.482551
0.957824 0.710750 0.530571
0.960388 0.721584 0.575250
0.404761 0.569116 0.424872
0.405310 0.568597 0.424537
0.406836 0.566949 0.423682
0.410101 0.563409 0.421729
0.415473 0.557794 0.418982
0.422797 0.549981 0.415473
0.431800 0.539849 0.411536
0.442664 0.526757 0.407416
0.454383 0.510491 0.403265
0.488777 0.529046 0.429236
0.545006 0.577630 0.485573
0.600671 0.624506 0.547997
0.653498 0.670497 0.605921
0.705196 0.707240 0.658381
0.741665 0.733730 0.702113
0.770138 0.758419 0.735683
0.795834 0.783322 0.764950
0.805936 0.778561 0.749660
0.812284 0.758541 0.708309
0.819394 0.736233 0.649012
0.827634 0.714595 0.568109
0.838041 0.690394 0.463478
0.850065 0.664027 0.329351
0.860349 0.639033 0.147829
0.879850 0.651575 0.172580
0.900725 0.667323 0.241886
0.918944 0.679927 0.305974
0.932921 0.690486 0.367437
0.942962 0.700069 0.426001
0.950256 0.709438 0.479988
0.955108 0.719387 0.530480
0.957641 0.730404 0.576867
0.432624 0.595361 0.457771
0.433112 0.595361 0.457893
0.458289 0.614282 0.483406
0.460822 0.611353 0.481605
0.464576 0.606592 0.478920
0.469886 0.599817 0.475257
0.476631 0.590997 0.470771
0.484718 0.579614 0.465705
0.494148 0.565911 0.460548
0.504540 0.549584 0.455604
0.554345 0.595483 0.507744
0.603418 0.640406 0.563714
0.655146 0.682368 0.617731
0.704829 0.714260 0.666621
0.739284 0.738033 0.706569
0.766140 0.761410 0.737484
0.791043 0.783871 0.761715
0.811032 0.802243 0.783444
0.818051 0.798184 0.771542
0.823117 0.781643 0.738888
0.830655 0.760800 0.694545
0.840635 0.739620 0.633478
0.852110 0.720394 0.551781
0.865293 0.702327 0.446998
0.879423 0.685664 0.307042
0.896147 0.682033 0.227787
0.914977 0.692317 0.296269
0.929381 0.701228 0.360510
0.939849 0.709773 0.421302
0.947356 0.718685 0.477577
0.952239 0.728695 0.529839
0.954620 0.739712 0.577722
0.467079 0.626368 0.496864
0.469306 0.627924 0.499153
0.472694 0.628748 0.500969
0.476844 0.627893 0.501671
0.481636 0.625269 0.501213
0.486763 0.620081 0.498848
0.492866 0.612543 0.495064
0.499733 0.602808 0.490394
0.507836 0.590997 0.485512
0.516899 0.576593 0.480323
0.543420 0.587732 0.500267
0.586267 0.630579 0.549157
0.634760 0.671839 0.601740
0.685298 0.705501 0.650294
0.724605 0.729732 0.691859
0.752377 0.751766 0.725032
0.777523 0.774411 0.751064
0.799954 0.794217 0.772000
0.817502 0.809506 0.791043
0.823758 0.806821 0.781979
0.828000 0.793942 0.755154
0.835386 0.777371 0.719997
0.845823 0.758694 0.673640
0.859129 0.740261 0.609888
0.874113 0.724178 0.527886
0.890776 0.710903 0.421912
0.908415 0.701045 0.277989
0.924468 0.709194 0.341192
0.935943 0.717708 0.407141
0.943969 0.726802 0.467567
0.949096 0.737087 0.523308
0.951629 0.748196 0.574182
0.486976 0.647120 0.521660
0.489265 0.648829 0.523919
0.492348 0.649928 0.525933
0.496040 0.649714 0.527153
0.500481 0.647578 0.526970
0.505394 0.643153 0.525200
0.510613 0.636652 0.522179
0.516930 0.628138 0.518212
0.524254 0.617914 0.513909
0.532219 0.605646 0.509148
0.540856 0.591150 0.504356
0.579065 0.626215 0.545769
0.620020 0.666255 0.591974
0.669490 0.700099 0.639429
0.712184 0.724636 0.681331
0.741573 0.745541 0.715450
0.766201 0.767391 0.742519
0.789364 0.787686 0.764340
0.808774 0.803922 0.782162
0.823941 0.816434 0.798459
0.829526 0.814572 0.791501
0.832975 0.804471 0.769619
0.839322 0.791958 0.741329
0.848997 0.777035 0.705440
0.862150 0.761044 0.657862
0.878416 0.745937 0.594690
0.896696 0.733303 0.515557
0.916533 0.724392 0.414038
0.932189 0.726406 0.392432
0.940551 0.735958 0.457557
0.945861 0.746456 0.517052
0.948608 0.756924 0.569696
0.506737 0.669917 0.547936
0.508659 0.671534 0.550042
0.511254 0.672541 0.551843
0.514702 0.672358 0.553002
0.518608 0.670680 0.553033
0.522759 0.666926 0.551659
0.527550 0.661372 0.549096
0.533349 0.654078 0.545922
0.540093 0.645197 0.542412
0.547692 0.634516 0.538506
0.555993 0.621942 0.534417
0.574884 0.625788 0.546593
0.610986 0.663935 0.588098
0.656428 0.696956 0.631861
0.701045 0.721370 0.673396
0.732387 0.741512 0.707912
0.756802 0.762509 0.735836
0.780484 0.783169 0.758663
0.801389 0.800412 0.777401
0.818082 0.813535 0.792813
0.831296 0.824063 0.807126
0.836576 0.823239 0.802274
0.839628 0.815640 0.785245
0.845090 0.806973 0.764126
0.853361 0.797269 0.738033
0.864866 0.786679 0.705684
0.879881 0.775967 0.664637
0.898009 0.766506 0.612085
0.918334 0.759396 0.547967
0.938598 0.756161 0.483162
0.942687 0.765927 0.542931
0.944396 0.774685 0.595117
0.539269 0.703609 0.589899
0.540185 0.704128 0.590753
0.541527 0.703975 0.591089
0.543175 0.702876 0.590784
0.545403 0.700679 0.589624
0.548089 0.697200 0.587671
0.551751 0.692531 0.585138
0.556420 0.686641 0.582330
0.562127 0.679347 0.579278
0.569207 0.670741 0.576410
0.577111 0.660517 0.573419
0.585718 0.648280 0.570397
0.614313 0.671962 0.598871
0.653834 0.702083 0.636011
0.697108 0.723903 0.674739
0.727932 0.742611 0.707393
0.751553 0.762295 0.734035
0.774350 0.781796 0.755947
0.795254 0.798428 0.774197
0.812436 0.811337 0.789334
0.826200 0.821530 0.801999
0.837186 0.830167 0.814359
0.841825 0.829587 0.810391
0.844450 0.822995 0.795621
0.849180 0.816037 0.778592
0.856413 0.808835 0.758328
0.866545 0.801419 0.733913
0.879545 0.794430 0.705135
0.895354 0.788357 0.670649
0.913695 0.783566 0.628595
0.933715 0.779629 0.576074
0.941588 0.783383 0.592218
0.564172 0.722683 0.618341
0.565148 0.723018 0.619074
0.566430 0.722927 0.619440
0.567926 0.722225 0.619287
0.569757 0.720699 0.618433
0.571923 0.718318 0.616938
0.574609 0.714992 0.614893
0.578271 0.710719 0.612543
0.583032 0.705470 0.610193
0.588891 0.699092 0.607874
0.595758 0.691371 0.605554
0.603571 0.682002 0.603235
0.616938 0.678798 0.607965
0.654292 0.705806 0.641810
0.692622 0.725948 0.675257
0.723201 0.743435 0.706325
0.746365 0.762142 0.732113
0.768582 0.780789 0.753506
0.789548 0.796963 0.771481
0.807248 0.809689 0.786557
0.821622 0.819913 0.799130
0.833158 0.828336 0.810178
0.842435 0.835782 0.821286
0.846677 0.835630 0.818326
0.848295 0.828763 0.803677
0.852720 0.823026 0.789578
0.859434 0.817533 0.773861
0.868620 0.812345 0.755673
0.880308 0.807706 0.735012
0.894194 0.803647 0.711452
0.909789 0.800412 0.684749
0.926482 0.797604 0.653468
0.605768 0.742794 0.655665
0.607568 0.743343 0.656916
0.608637 0.743282 0.657252
0.609216 0.742458 0.656611
0.609583 0.740932 0.655116
0.609888 0.738674 0.652888
0.610529 0.735744 0.650172
0.611902 0.732113 0.647089
0.614099 0.727810 0.643915
0.617273 0.722835 0.640925
0.621363 0.716793 0.637781
0.626612 0.709743 0.635004
0.632776 0.701045 0.632288
0.656275 0.709895 0.648737
0.688991 0.727657 0.676356
0.717464 0.743374 0.703853
0.739834 0.760281 0.728145
0.760952 0.777829 0.748898
0.781827 0.793729 0.766781
0.800443 0.806699 0.782101
0.815579 0.817075 0.794949
0.828000 0.825772 0.806058
0.837919 0.833066 0.816007
0.845792 0.839506 0.826017
0.849638 0.839536 0.823758
0.852201 0.834623 0.811887
0.856565 0.829862 0.799893
0.862882 0.825589 0.787533
0.871183 0.821622 0.773831
0.881590 0.818265 0.758785
0.893645 0.815610 0.742763
0.906584 0.813504 0.726223
0.632380 0.755245 0.678157
0.633875 0.755764 0.679225
0.635126 0.755886 0.679774
0.636194 0.755337 0.679683
0.637232 0.754299 0.679042
0.638514 0.752712 0.678065
0.640406 0.750729 0.676936
0.642908 0.748226 0.675654
0.646113 0.745357 0.674372
0.650050 0.742061 0.673182
0.654475 0.738064 0.671778
0.659510 0.733364 0.670466
0.664851 0.727871 0.669032
0.670588 0.721248 0.667567
0.697810 0.735805 0.690455
0.719203 0.750423 0.711513
0.739559 0.766079 0.732753
0.759670 0.781827 0.751400
0.779751 0.796048 0.767819
0.797848 0.807736 0.782101
0.812833 0.817350 0.794308
0.825132 0.825528 0.804929
0.835325 0.832700 0.814481
0.843534 0.838865 0.823423
0.849912 0.844266 0.832395
0.853330 0.844633 0.831022
0.856138 0.840726 0.820706
0.860472 0.837034 0.810483
0.866575 0.833951 0.800809
0.874205 0.831388 0.791287
0.883177 0.829343 0.781796
0.892882 0.827848 0.772519
0.662043 0.773465 0.704891
0.662684 0.773770 0.705379
0.663264 0.773709 0.705562
0.663996 0.773129 0.705409
0.664881 0.772091 0.704921
0.666133 0.770596 0.704189
0.667842 0.768643 0.703334
0.670100 0.766293 0.702419
0.673060 0.763546 0.701595
0.676692 0.760494 0.700862
0.680781 0.756924 0.700099
0.685481 0.753048 0.699550
0.690547 0.748592 0.699031
0.695796 0.743465 0.698390
0.706905 0.744961 0.705074
0.723751 0.758541 0.721859
0.740230 0.773037 0.738399
0.759548 0.786862 0.754910
0.778683 0.799222 0.769711
0.796139 0.809506 0.782834
0.810636 0.818235 0.794247
0.822721 0.825772 0.804257
0.832761 0.832395 0.813321
0.841245 0.838407 0.821805
0.847837 0.843503 0.829709
0.852934 0.847898 0.837430
0.855924 0.848386 0.836698
0.858640 0.845243 0.827604
0.862913 0.842344 0.818753
0.868681 0.840299 0.810941
0.875578 0.838743 0.803922
0.883116 0.837736 0.797726
0.681483 0.791409 0.726284
0.681910 0.791653 0.726650
0.682521 0.791653 0.726894
0.683314 0.791379 0.726986
0.684474 0.790829 0.727077
0.686305 0.790127 0.727291
0.688991 0.789578 0.727993
0.692378 0.788937 0.729000
0.696559 0.788205 0.730343
0.701381 0.787320 0.731960
0.706813 0.786221 0.733822
0.712581 0.784665 0.735744
0.718715 0.782528 0.737606
0.724971 0.779629 0.739284
0.731380 0.775845 0.740841
0.743191 0.783932 0.749813
0.757351 0.794858 0.760433
0.774228 0.804196 0.772061
0.790677 0.812253 0.783200
0.804837 0.819425 0.793240
0.816800 0.825925 0.802335
0.826932 0.831785 0.810666
0.835508 0.837125 0.818418
0.842832 0.842008 0.825803
0.848875 0.846342 0.832700
0.853574 0.850004 0.839048
0.857115 0.853178 0.845060
0.859403 0.853666 0.844846
0.861936 0.851530 0.837888
0.865782 0.849729 0.831052
0.870787 0.848692 0.825406
0.876219 0.848081 0.820768
0.712093 0.815976 0.757076
0.712184 0.815946 0.757076
0.712306 0.815763 0.757015
0.712703 0.815396 0.756863
0.713313 0.814847 0.756680
0.714382 0.814115 0.756527
0.715969 0.813291 0.756497
0.718044 0.812314 0.756619
0.720790 0.811215 0.756893
0.724178 0.809964 0.757412
0.728115 0.808469 0.758083
0.732662 0.806790 0.758968
0.737636 0.804776 0.759976
