lut_library_archive/removed_20260629/抖音热门推荐/抖音热门推荐09.cube
# 版权归凌孟成所有，侵权必究
# Created by Adobe Lightroom plugin Export LUT (1.24.0)
# www.johnrellis.com/lightroom/exportlut.htm
# Preset: INS风格-缇米设计09
# Color profile: C:\Program Files (x86)\Common Files\Adobe\Color\Profiles\Recommended\VideoHD.icc
LUT_3D_SIZE 32
DOMAIN_MIN 0.0 0.0 0.0
DOMAIN_MAX 1.0 1.0 1.0
0.167361 0.167361 0.167361
0.167361 0.167361 0.167361
0.167361 0.167361 0.167361
0.167361 0.167361 0.167361
0.192233 0.164218 0.167239
0.244663 0.159762 0.170779
0.308446 0.149142 0.174594
0.382666 0.125582 0.178134
0.459541 0.082490 0.180728
0.533867 0.000000 0.180758
0.608423 0.000000 0.179477
0.681758 0.000000 0.177005
0.753353 0.000000 0.173342
0.820554 0.000000 0.168490
0.879240 0.000000 0.163577
0.929076 0.000000 0.158755
0.969726 0.000000 0.154726
1.000000 0.000000 0.151919
1.000000 0.099550 0.152529
1.000000 0.131197 0.161685
1.000000 0.154269 0.174014
1.000000 0.174533 0.187472
1.000000 0.192203 0.201083
1.000000 0.208438 0.214511
1.000000 0.222873 0.227787
1.000000 0.236942 0.240879
1.000000 0.250462 0.254093
1.000000 0.263981 0.267826
1.000000 0.277623 0.281804
1.000000 0.291875 0.296361
1.000000 0.306554 0.311711
1.000000 0.322148 0.327825
0.167361 0.167361 0.167361
0.167361 0.167361 0.167361
0.167361 0.167361 0.167361
0.167361 0.167361 0.167361
0.192599 0.164340 0.167391
0.244022 0.159731 0.170626
0.305669 0.149783 0.174472
0.377661 0.127687 0.177920
0.452552 0.095125 0.180026
0.525505 0.029877 0.180087
0.598444 0.000000 0.178805
0.671290 0.000000 0.176547
0.742611 0.000000 0.172793
0.810361 0.000000 0.168063
0.869841 0.000000 0.163027
0.921111 0.000000 0.158145
0.963409 0.000000 0.153933
1.000000 0.010437 0.150973
1.000000 0.104311 0.150820
1.000000 0.131960 0.158907
1.000000 0.154025 0.170291
1.000000 0.172213 0.183169
1.000000 0.189425 0.196201
1.000000 0.204807 0.209201
1.000000 0.218936 0.222110
1.000000 0.232273 0.235264
1.000000 0.245548 0.248264
1.000000 0.259037 0.262058
1.000000 0.272618 0.276280
1.000000 0.286748 0.290837
1.000000 0.301640 0.306340
1.000000 0.317052 0.322484
0.167361 0.167361 0.167361
0.167361 0.167361 0.167361
0.167361 0.167361 0.167361
0.167361 0.167361 0.167361
0.198947 0.163790 0.167666
0.248508 0.159335 0.171054
0.308446 0.149783 0.174533
0.375616 0.138094 0.176425
0.445472 0.124697 0.177188
0.516411 0.107118 0.177218
0.588128 0.085267 0.175845
0.660456 0.025818 0.173312
0.731044 0.000000 0.169528
0.798703 0.000000 0.164797
0.859464 0.000000 0.159487
0.911681 0.000000 0.154330
0.956146 0.039979 0.149813
0.999390 0.104952 0.146395
1.000000 0.132692 0.146456
1.000000 0.151369 0.154757
1.000000 0.167514 0.166354
1.000000 0.183139 0.179110
1.000000 0.197299 0.192203
1.000000 0.210300 0.205447
1.000000 0.223117 0.218357
1.000000 0.234897 0.231357
1.000000 0.247593 0.244785
1.000000 0.260227 0.258396
1.000000 0.273198 0.272557
1.000000 0.286809 0.287388
1.000000 0.301030 0.302922
1.000000 0.316075 0.319066
0.167086 0.167758 0.167483
0.166873 0.168124 0.167453
0.166079 0.169253 0.167666
0.168826 0.170138 0.168368
0.208957 0.172946 0.165805
0.254002 0.173068 0.167819
0.308690 0.171878 0.169894
0.370275 0.168856 0.171145
0.436927 0.163851 0.171328
0.504845 0.157809 0.170962
0.574762 0.151064 0.169467
0.644862 0.143404 0.166842
0.714870 0.137514 0.162875
0.782223 0.134524 0.157565
0.843687 0.133333 0.151858
0.897185 0.138582 0.146304
0.946166 0.148196 0.140993
0.988342 0.162448 0.137240
1.000000 0.174380 0.138582
1.000000 0.183322 0.147250
1.000000 0.191623 0.158755
1.000000 0.201755 0.171511
1.000000 0.211887 0.184848
1.000000 0.222141 0.198520
1.000000 0.232578 0.212314
1.000000 0.243473 0.226413
1.000000 0.255070 0.240604
1.000000 0.266758 0.255039
1.000000 0.278691 0.269841
1.000000 0.291478 0.284916
1.000000 0.304723 0.300389
1.000000 0.318456 0.316106
0.166903 0.192874 0.179416
0.166934 0.193149 0.179538
0.169070 0.192782 0.180209
0.175235 0.190951 0.181979
0.191073 0.192355 0.182101
0.239231 0.201602 0.173831
0.302190 0.202701 0.161563
0.358465 0.203677 0.162722
0.420020 0.203922 0.162905
0.484474 0.203647 0.161990
0.551385 0.202579 0.160220
0.620111 0.201633 0.157107
0.688899 0.201175 0.152682
0.757015 0.201480 0.146883
0.820737 0.202731 0.140017
0.876951 0.206119 0.133181
0.932403 0.210697 0.126345
0.975799 0.216770 0.122164
1.000000 0.219791 0.127810
1.000000 0.222385 0.138033
1.000000 0.226139 0.150423
1.000000 0.230961 0.164187
1.000000 0.236820 0.178103
1.000000 0.243320 0.192569
1.000000 0.250767 0.207065
1.000000 0.259373 0.221622
1.000000 0.268284 0.236454
1.000000 0.277897 0.251255
1.000000 0.288182 0.266087
1.000000 0.299168 0.281346
1.000000 0.310887 0.296727
1.000000 0.323339 0.312505
0.171298 0.215885 0.192782
0.171847 0.215854 0.192935
0.175143 0.214420 0.193393
0.181064 0.212222 0.194797
0.191775 0.213535 0.193545
0.215152 0.215824 0.195743
0.265751 0.229221 0.188296
0.337652 0.238468 0.166812
0.403326 0.240635 0.151553
0.464485 0.243931 0.150210
0.528740 0.246799 0.147524
0.595605 0.250034 0.143618
0.663416 0.253178 0.138064
0.731197 0.256657 0.130739
0.796963 0.259770 0.121645
0.860380 0.263462 0.111208
0.917937 0.266728 0.102998
0.964294 0.267063 0.105104
0.999725 0.266026 0.113802
1.000000 0.265171 0.126284
1.000000 0.265354 0.140719
1.000000 0.266484 0.156008
1.000000 0.286900 0.197177
1.000000 0.291203 0.213413
1.000000 0.296086 0.228977
1.000000 0.302129 0.244083
1.000000 0.308690 0.259068
1.000000 0.316136 0.273533
1.000000 0.324315 0.288121
1.000000 0.333410 0.302892
1.000000 0.343328 0.317906
1.000000 0.353613 0.332738
0.176608 0.242954 0.208591
0.177249 0.242802 0.208743
0.180545 0.241154 0.209079
0.186618 0.238407 0.209964
0.193393 0.240543 0.206729
0.217533 0.243717 0.209171
0.248203 0.248112 0.212436
0.304662 0.264927 0.207767
0.380835 0.280858 0.178836
0.451545 0.287755 0.152132
0.517662 0.290623 0.128359
0.584314 0.297459 0.121645
0.652461 0.303868 0.112734
0.720943 0.309728 0.100923
0.794339 0.316258 0.084810
0.864897 0.320989 0.059449
0.922484 0.321874 0.053864
0.967346 0.320012 0.072541
1.000000 0.317082 0.096223
1.000000 0.313909 0.115724
1.000000 0.311772 0.135988
1.000000 0.311040 0.156497
1.000000 0.311772 0.177188
1.000000 0.313817 0.196841
1.000000 0.316838 0.215427
1.000000 0.320745 0.232547
1.000000 0.324834 0.248417
1.000000 0.329870 0.263890
1.000000 0.335943 0.278965
1.000000 0.342779 0.293950
1.000000 0.350530 0.308995
1.000000 0.359258 0.324071
0.180911 0.263737 0.221042
0.181582 0.263310 0.221103
0.184421 0.261967 0.221408
0.190005 0.259159 0.222049
0.193362 0.261997 0.217441
0.214450 0.265934 0.219211
0.243107 0.270909 0.222507
0.278447 0.277409 0.227024
0.333776 0.294530 0.228946
0.411444 0.314641 0.194308
0.483742 0.325902 0.161898
0.550530 0.331243 0.128756
0.614252 0.334722 0.096040
0.691249 0.346654 0.071015
0.767697 0.356268 0.024933
0.835966 0.361547 0.000000
0.894133 0.363043 0.000000
0.942351 0.361395 0.000000
0.980804 0.357702 0.029847
1.000000 0.353307 0.084993
1.000000 0.349157 0.112032
1.000000 0.345708 0.136446
1.000000 0.343542 0.160006
1.000000 0.342443 0.181765
1.000000 0.342657 0.202029
1.000000 0.343481 0.220462
1.000000 0.345251 0.237675
1.000000 0.347723 0.253696
1.000000 0.351354 0.269505
1.000000 0.356298 0.285222
1.000000 0.362005 0.300847
1.000000 0.369055 0.316350
0.186160 0.285710 0.234775
0.186954 0.285405 0.234928
0.189425 0.284245 0.235111
0.194430 0.281682 0.235599
0.197177 0.285344 0.231540
0.213443 0.290013 0.231418
0.240360 0.295445 0.235080
0.273777 0.302708 0.240146
0.313542 0.311559 0.246708
0.369177 0.329534 0.257694
0.450904 0.353826 0.218235
0.529320 0.370001 0.180423
0.601892 0.379156 0.139376
0.668360 0.383337 0.084962
0.735714 0.388830 0.000000
0.804135 0.396216 0.000000
0.864408 0.399481 0.000000
0.916045 0.399237 0.000000
0.958618 0.396307 0.000000
0.992828 0.391669 0.000000
1.000000 0.386389 0.066163
1.000000 0.381445 0.111025
1.000000 0.376959 0.139895
1.000000 0.373480 0.165133
1.000000 0.371099 0.187442
1.000000 0.369451 0.207675
1.000000 0.368719 0.226230
1.000000 0.369116 0.243534
1.000000 0.370672 0.260319
1.000000 0.373205 0.276768
1.000000 0.377142 0.292912
1.000000 0.382116 0.308995
0.193881 0.312291 0.252567
0.194491 0.311803 0.252537
0.196811 0.310613 0.252628
0.201480 0.308080 0.252903
0.204807 0.310796 0.250034
0.213291 0.315801 0.246891
0.239536 0.321386 0.250828
0.270787 0.328771 0.256229
0.309972 0.339940 0.264286
0.355749 0.353155 0.274296
0.414496 0.373968 0.296605
0.498360 0.399908 0.251713
0.575402 0.414893 0.206760
0.645808 0.423102 0.159701
0.711055 0.426581 0.100465
0.769650 0.426154 0.000000
0.830167 0.429786 0.000000
0.886992 0.432776 0.000000
0.934783 0.431922 0.000000
0.973114 0.428138 0.000000
1.000000 0.422522 0.000000
1.000000 0.416205 0.051728
1.000000 0.409979 0.111116
1.000000 0.404364 0.141054
1.000000 0.399451 0.166720
1.000000 0.395483 0.189059
1.000000 0.392523 0.209812
1.000000 0.390692 0.228702
1.000000 0.390234 0.247013
1.000000 0.391058 0.264958
1.000000 0.393194 0.282475
1.000000 0.396643 0.299931
0.203006 0.338994 0.271092
0.203586 0.338689 0.271153
0.205875 0.337804 0.271458
0.210391 0.335821 0.271763
0.214542 0.338079 0.270298
0.218845 0.344213 0.266667
0.241245 0.351202 0.269749
0.272313 0.359747 0.275944
0.309026 0.370123 0.283635
0.351690 0.382605 0.293217
0.400549 0.396948 0.304479
0.460304 0.418647 0.329717
0.541497 0.443702 0.288518
0.618341 0.458717 0.239414
0.688197 0.466438 0.187961
0.750973 0.468727 0.127810
0.805692 0.466377 0.000000
0.853758 0.460731 0.000000
0.905669 0.462379 0.000000
0.948638 0.460548 0.000000
0.983032 0.455604 0.000000
1.000000 0.449256 0.000000
1.000000 0.442542 0.034333
1.000000 0.435554 0.110170
1.000000 0.429206 0.143069
1.000000 0.423682 0.169741
1.000000 0.418982 0.193362
1.000000 0.415290 0.214542
1.000000 0.412940 0.234623
1.000000 0.411933 0.253849
1.000000 0.412268 0.272587
1.000000 0.413916 0.290806
0.214267 0.370642 0.293431
0.214817 0.370367 0.293462
0.216739 0.369390 0.293462
0.221164 0.367437 0.293767
0.225620 0.368048 0.292943
0.229923 0.373938 0.290043
0.242802 0.381292 0.289067
0.273014 0.389593 0.295293
0.308141 0.399847 0.302861
0.348638 0.411994 0.312261
0.394415 0.426032 0.323339
0.445960 0.441901 0.336400
0.550103 0.503380 0.392706
0.632685 0.527916 0.354986
0.709438 0.540002 0.297215
0.774441 0.541802 0.239139
0.829313 0.536980 0.176974
0.876341 0.528069 0.092409
0.916136 0.516472 0.000000
0.951141 0.505303 0.000000
0.984131 0.499306 0.000000
1.000000 0.491524 0.000000
1.000000 0.483101 0.000000
1.000000 0.474769 0.096834
1.000000 0.466896 0.138125
1.000000 0.459632 0.168215
1.000000 0.453040 0.193088
1.000000 0.447639 0.215030
1.000000 0.443427 0.235813
1.000000 0.440497 0.255222
1.000000 0.438911 0.273960
1.000000 0.438727 0.292210
0.230350 0.416297 0.325719
0.230564 0.415930 0.325505
0.232425 0.414221 0.325109
0.236240 0.411383 0.324559
0.241245 0.409003 0.323491
0.245304 0.413764 0.320470
0.251347 0.420752 0.316350
0.278935 0.428687 0.321111
0.313725 0.438911 0.328832
0.354192 0.451820 0.338933
0.400641 0.467750 0.351537
0.453529 0.486580 0.366827
0.512169 0.507378 0.384436
0.579858 0.534173 0.415381
0.659724 0.559930 0.390600
0.733272 0.571679 0.334325
0.794369 0.572534 0.278386
0.846036 0.566644 0.220554
0.889860 0.556603 0.156222
0.926543 0.543786 0.013825
0.957549 0.529229 0.000000
0.986145 0.518547 0.000000
1.000000 0.510857 0.000000
1.000000 0.502403 0.000000
1.000000 0.493874 0.084169
1.000000 0.485786 0.132509
1.000000 0.478218 0.165560
1.000000 0.471534 0.192477
1.000000 0.465949 0.216220
1.000000 0.461677 0.238346
1.000000 0.458564 0.259068
1.000000 0.457008 0.279423
0.240513 0.444007 0.345495
0.240452 0.443519 0.345251
0.242130 0.441718 0.344610
0.245304 0.438636 0.343786
0.250584 0.434150 0.342657
0.254582 0.437720 0.340154
0.260166 0.443977 0.336706
0.275364 0.451850 0.336095
0.308476 0.461341 0.343481
0.346288 0.473335 0.352880
0.389441 0.488136 0.364721
0.438209 0.505486 0.378973
0.492348 0.524926 0.395392
0.550530 0.545403 0.413397
0.615290 0.570306 0.442969
0.687709 0.592767 0.428534
0.755337 0.601892 0.372381
0.812039 0.601343 0.317967
0.860594 0.594690 0.263584
0.901152 0.583581 0.207370
0.935485 0.569818 0.142092
0.964996 0.554589 0.000000
0.990387 0.538598 0.000000
1.000000 0.529229 0.000000
1.000000 0.520775 0.000000
1.000000 0.512261 0.069062
1.000000 0.503929 0.130312
1.000000 0.496284 0.165652
1.000000 0.489479 0.194278
1.000000 0.483864 0.219760
1.000000 0.479561 0.243168
1.000000 0.476600 0.265690
0.250736 0.471962 0.365576
0.251133 0.471534 0.365362
0.252323 0.469947 0.364752
0.255222 0.466773 0.363806
0.259831 0.462379 0.362463
0.264225 0.462867 0.360357
0.269535 0.468269 0.357458
0.276310 0.476020 0.353857
0.304784 0.484871 0.359167
0.340978 0.496101 0.368109
0.381384 0.509789 0.379156
0.426978 0.525872 0.392401
0.476570 0.543603 0.407568
0.530480 0.562554 0.424292
0.587152 0.581720 0.442023
0.648035 0.603815 0.469734
0.712276 0.622919 0.465736
0.774685 0.630304 0.410864
0.828092 0.628626 0.357580
0.873075 0.620844 0.305730
0.911009 0.609033 0.254276
0.943481 0.594812 0.200443
0.971466 0.579004 0.135409
0.995789 0.562432 0.000000
1.000000 0.546502 0.000000
1.000000 0.537987 0.000000
1.000000 0.529351 0.053712
1.000000 0.521172 0.130526
1.000000 0.513664 0.168673
1.000000 0.507225 0.199710
1.000000 0.502068 0.227756
1.000000 0.498299 0.253513
0.261143 0.498451 0.384741
0.261479 0.498329 0.384833
0.262882 0.497169 0.384527
0.265660 0.494881 0.383978
0.270146 0.491432 0.383154
0.275486 0.489845 0.382147
0.280797 0.495705 0.380316
0.287877 0.503532 0.377966
0.304601 0.513085 0.378424
0.339361 0.523461 0.386877
0.377752 0.535546 0.396918
0.419867 0.549157 0.408515
0.465248 0.564141 0.421546
0.514031 0.579980 0.435889
0.564996 0.596277 0.451240
0.618372 0.612787 0.467659
0.674586 0.631647 0.493751
0.731441 0.648371 0.500328
0.789914 0.654810 0.447211
0.840055 0.652705 0.395911
0.882506 0.644800 0.346960
0.918791 0.632990 0.299077
0.949920 0.618647 0.250889
0.976928 0.602655 0.199008
1.000000 0.585657 0.135714
1.000000 0.568200 0.000000
1.000000 0.554772 0.000000
1.000000 0.546197 0.059480
1.000000 0.538048 0.135988
1.000000 0.530724 0.175509
1.000000 0.524407 0.208011
1.000000 0.519280 0.236759
0.271946 0.524712 0.404181
0.272404 0.524437 0.404120
0.273808 0.523522 0.403876
0.276371 0.521569 0.403479
0.280674 0.518639 0.402960
0.286351 0.514824 0.402319
0.291356 0.520012 0.400916
0.298161 0.527214 0.399054
0.306737 0.536095 0.396368
0.335637 0.545708 0.402289
0.371984 0.556756 0.411566
0.411627 0.569116 0.422248
0.454322 0.582696 0.434333
0.499580 0.597101 0.447486
0.547448 0.611994 0.461769
0.596826 0.626825 0.477089
0.647211 0.641566 0.493477
0.699367 0.658289 0.518456
0.749569 0.673274 0.536034
0.804257 0.678859 0.484688
0.850980 0.676448 0.435981
0.891142 0.668208 0.388952
0.925414 0.656245 0.343755
0.955138 0.641749 0.298985
0.981140 0.625544 0.252995
1.000000 0.608362 0.203372
1.000000 0.590539 0.142855
1.000000 0.572503 0.000000
1.000000 0.562249 0.079377
1.000000 0.554345 0.144198
1.000000 0.547204 0.185336
1.000000 0.541222 0.219150
0.285374 0.553796 0.426001
0.285832 0.553887 0.426154
0.298619 0.574090 0.442390
0.301061 0.572381 0.441993
0.305058 0.569482 0.441413
0.310338 0.565606 0.440650
0.316075 0.567102 0.439368
0.322606 0.573510 0.437476
0.330877 0.581537 0.435187
0.348241 0.590936 0.435645
0.384131 0.600702 0.444434
0.422736 0.611658 0.454444
0.463539 0.623041 0.465431
0.506188 0.634852 0.477363
0.550347 0.646632 0.490242
0.595575 0.658289 0.503960
0.641291 0.669825 0.518456
0.687007 0.681361 0.533898
0.732998 0.694362 0.556847
0.774289 0.706142 0.583398
0.823148 0.709285 0.533349
0.865263 0.705074 0.485908
0.901701 0.695613 0.440223
0.933379 0.682551 0.396155
0.961059 0.666926 0.352239
0.985382 0.649866 0.308415
1.000000 0.631830 0.263127
1.000000 0.613275 0.214420
1.000000 0.594598 0.156832
1.000000 0.577691 0.096956
1.000000 0.569970 0.156405
1.000000 0.563134 0.198001
0.303532 0.588922 0.453071
0.304906 0.590692 0.454597
0.307317 0.592004 0.456062
0.310643 0.592248 0.457221
0.315068 0.591241 0.457801
0.320287 0.588342 0.457649
0.326177 0.586816 0.456764
0.332158 0.592340 0.455085
0.339818 0.599420 0.453101
0.349157 0.607965 0.450599
0.377905 0.616968 0.456153
0.414191 0.626551 0.465309
0.452461 0.636591 0.475380
0.492805 0.647028 0.486488
0.534295 0.657679 0.498512
0.576867 0.668544 0.511406
0.620020 0.679408 0.525292
0.663478 0.690364 0.540246
0.707027 0.701503 0.556512
0.750118 0.713924 0.578943
0.785824 0.724758 0.613977
0.831174 0.728328 0.568994
0.870603 0.724392 0.524315
0.905058 0.715236 0.480720
0.935241 0.702419 0.438148
0.961975 0.687190 0.396246
0.985687 0.670375 0.354620
1.000000 0.652583 0.312932
1.000000 0.634302 0.270146
1.000000 0.615747 0.224308
1.000000 0.597070 0.171023
1.000000 0.584253 0.167056
0.316655 0.613611 0.472175
0.318120 0.615412 0.473732
0.320500 0.616907 0.475380
0.323796 0.617487 0.476661
0.328099 0.616754 0.477516
0.332891 0.614343 0.477424
0.338689 0.610498 0.476844
0.344671 0.614649 0.475441
0.351904 0.620813 0.473762
0.360479 0.628229 0.471565
0.376104 0.636683 0.471321
0.410834 0.644892 0.479713
0.447120 0.653681 0.489021
0.485237 0.662989 0.499458
0.524529 0.672572 0.510796
0.564508 0.682307 0.522911
0.605341 0.692103 0.536065
0.646235 0.701991 0.549981
0.687129 0.712154 0.565270
0.727718 0.722408 0.581628
0.767269 0.733486 0.602655
0.798459 0.742794 0.637354
0.838132 0.746487 0.604059
0.874693 0.742916 0.562951
0.907073 0.734127 0.521447
0.935943 0.721859 0.480629
0.961761 0.707118 0.440589
0.984955 0.690883 0.401251
1.000000 0.673640 0.362585
1.000000 0.655726 0.323827
1.000000 0.637171 0.283146
1.000000 0.618128 0.238499
0.332403 0.639734 0.493141
0.334051 0.641413 0.494606
0.336461 0.642603 0.496162
0.339696 0.643091 0.497353
0.343328 0.642481 0.498116
0.347845 0.640375 0.497993
0.352819 0.637079 0.497566
0.358740 0.637293 0.496590
0.365698 0.642756 0.495155
0.374304 0.649226 0.493416
0.384710 0.656825 0.491249
0.410864 0.664363 0.495857
0.445228 0.672023 0.504601
0.481392 0.680110 0.514305
0.518791 0.688685 0.525078
0.556725 0.697566 0.536828
0.595727 0.706874 0.549798
0.635218 0.716487 0.564019
0.674647 0.726467 0.579522
0.713619 0.736568 0.596002
0.751492 0.746548 0.613458
0.787594 0.756954 0.634272
0.814054 0.764797 0.667506
0.847532 0.768704 0.646906
0.880308 0.765957 0.611658
0.910002 0.758236 0.575158
0.937133 0.746853 0.537774
0.961791 0.733028 0.500877
0.984161 0.717678 0.465126
1.000000 0.700710 0.428901
1.000000 0.682704 0.392493
1.000000 0.663996 0.355169
0.362860 0.676783 0.525536
0.363775 0.677363 0.526238
0.365148 0.677424 0.526696
0.366827 0.676753 0.526757
0.369329 0.675227 0.526574
0.372473 0.672755 0.525963
0.376593 0.669551 0.525139
0.381659 0.666224 0.524376
0.388495 0.670771 0.523125
0.397070 0.676478 0.521874
0.407355 0.682979 0.520409
0.421057 0.690242 0.519707
0.453925 0.696773 0.528008
0.488014 0.703700 0.537285
0.523003 0.710964 0.547295
0.558740 0.718532 0.558343
0.595056 0.726284 0.570336
0.631464 0.734310 0.583276
0.667659 0.742489 0.597040
0.703395 0.750698 0.611566
0.738125 0.758846 0.626917
0.771298 0.766873 0.642786
0.802670 0.775082 0.660853
0.824643 0.780789 0.690639
0.852445 0.784268 0.678706
0.882078 0.782132 0.647547
0.909422 0.775692 0.615503
0.934691 0.765896 0.582696
0.958190 0.753170 0.548547
0.979889 0.738491 0.514305
0.999847 0.722316 0.480201
1.000000 0.704891 0.445563
0.387701 0.702022 0.549218
0.388586 0.702480 0.549767
0.389837 0.702541 0.550225
0.391577 0.702022 0.550439
0.393683 0.700801 0.550317
0.396368 0.698756 0.549889
0.399786 0.696071 0.549279
0.404150 0.692744 0.548608
0.410407 0.693874 0.547906
0.418921 0.698726 0.546960
0.428717 0.704402 0.546014
0.439979 0.710842 0.544884
0.462104 0.717098 0.548577
0.494362 0.723201 0.557427
0.527489 0.729580 0.567254
0.561242 0.736263 0.577813
0.595392 0.743252 0.589288
0.629480 0.750301 0.601465
0.663355 0.757473 0.614435
0.696712 0.764614 0.628138
0.729213 0.771786 0.642603
0.760281 0.778775 0.657557
0.789517 0.785611 0.672908
0.816983 0.792721 0.689296
0.832975 0.794034 0.710719
0.856168 0.797574 0.706447
0.882994 0.796139 0.679011
0.907958 0.790829 0.650782
0.931487 0.782345 0.621546
0.953521 0.771298 0.591699
0.974243 0.758175 0.561151
0.993622 0.743191 0.529534
0.425879 0.732570 0.581109
0.427436 0.733333 0.582116
0.428473 0.733394 0.582513
0.429389 0.732540 0.582269
0.430182 0.730892 0.581445
0.431312 0.728450 0.580255
0.432685 0.725368 0.578820
0.435157 0.721736 0.577264
0.438880 0.718471 0.575860
0.445533 0.721798 0.574304
0.453498 0.725734 0.572747
0.463539 0.730526 0.571344
0.474525 0.735897 0.569970
0.502129 0.740536 0.576806
0.531945 0.745388 0.584833
0.562341 0.750454 0.593774
0.593378 0.755886 0.603571
0.624933 0.761715 0.614405
0.656703 0.767941 0.626398
0.688411 0.774411 0.639521
0.719387 0.780911 0.653315
0.748989 0.787259 0.667597
0.776761 0.793301 0.681819
0.802335 0.798856 0.695644
0.825803 0.804227 0.709224
0.841459 0.807492 0.732204
0.859953 0.810452 0.733028
0.883787 0.809598 0.709407
0.906462 0.805295 0.684596
0.927916 0.798215 0.659266
0.948211 0.788846 0.633417
0.967315 0.777615 0.607233
0.454932 0.752926 0.603998
0.456519 0.753597 0.604944
0.457710 0.753811 0.605585
0.458869 0.753384 0.605707
0.460029 0.752377 0.605402
0.461707 0.750820 0.605005
0.463935 0.748898 0.604547
0.466835 0.746548 0.604089
0.470710 0.743832 0.603815
0.477150 0.744808 0.603510
0.485573 0.748592 0.603021
0.495277 0.752956 0.602564
0.506004 0.757595 0.601953
0.522148 0.762142 0.603662
0.549004 0.765988 0.611078
0.576471 0.770047 0.619135
0.604608 0.774319 0.627985
0.633234 0.778988 0.637842
0.662165 0.784024 0.648737
0.690974 0.789181 0.660548
0.719112 0.794400 0.672969
0.746120 0.799619 0.685847
0.771572 0.804685 0.698817
0.795285 0.809567 0.711666
0.817075 0.814237 0.724147
0.836973 0.818723 0.736141
0.850309 0.821530 0.755428
0.864775 0.824247 0.760616
0.885283 0.824430 0.742306
0.904784 0.821683 0.723079
0.923461 0.816434 0.703029
0.941192 0.809171 0.682307
0.496010 0.776364 0.633783
0.496864 0.776669 0.634302
0.497627 0.776608 0.634516
0.498268 0.776181 0.634516
0.499123 0.775296 0.634241
0.500175 0.774075 0.633814
0.501732 0.772427 0.633387
0.503807 0.770504 0.632959
0.506920 0.768246 0.632685
0.510948 0.766110 0.632593
0.518700 0.769162 0.632258
0.527581 0.772732 0.632105
0.537499 0.776547 0.631922
0.547814 0.780423 0.631495
0.567742 0.783749 0.635889
0.592126 0.786770 0.642969
0.617151 0.790066 0.650752
0.642725 0.793606 0.659419
0.668727 0.797482 0.669093
0.694850 0.801663 0.679683
0.720485 0.806027 0.690974
0.745174 0.810391 0.702724
0.768551 0.814603 0.714382
0.790341 0.818753 0.725826
0.810452 0.822751 0.736934
0.828916 0.826596 0.747616
0.845945 0.830411 0.758022
0.857298 0.832486 0.773587
0.868589 0.834836 0.781399
0.886320 0.835813 0.767178
0.903075 0.834409 0.752560
0.918944 0.831022 0.737606
0.534752 0.795438 0.660731
0.535454 0.795590 0.661158
0.536278 0.795621 0.661433
0.537133 0.795407 0.661677
0.538384 0.794949 0.661891
0.540368 0.794430 0.662318
0.543664 0.793973 0.663325
0.547906 0.793484 0.664698
0.553246 0.792905 0.666499
0.559258 0.792264 0.668605
0.567895 0.793729 0.670832
0.578607 0.797482 0.672938
0.589837 0.801266 0.674922
0.601221 0.804959 0.676631
0.613092 0.808530 0.678370
0.634211 0.810971 0.685298
0.655390 0.813413 0.692500
0.676905 0.816037 0.700252
0.698787 0.818906 0.708858
0.720577 0.821988 0.718074
0.741848 0.825254 0.727718
0.762295 0.828580 0.737514
0.781460 0.831815 0.747036
0.799466 0.835019 0.756374
0.816159 0.838102 0.765316
0.831662 0.841154 0.773983
0.845975 0.844175 0.782376
0.859098 0.847166 0.790494
0.867674 0.848356 0.801419
0.875303 0.849851 0.809384
0.889097 0.851194 0.799466
0.902037 0.850797 0.789548
0.596582 0.818906 0.701106
0.596612 0.818906 0.701106
0.596735 0.818692 0.701045
0.596857 0.818357 0.700862
0.597192 0.817868 0.700710
0.597986 0.817197 0.700587
0.599359 0.816403 0.700649
0.601251 0.815518 0.700893
0.603815 0.814511 0.701411
0.607111 0.813382 0.702144
0.611139 0.812039 0.703059
0.618494 0.814023 0.703975
0.626886 0.816495 0.704921
