lut_library_archive/removed_20260629/抖音热门推荐/抖音热门推荐01.cube
# 版权归凌孟成所有，侵权必究
# Created by Adobe Lightroom plugin Export LUT (1.24.0)
# www.johnrellis.com/lightroom/exportlut.htm
# Preset: INS风格-缇米设计01
# Color profile: C:\Program Files (x86)\Common Files\Adobe\Color\Profiles\Recommended\VideoHD.icc
LUT_3D_SIZE 5
DOMAIN_MIN 0.000000 0.000000 0.000000
DOMAIN_MAX 0.903226 0.903226 0.903226
0.110475 0.096010 0.094759
0.389075 0.058808 0.112398
0.736812 0.149905 0.152071
0.902220 0.410986 0.265385
0.963165 0.577325 0.473304
0.000000 0.289891 0.155276
0.319554 0.264683 0.212161
0.682795 0.328222 0.152895
0.874052 0.466346 0.260716
0.953582 0.607416 0.483192
0.000000 0.588342 0.363012
0.174960 0.558404 0.327214
0.596124 0.553368 0.494911
0.796689 0.572961 0.239872
0.920714 0.675380 0.484840
0.351659 0.742245 0.563409
0.360784 0.734768 0.548272
0.455909 0.707424 0.488167
0.727901 0.710506 0.679744
0.868406 0.760098 0.650019
0.622889 0.846983 0.743984
0.627405 0.846250 0.742580
0.634028 0.839719 0.729366
0.754147 0.833494 0.751827
0.835294 0.830320 0.813474
0.114290 0.132601 0.189517
0.425422 0.000000 0.284886
0.768887 0.223728 0.309911
0.886534 0.437720 0.387762
0.949523 0.578302 0.517632
0.154910 0.353429 0.276280
0.436072 0.379248 0.324895
0.719783 0.408240 0.325444
0.865415 0.485145 0.378119
0.940917 0.602411 0.518730
0.344793 0.627008 0.476234
0.379156 0.603418 0.443915
0.614466 0.578820 0.534081
0.795193 0.578241 0.334508
0.914122 0.677058 0.527459
0.443641 0.749416 0.605371
0.447364 0.743130 0.591211
0.482734 0.713588 0.530205
0.732540 0.716213 0.690425
0.869322 0.759640 0.650599
0.636927 0.847227 0.751614
0.640162 0.846372 0.749752
0.656672 0.843870 0.744900
0.757809 0.836667 0.758572
0.838132 0.833280 0.817411
0.000000 0.224399 0.407874
0.253880 0.214817 0.509483
0.795621 0.349920 0.667048
0.891356 0.526787 0.648707
0.932677 0.628565 0.663447
0.229709 0.362921 0.415900
0.360937 0.400793 0.520104
0.774136 0.512810 0.669734
0.869383 0.580255 0.647883
0.922759 0.653468 0.668605
0.414466 0.686824 0.631586
0.524773 0.697200 0.649531
0.716609 0.700160 0.681025
0.808286 0.673487 0.631586
0.898955 0.702998 0.670344
0.582116 0.781033 0.706355
0.613428 0.774441 0.705592
0.650019 0.749477 0.680781
0.755123 0.742885 0.733364
0.877501 0.758145 0.650050
0.666438 0.849668 0.773342
0.683650 0.848234 0.775875
0.695979 0.845274 0.770077
0.738888 0.839353 0.760586
0.838865 0.834409 0.820127
0.000000 0.352789 0.612451
0.000000 0.332494 0.655909
0.682673 0.428748 0.762173
0.875425 0.601892 0.794553
0.914336 0.699062 0.785397
0.149050 0.445319 0.605280
0.267002 0.445045 0.646296
0.666499 0.519463 0.754147
0.860227 0.648096 0.790799
0.907774 0.710658 0.784451
0.285344 0.581750 0.609277
0.381933 0.582147 0.612299
0.645350 0.663172 0.722255
0.832700 0.731167 0.786069
0.889067 0.751186 0.784482
0.609735 0.794553 0.765560
0.639979 0.795682 0.768429
0.727382 0.805509 0.783047
0.807004 0.803159 0.791897
0.870695 0.793332 0.776547
0.674525 0.862058 0.800504
0.689204 0.860807 0.801541
0.739864 0.856138 0.805753
0.782803 0.847471 0.803922
0.845426 0.842069 0.832181
0.145022 0.539574 0.775235
0.266545 0.522271 0.785061
0.588037 0.519677 0.815732
0.824613 0.638331 0.842100
0.906004 0.717494 0.845457
0.243351 0.570489 0.763882
0.320745 0.560845 0.774624
0.573358 0.549737 0.808896
0.814786 0.660670 0.837705
0.901122 0.728084 0.843717
0.187076 0.625269 0.725429
0.314244 0.628687 0.736995
0.554650 0.648127 0.783810
0.789487 0.713771 0.827298
0.884947 0.773983 0.842710
0.369360 0.755764 0.776303
0.401251 0.751705 0.773983
0.522789 0.739040 0.769375
0.749508 0.765957 0.811185
0.871244 0.824460 0.848203
0.632319 0.860990 0.829343
0.649897 0.860014 0.829770
0.721218 0.857816 0.834165
0.805203 0.856840 0.843320
0.859159 0.857572 0.854368
