lut_library_archive/removed_20260629/抖音热门推荐/抖音热门推荐04.cube
# 版权归凌孟成所有，侵权必究
# Created by Adobe Lightroom plugin Export LUT (1.24.0)
# www.johnrellis.com/lightroom/exportlut.htm
# Preset: INS风格-缇米设计04
# Color profile: C:\Program Files (x86)\Common Files\Adobe\Color\Profiles\Recommended\VideoHD.icc
LUT_3D_SIZE 5
DOMAIN_MIN 0.000000 0.000000 0.000000
DOMAIN_MAX 0.903226 0.903226 0.903226
0.187564 0.151980 0.136934
0.331823 0.165530 0.149691
0.686915 0.161074 0.154238
0.911437 0.404181 0.212894
0.960388 0.577295 0.453864
0.232822 0.221653 0.174014
0.345647 0.293034 0.249699
0.639765 0.301183 0.157198
0.880980 0.460975 0.216434
0.947723 0.613764 0.483619
0.317754 0.427497 0.294408
0.363378 0.365362 0.284245
0.742458 0.731380 0.724666
0.813809 0.590265 0.290867
0.908354 0.684993 0.531823
0.504631 0.650538 0.533013
0.525750 0.629267 0.525292
0.676814 0.687831 0.646784
0.815213 0.813474 0.803128
0.854246 0.783017 0.721492
0.715999 0.802640 0.751278
0.723079 0.799924 0.752407
0.740169 0.776150 0.747158
0.809751 0.813107 0.797787
0.839536 0.837308 0.829435
0.195163 0.170596 0.186770
0.356481 0.153872 0.226963
0.721981 0.061555 0.222141
0.890318 0.373419 0.283452
0.949493 0.558129 0.464424
0.208408 0.294285 0.224155
0.377264 0.309209 0.252750
0.681361 0.328557 0.239170
0.866514 0.443549 0.286625
0.938476 0.589136 0.480659
0.357244 0.501213 0.363134
0.407233 0.442084 0.343572
0.733700 0.722347 0.713283
0.799161 0.575433 0.328313
0.902678 0.682246 0.549859
0.525689 0.671992 0.561883
0.544396 0.652705 0.554070
0.673030 0.684352 0.643610
0.816617 0.814908 0.804593
0.854582 0.779019 0.715572
0.716396 0.805295 0.753780
0.722621 0.802274 0.754147
0.750607 0.790280 0.759884
0.812406 0.815610 0.800473
0.840543 0.838346 0.830686
0.110445 0.223026 0.395453
0.290074 0.195102 0.475410
0.792630 0.197635 0.612024
0.905791 0.420539 0.568811
0.940948 0.575677 0.596704
0.201144 0.355718 0.429297
0.323217 0.335760 0.506615
0.777798 0.425849 0.613306
0.882353 0.494881 0.560815
0.920287 0.627222 0.622492
0.335424 0.678920 0.597894
0.495583 0.684535 0.612329
0.716762 0.686824 0.655451
0.810086 0.636103 0.568383
0.890867 0.693660 0.644434
0.599786 0.740322 0.668330
0.629236 0.730556 0.666987
0.651484 0.668360 0.626947
0.820035 0.817716 0.806943
0.859831 0.759274 0.684565
0.715663 0.814878 0.763424
0.721981 0.812802 0.763577
0.746059 0.801907 0.764584
0.806485 0.811704 0.795956
0.841306 0.839139 0.831693
0.000000 0.338354 0.665827
0.000000 0.283940 0.693233
0.720851 0.328588 0.759213
0.882139 0.538689 0.766720
0.909758 0.661250 0.748043
0.000000 0.461982 0.666102
0.233585 0.423316 0.690455
0.702846 0.467140 0.751583
0.864439 0.594537 0.761563
0.901762 0.675715 0.746304
0.339940 0.633845 0.673457
0.449195 0.633661 0.675349
0.680507 0.668818 0.732662
0.825254 0.710018 0.757015
0.881987 0.719387 0.749203
0.614008 0.792081 0.754635
0.645472 0.791409 0.756588
0.727840 0.790463 0.765408
0.803464 0.794308 0.781338
0.857816 0.775692 0.755917
0.690425 0.835752 0.781613
0.703883 0.834134 0.782956
0.751827 0.828000 0.788815
0.792508 0.809689 0.789670
0.843107 0.840970 0.833890
0.000000 0.510460 0.797635
0.186282 0.471748 0.803891
0.624140 0.476478 0.817380
0.838315 0.588403 0.828061
0.895842 0.695613 0.817350
0.217533 0.567407 0.789273
0.315496 0.545098 0.795346
0.613733 0.531151 0.811337
0.828000 0.623529 0.824155
0.890745 0.707454 0.816251
0.319066 0.671046 0.770474
0.415045 0.669917 0.774533
0.606989 0.660914 0.794919
0.800565 0.706325 0.814908
0.873716 0.755306 0.816526
0.459052 0.770077 0.790005
0.499794 0.767025 0.789090
0.633326 0.759670 0.788540
0.776242 0.775967 0.808591
0.854459 0.807218 0.819730
0.646418 0.846342 0.809689
0.663905 0.845243 0.810208
0.730892 0.841825 0.813931
0.803433 0.838804 0.820829
0.842130 0.838224 0.829282
