lut_library_archive/removed_20260629/抖音热门推荐/抖音热门推荐05.cube
# 版权归凌孟成所有，侵权必究
# Created by Adobe Lightroom plugin Export LUT (1.24.0)
# www.johnrellis.com/lightroom/exportlut.htm
# Preset: INS风格-缇米设计05
# Color profile: C:\Program Files (x86)\Common Files\Adobe\Color\Profiles\Recommended\VideoHD.icc
LUT_3D_SIZE 32
DOMAIN_MIN 0.0 0.0 0.0
DOMAIN_MAX 1.0 1.0 1.0
0.028687 0.035340 0.052186
0.029938 0.036316 0.052033
0.040162 0.037385 0.052796
0.060822 0.041688 0.055207
0.083986 0.047486 0.059541
0.100526 0.054902 0.065614
0.119936 0.064942 0.070832
0.146578 0.072389 0.074220
0.179019 0.075898 0.076692
0.218479 0.074952 0.077424
0.264836 0.064698 0.077211
0.317510 0.045258 0.074861
0.376532 0.009796 0.069734
0.440467 0.000000 0.061280
0.504997 0.000000 0.051331
0.567346 0.000000 0.039002
0.625452 0.000000 0.026398
0.677363 0.000000 0.011780
0.724239 0.000000 0.000000
0.780423 0.000000 0.000000
0.823178 0.084901 0.000000
0.856504 0.160555 0.000000
0.882353 0.209689 0.000000
0.903105 0.250431 0.000000
0.920317 0.285191 0.000000
0.935027 0.316930 0.000000
0.948211 0.346777 0.011231
0.960632 0.376104 0.066896
0.973175 0.405554 0.108125
0.985901 0.435706 0.138766
0.998962 0.466468 0.173098
1.000000 0.498054 0.211368
0.028931 0.037507 0.053010
0.028656 0.037507 0.054139
0.040131 0.039551 0.054780
0.059815 0.042878 0.056184
0.083375 0.048707 0.060517
0.099458 0.057527 0.065339
0.118746 0.066621 0.070680
0.144015 0.072724 0.074434
0.175631 0.077363 0.076936
0.213565 0.077668 0.077913
0.258274 0.070039 0.077974
0.309361 0.053529 0.074983
0.367285 0.019776 0.070710
0.430182 0.000000 0.063996
0.494331 0.000000 0.053925
0.557305 0.000000 0.042054
0.615869 0.000000 0.028931
0.669032 0.000000 0.014343
0.717037 0.000000 0.000000
0.771725 0.000000 0.000000
0.814023 0.045686 0.000000
0.847410 0.144564 0.000000
0.873686 0.194949 0.000000
0.895079 0.236179 0.000000
0.913054 0.271397 0.000000
0.928496 0.303410 0.000000
0.942473 0.333593 0.000000
0.955352 0.363561 0.035706
0.968322 0.393744 0.093751
0.981384 0.424567 0.126192
0.994751 0.456062 0.159731
1.000000 0.488197 0.197818
0.030121 0.045014 0.058747
0.031098 0.045991 0.059724
0.037720 0.046296 0.061799
0.056306 0.052033 0.061799
0.081971 0.056641 0.063996
0.098726 0.065492 0.068818
0.117861 0.073579 0.074311
0.142977 0.079286 0.076936
0.173709 0.082765 0.078248
0.210727 0.083833 0.078920
0.254490 0.081025 0.078187
0.304601 0.068116 0.075502
0.361242 0.040253 0.071260
0.422736 0.000000 0.064942
0.486549 0.000000 0.055238
0.549645 0.000000 0.044953
0.608698 0.000000 0.030762
0.662348 0.000000 0.017365
0.712490 0.000000 0.000946
0.765957 0.000000 0.000000
0.808011 0.057496 0.000000
0.841642 0.145266 0.000000
0.868284 0.193423 0.000000
0.890288 0.233127 0.000000
0.908598 0.267704 0.000000
0.924529 0.298894 0.000000
0.938811 0.329595 0.000000
0.952087 0.359228 0.024170
0.965209 0.389319 0.085542
0.978485 0.420325 0.119387
0.992096 0.451637 0.153017
1.000000 0.483742 0.190890
0.034424 0.062013 0.072145
0.036103 0.061769 0.073274
0.042451 0.062074 0.076478
0.050050 0.063355 0.079042
0.076417 0.071565 0.078706
0.098329 0.080690 0.075593
0.117983 0.085054 0.077852
0.142550 0.089174 0.079500
0.173251 0.091676 0.080293
0.209812 0.093355 0.080049
0.252415 0.093202 0.079194
0.301396 0.089113 0.078157
0.356756 0.076265 0.073610
0.417182 0.037568 0.067323
0.479438 0.000000 0.057740
0.541314 0.000000 0.046662
0.599420 0.000000 0.034394
0.652918 0.000000 0.020996
0.704829 0.000000 0.004761
0.755215 0.000000 0.000000
0.796139 0.083009 0.000000
0.829709 0.144961 0.000000
0.857542 0.189944 0.000000
0.881285 0.229129 0.000000
0.901640 0.264530 0.000000
0.919158 0.297551 0.000000
0.934966 0.329259 0.000000
0.949218 0.359869 0.019745
0.962921 0.390387 0.083558
0.976501 0.421088 0.117769
0.990021 0.451911 0.151583
1.000000 0.482612 0.186923
0.038544 0.082185 0.083772
0.040223 0.082033 0.084474
0.046876 0.082216 0.085817
0.056886 0.082124 0.088319
0.069459 0.083284 0.089845
0.092653 0.089937 0.089326
0.114565 0.095308 0.085267
0.141085 0.099001 0.082246
0.171084 0.102144 0.082124
0.206058 0.104860 0.082460
0.247410 0.106203 0.081453
0.295079 0.106081 0.079225
0.348638 0.102052 0.075349
0.408301 0.092439 0.068696
0.470771 0.061189 0.060945
0.532555 0.013336 0.050263
0.591821 0.000000 0.037385
0.646296 0.000000 0.022766
0.701289 0.000000 0.006714
0.749783 0.044984 0.000000
0.789853 0.120638 0.000000
0.823362 0.163607 0.000000
0.851469 0.202426 0.000000
0.876005 0.238407 0.000000
0.897063 0.272007 0.000000
0.915373 0.304326 0.000000
0.931609 0.334813 0.000000
0.946227 0.364446 0.018067
0.959960 0.393957 0.082033
0.973571 0.423529 0.116579
0.987152 0.453132 0.149508
1.000000 0.482918 0.183627
0.039216 0.097780 0.091676
0.041199 0.097688 0.091676
0.048249 0.097383 0.092927
0.062623 0.096773 0.094911
0.078614 0.097230 0.096681
0.089357 0.098390 0.098726
0.107546 0.105684 0.098085
0.136019 0.112459 0.093050
0.170321 0.117617 0.088167
0.206546 0.121340 0.085115
0.247501 0.124422 0.083436
0.294835 0.126070 0.081361
0.348058 0.125551 0.078401
0.407050 0.121584 0.071687
0.469032 0.113466 0.063630
0.530938 0.102876 0.051453
0.590173 0.091249 0.039216
0.645106 0.086397 0.024811
0.702083 0.101564 0.006226
0.749233 0.129030 0.000000
0.788388 0.161654 0.000000
0.821347 0.195315 0.000000
0.892973 0.299016 0.000000
0.911772 0.328679 0.000000
0.927581 0.355871 0.002899
0.941375 0.381445 0.052338
0.953979 0.405982 0.099001
0.966247 0.430365 0.124849
0.978332 0.455055 0.151492
0.990478 0.479988 0.180606
1.000000 0.505058 0.212284
1.000000 0.530266 0.246586
0.021942 0.123171 0.101564
0.025635 0.123049 0.101930
0.036652 0.122744 0.102998
0.057130 0.121828 0.105470
0.081971 0.121004 0.108492
0.096651 0.122194 0.110994
0.109804 0.123964 0.114565
0.135134 0.134340 0.114199
0.174685 0.144564 0.104463
0.218479 0.151125 0.095521
0.266239 0.154330 0.085420
0.317235 0.157412 0.083131
0.373480 0.158572 0.078370
0.433783 0.157046 0.070161
0.494697 0.153170 0.060060
0.553887 0.149020 0.048676
0.609857 0.146761 0.035828
0.669917 0.153964 0.017395
0.724544 0.172122 0.000000
0.770138 0.197604 0.000000
0.809445 0.227695 0.000000
0.843412 0.261357 0.000000
0.872404 0.295445 0.000000
0.896391 0.328374 0.000000
0.916167 0.358282 0.000000
0.932189 0.384741 0.042359
0.945892 0.408698 0.093507
0.958648 0.431922 0.119265
0.971069 0.455360 0.144961
0.983429 0.478767 0.173190
0.995789 0.502831 0.202823
1.000000 0.527153 0.235996
0.000000 0.151583 0.112093
0.000000 0.151766 0.112673
0.003265 0.151278 0.113649
0.031373 0.150423 0.116091
0.071351 0.148867 0.119966
0.097230 0.148806 0.123690
0.114534 0.150851 0.127352
0.132021 0.153109 0.132052
0.162844 0.166110 0.133761
0.209873 0.178256 0.120150
0.260746 0.185458 0.107179
0.314000 0.188510 0.094423
0.368719 0.189212 0.082002
0.427283 0.189883 0.075227
0.486519 0.189456 0.064057
0.544732 0.188418 0.053193
0.604578 0.190402 0.037018
0.664942 0.198672 0.019959
0.715572 0.212833 0.003845
0.759304 0.232120 0.000000
0.797482 0.256443 0.000000
0.831479 0.283879 0.000000
0.860990 0.313634 0.000000
0.885954 0.342840 0.000000
0.906615 0.370214 0.000000
0.923583 0.394598 0.042267
0.937987 0.417090 0.092287
0.951293 0.438575 0.116945
0.964294 0.460517 0.142885
0.977050 0.482795 0.169528
0.989776 0.505699 0.199191
1.000000 0.529198 0.231235
0.000000 0.189212 0.126467
0.000000 0.188968 0.126772
0.000000 0.188571 0.127840
0.000000 0.187350 0.130282
0.033783 0.186130 0.134554
0.094026 0.184054 0.140108
0.117037 0.185245 0.144106
0.139986 0.187900 0.148653
0.162844 0.190951 0.154421
0.198642 0.205142 0.159182
0.254307 0.219516 0.141573
0.311772 0.226780 0.124422
0.370214 0.228824 0.107088
0.426215 0.226871 0.088380
0.482826 0.226017 0.068910
0.543969 0.228367 0.055787
0.606439 0.234073 0.038819
0.661524 0.242161 0.022309
0.709102 0.254093 0.006653
0.751034 0.270085 0.000000
0.788510 0.289738 0.000000
0.821775 0.313237 0.000000
0.851438 0.338445 0.000000
0.876738 0.364141 0.000000
0.898009 0.388281 0.010040
0.915648 0.410315 0.053132
0.930785 0.430610 0.096315
0.944518 0.450446 0.120424
0.957916 0.470680 0.145266
0.971008 0.491402 0.171542
0.984070 0.512902 0.200107
0.997009 0.535058 0.231418
0.000000 0.233799 0.144106
0.000000 0.233371 0.144411
0.000000 0.232670 0.145602
0.000000 0.231510 0.148318
0.000000 0.229587 0.151858
0.068116 0.227359 0.157839
0.117311 0.225986 0.163821
0.146181 0.227726 0.168124
0.174258 0.230259 0.174075
0.201297 0.233921 0.180545
0.242039 0.248631 0.189120
0.303471 0.263615 0.167819
0.366186 0.270512 0.146456
0.426398 0.272190 0.125246
0.488472 0.272770 0.101930
0.545922 0.271489 0.058717
0.604669 0.277256 0.041016
0.657557 0.285466 0.024384
0.704250 0.296330 0.010834
0.745083 0.310033 0.000000
0.780667 0.326177 0.000000
0.812375 0.344366 0.000000
0.840604 0.364202 0.000000
0.865171 0.384680 0.000000
0.886259 0.404334 0.015351
0.904540 0.423041 0.055848
0.920562 0.441413 0.095125
0.935180 0.459602 0.119631
0.949248 0.478737 0.143160
0.963226 0.498695 0.169558
0.977050 0.519677 0.198459
0.990753 0.541375 0.230564
0.000000 0.280339 0.163851
0.000000 0.280308 0.163851
0.000000 0.279850 0.165011
0.000000 0.278752 0.167819
0.000000 0.277501 0.171939
0.000000 0.275700 0.177737
0.113161 0.273136 0.185580
0.153170 0.273960 0.191440
0.186862 0.276616 0.196994
0.220218 0.280156 0.203952
0.252415 0.283940 0.211673
0.297215 0.298650 0.224674
0.367651 0.316411 0.200626
0.437629 0.326665 0.176425
0.501305 0.330816 0.151614
0.557855 0.330419 0.124056
0.606744 0.327794 0.091035
0.651514 0.327031 0.028962
0.696040 0.336309 0.016205
0.735439 0.347478 0.004120
0.770596 0.360632 0.000000
0.801907 0.375494 0.000000
0.830167 0.392493 0.000000
0.855222 0.409705 0.009461
0.876951 0.426978 0.035615
0.895811 0.443580 0.077333
0.912566 0.459876 0.103151
0.927703 0.476112 0.126070
0.942321 0.493385 0.149691
0.956664 0.511833 0.175296
0.970947 0.531395 0.203555
0.985046 0.551812 0.235416
0.000000 0.336309 0.187747
0.000000 0.336248 0.188205
0.000000 0.335546 0.189212
0.000000 0.334874 0.191897
0.000000 0.333837 0.196292
0.000000 0.332189 0.202060
0.104402 0.330327 0.209812
0.164248 0.328222 0.219120
0.205234 0.330602 0.224582
0.243900 0.333745 0.231388
0.283940 0.339117 0.240574
0.326543 0.347936 0.252567
0.437171 0.412451 0.306798
0.510552 0.431586 0.275181
0.572534 0.439246 0.242222
0.623987 0.439948 0.208621
0.666316 0.436469 0.173770
0.702205 0.430976 0.135225
0.733089 0.424659 0.084413
0.764767 0.428168 0.031800
0.795560 0.438331 0.041932
0.822904 0.449744 0.057954
0.846830 0.461311 0.079438
0.868040 0.473243 0.099031
0.886656 0.484871 0.114839
0.903197 0.496162 0.132326
0.917967 0.507164 0.150057
0.931884 0.519066 0.168887
0.945403 0.532250 0.189914
0.959014 0.546838 0.213046
0.972595 0.562707 0.239017
0.986145 0.580163 0.268986
0.000000 0.417700 0.225376
0.000000 0.417517 0.225406
0.000000 0.416022 0.226444
0.000000 0.414160 0.228336
0.000000 0.411414 0.232242
0.000000 0.407874 0.237278
0.113954 0.404273 0.244541
0.192020 0.403113 0.255528
0.248234 0.406806 0.266911
0.298009 0.414649 0.277409
0.348730 0.424292 0.289982
0.399268 0.435737 0.305089
0.448096 0.447608 0.322057
0.502525 0.468177 0.349126
0.565484 0.486000 0.322667
0.616876 0.491676 0.287358
0.659388 0.490425 0.251438
0.695155 0.485084 0.214511
0.726101 0.478096 0.176699
0.753170 0.470558 0.136110
0.777371 0.463172 0.071260
0.805112 0.471443 0.078096
0.830472 0.480964 0.092042
0.853025 0.491127 0.105287
0.873014 0.501061 0.118807
0.890715 0.511406 0.136019
0.906676 0.521569 0.153079
0.921538 0.532494 0.172030
0.936065 0.544823 0.192813
0.950408 0.558618 0.215732
0.964752 0.573632 0.241947
0.978912 0.590265 0.271763
0.000000 0.482551 0.260380
0.000000 0.482094 0.260502
0.000000 0.481147 0.261570
0.000000 0.479225 0.263615
0.000000 0.476997 0.267216
0.000000 0.474800 0.272953
0.151431 0.472419 0.280644
0.227359 0.470344 0.290654
0.286656 0.469154 0.303899
0.335546 0.473426 0.313909
0.383490 0.480171 0.325139
0.431403 0.488472 0.338842
0.477028 0.497688 0.354253
0.518334 0.506554 0.370336
0.561059 0.521813 0.394781
0.609430 0.534478 0.371710
0.651331 0.536797 0.334264
0.687190 0.533593 0.296605
0.718441 0.528008 0.259525
0.745876 0.520531 0.221927
0.770657 0.512688 0.182681
0.793393 0.505669 0.140017
0.815854 0.503410 0.104128
0.839628 0.512047 0.115694
0.860685 0.520775 0.128450
0.879515 0.529808 0.143465
0.896422 0.538994 0.159854
0.912016 0.548760 0.179171
0.927153 0.559869 0.199405
0.942168 0.572595 0.222263
0.957092 0.586725 0.248569
0.971984 0.602472 0.278050
0.000000 0.546838 0.304814
0.000000 0.546380 0.304845
0.000000 0.544945 0.305180
0.000000 0.542565 0.306279
0.000000 0.539239 0.308751
0.125216 0.535637 0.312993
0.208316 0.532006 0.318730
0.270848 0.528832 0.327581
0.326024 0.526360 0.338781
0.375586 0.525994 0.351873
0.419654 0.530785 0.362371
0.463203 0.536919 0.374853
0.504448 0.543633 0.388769
0.541405 0.550103 0.403021
0.573419 0.555718 0.416876
0.605890 0.565972 0.437476
0.644343 0.575372 0.419074
0.679438 0.575921 0.381292
0.710750 0.572320 0.343236
0.738582 0.566217 0.305760
0.763729 0.559197 0.268864
0.786862 0.552117 0.231724
0.808133 0.545159 0.192935
0.827909 0.538628 0.149508
0.848356 0.541009 0.138308
0.868223 0.548913 0.153017
0.886198 0.557366 0.169650
0.902770 0.566430 0.187930
0.918914 0.577142 0.209506
0.934936 0.589624 0.233219
0.950896 0.603876 0.261509
0.966796 0.619654 0.293492
0.000000 0.594507 0.346654
0.000000 0.594568 0.347051
0.000000 0.593835 0.348028
0.101808 0.592401 0.349523
0.169986 0.590295 0.352056
0.226535 0.587671 0.356329
0.279576 0.585229 0.362432
0.330510 0.583154 0.371252
0.378607 0.581079 0.382025
0.423835 0.579400 0.394965
0.462745 0.580133 0.406195
0.498238 0.582879 0.415595
0.531365 0.585962 0.425788
0.561669 0.588739 0.435981
0.588708 0.591241 0.446387
0.612940 0.593530 0.456519
0.638361 0.600366 0.473671
0.670039 0.608026 0.460304
0.700740 0.608270 0.424506
0.729091 0.604944 0.387884
0.755032 0.600031 0.352300
0.778988 0.594263 0.316930
0.800809 0.588098 0.282109
0.821225 0.581659 0.246403
0.840208 0.575616 0.208927
0.858152 0.570397 0.167453
0.877043 0.577722 0.182345
0.894408 0.586084 0.201205
0.911162 0.595850 0.222202
0.927611 0.607111 0.245701
0.943969 0.619837 0.272618
0.960082 0.634180 0.303593
0.199557 0.632685 0.387213
0.202548 0.632563 0.387396
0.213504 0.631861 0.388006
0.235477 0.630884 0.389563
0.264988 0.629114 0.392004
0.299931 0.627283 0.395972
0.338811 0.624994 0.401617
0.378851 0.622705 0.408942
0.418738 0.620508 0.417975
0.457008 0.618524 0.429053
0.492897 0.616602 0.441810
0.523095 0.618280 0.450202
0.552026 0.620356 0.458808
0.578851 0.622309 0.467933
0.603449 0.623957 0.476661
0.625666 0.625360 0.485359
0.645533 0.626673 0.493965
0.666987 0.632166 0.509056
0.693416 0.639216 0.501854
0.720699 0.639246 0.468208
0.746273 0.636530 0.434333
0.770138 0.632227 0.400793
0.792264 0.626947 0.367224
0.812985 0.621180 0.334051
0.832364 0.615412 0.300847
0.850858 0.609979 0.267155
0.868467 0.605463 0.232670
0.885863 0.605280 0.213657
0.903319 0.614466 0.235172
0.920500 0.625086 0.259129
0.937469 0.637263 0.286442
0.954253 0.650843 0.318090
0.304845 0.668086 0.430884
0.307317 0.668208 0.431312
0.376196 0.692164 0.466346
0.386542 0.691188 0.467445
0.401862 0.689815 0.469490
0.421088 0.688045 0.472511
0.444770 0.685786 0.476448
0.471046 0.683406 0.482033
0.498909 0.681147 0.489265
0.527550 0.679042 0.498268
0.555230 0.676997 0.508354
0.580102 0.675715 0.517784
0.601495 0.676020 0.523674
0.621912 0.676112 0.529442
0.640986 0.675746 0.535149
0.658289 0.675105 0.540490
0.674037 0.674311 0.545525
0.688502 0.673487 0.550774
0.703883 0.675929 0.561517
0.723476 0.680385 0.558129
0.745632 0.678370 0.525597
0.767300 0.674800 0.493904
0.787991 0.669856 0.461982
0.807706 0.663905 0.429633
0.826383 0.657343 0.396674
0.844175 0.650813 0.363622
0.861326 0.644862 0.331273
0.878416 0.640009 0.299077
0.895781 0.636988 0.267674
0.913298 0.642908 0.273045
0.930755 0.654200 0.300664
0.948028 0.666865 0.331701
0.395911 0.704341 0.481758
0.401740 0.706294 0.485054
0.411048 0.707942 0.488746
0.423499 0.709071 0.492714
0.438483 0.709285 0.496620
0.455268 0.708370 0.500053
0.474617 0.706600 0.503929
0.495888 0.704433 0.508202
0.519249 0.702205 0.513878
0.543420 0.700099 0.521172
0.567590 0.698054 0.529686
0.590661 0.695979 0.538994
0.610529 0.695216 0.545434
0.628901 0.695094 0.550500
0.646265 0.694850 0.555688
0.662745 0.694423 0.560723
0.678096 0.693935 0.565820
0.692500 0.693629 0.571191
0.705898 0.693782 0.577203
0.719844 0.696498 0.587915
0.736873 0.701320 0.589960
0.757351 0.700496 0.561822
0.777218 0.697688 0.533379
0.796445 0.693324 0.504387
0.814878 0.687892 0.474678
0.832731 0.682124 0.444495
0.850248 0.676661 0.414649
0.867796 0.671962 0.385290
0.885557 0.668788 0.357641
0.903746 0.667628 0.332219
0.922698 0.668421 0.309483
0.940703 0.680659 0.341253
0.442298 0.724544 0.512779
0.447639 0.726162 0.515740
0.455543 0.727840 0.519738
0.465522 0.728939 0.523674
0.477821 0.729305 0.527306
0.491524 0.728603 0.530541
0.506493 0.727230 0.533623
0.524163 0.725307 0.537377
0.543206 0.723384 0.542168
0.563317 0.721340 0.547997
0.584192 0.719326 0.554894
0.604547 0.717281 0.562860
0.623621 0.715206 0.571069
0.639796 0.715114 0.575616
0.655451 0.714839 0.580285
0.670405 0.714443 0.584771
0.684565 0.714046 0.589502
0.697932 0.713710 0.594202
0.710658 0.713710 0.599542
0.722683 0.714168 0.605615
0.734859 0.716518 0.615503
0.749172 0.721431 0.622065
0.767636 0.721096 0.597009
0.785885 0.718685 0.571344
0.803677 0.714839 0.544915
0.821286 0.710292 0.518029
0.838804 0.705715 0.491218
0.856504 0.701564 0.464881
0.874479 0.698726 0.440284
0.892943 0.697444 0.417884
0.912169 0.697902 0.398260
0.932036 0.700221 0.381872
0.485328 0.743252 0.544335
0.489693 0.744564 0.547082
0.495644 0.745815 0.550347
0.503777 0.746639 0.553582
0.513451 0.746883 0.556847
0.524102 0.746304 0.559594
0.536370 0.745144 0.562249
0.550591 0.743618 0.565515
0.566369 0.742031 0.569665
0.583398 0.740230 0.574670
0.601190 0.738460 0.580621
0.618921 0.736660 0.587457
0.636042 0.734676 0.594629
0.651453 0.733455 0.600946
0.665370 0.733242 0.605097
0.679103 0.733150 0.609644
0.692409 0.733333 0.614679
0.705318 0.733730 0.620203
0.717861 0.734615 0.626551
0.729824 0.735958 0.633539
0.741115 0.737758 0.641291
0.752163 0.740902 0.652155
0.764126 0.746181 0.662837
0.780972 0.746883 0.642542
0.798062 0.745876 0.621088
0.815274 0.743679 0.599023
0.832700 0.740993 0.576684
0.850462 0.738521 0.555169
0.868711 0.736843 0.535363
0.887572 0.736263 0.517571
0.907012 0.737179 0.502586
0.927001 0.739681 0.491463
0.544610 0.767636 0.591424
0.546258 0.768063 0.592645
0.548913 0.768338 0.593835
0.552850 0.768154 0.594995
0.558465 0.767666 0.596277
0.565423 0.766690 0.597620
0.574334 0.765530 0.599390
0.585107 0.764187 0.601984
0.597436 0.762753 0.605280
0.611322 0.761349 0.609613
0.625971 0.759945 0.614801
0.640803 0.758450 0.620630
0.655360 0.756802 0.626978
0.669520 0.755032 0.633600
0.681483 0.754452 0.637903
0.692988 0.754177 0.641596
0.704280 0.754055 0.645533
0.715297 0.754086 0.649928
0.726040 0.754269 0.654627
0.736355 0.754788 0.659724
0.746242 0.755581 0.665370
0.755612 0.756680 0.671351
0.764767 0.758846 0.679500
0.774807 0.763516 0.690700
0.790036 0.764370 0.672816
0.806058 0.764034 0.654200
0.822721 0.763027 0.635462
0.839994 0.761837 0.616938
0.857908 0.761074 0.599725
0.876371 0.761074 0.584466
0.895476 0.762234 0.571862
0.915160 0.764706 0.562341
0.576928 0.781857 0.620233
0.578210 0.782223 0.621241
0.580407 0.782376 0.622156
0.583642 0.782345 0.623377
0.588220 0.781918 0.624537
0.593957 0.781186 0.625757
0.601068 0.780179 0.627314
0.609857 0.779080 0.629603
0.620081 0.777951 0.632471
0.631586 0.776761 0.636347
0.643854 0.775601 0.640833
0.656611 0.774350 0.645960
0.669215 0.773007 0.651362
0.681697 0.771572 0.657282
0.693416 0.770352 0.663081
0.703487 0.770352 0.666438
0.713680 0.770443 0.670222
0.723598 0.770687 0.674159
0.733425 0.771084 0.678492
0.742977 0.771725 0.683162
0.752285 0.772610 0.688136
0.761196 0.773739 0.693416
0.769741 0.775021 0.698939
0.778256 0.777218 0.705989
0.784451 0.777829 0.712123
0.798550 0.779110 0.696925
0.813962 0.779782 0.681605
0.830106 0.780117 0.666621
0.847196 0.780453 0.652277
0.865141 0.781338 0.639399
0.883848 0.783200 0.629053
0.903197 0.786252 0.621698
0.614618 0.799832 0.656245
0.616236 0.800412 0.657527
0.617762 0.800595 0.658381
0.619806 0.800229 0.658808
0.622156 0.799496 0.658747
0.625666 0.798337 0.658778
0.630091 0.796963 0.658930
0.635798 0.795438 0.659510
0.642939 0.793820 0.660578
0.651270 0.792264 0.662593
0.660517 0.790616 0.665126
0.670497 0.789090 0.668391
0.680873 0.787503 0.672145
0.691249 0.785763 0.676326
0.701289 0.783902 0.680598
0.710475 0.782803 0.684077
0.719081 0.782437 0.686488
0.727962 0.782406 0.689570
0.737087 0.782773 0.693355
0.746242 0.783566 0.697780
0.755276 0.784665 0.702602
0.764126 0.785824 0.707515
0.772396 0.786984 0.712306
0.780148 0.787991 0.716793
0.787747 0.789425 0.722072
0.796384 0.793393 0.732143
0.809140 0.795041 0.721065
0.823667 0.796262 0.708278
0.839292 0.797421 0.696132
0.856016 0.799039 0.685420
0.873716 0.801480 0.676875
0.891966 0.804715 0.670771
0.633600 0.811307 0.676204
0.634913 0.811856 0.677424
0.636530 0.812100 0.678340
0.638361 0.812009 0.678920
0.640986 0.811612 0.679500
0.644465 0.811002 0.680171
0.649042 0.810269 0.681178
0.654688 0.809476 0.682643
0.661555 0.808591 0.684565
0.669276 0.807675 0.687068
0.677638 0.806668 0.689845
0.686580 0.805631 0.693111
0.695766 0.804410 0.696529
0.704921 0.803006 0.700130
0.713863 0.801450 0.703731
0.722683 0.799802 0.707637
0.730404 0.799252 0.709957
0.738247 0.799161 0.712306
0.746426 0.799435 0.715389
0.754849 0.800137 0.719081
0.763272 0.801114 0.723140
0.771664 0.802274 0.727474
0.779843 0.803464 0.731777
0.787716 0.804685 0.735988
0.795193 0.805814 0.740108
0.802640 0.807340 0.744900
0.811215 0.811337 0.754330
0.823209 0.813748 0.747372
0.837583 0.816190 0.737911
0.852995 0.818814 0.729824
0.869261 0.821714 0.723049
0.886320 0.825406 0.718379
0.655940 0.826261 0.701045
0.656641 0.826505 0.701595
0.657588 0.826566 0.702022
0.659052 0.826413 0.702388
0.661097 0.825986 0.702754
0.663935 0.825437 0.703212
0.667689 0.824704 0.703914
0.672297 0.823911 0.704952
0.677882 0.823087 0.706447
0.684443 0.822232 0.708400
0.691646 0.821317 0.710628
0.699397 0.820432 0.713344
0.707607 0.819425 0.716274
0.715816 0.818235 0.719326
0.724025 0.816831 0.722499
0.732113 0.815427 0.725795
0.739895 0.814237 0.729030
0.747097 0.814115 0.731044
0.754604 0.814420 0.733608
0.762478 0.815030 0.736751
0.770596 0.815946 0.740291
0.778683 0.816983 0.744137
0.786557 0.818021 0.747951
0.794217 0.819120 0.751797
0.801663 0.820127 0.755581
0.808682 0.821103 0.759335
0.815824 0.822477 0.763638
0.823972 0.826169 0.772549
0.835264 0.829099 0.768582
0.849454 0.832273 0.761135
0.864622 0.835782 0.755337
0.880766 0.840024 0.751705
0.672847 0.839597 0.720912
0.673396 0.839780 0.721309
0.674189 0.839902 0.721798
0.675624 0.839872 0.722286
0.677760 0.839750 0.722927
0.680781 0.839689 0.724056
0.685084 0.839841 0.725948
0.690333 0.840085 0.728237
0.696529 0.840482 0.731197
0.703548 0.840909 0.734554
0.711238 0.841367 0.738277
0.719417 0.841703 0.742245
0.727749 0.841855 0.746151
0.736019 0.841703 0.749966
0.744228 0.841276 0.753658
0.752041 0.840391 0.756954
0.759762 0.839445 0.760403
0.766934 0.839017 0.763149
0.774014 0.839353 0.765591
0.781399 0.839994 0.768429
0.788968 0.840818 0.771664
0.796628 0.841764 0.775113
0.804105 0.842679 0.778500
0.811398 0.843626 0.781918
0.818448 0.844511 0.785245
0.825315 0.845426 0.788663
0.831937 0.846311 0.792050
0.838376 0.847440 0.795682
0.845823 0.850553 0.803464
0.855833 0.853422 0.801846
0.869566 0.857481 0.797299
0.884306 0.862089 0.794736
0.699123 0.860563 0.751797
0.699275 0.860563 0.751858
0.699702 0.860441 0.751858
0.700587 0.860227 0.751980
0.702022 0.859922 0.752224
0.704219 0.859525 0.752621
0.707118 0.859190 0.753384
0.710903 0.858793 0.754482
0.715389 0.858457 0.755947
0.720851 0.858122 0.757778
0.726802 0.857755 0.759976
0.733394 0.857420 0.762387
0.740352 0.857023 0.765103
