lut_library_archive/removed_20260629/抖音热门推荐/抖音热门推荐10.cube
# 版权归凌孟成所有，侵权必究
# Created by Adobe Lightroom plugin Export LUT (1.24.0)
# www.johnrellis.com/lightroom/exportlut.htm
# Preset: INS风格-缇米设计10
# Color profile: C:\Program Files (x86)\Common Files\Adobe\Color\Profiles\Recommended\VideoHD.icc
LUT_3D_SIZE 5
DOMAIN_MIN 0.000000 0.000000 0.000000
DOMAIN_MAX 0.903226 0.903226 0.903226
0.167361 0.167361 0.167361
0.503441 0.040375 0.184451
1.000000 0.102968 0.189120
1.000000 0.321111 0.314122
1.000000 0.436530 0.431556
0.187350 0.304051 0.245518
0.338903 0.336797 0.262547
0.881865 0.429053 0.126192
1.000000 0.432532 0.297765
1.000000 0.485603 0.435798
0.303899 0.569085 0.441321
0.336614 0.574853 0.428290
0.695277 0.689509 0.547784
0.971252 0.664393 0.393164
1.000000 0.600275 0.408881
0.514488 0.772915 0.639399
0.526818 0.765652 0.639155
0.652430 0.793881 0.669123
0.828000 0.825193 0.751858
0.933806 0.813840 0.711696
0.749477 0.859403 0.797787
0.752926 0.858335 0.798856
0.762142 0.857237 0.795346
0.825467 0.867399 0.822416
0.879362 0.878264 0.851194
0.090486 0.214511 0.274357
0.489631 0.000000 0.385138
0.991211 0.253483 0.399451
1.000000 0.434913 0.462440
1.000000 0.522301 0.533074
0.291478 0.407294 0.353735
0.441840 0.426642 0.400458
0.896025 0.454139 0.342443
1.000000 0.486061 0.430426
1.000000 0.545098 0.523735
0.365850 0.589868 0.477760
0.395453 0.582727 0.471687
0.699947 0.690089 0.581231
0.960052 0.658503 0.425605
1.000000 0.626703 0.488014
0.549279 0.777920 0.657984
0.559655 0.771023 0.658015
0.670863 0.796048 0.688136
0.831846 0.828397 0.767422
0.929473 0.818692 0.729793
0.761898 0.861295 0.805478
0.764431 0.860166 0.806088
0.782589 0.861326 0.811002
0.834440 0.870542 0.832547
0.882292 0.881224 0.858640
0.000000 0.254673 0.531182
0.303410 0.176638 0.674372
0.990326 0.000000 0.768673
1.000000 0.591241 0.705135
0.973999 0.765866 0.788388
0.092226 0.399420 0.495583
0.349676 0.415839 0.654597
0.947417 0.536584 0.743801
0.967346 0.721553 0.758633
0.972808 0.765408 0.780362
0.595605 0.758907 0.681636
0.679957 0.761166 0.718502
0.795132 0.783291 0.763455
0.936217 0.718318 0.650111
0.973022 0.756680 0.733181
0.686519 0.810117 0.743130
0.682887 0.802518 0.736751
0.729824 0.807065 0.749294
0.848173 0.844083 0.816190
0.919707 0.832059 0.777615
0.797269 0.868254 0.828611
0.799893 0.867735 0.829587
0.809171 0.865049 0.832731
0.847074 0.874601 0.848508
0.886687 0.885557 0.870542
0.000000 0.345251 0.793942
0.000000 0.270420 0.831205
0.756435 0.326146 0.902037
1.000000 0.518730 0.850217
0.983886 0.737575 0.817105
0.000000 0.438514 0.748043
0.000000 0.400366 0.798062
0.776455 0.537072 0.886442
0.978790 0.658930 0.844999
0.960479 0.781003 0.831662
0.000000 0.616571 0.644434
0.300908 0.629206 0.665888
0.809018 0.797818 0.844022
0.901640 0.828855 0.849973
0.917601 0.853239 0.862181
0.794553 0.855711 0.825620
0.806821 0.855528 0.831083
0.836759 0.855314 0.844968
0.871824 0.869017 0.864378
0.911131 0.855741 0.842344
0.859983 0.885893 0.871885
0.859770 0.885435 0.871458
0.859556 0.883818 0.870207
0.866697 0.883726 0.871763
0.895048 0.894194 0.887877
0.000000 0.417884 0.899046
0.000000 0.371649 0.904906
0.458839 0.360540 0.919036
0.881926 0.527276 0.924590
0.994781 0.681086 0.885405
0.000000 0.477607 0.883299
0.000000 0.447578 0.890837
0.480262 0.446693 0.909880
0.881529 0.636835 0.915496
0.972229 0.738216 0.884123
0.000000 0.610193 0.800748
0.000000 0.619562 0.820859
0.538384 0.639429 0.872984
0.880125 0.812253 0.896361
0.926329 0.839963 0.886564
0.337072 0.821256 0.816678
0.404974 0.817411 0.817533
0.615320 0.810300 0.827146
0.870390 0.869810 0.885954
0.907622 0.886381 0.894041
0.861631 0.894987 0.879210
0.864897 0.895079 0.880705
0.878325 0.896574 0.887694
0.894652 0.899901 0.897154
0.904112 0.903716 0.903075
