lut_library_archive/removed_20260629/抖音热门推荐/抖音热门推荐08.cube
# 版权归凌孟成所有，侵权必究
# Created by Adobe Lightroom plugin Export LUT (1.24.0)
# www.johnrellis.com/lightroom/exportlut.htm
# Preset: INS风格-缇米设计08
# Color profile: C:\Program Files (x86)\Common Files\Adobe\Color\Profiles\Recommended\VideoHD.icc
LUT_3D_SIZE 5
DOMAIN_MIN 0.000000 0.000000 0.000000
DOMAIN_MAX 0.903226 0.903226 0.903226
0.167361 0.167361 0.167361
0.464912 0.074708 0.181186
0.969238 0.000000 0.174014
1.000000 0.273838 0.266331
1.000000 0.382605 0.376806
0.183230 0.289433 0.235813
0.317632 0.315709 0.247990
0.840238 0.406561 0.108858
1.000000 0.404517 0.248264
1.000000 0.441138 0.380133
0.278538 0.535088 0.412482
0.309636 0.540459 0.399390
0.660578 0.654688 0.506706
0.959167 0.641535 0.340124
1.000000 0.574884 0.350805
0.449104 0.741665 0.595087
0.464515 0.732784 0.594446
0.602258 0.767819 0.622522
0.809995 0.806546 0.712947
0.939727 0.794705 0.664820
0.713527 0.851530 0.775113
0.717800 0.850126 0.776333
0.728389 0.848234 0.770962
0.807645 0.860166 0.803799
0.874052 0.872618 0.838956
0.000000 0.247929 0.339666
0.452979 0.000000 0.357214
0.968109 0.164981 0.356847
1.000000 0.371466 0.406714
1.000000 0.457771 0.471992
0.270207 0.384131 0.331792
0.414435 0.399603 0.373663
0.866545 0.425116 0.307347
1.000000 0.443397 0.376867
1.000000 0.490120 0.462989
0.338201 0.560021 0.449989
0.367712 0.552941 0.443793
0.668605 0.658167 0.541833
0.948211 0.633845 0.373999
1.000000 0.594232 0.426886
0.487007 0.748989 0.615259
0.499947 0.740566 0.614862
0.622248 0.771206 0.643427
0.814847 0.810483 0.731960
0.935790 0.799161 0.683955
0.726680 0.853391 0.783108
0.729885 0.851926 0.783719
0.752499 0.852964 0.789242
0.817777 0.863645 0.815427
0.877287 0.875944 0.847501
0.000000 0.356237 0.828824
0.352911 0.183474 0.814145
0.975586 0.000000 0.749996
1.000000 0.511376 0.663233
0.992157 0.725124 0.755520
0.393286 0.676478 0.803006
0.483955 0.545586 0.791897
0.946075 0.470863 0.719936
0.982483 0.672511 0.721981
0.990845 0.724910 0.745205
0.555230 0.738827 0.653254
0.648493 0.741543 0.693019
0.777798 0.763485 0.739437
0.938537 0.686397 0.602716
0.990539 0.716182 0.684291
0.637140 0.791531 0.709224
0.634241 0.782132 0.702113
0.688655 0.786374 0.713771
0.834684 0.829374 0.792630
0.926513 0.811704 0.737331
0.764584 0.860288 0.807370
0.767971 0.859495 0.808530
0.779934 0.855589 0.812192
0.830014 0.866880 0.831968
0.881315 0.879911 0.860166
0.000000 0.495766 0.917937
0.000000 0.435279 0.918517
0.757870 0.311925 0.906126
1.000000 0.422583 0.840970
1.000000 0.681819 0.791592
0.566522 0.718074 0.896422
0.567712 0.673793 0.897978
0.780667 0.541375 0.890898
0.993591 0.593011 0.833310
0.977203 0.741817 0.810666
0.774655 0.858976 0.867613
0.799222 0.857877 0.867613
0.827481 0.818387 0.856321
0.903380 0.810300 0.837644
0.922911 0.837766 0.849760
0.765408 0.845853 0.806638
0.781186 0.845396 0.813382
0.818967 0.843778 0.830014
0.862699 0.858885 0.852598
0.916197 0.837552 0.818082
0.840787 0.879026 0.858427
0.840452 0.878416 0.857847
0.840208 0.876097 0.856077
0.850401 0.875456 0.857877
0.890074 0.888823 0.879942
0.330571 0.605219 0.931182
0.362005 0.578729 0.932372
0.587335 0.533837 0.931151
0.877501 0.426459 0.926635
1.000000 0.598322 0.880827
0.606989 0.734188 0.917052
0.608942 0.716426 0.918212
0.676600 0.663111 0.919585
0.876677 0.555261 0.917998
0.993408 0.675227 0.878904
0.818784 0.867765 0.898955
0.827176 0.866392 0.898192
0.820554 0.839658 0.898436
0.874266 0.782986 0.895628
0.934783 0.816251 0.880980
0.836057 0.891417 0.890623
0.842679 0.891020 0.891051
0.866178 0.891020 0.893553
0.880888 0.880400 0.892790
0.908019 0.877470 0.888548
0.841733 0.890623 0.867643
0.846159 0.890562 0.869566
0.864378 0.891752 0.878508
0.886870 0.895079 0.890806
0.900847 0.900237 0.899168
