lut_library_archive/removed_20260629/抖音热门推荐/抖音热门推荐03.cube
# 版权归凌孟成所有，侵权必究
# Created by Adobe Lightroom plugin Export LUT (1.24.0)
# www.johnrellis.com/lightroom/exportlut.htm
# Preset: INS风格-缇米设计03
# Color profile: C:\Program Files (x86)\Common Files\Adobe\Color\Profiles\Recommended\VideoHD.icc
LUT_3D_SIZE 5
DOMAIN_MIN 0.000000 0.000000 0.000000
DOMAIN_MAX 0.903226 0.903226 0.903226
0.123201 0.104616 0.101534
0.399695 0.079744 0.113527
0.755398 0.146944 0.128573
0.934234 0.442267 0.227787
0.983673 0.598535 0.463081
0.199008 0.245579 0.168124
0.421088 0.351812 0.273716
0.696345 0.311101 0.104402
0.905608 0.481697 0.197665
0.975494 0.626612 0.470466
0.358465 0.515496 0.365393
0.409094 0.454017 0.347692
0.770443 0.751003 0.732418
0.834653 0.577569 0.000000
0.950195 0.681910 0.437507
0.539269 0.703609 0.589899
0.556420 0.686641 0.582330
0.697108 0.723903 0.674739
0.837186 0.830167 0.814359
0.895354 0.788357 0.670649
0.736477 0.828336 0.775143
0.743130 0.826261 0.775906
0.755276 0.808957 0.770199
0.825772 0.835325 0.812924
0.860472 0.857511 0.851682
0.117037 0.132448 0.196414
0.432898 0.000000 0.267704
0.782528 0.189944 0.267887
0.910796 0.437873 0.339117
0.969879 0.587518 0.493996
0.154849 0.358434 0.264744
0.451484 0.371374 0.299077
0.731533 0.379370 0.266484
0.890715 0.479194 0.314122
0.962890 0.609369 0.490120
0.428107 0.573144 0.446906
0.467628 0.525689 0.422950
0.760678 0.741146 0.725338
0.822324 0.565911 0.205386
0.941894 0.680262 0.484291
0.563165 0.718288 0.616785
0.576806 0.704494 0.608820
0.695094 0.721462 0.674464
0.838010 0.831327 0.816587
0.896391 0.783139 0.658686
0.738216 0.830106 0.777554
0.743801 0.827817 0.777676
0.769039 0.818906 0.781765
0.828397 0.837675 0.816312
0.861265 0.858671 0.853666
0.000000 0.229740 0.485695
0.321080 0.200626 0.556634
0.830167 0.323247 0.663874
0.916686 0.505730 0.622889
0.946960 0.634089 0.650752
0.226749 0.427161 0.511955
0.398077 0.409430 0.576440
0.805814 0.507897 0.663813
0.893675 0.562676 0.618433
0.929015 0.673579 0.672755
0.436835 0.719661 0.651057
0.555596 0.722408 0.663996
0.743313 0.712001 0.682612
0.831083 0.653101 0.577722
0.917906 0.703395 0.652277
0.649866 0.766720 0.708980
0.673487 0.757290 0.708034
0.686580 0.711788 0.673121
0.839994 0.833707 0.820890
0.906126 0.756619 0.595758
0.742123 0.836851 0.786831
0.747768 0.835142 0.786801
0.768582 0.826688 0.786984
0.822446 0.833951 0.812406
0.861631 0.859434 0.855222
0.000000 0.397375 0.714168
0.205417 0.345495 0.736812
0.754055 0.430793 0.786801
0.896605 0.600885 0.791470
0.923766 0.696468 0.775937
0.252811 0.529168 0.710750
0.365393 0.497414 0.730587
0.738827 0.539483 0.779294
0.879332 0.649348 0.786709
0.916899 0.707485 0.774563
0.442084 0.679957 0.714199
0.515801 0.681086 0.715541
0.715480 0.707729 0.762325
0.848081 0.738064 0.783505
0.897154 0.750027 0.776333
0.652583 0.818296 0.780362
0.677028 0.817746 0.782040
0.756832 0.815579 0.789517
0.823178 0.811978 0.795377
0.882719 0.789487 0.764187
0.722225 0.855528 0.803281
0.735073 0.853971 0.804501
0.777798 0.848356 0.809995
0.812161 0.832242 0.809903
0.862974 0.861418 0.858732
0.291112 0.567834 0.819425
0.370886 0.539269 0.824643
0.667292 0.547326 0.835966
0.855314 0.644312 0.847227
0.913146 0.724910 0.838743
0.390600 0.615869 0.811826
0.438666 0.598566 0.816983
0.662318 0.590478 0.830411
0.846830 0.671962 0.843626
0.907652 0.737301 0.837583
0.429114 0.711208 0.794705
0.495094 0.710475 0.798093
0.659022 0.702205 0.815335
0.826535 0.734157 0.835904
0.889921 0.785214 0.838499
0.543847 0.796475 0.810941
0.574670 0.793637 0.810147
0.669764 0.788724 0.809598
0.800290 0.803281 0.829740
0.875090 0.827665 0.844419
0.681880 0.865873 0.832883
0.699062 0.864775 0.833555
0.759121 0.861936 0.837980
0.822843 0.859953 0.846220
0.862333 0.858549 0.853819
