lut_library_archive/removed_20260629/抖音热门推荐/抖音热门推荐02.cube
# 版权归凌孟成所有，侵权必究
# Created by Adobe Lightroom plugin Export LUT (1.24.0)
# www.johnrellis.com/lightroom/exportlut.htm
# Preset: INS风格-缇米设计02
# Color profile: C:\Program Files (x86)\Common Files\Adobe\Color\Profiles\Recommended\VideoHD.icc
LUT_3D_SIZE 32
DOMAIN_MIN 0.0 0.0 0.0
DOMAIN_MAX 1.0 1.0 1.0
0.156710 0.128664 0.119570
0.159152 0.128817 0.119753
0.166415 0.129458 0.120302
0.180545 0.131044 0.121859
0.200443 0.133913 0.124025
0.228031 0.136080 0.126864
0.260777 0.137362 0.129030
0.298192 0.136934 0.131044
0.338506 0.134768 0.132906
0.380133 0.131807 0.134493
0.423529 0.127504 0.136477
0.467842 0.122469 0.138277
0.512383 0.116945 0.140322
0.556085 0.113100 0.142519
0.598108 0.111208 0.145174
0.636927 0.115969 0.148135
0.671870 0.128450 0.151522
0.708461 0.150393 0.157015
0.740047 0.178531 0.163210
0.766140 0.207889 0.170169
0.788418 0.236088 0.177737
0.808499 0.262058 0.186069
0.826810 0.285954 0.195285
0.843748 0.309300 0.205447
0.859251 0.331853 0.216739
0.873167 0.354650 0.229435
0.885313 0.377905 0.244205
0.895598 0.401892 0.261326
0.904356 0.426215 0.281895
0.911955 0.450813 0.306279
0.918853 0.475166 0.335515
0.925322 0.499519 0.369360
0.157321 0.129824 0.120241
0.158022 0.129732 0.120211
0.166476 0.131197 0.120607
0.180850 0.132265 0.121950
0.200320 0.134920 0.124147
0.227237 0.137423 0.126955
0.259495 0.138643 0.129152
0.296086 0.138094 0.131014
0.335668 0.136629 0.132845
0.377081 0.133547 0.134524
0.420081 0.129580 0.136324
0.463844 0.124514 0.138216
0.508049 0.119570 0.140078
0.551934 0.115541 0.142367
0.593744 0.114137 0.144839
0.632807 0.118288 0.147860
0.668421 0.129305 0.151369
0.704799 0.150118 0.156252
0.736049 0.176638 0.162295
0.762020 0.204715 0.168948
0.784146 0.232273 0.176181
0.804044 0.257420 0.184512
0.822141 0.281041 0.193027
0.839200 0.303838 0.202670
0.854917 0.326268 0.213413
0.869322 0.348547 0.225742
0.882139 0.371679 0.239719
0.893065 0.395727 0.256229
0.902342 0.420356 0.276219
0.910338 0.445319 0.299992
0.917479 0.470100 0.328649
0.924163 0.494728 0.362219
0.160342 0.134035 0.122042
0.161440 0.134096 0.122560
0.164187 0.134401 0.123537
0.181216 0.138155 0.122408
0.200839 0.140627 0.124880
0.227695 0.142580 0.127199
0.259190 0.143923 0.129152
0.295140 0.143618 0.130983
0.334264 0.142458 0.132845
0.375067 0.140169 0.134249
0.417670 0.136568 0.136110
0.461250 0.132723 0.137728
0.505028 0.128786 0.139620
0.548547 0.125246 0.141970
0.590509 0.124422 0.144442
0.629694 0.128054 0.147524
0.665370 0.137697 0.151308
0.701991 0.157015 0.156191
0.732937 0.181277 0.161898
0.758755 0.208072 0.168307
0.781064 0.234073 0.175143
0.800961 0.258946 0.183383
0.819089 0.281987 0.191775
0.836271 0.304204 0.201328
0.852201 0.325994 0.211795
0.866819 0.347845 0.223606
0.879973 0.370672 0.237613
0.891295 0.394415 0.253971
0.900847 0.418952 0.273411
0.909117 0.443702 0.296971
0.916472 0.468421 0.325231
0.923217 0.493050 0.358343
0.166934 0.142275 0.126802
0.168154 0.142092 0.127077
0.172122 0.141695 0.128328
0.176028 0.143282 0.130282
0.199283 0.149722 0.128206
0.229007 0.153079 0.127474
0.260197 0.154116 0.129458
0.295048 0.154513 0.130983
0.333806 0.153811 0.132570
0.374029 0.151980 0.134218
0.416175 0.149722 0.135744
0.458991 0.146670 0.137423
0.502525 0.143832 0.139559
0.545647 0.142214 0.141817
0.586847 0.141939 0.144137
0.625971 0.145541 0.147433
0.661463 0.153689 0.150881
0.697658 0.170809 0.155673
0.727626 0.191440 0.161227
0.752956 0.214694 0.167300
0.775113 0.238315 0.174014
0.794858 0.261814 0.181460
0.813291 0.283787 0.189670
0.831052 0.305577 0.198947
0.847868 0.327123 0.209506
0.863462 0.349432 0.221744
0.877470 0.372625 0.235874
0.889494 0.396338 0.252873
0.899535 0.420752 0.272557
0.908019 0.445441 0.296086
0.915435 0.469459 0.323949
0.922179 0.493294 0.355932
0.175113 0.153262 0.132479
0.175967 0.153140 0.132723
0.180148 0.151919 0.133791
0.185183 0.152163 0.135561
0.191012 0.154635 0.138552
0.219944 0.163577 0.135317
0.260136 0.169589 0.129397
0.294072 0.169986 0.130739
0.331853 0.169863 0.132326
0.371313 0.169192 0.133883
0.412390 0.167636 0.135225
0.455177 0.166018 0.137057
0.498207 0.164340 0.139162
0.540917 0.163882 0.141390
0.582513 0.164797 0.144015
0.621485 0.168795 0.146975
0.658839 0.176242 0.150698
0.694453 0.190738 0.155398
0.723812 0.209262 0.160647
0.749081 0.229435 0.166537
0.771115 0.251347 0.173129
0.790951 0.272526 0.180667
0.809506 0.293095 0.189029
0.827634 0.313725 0.198215
0.844846 0.334356 0.208988
0.860746 0.356085 0.221195
0.875181 0.378180 0.235264
0.887449 0.401190 0.251957
0.897704 0.424689 0.271580
0.906340 0.448371 0.294896
0.913909 0.471748 0.322179
0.920775 0.494881 0.353948
0.182742 0.165957 0.138766
0.183688 0.165652 0.138796
0.187228 0.164462 0.139590
0.193881 0.162173 0.141604
0.200992 0.164370 0.144381
0.208499 0.168490 0.148898
0.242496 0.180087 0.144808
0.290196 0.188540 0.134585
0.331670 0.191501 0.131502
0.371038 0.191409 0.133242
0.411719 0.190829 0.134737
0.453895 0.190494 0.136660
0.496559 0.190372 0.138582
0.539208 0.191012 0.140841
0.580591 0.192538 0.143832
0.619715 0.196353 0.146883
0.658259 0.204654 0.150820
0.692988 0.217380 0.155520
0.721920 0.233463 0.160739
0.746883 0.251530 0.166751
0.768887 0.270970 0.173526
0.788571 0.290318 0.180728
0.830045 0.338994 0.202121
0.846830 0.358129 0.213535
0.861997 0.377295 0.226505
0.875364 0.396948 0.240940
0.886595 0.417090 0.257816
0.896056 0.437568 0.276982
0.904204 0.458289 0.299321
0.911345 0.478920 0.324926
0.917906 0.499367 0.354498
0.923980 0.519738 0.387152
0.192538 0.183932 0.147311
0.193088 0.183688 0.147555
0.196811 0.182437 0.148135
0.203738 0.179599 0.149905
0.212375 0.178317 0.152529
0.222293 0.182345 0.157168
0.232761 0.188602 0.163943
0.274174 0.204623 0.159213
0.327703 0.215396 0.144503
0.379431 0.222507 0.132113
0.421363 0.222599 0.133974
0.464027 0.223209 0.136202
0.506584 0.223911 0.138491
0.548760 0.225132 0.140963
0.588952 0.227390 0.144167
0.627619 0.232120 0.147402
0.667750 0.242283 0.152102
0.700801 0.255039 0.157198
0.728481 0.270573 0.162905
0.753231 0.287602 0.169619
0.775509 0.306401 0.177279
0.796689 0.325780 0.186282
0.817227 0.345251 0.196780
0.836667 0.365026 0.209018
0.854154 0.384619 0.222690
0.869047 0.404059 0.237644
0.881437 0.423163 0.253971
0.891630 0.442390 0.273045
0.900298 0.461982 0.294804
0.907866 0.481331 0.319860
0.914763 0.500816 0.348486
0.921141 0.520500 0.380621
0.202213 0.202090 0.156558
0.203494 0.201816 0.156558
0.206332 0.200656 0.157107
0.213077 0.197848 0.158389
0.222751 0.193668 0.161166
0.232517 0.195804 0.164767
0.245060 0.201907 0.171511
0.258213 0.210605 0.180819
0.302251 0.229984 0.177157
0.359625 0.242496 0.158267
0.414343 0.251652 0.140352
0.460456 0.254978 0.134981
0.502678 0.256077 0.137453
0.543877 0.257450 0.140017
0.583642 0.259739 0.143008
0.625483 0.265995 0.146883
0.662654 0.274357 0.151308
0.694240 0.284642 0.156313
0.721492 0.296941 0.161807
0.745693 0.311833 0.168399
0.767910 0.328008 0.175937
0.788998 0.344823 0.184909
0.809659 0.362158 0.195193
0.829374 0.379767 0.207340
0.847379 0.397589 0.220737
0.863035 0.415167 0.235660
0.876127 0.432898 0.252110
0.887053 0.450629 0.271000
0.896300 0.468818 0.292271
0.904356 0.487007 0.317296
0.911620 0.505425 0.345403
0.918303 0.524285 0.377386
0.213596 0.224186 0.167575
0.214298 0.223758 0.167483
0.217350 0.222721 0.168154
0.223575 0.219821 0.169070
0.232853 0.215335 0.171237
0.244541 0.211307 0.174868
0.256535 0.217533 0.180484
0.272099 0.225742 0.189609
0.287572 0.237034 0.201877
0.333410 0.259678 0.200259
0.393805 0.273808 0.177066
0.449500 0.283848 0.155001
0.499458 0.290410 0.135775
0.540398 0.291722 0.138643
0.583551 0.296361 0.142031
0.623194 0.301671 0.146242
0.658350 0.308293 0.150546
0.688746 0.316686 0.155764
0.715206 0.327031 0.161196
0.739315 0.339513 0.167941
0.761349 0.353307 0.175479
0.782254 0.367987 0.184237
0.802853 0.383154 0.194766
0.822812 0.398657 0.206821
0.841154 0.414343 0.220096
0.857328 0.429938 0.235233
0.871092 0.445777 0.251682
0.882536 0.461952 0.270542
0.892271 0.478584 0.292271
0.900694 0.495460 0.316960
0.908293 0.512779 0.344793
0.915282 0.530510 0.376471
0.225650 0.248966 0.180423
0.226658 0.248356 0.180545
0.229435 0.247257 0.181033
0.235416 0.244419 0.181918
0.244297 0.239811 0.183383
0.256260 0.233249 0.186313
0.267857 0.234165 0.190799
0.283513 0.242222 0.199435
0.300938 0.252720 0.210910
0.318608 0.266423 0.225803
0.364660 0.291569 0.227481
0.426947 0.306584 0.200229
0.483650 0.317327 0.174594
0.536889 0.327214 0.148318
0.580407 0.332586 0.140780
0.618799 0.337041 0.145327
0.653162 0.342657 0.149874
0.683192 0.349981 0.155001
0.709590 0.359167 0.161013
0.733425 0.369696 0.167697
0.755032 0.381201 0.175326
0.775326 0.392859 0.184237
0.795346 0.405005 0.194217
0.814786 0.417731 0.205692
0.833066 0.430549 0.218418
0.849638 0.443977 0.233036
0.864225 0.457862 0.249302
0.876616 0.472480 0.268132
0.887144 0.487892 0.289830
0.896269 0.503746 0.314977
0.904356 0.520226 0.343175
0.911772 0.537407 0.375463
0.238437 0.274388 0.194766
0.239017 0.274052 0.194827
0.242039 0.272801 0.195193
0.247745 0.269963 0.195773
0.256352 0.265629 0.197299
0.267674 0.259556 0.199771
0.281071 0.251621 0.203494
0.294133 0.259464 0.210056
0.312688 0.269871 0.221317
0.332586 0.283116 0.235630
0.352270 0.299443 0.253788
0.400458 0.328801 0.260777
0.465980 0.345983 0.230716
0.523796 0.357763 0.201083
0.572930 0.366247 0.170565
0.613916 0.372564 0.143587
0.647395 0.377142 0.148806
0.676783 0.382971 0.154391
0.702571 0.390539 0.160494
0.726009 0.399115 0.167147
0.747524 0.408515 0.175143
0.767880 0.418219 0.184176
0.788052 0.428626 0.194339
0.807706 0.439185 0.205600
0.826383 0.450172 0.219059
0.843473 0.461738 0.233616
0.858640 0.473884 0.250645
0.871580 0.486854 0.269444
0.882567 0.500633 0.291325
0.892119 0.515221 0.316320
0.900511 0.530632 0.344884
0.908293 0.546715 0.376867
0.252232 0.302525 0.211185
0.252995 0.301976 0.211154
0.255436 0.300511 0.211307
0.261173 0.297856 0.211978
0.269230 0.293675 0.213077
0.280125 0.287663 0.214908
0.293034 0.279759 0.217990
0.306340 0.277623 0.222873
0.323369 0.287968 0.232670
0.344884 0.301244 0.247166
0.368627 0.318761 0.266209
0.392493 0.339879 0.289799
0.461860 0.392157 0.321202
0.528893 0.408972 0.282780
0.583459 0.419867 0.245975
0.626642 0.427070 0.208377
0.660304 0.432685 0.168612
0.687587 0.437629 0.159762
0.711696 0.443580 0.167391
0.733791 0.449836 0.175296
0.754726 0.456489 0.185061
0.775051 0.463264 0.195895
0.794888 0.470192 0.207523
0.813779 0.477760 0.220371
0.831388 0.485817 0.234867
0.847135 0.494484 0.250584
0.860685 0.503746 0.268070
0.872190 0.514092 0.287541
0.882170 0.525261 0.309667
0.891020 0.537530 0.334722
0.899077 0.550683 0.362707
0.906554 0.565209 0.394415
0.268986 0.337102 0.232670
0.269322 0.337072 0.232670
0.272251 0.335485 0.232853
0.277195 0.332280 0.233005
0.285069 0.327367 0.233433
0.295079 0.320806 0.234470
0.308019 0.313298 0.236881
0.322911 0.303990 0.240970
0.338659 0.311833 0.249241
0.361547 0.326329 0.264775
0.387732 0.344396 0.284520
0.415900 0.366613 0.309758
0.444221 0.392645 0.340337
0.492805 0.427832 0.361089
0.557122 0.444221 0.321111
0.607111 0.454200 0.281468
0.645228 0.460639 0.242039
0.675471 0.465064 0.200931
0.700557 0.469032 0.166934
0.722744 0.473640 0.175570
0.743648 0.478492 0.185000
0.764157 0.483742 0.195529
0.784390 0.489265 0.207248
0.803983 0.495369 0.220401
0.822324 0.502007 0.234470
0.838956 0.509483 0.250431
0.853452 0.517754 0.268284
0.865812 0.527062 0.287694
0.876493 0.537407 0.309972
0.885924 0.548882 0.335546
0.894377 0.561425 0.363836
0.902129 0.575372 0.395727
0.283726 0.368963 0.253544
0.284337 0.368627 0.253513
0.286992 0.366949 0.253330
0.291905 0.364050 0.253574
0.299413 0.359228 0.253666
0.309209 0.353155 0.254429
0.321508 0.345159 0.255985
0.334936 0.335393 0.258274
0.349920 0.328405 0.262852
0.368658 0.342321 0.275151
0.394324 0.359197 0.293950
0.422492 0.379492 0.317388
0.451911 0.403265 0.345678
0.480262 0.430182 0.378790
0.523644 0.464393 0.404334
0.582025 0.478523 0.362646
0.626246 0.486610 0.320134
0.660334 0.491676 0.278782
0.688655 0.495186 0.236545
0.712459 0.497536 0.192874
0.733700 0.500603 0.186435
0.754604 0.504631 0.197330
0.775296 0.509056 0.208743
0.795438 0.514061 0.221836
0.814389 0.519493 0.236240
0.831693 0.525933 0.252140
0.846891 0.533135 0.270329
0.859800 0.541527 0.290105
0.871000 0.550958 0.312413
0.880797 0.561669 0.338018
0.889555 0.573602 0.366705
0.897642 0.587030 0.398505
0.299474 0.401007 0.276036
0.300023 0.400336 0.275822
0.302190 0.398871 0.275669
0.306584 0.395514 0.275242
0.313329 0.390570 0.274876
0.322698 0.383886 0.274662
0.333623 0.375891 0.275212
0.346563 0.365698 0.276249
0.360418 0.354009 0.278508
0.376623 0.356970 0.286564
0.399420 0.372961 0.302953
0.427100 0.391974 0.324956
0.456519 0.413977 0.351629
0.486030 0.438727 0.382361
0.513298 0.465187 0.416144
0.550500 0.497810 0.445380
0.602289 0.509606 0.403571
0.641749 0.516014 0.360632
0.673823 0.519951 0.318212
0.700649 0.522148 0.275669
0.724117 0.523491 0.232425
0.745876 0.525078 0.200290
0.766903 0.528496 0.211612
0.787381 0.532433 0.225193
0.806760 0.536980 0.239231
0.824674 0.542443 0.255406
0.840452 0.548974 0.273289
0.853971 0.556756 0.293828
0.865690 0.565789 0.317021
0.875914 0.576287 0.343450
0.885039 0.588281 0.373236
0.893400 0.601740 0.406653
0.314000 0.429572 0.297642
0.314763 0.429175 0.297551
0.316838 0.427619 0.297246
0.320867 0.424994 0.297002
0.327306 0.420478 0.296513
0.335973 0.414282 0.296147
0.346502 0.406744 0.296208
0.359045 0.397253 0.296818
0.372564 0.385931 0.298100
0.386511 0.372900 0.300267
0.405280 0.387884 0.313573
0.431434 0.405249 0.333806
0.459785 0.424842 0.358129
0.488808 0.446937 0.386023
0.516075 0.470405 0.416571
0.540917 0.495369 0.449531
0.571984 0.525902 0.481209
0.617578 0.535912 0.442206
0.654475 0.541192 0.399878
0.685115 0.544274 0.358404
0.711788 0.546014 0.316869
0.736202 0.547051 0.274632
0.758907 0.547936 0.230289
0.780056 0.550805 0.229374
0.800046 0.554803 0.244053
0.818479 0.559777 0.260563
0.834684 0.565820 0.279271
0.848569 0.573114 0.299992
0.860502 0.581689 0.323186
0.870848 0.591669 0.349828
0.880064 0.603021 0.379553
0.888548 0.615534 0.412360
0.328435 0.455543 0.318822
0.329015 0.455421 0.318822
0.330632 0.454078 0.318517
0.334508 0.451575 0.318120
0.340581 0.447333 0.317449
0.348394 0.441749 0.316838
0.358251 0.434546 0.316381
0.369848 0.425483 0.316289
0.382544 0.414862 0.316655
0.395697 0.402014 0.317571
0.411078 0.398657 0.323613
0.432776 0.415320 0.340185
0.460456 0.433814 0.363134
0.488960 0.454261 0.389227
0.516960 0.476265 0.418158
0.542870 0.499550 0.449042
0.565026 0.522881 0.480781
0.590600 0.551873 0.514733
0.632166 0.560693 0.478981
0.666499 0.564935 0.439857
0.696559 0.567498 0.400885
0.724056 0.568719 0.360418
0.749142 0.569574 0.319646
0.772244 0.570336 0.277409
0.793423 0.572229 0.249485
0.812284 0.576867 0.266514
0.828855 0.582635 0.285344
0.843015 0.589685 0.306249
0.855070 0.598138 0.330297
0.865568 0.607904 0.357488
0.875029 0.618799 0.387549
0.883818 0.630701 0.420783
0.344396 0.482063 0.341985
0.344915 0.481941 0.342046
0.355688 0.493507 0.353887
0.358892 0.491035 0.353155
0.364263 0.487037 0.352148
0.371466 0.481605 0.350988
0.380255 0.474586 0.349767
0.390845 0.465614 0.348516
0.402502 0.454810 0.347631
0.414771 0.441810 0.346838
0.427558 0.427008 0.346868
0.446113 0.436103 0.359197
0.471168 0.454078 0.379919
0.499519 0.473365 0.405402
0.526940 0.493568 0.432746
0.552483 0.514611 0.461769
0.574578 0.535729 0.491035
0.593103 0.556725 0.519921
0.613519 0.583642 0.554559
0.650538 0.590204 0.521538
0.683223 0.592889 0.485725
0.712917 0.594385 0.449989
0.740108 0.594965 0.412268
0.764736 0.595178 0.372961
0.787198 0.595544 0.331548
0.807492 0.596612 0.288182
0.823880 0.601068 0.294347
0.837644 0.607507 0.315160
0.849638 0.615259 0.338659
0.860166 0.624414 0.365728
0.869841 0.634607 0.396094
0.878935 0.645655 0.429328
0.363958 0.510369 0.369146
0.365332 0.511040 0.369970
0.367651 0.511437 0.371130
0.371527 0.510124 0.371344
0.376898 0.507500 0.371252
0.383368 0.502770 0.370062
0.391272 0.496468 0.368597
0.400641 0.488014 0.366674
0.411139 0.478004 0.365179
0.422583 0.466163 0.363867
0.434150 0.452552 0.362860
0.447181 0.441596 0.364721
0.468330 0.458961 0.382147
0.495064 0.476967 0.405280
0.522484 0.496223 0.431403
0.548455 0.515984 0.459052
0.571679 0.536248 0.487373
0.591913 0.556603 0.515648
0.609308 0.577173 0.543847
0.628626 0.602930 0.576745
0.662867 0.610315 0.550927
0.695094 0.613275 0.519341
0.724147 0.614984 0.487556
0.750393 0.615778 0.454108
0.774228 0.616419 0.418311
0.795804 0.617426 0.380438
0.814969 0.619257 0.340856
0.831205 0.623316 0.320623
0.843412 0.630732 0.344213
0.854246 0.639399 0.371588
0.864286 0.648920 0.402350
0.873869 0.659113 0.435889
0.379706 0.530571 0.390112
0.380957 0.531579 0.391333
0.383276 0.531579 0.392004
0.386969 0.531029 0.392828
0.391760 0.528801 0.392706
0.397467 0.524712 0.391577
0.404334 0.518730 0.389532
0.412512 0.511467 0.387579
0.422004 0.502373 0.385504
0.432044 0.491279 0.383246
0.443061 0.478553 0.381445
0.453986 0.463783 0.379950
0.470039 0.465126 0.388403
0.492775 0.482979 0.408026
0.519890 0.501030 0.432929
0.545953 0.519890 0.459388
0.569574 0.539025 0.486549
0.590600 0.558465 0.513939
0.609125 0.578180 0.541161
0.625513 0.597955 0.567987
0.644343 0.622431 0.598566
0.676143 0.630762 0.578912
0.706661 0.634150 0.551598
0.734554 0.636072 0.522911
0.759426 0.637263 0.493477
0.781613 0.638514 0.462593
0.801541 0.640192 0.429786
0.819730 0.642817 0.395300
0.836667 0.646632 0.359289
0.848386 0.654322 0.378485
0.858915 0.663050 0.409430
0.869017 0.672145 0.443275
0.396948 0.550469 0.412360
0.398230 0.551324 0.413550
0.400488 0.551446 0.414374
0.403479 0.550713 0.414771
0.407813 0.548821 0.414618
0.412757 0.545220 0.413336
0.418616 0.539910 0.411231
0.425788 0.533440 0.409033
0.433875 0.525566 0.406561
0.443214 0.515740 0.404120
0.453040 0.504143 0.401648
0.463111 0.490364 0.399176
0.473213 0.474586 0.396948
0.493233 0.489265 0.413519
0.517876 0.506981 0.435828
0.543847 0.524865 0.461341
0.568170 0.543420 0.487922
0.589960 0.562524 0.514885
0.609705 0.582025 0.541985
0.627649 0.601709 0.568841
0.644404 0.621576 0.594812
0.664057 0.645869 0.623987
0.693019 0.655116 0.610315
0.721523 0.659266 0.587152
0.746914 0.662226 0.563470
0.769070 0.664546 0.539269
0.788968 0.666712 0.514092
0.807309 0.669337 0.488197
0.824552 0.672816 0.462440
0.841520 0.676875 0.436225
0.856260 0.682490 0.433265
0.866850 0.689937 0.467750
0.422644 0.576043 0.443580
0.423255 0.576104 0.443793
0.424537 0.575677 0.443793
0.426612 0.574517 0.443427
0.429511 0.571984 0.442145
0.433295 0.568688 0.440528
0.438178 0.563928 0.438300
0.444251 0.557946 0.435615
0.451026 0.550774 0.432807
0.459022 0.542229 0.429999
0.467750 0.531975 0.427008
0.476783 0.520012 0.423987
0.486061 0.505730 0.421118
0.498726 0.499580 0.424567
0.520226 0.516716 0.444099
0.545220 0.533806 0.468086
0.569116 0.551293 0.493446
0.590784 0.569177 0.519158
0.610681 0.587610 0.545098
0.628901 0.606012 0.570550
0.646296 0.624811 0.595209
0.662684 0.643488 0.618830
0.681239 0.665553 0.645106
0.706355 0.674372 0.635523
0.731655 0.678462 0.615198
0.754055 0.681697 0.594659
0.774075 0.684627 0.574640
0.792416 0.687465 0.554711
0.809964 0.690578 0.535088
0.827268 0.693904 0.516106
0.844938 0.697353 0.497780
0.862638 0.701015 0.480446
0.442267 0.594965 0.467018
0.442725 0.595148 0.467384
0.443885 0.594690 0.467292
0.445624 0.593622 0.466957
0.448188 0.591516 0.465858
0.451514 0.588373 0.464240
0.455726 0.584344 0.462257
0.460975 0.579034 0.459663
0.467079 0.572717 0.456947
0.474098 0.565209 0.454017
0.481666 0.556085 0.450752
0.489784 0.545556 0.447578
0.498085 0.533013 0.444099
0.506554 0.518273 0.440711
0.523613 0.524712 0.452796
0.545129 0.541405 0.473426
0.569116 0.558312 0.498268
0.590814 0.575616 0.523156
0.611048 0.593256 0.548394
0.629755 0.611048 0.573144
0.647883 0.629236 0.597101
0.665339 0.647456 0.620203
0.681239 0.664912 0.642145
0.698421 0.684596 0.666133
0.717586 0.690517 0.657221
0.739742 0.694423 0.639918
0.759945 0.697871 0.622950
0.778470 0.701137 0.607080
0.796078 0.704311 0.591821
0.813504 0.707576 0.577691
0.831174 0.710994 0.565118
0.848783 0.714473 0.554162
0.466804 0.617548 0.495338
0.467720 0.617945 0.496010
0.468544 0.617609 0.496040
0.469764 0.616297 0.495216
0.471443 0.614038 0.493751
0.473671 0.611048 0.491890
0.476570 0.606714 0.489113
0.480323 0.601740 0.486275
0.485023 0.595361 0.482734
0.490578 0.588190 0.479316
0.496864 0.579706 0.475593
0.503685 0.569879 0.471656
0.510826 0.558434 0.467659
0.518242 0.545373 0.463661
0.526360 0.531792 0.460731
0.546105 0.547387 0.479408
0.566949 0.563287 0.500633
0.588556 0.579644 0.524437
0.608911 0.596460 0.548852
0.628107 0.613764 0.573022
0.646754 0.631434 0.596521
0.664881 0.649073 0.619226
0.681514 0.665919 0.640589
0.696101 0.681514 0.660487
0.710933 0.698146 0.681910
0.728634 0.705776 0.679225
0.747951 0.709224 0.664729
0.766262 0.712581 0.651087
0.783719 0.715877 0.638727
0.801022 0.719203 0.627832
0.818448 0.722652 0.618616
0.835508 0.726436 0.611780
0.484077 0.635187 0.516533
0.484749 0.635462 0.517113
0.485786 0.635370 0.517327
0.487007 0.634394 0.516838
0.488808 0.632624 0.515923
0.490974 0.630121 0.514519
0.494087 0.626673 0.512596
0.497871 0.622461 0.510552
0.502495 0.617487 0.508110
0.507774 0.611505 0.505455
0.513725 0.604334 0.502434
0.520165 0.596002 0.499245
0.526940 0.586328 0.495735
0.534020 0.574609 0.491737
0.540826 0.561242 0.487648
0.552819 0.559106 0.492897
0.571038 0.574395 0.511498
0.591211 0.589868 0.533440
0.611383 0.605768 0.556695
0.630549 0.622309 0.579675
0.649622 0.639277 0.602289
0.668177 0.656031 0.624170
0.685267 0.672023 0.644892
0.700404 0.686824 0.664271
0.712978 0.699855 0.682155
0.725399 0.713375 0.701137
0.740047 0.720546 0.701381
0.757168 0.723964 0.690242
0.774350 0.727718 0.680781
0.791348 0.731472 0.672755
0.808225 0.735409 0.666590
0.824460 0.739925 0.662562
0.504356 0.657069 0.542290
0.504631 0.657160 0.542473
0.505394 0.656886 0.542473
0.506462 0.655879 0.541924
0.507866 0.654322 0.541131
0.509789 0.651972 0.539818
0.512505 0.648859 0.538262
0.515862 0.644984 0.536217
0.519921 0.640375 0.534142
0.524804 0.634943 0.531792
0.530266 0.628534 0.529137
0.536156 0.621241 0.526390
0.542473 0.612696 0.523217
0.548943 0.602747 0.519768
0.555566 0.591028 0.515862
0.562371 0.577752 0.512016
0.577386 0.586358 0.525170
0.594598 0.601190 0.543816
0.614405 0.616205 0.565820
0.633509 0.631983 0.587579
0.652949 0.648066 0.609216
0.671717 0.663783 0.630091
0.688869 0.678614 0.649866
0.704005 0.692226 0.668452
0.716579 0.704158 0.685542
0.726833 0.714565 0.701015
0.737270 0.725856 0.717464
0.749874 0.732753 0.719539
0.765499 0.736324 0.710872
0.782071 0.740841 0.704677
0.798428 0.745663 0.700160
0.813901 0.751186 0.697902
0.523461 0.678126 0.567132
0.523796 0.678248 0.567346
0.524407 0.678004 0.567376
0.525444 0.677394 0.567224
0.527031 0.676265 0.566796
0.529229 0.674647 0.566217
0.532372 0.672786 0.565881
0.536400 0.670405 0.565423
0.541161 0.667628 0.565057
0.546654 0.664118 0.564599
0.552880 0.659876 0.564141
0.559533 0.654841 0.563470
0.566552 0.648554 0.562432
0.573632 0.640986 0.560937
0.580865 0.631830 0.559045
0.587854 0.621027 0.556542
0.596277 0.612818 0.556786
0.611933 0.626825 0.573419
0.629023 0.641291 0.591547
0.648829 0.655756 0.611658
0.668208 0.669947 0.631342
0.686427 0.683558 0.650324
0.702571 0.695888 0.668177
0.716182 0.706783 0.684840
0.727291 0.716426 0.699916
0.736660 0.725185 0.713588
0.744686 0.733425 0.725917
0.753353 0.743221 0.738949
0.764187 0.750362 0.741909
0.778378 0.754513 0.735836
0.793545 0.760372 0.732753
0.807767 0.766598 0.731441
0.554681 0.706325 0.604578
0.554711 0.706264 0.604517
0.555047 0.705867 0.604273
0.555566 0.705196 0.603815
0.556573 0.704158 0.603174
0.558129 0.702693 0.602380
0.560204 0.700862 0.601526
0.562829 0.698512 0.600458
0.566308 0.695796 0.599512
0.570367 0.692409 0.598322
0.575097 0.688502 0.597192
0.580377 0.683833 0.595941
0.586175 0.678370 0.594659
