lut_library_archive/removed_20260629/抖音热门推荐/抖音热门推荐02.cube
# 版权归凌孟成所有，侵权必究
# Created by Adobe Lightroom plugin Export LUT (1.24.0)
# www.johnrellis.com/lightroom/exportlut.htm
# Preset: INS风格-缇米设计02
# Color profile: C:\Program Files (x86)\Common Files\Adobe\Color\Profiles\Recommended\VideoHD.icc
LUT_3D_SIZE 5
DOMAIN_MIN 0.000000 0.000000 0.000000
DOMAIN_MAX 0.903226 0.903226 0.903226
0.156710 0.128664 0.119570
0.298192 0.136934 0.131044
0.598108 0.111208 0.145174
0.808499 0.262058 0.186069
0.904356 0.426215 0.281895
0.202213 0.202090 0.156558
0.258213 0.210605 0.180819
0.583642 0.259739 0.143008
0.788998 0.344823 0.184909
0.896300 0.468818 0.292271
0.299474 0.401007 0.276036
0.346563 0.365698 0.276249
0.513298 0.465187 0.416144
0.745876 0.525078 0.200290
0.865690 0.565789 0.317021
0.422644 0.576043 0.443580
0.444251 0.557946 0.435615
0.520226 0.516716 0.444099
0.662684 0.643488 0.618830
0.809964 0.690578 0.535088
0.584924 0.725093 0.634821
0.592645 0.720058 0.632593
0.612238 0.686244 0.613825
0.701472 0.705470 0.673457
0.767849 0.759823 0.755093
0.157290 0.146181 0.171725
0.307469 0.134096 0.204318
0.617121 0.117433 0.219852
0.793759 0.279057 0.263340
0.893187 0.421942 0.332097
0.181979 0.253025 0.200900
0.320958 0.265843 0.223911
0.603906 0.286442 0.233188
0.780667 0.354253 0.262608
0.885283 0.460121 0.336828
0.329839 0.462989 0.333379
0.382574 0.430976 0.328283
0.529381 0.482734 0.436866
0.740505 0.523674 0.272862
0.860868 0.565972 0.367041
0.456428 0.603540 0.483742
0.475135 0.587579 0.475441
0.535332 0.530053 0.464057
0.669856 0.651972 0.628412
0.810239 0.690394 0.538231
0.593194 0.730892 0.645380
0.599664 0.725948 0.642329
0.628321 0.703365 0.634730
0.706630 0.710536 0.680690
0.771572 0.764309 0.759304
0.060273 0.185763 0.318639
0.203555 0.167453 0.376745
0.670375 0.161044 0.511711
0.833341 0.332403 0.511315
0.891020 0.451728 0.504051
0.132631 0.276799 0.330968
0.242222 0.276860 0.393011
0.667933 0.331304 0.521660
0.812070 0.413062 0.505760
0.880735 0.487160 0.506889
0.102968 0.564141 0.483558
0.344884 0.573785 0.501732
0.619440 0.584192 0.549493
0.754543 0.567742 0.510918
0.848753 0.586175 0.525689
0.480415 0.684443 0.581415
0.521813 0.675837 0.583337
0.600397 0.630488 0.574090
0.698939 0.685023 0.666041
0.815702 0.688258 0.541894
0.604944 0.751339 0.677699
0.626276 0.748043 0.680873
0.650141 0.730434 0.669856
0.700343 0.708492 0.677211
0.773739 0.766995 0.761929
0.000000 0.238956 0.497841
0.000000 0.211612 0.538293
0.573754 0.220005 0.658228
0.824857 0.416022 0.707820
0.875700 0.560174 0.697627
0.000000 0.311406 0.499947
0.000000 0.298039 0.537591
0.562432 0.322454 0.652857
0.810025 0.481910 0.703609
0.866056 0.582483 0.695308
0.000000 0.471168 0.511223
0.000000 0.474769 0.518486
0.514977 0.531548 0.626886
0.772519 0.625360 0.700191
0.838010 0.650172 0.692348
0.387121 0.721126 0.668055
0.448676 0.721614 0.672267
0.616724 0.726650 0.693812
0.740749 0.726833 0.716457
0.811063 0.708248 0.683253
0.565759 0.791470 0.721859
0.589075 0.788815 0.722896
0.660853 0.778195 0.727260
0.722042 0.746700 0.721401
0.783902 0.779294 0.772885
0.000000 0.330114 0.680629
0.000000 0.302953 0.696468
0.384680 0.256504 0.746639
0.777676 0.468544 0.788357
0.864561 0.607568 0.789059
0.000000 0.376287 0.669429
0.000000 0.357580 0.686305
0.346807 0.304662 0.740688
0.766537 0.505028 0.784390
0.857572 0.627832 0.787289
0.000000 0.458137 0.606195
0.000000 0.467872 0.628992
0.197360 0.474800 0.709529
0.729335 0.592126 0.772549
0.838834 0.688350 0.785092
0.000000 0.657771 0.682948
0.000000 0.652216 0.681117
0.000000 0.628779 0.675837
0.630457 0.663996 0.744900
0.823911 0.749233 0.787930
0.358251 0.804440 0.762966
0.413764 0.802976 0.763638
0.576867 0.799039 0.768276
0.717617 0.799588 0.779141
0.806607 0.803922 0.793484
