lut_library_archive/removed_20260629/抖音热门推荐/抖音热门推荐09.cube
# 版权归凌孟成所有，侵权必究
# Created by Adobe Lightroom plugin Export LUT (1.24.0)
# www.johnrellis.com/lightroom/exportlut.htm
# Preset: INS风格-缇米设计09
# Color profile: C:\Program Files (x86)\Common Files\Adobe\Color\Profiles\Recommended\VideoHD.icc
LUT_3D_SIZE 5
DOMAIN_MIN 0.000000 0.000000 0.000000
DOMAIN_MAX 0.903226 0.903226 0.903226
0.167361 0.167361 0.167361
0.382666 0.125582 0.178134
0.879240 0.000000 0.163577
1.000000 0.174533 0.187472
1.000000 0.277623 0.281804
0.180911 0.263737 0.221042
0.278447 0.277409 0.227024
0.767697 0.356268 0.024933
1.000000 0.345708 0.136446
1.000000 0.351354 0.269505
0.250736 0.471962 0.365576
0.276310 0.476020 0.353857
0.587152 0.581720 0.442023
0.943481 0.594812 0.200443
1.000000 0.513664 0.168673
0.362860 0.676783 0.525536
0.381659 0.666224 0.524376
0.523003 0.710964 0.547295
0.771298 0.766873 0.642786
0.958190 0.753170 0.548547
0.638331 0.832944 0.728206
0.644068 0.830838 0.729458
0.657343 0.827298 0.720027
0.770047 0.844022 0.764645
0.862577 0.860685 0.813626
0.057862 0.217197 0.279210
0.373236 0.099123 0.298436
0.871702 0.000000 0.298253
1.000000 0.261692 0.323339
1.000000 0.345342 0.375036
0.237583 0.327123 0.285618
0.349889 0.337835 0.316960
0.791409 0.361578 0.244297
1.000000 0.364263 0.281956
1.000000 0.388678 0.355718
0.301366 0.496529 0.399542
0.327123 0.490150 0.394141
0.594842 0.584863 0.472786
0.931304 0.582330 0.248142
1.000000 0.521996 0.272221
0.397406 0.686519 0.544427
0.413581 0.676478 0.543450
0.542107 0.715572 0.568048
0.777523 0.771756 0.663874
0.955657 0.755550 0.567956
0.651759 0.834806 0.736049
0.656092 0.832517 0.736507
0.687587 0.833494 0.742733
0.782162 0.848173 0.778805
0.866514 0.864622 0.824369
0.000000 0.322850 0.745571
0.307591 0.154971 0.727260
0.899992 0.000000 0.687282
1.000000 0.379614 0.600610
1.000000 0.643641 0.691371
0.181216 0.589075 0.727199
0.378759 0.451331 0.711147
0.897856 0.363348 0.658686
0.999268 0.572259 0.648829
1.000000 0.638361 0.672023
0.468452 0.675044 0.581537
0.569512 0.679164 0.622797
0.723323 0.704555 0.672389
0.945830 0.609339 0.486488
1.000000 0.619623 0.567651
0.544884 0.744167 0.641230
0.544671 0.731197 0.633051
0.608179 0.736416 0.642237
0.804074 0.796170 0.740536
0.951629 0.760250 0.624109
0.694240 0.842069 0.762234
0.698970 0.840696 0.763546
0.715999 0.833860 0.767453
0.792966 0.849790 0.796109
0.869993 0.867887 0.838285
0.000000 0.443854 0.904723
0.000000 0.364080 0.905028
0.732601 0.193790 0.887938
1.000000 0.265446 0.821683
1.000000 0.577173 0.747250
0.391394 0.647150 0.887419
0.410010 0.587762 0.888670
0.746456 0.436072 0.875059
1.000000 0.469917 0.809049
1.000000 0.660487 0.768948
0.702815 0.837705 0.850797
0.742367 0.835813 0.850767
0.792294 0.778286 0.836027
0.905058 0.766720 0.808530
0.932036 0.806821 0.824979
0.699702 0.822110 0.763729
0.723690 0.821256 0.773404
0.779660 0.817655 0.796689
0.843015 0.837064 0.827237
0.937713 0.789029 0.751980
0.799496 0.864775 0.830045
0.798856 0.863767 0.829007
0.798062 0.859739 0.825681
0.814420 0.857511 0.827481
0.879698 0.877714 0.863493
0.000000 0.547784 0.930571
0.000000 0.512261 0.931853
0.520897 0.448859 0.930358
0.868956 0.294408 0.923735
1.000000 0.457435 0.872251
0.476295 0.675441 0.918120
0.481331 0.650782 0.919524
0.596887 0.577386 0.920806
0.867185 0.434058 0.916777
1.000000 0.555779 0.868833
0.779812 0.851713 0.896117
0.792233 0.849729 0.895109
0.781216 0.810086 0.895933
0.861601 0.720760 0.892973
0.950317 0.767147 0.869566
0.802029 0.885039 0.883909
0.811978 0.884337 0.884367
0.846647 0.883635 0.887388
0.867460 0.866758 0.885740
0.908568 0.859953 0.877745
0.798184 0.881498 0.842954
0.805325 0.881163 0.845823
0.834501 0.881712 0.859037
0.870329 0.884855 0.877317
0.893675 0.892576 0.890745
