lut_library_archive/removed_20260629/抖音热门推荐/抖音热门推荐01.cube
# 版权归凌孟成所有，侵权必究
# Created by Adobe Lightroom plugin Export LUT (1.24.0)
# www.johnrellis.com/lightroom/exportlut.htm
# Preset: INS风格-缇米设计01
# Color profile: C:\Program Files (x86)\Common Files\Adobe\Color\Profiles\Recommended\VideoHD.icc
LUT_3D_SIZE 8
DOMAIN_MIN 0.000000 0.000000 0.000000
DOMAIN_MAX 0.903226 0.903226 0.903226
0.110475 0.096010 0.094759
0.194553 0.095827 0.099397
0.450965 0.023499 0.116030
0.663691 0.039185 0.136812
0.791226 0.228153 0.172335
0.888823 0.378882 0.242679
0.931701 0.489143 0.344701
0.963165 0.577325 0.473304
0.113527 0.152285 0.112184
0.179446 0.145052 0.127565
0.424964 0.171084 0.115145
0.635004 0.181064 0.134585
0.771695 0.267582 0.169619
0.869657 0.383062 0.230228
0.920104 0.483955 0.324224
0.958068 0.572015 0.456428
0.000000 0.337926 0.176272
0.117556 0.328222 0.172488
0.365393 0.309056 0.247379
0.580591 0.344671 0.138796
0.734127 0.392065 0.173098
0.843107 0.462013 0.234897
0.908995 0.538537 0.347082
0.949554 0.613428 0.480629
0.000000 0.520653 0.292729
0.000000 0.510643 0.283909
0.255528 0.485786 0.253788
0.544396 0.492836 0.424781
0.684627 0.515190 0.290806
0.802090 0.541436 0.234958
0.882750 0.596124 0.352636
0.931670 0.656825 0.488441
0.115419 0.637201 0.425483
0.147921 0.631189 0.416388
0.226261 0.607691 0.383062
0.483253 0.591455 0.393591
0.632776 0.599573 0.549157
0.740688 0.616297 0.467628
0.843839 0.639490 0.319127
0.911162 0.695369 0.486793
0.301579 0.721920 0.531640
0.312932 0.722011 0.531090
0.328069 0.709804 0.511192
0.350652 0.681697 0.469581
0.609888 0.681788 0.535119
0.710658 0.691585 0.654841
0.787900 0.719570 0.640986
0.883970 0.744686 0.589441
0.458198 0.785855 0.643488
0.461402 0.785336 0.642390
0.466011 0.780056 0.631891
0.475532 0.770565 0.612055
0.542901 0.760586 0.585657
0.725704 0.754849 0.673793
0.774289 0.762722 0.745510
0.832090 0.797086 0.757534
0.622889 0.846983 0.743984
0.623926 0.846769 0.743526
0.629358 0.846067 0.742214
0.640955 0.845029 0.740688
0.643030 0.838590 0.727840
0.723476 0.835233 0.739345
0.811612 0.830564 0.783291
0.835294 0.830320 0.813474
0.110475 0.105135 0.123903
0.206699 0.093538 0.142550
0.465827 0.000000 0.156710
0.665736 0.148043 0.192905
0.786465 0.260716 0.224491
0.873136 0.373602 0.273320
0.918669 0.474189 0.350774
0.955749 0.561608 0.464607
0.117769 0.165713 0.138369
0.221256 0.177432 0.154421
0.449653 0.195804 0.169528
0.649592 0.222843 0.191897
0.774197 0.299016 0.222446
0.862638 0.390570 0.268986
0.911772 0.478462 0.342626
0.951171 0.561089 0.454597
0.173190 0.368322 0.226719
0.214572 0.359533 0.220890
0.394415 0.338933 0.280644
0.597803 0.366247 0.190951
0.732845 0.401282 0.217166
0.833707 0.457893 0.264286
0.897490 0.522667 0.348241
0.942779 0.596735 0.469154
0.127565 0.531945 0.326970
0.173587 0.523033 0.317662
0.288640 0.494697 0.287541
0.543786 0.492897 0.428931
0.674220 0.504082 0.291478
0.784970 0.526970 0.250217
0.871061 0.575616 0.343542
0.924529 0.639826 0.471260
0.217929 0.642359 0.447120
0.231052 0.635981 0.437751
0.275669 0.611872 0.403265
0.483101 0.590692 0.400763
0.629389 0.595819 0.546868
0.733516 0.608301 0.459449
0.837430 0.628565 0.323156
0.905272 0.687770 0.478462
0.327245 0.720272 0.537438
0.331609 0.717739 0.533288
0.345312 0.705562 0.513878
0.366003 0.678004 0.473640
0.606104 0.677729 0.533074
0.708644 0.689631 0.653254
0.785367 0.716030 0.634791
0.881834 0.738857 0.577630
0.459144 0.781827 0.641169
0.458473 0.779934 0.637476
0.461921 0.774502 0.626215
0.471168 0.765469 0.606134
0.534997 0.756435 0.581201
0.721645 0.750576 0.667964
0.769680 0.757290 0.740322
0.828824 0.791287 0.750546
0.617639 0.844633 0.740749
0.620325 0.844816 0.741176
0.625177 0.843961 0.739437
0.636713 0.842893 0.737636
0.652033 0.840879 0.734554
0.724392 0.836118 0.741421
0.810971 0.830228 0.782895
0.834867 0.829953 0.813107
0.109407 0.143923 0.218814
0.160708 0.129793 0.252171
0.505760 0.000000 0.349401
0.733242 0.173892 0.372473
0.827390 0.306767 0.376471
0.879179 0.438880 0.425879
0.914641 0.515984 0.474983
0.947234 0.593744 0.548028
0.176303 0.212009 0.230686
0.222690 0.214481 0.268132
0.517388 0.217105 0.360143
0.715999 0.273136 0.369543
0.812680 0.351995 0.375372
0.869627 0.451087 0.419013
0.908812 0.517845 0.465370
0.944274 0.592676 0.539727
0.166751 0.421241 0.336400
0.274907 0.435492 0.353124
0.502434 0.448005 0.395239
0.662593 0.451637 0.376440
0.767300 0.472389 0.385077
0.846616 0.502922 0.409461
0.895232 0.551293 0.461738
0.935393 0.618006 0.541009
0.285527 0.596033 0.453071
0.357885 0.593530 0.460151
0.450599 0.570153 0.444617
0.596521 0.558221 0.516564
0.703487 0.542504 0.359716
0.805509 0.559594 0.384131
0.871550 0.600061 0.451331
0.920256 0.657343 0.541680
0.413092 0.679774 0.540185
0.424933 0.675380 0.536034
0.438178 0.654261 0.507622
0.512871 0.625422 0.470893
0.656519 0.631556 0.594781
0.748928 0.627558 0.493874
0.838529 0.644526 0.416724
0.903014 0.695338 0.536858
0.444526 0.734981 0.593133
0.446082 0.733089 0.589258
0.449531 0.723079 0.570397
0.454688 0.698604 0.531762
0.616968 0.690120 0.562188
0.717494 0.700343 0.670436
0.789120 0.719844 0.642817
0.884215 0.740963 0.585321
0.521996 0.789059 0.672145
0.521080 0.787320 0.669093
0.520256 0.781247 0.657923
0.522057 0.771023 0.637446
0.550622 0.758785 0.608453
0.724331 0.755306 0.679164
0.775051 0.764187 0.748684
0.833310 0.796933 0.756588
0.635706 0.845579 0.750637
0.635706 0.845151 0.749691
0.639429 0.844236 0.747646
0.650660 0.843687 0.746517
0.663355 0.841550 0.742580
0.722591 0.837980 0.745235
0.812528 0.832090 0.786099
0.836545 0.831754 0.815702
0.000000 0.193637 0.341527
0.057771 0.182040 0.374578
0.415259 0.174563 0.502586
0.732631 0.241398 0.588678
0.851804 0.398810 0.600885
0.885893 0.474647 0.575219
0.914733 0.537285 0.580163
0.934051 0.619593 0.627527
0.170321 0.264714 0.363348
0.193637 0.259251 0.393469
0.436622 0.263706 0.512047
0.729397 0.333165 0.594415
0.842374 0.443091 0.600275
0.879149 0.495186 0.575189
0.909728 0.548272 0.580804
0.928832 0.630152 0.632074
0.238376 0.391669 0.397375
0.292454 0.401770 0.407874
0.466102 0.454108 0.509911
0.706935 0.516075 0.600946
0.808072 0.542687 0.592828
0.855314 0.562371 0.581384
0.887785 0.612757 0.607874
0.921141 0.657801 0.640986
0.328496 0.626368 0.562676
0.388800 0.630060 0.569726
0.541161 0.649104 0.599268
0.669154 0.645960 0.619471
0.752346 0.621973 0.576715
0.814176 0.619196 0.568109
0.864195 0.640864 0.584924
0.909789 0.679469 0.631067
0.465156 0.729091 0.631220
0.488411 0.726528 0.631922
0.566308 0.717464 0.637201
0.606561 0.691279 0.613458
0.703182 0.687861 0.666041
0.770779 0.660151 0.551049
0.838254 0.677516 0.556420
0.897887 0.709468 0.624842
0.544549 0.759304 0.670527
0.560052 0.759182 0.673579
0.599817 0.752041 0.673915
0.591180 0.736233 0.642451
0.648798 0.718502 0.624353
0.737484 0.723232 0.706661
0.800046 0.729732 0.662470
0.886320 0.746914 0.618891
0.601709 0.802579 0.714839
0.609094 0.801663 0.715480
0.616541 0.797055 0.710445
0.615076 0.787472 0.694728
0.609552 0.771054 0.666712
0.729854 0.767636 0.701656
0.783627 0.775418 0.761501
0.839475 0.802853 0.762722
0.671870 0.848997 0.771145
0.672267 0.848753 0.770565
0.674342 0.847837 0.768429
0.679866 0.846433 0.764920
0.688014 0.844022 0.759548
0.721035 0.840787 0.754818
0.813993 0.834928 0.790738
0.839567 0.834989 0.820340
0.000000 0.257084 0.471748
0.000000 0.252110 0.495857
0.303838 0.251072 0.578668
0.687892 0.307652 0.694850
0.832761 0.445624 0.721584
0.884306 0.554345 0.721340
0.907652 0.599023 0.700801
0.926238 0.650446 0.705409
0.071321 0.308598 0.482856
0.121523 0.306371 0.505760
0.328496 0.302373 0.584375
0.681666 0.373144 0.694270
0.826169 0.483223 0.721492
0.878691 0.574975 0.722164
0.903227 0.610132 0.701106
0.923613 0.656367 0.705989
0.231113 0.401129 0.464820
0.267887 0.417060 0.490120
0.403845 0.453407 0.578393
0.655390 0.520165 0.686824
0.802853 0.580316 0.719051
0.854337 0.626123 0.714870
0.886656 0.643214 0.699031
0.914275 0.673274 0.705501
0.301823 0.561089 0.559594
0.346380 0.564202 0.564141
0.481483 0.578515 0.583917
0.641505 0.638056 0.672511
0.775875 0.688106 0.724056
0.823270 0.687282 0.710048
0.864714 0.686793 0.700191
0.899931 0.704372 0.713466
0.483803 0.729610 0.684993
0.507591 0.730892 0.688472
0.592462 0.734981 0.701472
0.697261 0.744778 0.724666
0.747707 0.733852 0.725216
0.786984 0.714137 0.688380
0.839902 0.710719 0.683589
0.890013 0.724422 0.703426
0.585321 0.783963 0.722591
0.596429 0.782773 0.723049
0.633265 0.776699 0.723323
0.683650 0.766201 0.724056
0.698054 0.743801 0.701411
0.758328 0.747738 0.741970
0.813352 0.736416 0.676844
0.879606 0.756558 0.691920
0.620050 0.819028 0.744961
0.624598 0.817868 0.744564
0.643580 0.813840 0.744106
0.679927 0.807156 0.745968
0.684443 0.791897 0.727230
0.727474 0.778775 0.720180
0.791440 0.785824 0.773495
0.845426 0.804227 0.762173
0.656672 0.853025 0.777279
0.661311 0.852506 0.777768
0.680812 0.850462 0.779873
0.715694 0.848020 0.785000
0.719112 0.845487 0.778622
0.725277 0.841886 0.770687
0.810910 0.836515 0.792874
0.840482 0.836240 0.822904
0.000000 0.335424 0.590814
0.000000 0.332555 0.604913
0.203586 0.311009 0.655024
0.590448 0.368139 0.727291
0.804227 0.495186 0.784939
0.869261 0.581048 0.785885
0.898985 0.657374 0.779202
0.916472 0.693721 0.774166
0.000000 0.365545 0.586908
0.000000 0.363500 0.599847
0.221592 0.339391 0.650477
0.583368 0.398077 0.721157
0.797269 0.515435 0.780972
0.863310 0.592676 0.782956
0.895354 0.662715 0.777615
0.914366 0.695155 0.772702
0.185641 0.450629 0.576471
0.235050 0.460517 0.591913
0.353124 0.471778 0.644343
0.573297 0.504021 0.714992
0.780911 0.601709 0.778012
0.847501 0.652186 0.781338
0.885161 0.694057 0.779751
0.907561 0.711208 0.774350
0.248051 0.523217 0.563226
0.281132 0.524193 0.564355
0.410925 0.551385 0.600061
0.587457 0.615564 0.702174
0.757504 0.692683 0.772763
0.835019 0.716243 0.784604
0.872068 0.732845 0.783749
0.897185 0.738521 0.778103
0.414160 0.674189 0.673823
0.434882 0.675074 0.675380
0.506401 0.680110 0.682246
0.612543 0.692256 0.696254
0.736110 0.731868 0.754635
0.820829 0.762081 0.784207
0.853788 0.757321 0.776028
0.885130 0.758968 0.773434
0.592920 0.780026 0.752010
0.606165 0.781308 0.753994
0.645533 0.783932 0.758907
0.698573 0.790799 0.768582
0.761074 0.802121 0.782803
0.796841 0.791806 0.781827
0.832670 0.774472 0.759243
0.874388 0.782589 0.765866
0.655726 0.837095 0.783230
0.661189 0.836851 0.783841
0.679225 0.834775 0.784634
0.710689 0.830533 0.785763
0.748684 0.823270 0.786130
0.756008 0.806668 0.770230
0.809842 0.807279 0.795682
0.859373 0.811429 0.770016
0.668055 0.860319 0.795224
0.671138 0.859831 0.795224
0.686122 0.858213 0.796048
0.714931 0.855589 0.798337
0.753506 0.850980 0.801724
0.768490 0.846036 0.797177
0.806088 0.841276 0.798825
0.844053 0.840482 0.829709
0.000000 0.431342 0.694514
0.000000 0.429511 0.703365
0.176699 0.402899 0.728878
0.522057 0.424781 0.766079
0.732143 0.510369 0.801724
0.843717 0.609277 0.821530
0.890806 0.667842 0.819333
0.908873 0.709651 0.811276
0.000000 0.441962 0.682887
0.000000 0.441962 0.692561
0.206027 0.421363 0.719448
0.510277 0.434211 0.758083
0.722255 0.515923 0.795743
0.837827 0.609064 0.817380
0.886748 0.663294 0.815091
0.906401 0.703975 0.807248
0.167849 0.513268 0.677089
0.207767 0.513848 0.684077
0.316686 0.507439 0.709926
0.503685 0.504448 0.751888
0.712520 0.574884 0.790219
0.827146 0.659113 0.815091
0.879332 0.695247 0.815702
0.901091 0.728847 0.811185
0.182162 0.556390 0.644587
0.230930 0.560113 0.651728
0.379950 0.578058 0.683864
0.531304 0.602289 0.737087
0.700038 0.651423 0.782925
0.821805 0.716457 0.815763
0.869718 0.736904 0.817411
0.890715 0.762783 0.814481
0.290990 0.636133 0.675929
0.309911 0.633265 0.673732
0.383215 0.627924 0.671199
0.490517 0.627771 0.676539
0.675441 0.698421 0.759640
0.805203 0.751247 0.808743
0.855253 0.772671 0.814817
0.880613 0.791562 0.816678
0.457527 0.747402 0.745968
0.470619 0.747311 0.746548
0.519249 0.746304 0.748196
0.598901 0.744594 0.751644
0.683680 0.744320 0.756832
0.781918 0.783230 0.797482
0.847532 0.812253 0.820096
0.873045 0.811582 0.817044
0.625574 0.826383 0.793759
0.632898 0.826871 0.794705
0.656367 0.827115 0.796628
0.699153 0.828122 0.800992
0.755337 0.829740 0.807736
0.808164 0.835080 0.818906
0.834195 0.830411 0.820066
0.865446 0.824369 0.809537
0.691524 0.866209 0.815793
0.696071 0.865965 0.816220
0.715297 0.865110 0.818448
0.742123 0.862913 0.820951
0.771969 0.859831 0.823758
0.801389 0.855985 0.826749
0.817288 0.849973 0.822293
0.850492 0.848142 0.841489
0.145022 0.539574 0.775235
0.193820 0.537224 0.778897
0.298253 0.514763 0.788571
0.489174 0.498543 0.807187
0.677699 0.544366 0.823758
0.801358 0.616175 0.838468
0.870542 0.682856 0.846036
0.906004 0.717494 0.845457
0.156069 0.543603 0.768795
0.201724 0.541955 0.772702
0.304662 0.523980 0.783841
0.479438 0.502922 0.803220
0.671199 0.548394 0.820829
0.797726 0.619348 0.836301
0.868467 0.683070 0.844144
0.904540 0.716304 0.843595
0.263188 0.579309 0.759762
0.284672 0.577783 0.762966
0.354498 0.567010 0.773983
0.474189 0.547082 0.798184
0.662562 0.584100 0.816312
0.787137 0.649195 0.832151
0.863279 0.701350 0.842618
0.899382 0.730495 0.842710
0.253544 0.613275 0.740902
0.290562 0.615320 0.745022
0.397375 0.620050 0.758145
0.501305 0.620264 0.782742
0.642695 0.632471 0.808286
0.772976 0.691279 0.827359
0.856565 0.732784 0.842222
0.890135 0.759579 0.842954
0.136690 0.642908 0.715908
0.177920 0.642420 0.716426
0.281468 0.640375 0.721492
0.457465 0.659907 0.752071
0.617395 0.684108 0.789364
0.750912 0.717983 0.818723
0.845945 0.767666 0.840757
0.880125 0.790311 0.843778
0.305333 0.733730 0.760494
0.313420 0.731746 0.759091
0.354253 0.725429 0.755428
0.430182 0.716152 0.751675
0.525200 0.703731 0.747524
0.725399 0.746151 0.805753
0.835203 0.803983 0.841215
0.873075 0.819516 0.848051
0.484016 0.809964 0.801663
0.492012 0.809323 0.801511
0.524773 0.806851 0.801144
0.584161 0.804105 0.801816
0.650965 0.801663 0.803311
0.722774 0.801999 0.806729
0.817472 0.821805 0.831968
0.866209 0.840482 0.850095
0.632319 0.860990 0.829343
0.636652 0.860655 0.829374
0.656794 0.859739 0.830045
0.696590 0.858488 0.832425
0.746365 0.857115 0.836118
0.793912 0.856657 0.841550
0.836606 0.858183 0.849760
0.859159 0.857572 0.854368
