lut_library_archive/removed_20260629/抖音热门推荐/抖音热门推荐02.cube
# 版权归凌孟成所有，侵权必究
# Created by Adobe Lightroom plugin Export LUT (1.24.0)
# www.johnrellis.com/lightroom/exportlut.htm
# Preset: INS风格-缇米设计02
# Color profile: C:\Program Files (x86)\Common Files\Adobe\Color\Profiles\Recommended\VideoHD.icc
LUT_3D_SIZE 8
DOMAIN_MIN 0.000000 0.000000 0.000000
DOMAIN_MAX 0.903226 0.903226 0.903226
0.156710 0.128664 0.119570
0.200443 0.133913 0.124025
0.338506 0.134768 0.132906
0.512383 0.116945 0.140322
0.671870 0.128450 0.151522
0.788418 0.236088 0.177737
0.859251 0.331853 0.216739
0.904356 0.426215 0.281895
0.175113 0.153262 0.132479
0.191012 0.154635 0.138552
0.331853 0.169863 0.132326
0.498207 0.164340 0.139162
0.658839 0.176242 0.150698
0.771115 0.251347 0.173129
0.844846 0.334356 0.208988
0.897704 0.424689 0.271580
0.213596 0.224186 0.167575
0.232853 0.215335 0.171237
0.287572 0.237034 0.201877
0.499458 0.290410 0.135775
0.658350 0.308293 0.150546
0.761349 0.353307 0.175479
0.841154 0.414343 0.220096
0.892271 0.478584 0.292271
0.268986 0.337102 0.232670
0.285069 0.327367 0.233433
0.338659 0.311833 0.249241
0.444221 0.392645 0.340337
0.645228 0.460639 0.242039
0.743648 0.478492 0.185000
0.822324 0.502007 0.234470
0.876493 0.537407 0.309972
0.328435 0.455543 0.318822
0.340581 0.447333 0.317449
0.382544 0.414862 0.316655
0.460456 0.433814 0.363134
0.565026 0.522881 0.480781
0.696559 0.567498 0.400885
0.793423 0.572229 0.249485
0.855070 0.598138 0.330297
0.396948 0.550469 0.412360
0.407813 0.548821 0.414618
0.433875 0.525566 0.406561
0.473213 0.474586 0.396948
0.568170 0.543420 0.487922
0.644404 0.621576 0.594812
0.746914 0.662226 0.563470
0.824552 0.672816 0.462440
0.484077 0.635187 0.516533
0.488808 0.632624 0.515923
0.502495 0.617487 0.508110
0.526940 0.586328 0.495735
0.571038 0.574395 0.511498
0.649622 0.639277 0.602289
0.712978 0.699855 0.682155
0.774350 0.727718 0.680781
0.584924 0.725093 0.634821
0.586755 0.723690 0.634028
0.595789 0.718227 0.632044
0.613886 0.706630 0.629755
0.626581 0.671870 0.612634
0.684413 0.695491 0.656977
0.737972 0.730587 0.715938
0.767849 0.759823 0.755093
0.157259 0.134951 0.138308
0.203769 0.134066 0.143740
0.337011 0.130892 0.149416
0.501122 0.137545 0.163729
0.662440 0.152499 0.177737
0.770504 0.231876 0.198581
0.841978 0.317693 0.228489
0.895384 0.408881 0.282597
0.167361 0.164340 0.141970
0.208133 0.167361 0.147799
0.333806 0.175418 0.154391
0.499031 0.177737 0.163912
0.658503 0.193515 0.177310
0.763638 0.256107 0.196902
0.834379 0.329290 0.225284
0.890196 0.412512 0.276493
0.226932 0.246738 0.182956
0.247684 0.238407 0.185458
0.303410 0.252171 0.214664
0.500633 0.294438 0.163607
0.650385 0.308049 0.176394
0.751003 0.346441 0.196628
0.825925 0.398291 0.229557
0.884031 0.462715 0.289494
0.277104 0.351446 0.244419
0.293278 0.342168 0.244694
0.346715 0.318486 0.257115
0.438666 0.386969 0.335302
0.629389 0.443244 0.239017
0.728481 0.460334 0.198978
0.806607 0.485115 0.236454
0.868467 0.522301 0.301823
0.336004 0.467201 0.330694
0.347509 0.458412 0.328191
0.387884 0.424659 0.324620
0.460060 0.433204 0.363348
0.559533 0.516533 0.473854
0.690120 0.559747 0.392584
0.785733 0.565057 0.256779
0.850614 0.589593 0.328954
0.400488 0.553643 0.417517
0.407660 0.548730 0.415503
0.434089 0.526635 0.408057
0.473762 0.478370 0.399298
0.565759 0.540673 0.485054
0.642786 0.619654 0.592737
0.744778 0.658473 0.558740
0.822904 0.667506 0.453864
0.481697 0.633600 0.515038
0.484199 0.629328 0.512108
0.497780 0.614099 0.503838
0.522942 0.583673 0.491859
0.567376 0.569757 0.506645
0.645869 0.634821 0.597498
0.709041 0.695674 0.677089
0.771572 0.723476 0.672999
0.577478 0.722469 0.629511
0.581048 0.721798 0.630152
0.589654 0.715969 0.627588
0.608026 0.703944 0.624964
0.633295 0.679866 0.621546
0.686000 0.697047 0.659052
0.737484 0.730068 0.715267
0.767453 0.759396 0.754696
0.154604 0.151064 0.188113
0.181918 0.144015 0.200412
0.356634 0.131380 0.237156
0.562066 0.105715 0.252506
0.702205 0.148165 0.256718
0.783627 0.271397 0.287327
0.848051 0.352361 0.314305
0.893919 0.434577 0.361395
0.174228 0.185397 0.193881
0.199924 0.180179 0.207675
0.365820 0.177371 0.242344
0.550195 0.176669 0.249912
0.691463 0.200900 0.256229
0.775296 0.293706 0.285069
0.841245 0.361517 0.309300
0.889982 0.437964 0.355352
0.179324 0.294591 0.230961
0.225406 0.301884 0.237919
0.368231 0.311192 0.262028
0.535332 0.321386 0.259739
0.676722 0.341741 0.272374
0.762936 0.377600 0.287358
0.830961 0.421088 0.312718
0.881804 0.477119 0.361303
0.261357 0.428717 0.300084
0.306523 0.426978 0.308232
0.399054 0.398535 0.320012
0.490517 0.441444 0.392981
0.653925 0.473030 0.284306
0.739559 0.483284 0.293156
0.813352 0.501946 0.321721
0.867796 0.534600 0.374182
0.376257 0.529046 0.398810
0.392432 0.523217 0.398138
0.431617 0.492897 0.387945
0.494606 0.470680 0.405463
0.586786 0.549340 0.512627
0.701869 0.574945 0.424598
0.789883 0.574121 0.333196
0.848966 0.596643 0.390600
0.443061 0.590082 0.469734
0.449287 0.586053 0.467628
0.470924 0.566278 0.457404
0.504265 0.522881 0.442786
0.579370 0.556603 0.505669
0.652918 0.632013 0.606989
0.748379 0.663661 0.567559
0.824033 0.669673 0.464759
0.505913 0.657801 0.547387
0.508293 0.653956 0.544732
0.519707 0.638727 0.535515
0.541222 0.608972 0.521141
0.574884 0.577295 0.518700
0.652552 0.642939 0.607202
0.715694 0.702846 0.686183
0.775570 0.727779 0.680262
0.589014 0.730190 0.643549
0.589960 0.728573 0.642054
0.597498 0.723110 0.638819
0.615869 0.712947 0.636713
0.638514 0.690639 0.631464
0.687526 0.699214 0.661982
0.739742 0.732601 0.718807
0.769894 0.762264 0.757443
0.122988 0.172274 0.269291
0.135378 0.161868 0.285466
0.312535 0.152377 0.349554
0.575616 0.123293 0.414099
0.746487 0.192477 0.448035
0.810788 0.279271 0.424994
0.859281 0.350835 0.418463
0.888640 0.443275 0.451789
0.149050 0.208682 0.282811
0.164797 0.199985 0.297368
0.322026 0.190463 0.358526
0.582727 0.190921 0.421515
0.741848 0.247135 0.447883
0.805112 0.308751 0.424262
0.854429 0.367834 0.417731
0.883024 0.459205 0.457710
0.150637 0.296513 0.302129
0.190707 0.300664 0.308202
0.329290 0.310979 0.364782
0.586755 0.345678 0.433845
0.714809 0.377081 0.437690
0.784512 0.405097 0.426490
0.834623 0.460670 0.447761
0.875486 0.503960 0.472786
0.058015 0.487465 0.399390
0.185794 0.491859 0.405554
0.383246 0.510704 0.433234
0.562982 0.514122 0.467597
0.670893 0.510216 0.440223
0.746731 0.512505 0.438117
0.813352 0.523033 0.445838
0.861448 0.549493 0.473487
0.333135 0.603662 0.483314
0.368566 0.600336 0.484871
0.478889 0.588373 0.495766
0.558007 0.550744 0.495125
0.624933 0.597894 0.570459
0.722011 0.596429 0.473915
0.794186 0.592737 0.455116
0.844175 0.610254 0.484443
0.473060 0.647211 0.541009
0.489540 0.647608 0.545647
0.536919 0.637659 0.551629
0.563165 0.602960 0.532738
0.607843 0.592523 0.550866
0.676417 0.659785 0.637934
0.756649 0.675257 0.586023
0.824796 0.674739 0.501244
0.533745 0.696284 0.597528
0.541924 0.694881 0.598932
0.557824 0.684962 0.594629
0.575708 0.659907 0.579828
0.597986 0.612634 0.559045
0.666621 0.659693 0.626917
0.725582 0.713405 0.700160
0.781308 0.732418 0.687373
0.617914 0.745632 0.674037
0.619043 0.744503 0.672999
0.624720 0.739803 0.669245
0.636408 0.730068 0.662989
0.653162 0.711666 0.654322
0.688746 0.701564 0.665858
0.742672 0.736049 0.723537
0.774075 0.767391 0.762203
0.000000 0.200046 0.370001
0.000000 0.192264 0.385931
0.207950 0.177310 0.446326
0.546471 0.161532 0.551141
0.734157 0.235416 0.590051
0.831510 0.354986 0.599695
0.863615 0.421698 0.571313
0.887205 0.481910 0.566430
0.000000 0.229587 0.380316
0.000000 0.222995 0.395789
0.214328 0.204074 0.454231
0.548821 0.212345 0.553155
0.732113 0.281163 0.591669
0.827024 0.385046 0.599908
0.859342 0.437751 0.570672
0.884337 0.490700 0.566491
0.049622 0.305760 0.376043
0.123323 0.311284 0.392981
0.252201 0.313268 0.458747
0.542290 0.345892 0.553674
0.716579 0.407324 0.590570
0.801694 0.461189 0.588067
0.842222 0.486213 0.566033
0.873075 0.517815 0.563439
0.000000 0.445167 0.445777
0.000000 0.448249 0.450141
0.284855 0.461677 0.469581
0.517052 0.496590 0.546410
0.695796 0.549554 0.597711
0.767544 0.553613 0.582391
0.816922 0.553002 0.566857
0.852445 0.571099 0.571435
0.231937 0.621759 0.552789
0.284520 0.623651 0.556603
0.426062 0.629877 0.570581
0.570367 0.644648 0.597070
0.663233 0.639063 0.611963
0.731930 0.622065 0.578271
0.790219 0.614496 0.567437
0.835477 0.623102 0.572107
0.430762 0.696742 0.597986
0.448249 0.695155 0.598810
0.506279 0.687343 0.601068
0.586877 0.673487 0.608576
0.634546 0.634516 0.598291
0.698665 0.684962 0.666468
0.765682 0.680507 0.596674
0.818570 0.681270 0.579004
0.513603 0.729458 0.636408
0.520836 0.727840 0.636103
0.550622 0.721920 0.636500
0.608270 0.711147 0.642542
0.632837 0.679133 0.624231
0.675898 0.672053 0.641596
0.734249 0.722652 0.712825
0.786862 0.732906 0.685908
0.584985 0.760861 0.684535
0.591333 0.759854 0.685054
0.616632 0.755612 0.687434
0.658259 0.748959 0.693935
0.670649 0.733608 0.682643
0.687129 0.705989 0.670161
0.742153 0.736446 0.723995
0.776150 0.769955 0.764645
0.000000 0.232578 0.477943
0.000000 0.226474 0.490455
0.000000 0.197269 0.535912
0.433051 0.202976 0.612299
0.715175 0.288609 0.687037
0.815183 0.389136 0.692958
0.857298 0.492409 0.688777
0.878141 0.550561 0.678431
0.000000 0.253330 0.476905
0.000000 0.247959 0.488167
0.000000 0.214969 0.533257
0.427497 0.229984 0.606439
0.708339 0.316381 0.681758
0.808927 0.406531 0.688655
0.853147 0.500908 0.686030
0.875303 0.553429 0.675807
0.000000 0.325597 0.476204
0.000000 0.329747 0.490242
0.108003 0.322118 0.537530
0.423438 0.325414 0.606439
0.694606 0.430884 0.681147
0.794888 0.489540 0.688258
0.839719 0.553033 0.688563
0.865019 0.582483 0.676692
0.000000 0.410651 0.470985
0.000000 0.411872 0.473396
0.159945 0.432502 0.507073
0.429053 0.472847 0.600641
0.671168 0.553826 0.678676
0.776425 0.592096 0.693812
0.818479 0.622370 0.692866
0.848692 0.628260 0.679652
0.000000 0.575647 0.565454
0.000000 0.576532 0.567498
0.251865 0.580468 0.576593
0.458381 0.587945 0.594598
0.633478 0.624567 0.657313
0.752438 0.666499 0.692073
0.793515 0.662715 0.680140
0.830594 0.658167 0.669001
0.369451 0.703548 0.646967
0.393408 0.705104 0.649866
0.464973 0.707454 0.656733
0.564019 0.712367 0.670466
0.670954 0.719326 0.690883
0.729671 0.714839 0.700313
0.771725 0.700679 0.671748
0.814847 0.696620 0.665949
0.511925 0.762264 0.694789
0.523095 0.761654 0.695674
0.559197 0.757870 0.696712
0.616541 0.750301 0.698421
0.677882 0.738277 0.700374
0.704891 0.708949 0.684504
0.750607 0.740291 0.735714
0.799863 0.736843 0.690852
0.568109 0.785061 0.713527
0.573144 0.784024 0.713283
0.596338 0.780545 0.713954
0.636988 0.774319 0.716304
0.685298 0.763455 0.720027
0.710506 0.742061 0.711177
0.742580 0.739010 0.727108
0.781857 0.776852 0.770748
0.000000 0.269780 0.574914
0.000000 0.264561 0.583917
0.000000 0.232425 0.614710
0.298253 0.224094 0.665339
0.635645 0.275578 0.719905
0.791073 0.424781 0.751736
0.845823 0.507622 0.751186
0.867979 0.581048 0.740597
0.000000 0.284581 0.570031
0.000000 0.280491 0.579095
0.000000 0.252384 0.610163
0.289799 0.240421 0.660273
0.628809 0.294804 0.715358
0.785672 0.435950 0.748226
0.842008 0.510979 0.747677
0.865415 0.580346 0.737697
0.000000 0.348211 0.565301
0.000000 0.346929 0.573419
0.000000 0.332158 0.604059
0.262486 0.305455 0.656550
0.613703 0.378882 0.710872
0.774929 0.504509 0.746487
0.831144 0.559838 0.747555
0.856504 0.617365 0.740597
0.000000 0.400946 0.526787
0.000000 0.405707 0.536126
0.000000 0.427161 0.576440
0.276371 0.437720 0.641047
0.581903 0.484962 0.702358
0.761440 0.592493 0.746212
0.813657 0.627771 0.747707
0.843076 0.664485 0.743954
0.000000 0.516747 0.563684
0.000000 0.515557 0.563592
0.000000 0.512657 0.565606
0.144625 0.512047 0.577264
0.534417 0.567285 0.677028
0.735897 0.654536 0.737972
0.795224 0.682856 0.745785
0.831754 0.701625 0.747250
0.000000 0.659510 0.649531
0.000000 0.659449 0.650416
0.000000 0.658595 0.653468
0.355016 0.656794 0.659449
0.521263 0.657191 0.668971
0.698695 0.696437 0.722469
0.786191 0.729091 0.751492
0.820005 0.725948 0.744839
0.398535 0.755886 0.713527
0.414679 0.756039 0.714626
0.469856 0.755581 0.717739
0.559655 0.755123 0.724392
0.656550 0.756069 0.734646
0.729152 0.763821 0.749844
0.771054 0.761593 0.756130
0.806516 0.747219 0.736202
0.553246 0.809293 0.746395
0.561120 0.808774 0.746792
0.592004 0.806760 0.748745
0.635492 0.802548 0.751186
0.681178 0.796201 0.753902
0.724727 0.786374 0.756039
0.752529 0.759976 0.747585
0.791958 0.788846 0.781064
0.000000 0.330114 0.680629
0.000000 0.323949 0.685634
0.000000 0.290837 0.702052
0.000000 0.247684 0.731441
0.558526 0.281865 0.761074
0.744625 0.425177 0.784115
0.825284 0.547021 0.791745
0.864561 0.607568 0.789059
0.000000 0.341375 0.675624
0.000000 0.336034 0.680720
0.000000 0.306493 0.698268
0.000000 0.258305 0.728328
0.551873 0.295476 0.758724
0.740352 0.435279 0.782345
0.822934 0.552056 0.790494
0.862608 0.609857 0.787930
0.000000 0.391333 0.664759
0.000000 0.387579 0.669642
0.000000 0.367346 0.687922
0.000000 0.308965 0.722988
0.529046 0.352026 0.754147
0.727047 0.481178 0.778225
0.814572 0.584985 0.788510
0.855161 0.633631 0.786496
0.000000 0.443030 0.633906
0.000000 0.445228 0.640253
0.000000 0.451087 0.663996
0.000000 0.433356 0.703304
0.467079 0.426825 0.744320
0.704463 0.541894 0.772030
0.800931 0.637781 0.786313
0.844053 0.671290 0.785489
0.000000 0.484169 0.589807
0.000000 0.481941 0.589502
0.000000 0.482307 0.601160
0.000000 0.509880 0.654810
0.370581 0.523308 0.718318
0.661524 0.588006 0.760922
0.786801 0.686213 0.784207
0.834379 0.705806 0.785550
0.000000 0.623957 0.662654
0.000000 0.621851 0.661616
0.000000 0.614405 0.658656
0.000000 0.599939 0.654536
0.000000 0.572717 0.648157
0.585077 0.632380 0.738827
0.773251 0.721889 0.782193
0.826505 0.740963 0.787808
0.000000 0.743160 0.725673
0.000000 0.742397 0.725612
0.000000 0.739223 0.725460
0.000000 0.733425 0.726131
0.353826 0.725063 0.727413
0.542870 0.715877 0.729976
0.738064 0.738369 0.767910
0.816373 0.775723 0.789242
0.358251 0.804440 0.762966
0.373510 0.803983 0.763088
0.432532 0.802518 0.763973
0.526452 0.800198 0.766415
0.623377 0.798215 0.770565
0.699886 0.798886 0.777005
0.768917 0.803098 0.786954
0.806607 0.803922 0.793484
