lut_library_archive/removed_20260629/抖音热门推荐/抖音热门推荐12.cube
# 版权归凌孟成所有，侵权必究
# Created by Adobe Lightroom plugin Export LUT (1.24.0)
# www.johnrellis.com/lightroom/exportlut.htm
# Preset: INS风格-缇米设计12
# Color profile: C:\Program Files (x86)\Common Files\Adobe\Color\Profiles\Recommended\VideoHD.icc
LUT_3D_SIZE 5
DOMAIN_MIN 0.000000 0.000000 0.000000
DOMAIN_MAX 0.903226 0.903226 0.903226
0.106661 0.126345 0.124056
0.319585 0.124269 0.126467
0.790860 0.000000 0.086427
0.969543 0.244327 0.000000
1.000000 0.358465 0.129152
0.000000 0.420050 0.199954
0.274266 0.272770 0.243168
0.714809 0.248081 0.117494
0.934173 0.347356 0.096529
1.000000 0.418280 0.173190
0.643458 0.801663 0.688197
0.681666 0.788449 0.681910
0.702205 0.686946 0.656153
0.834318 0.508598 0.244297
0.949645 0.540246 0.290471
0.754818 0.856443 0.808469
0.764889 0.856962 0.811246
0.787259 0.837308 0.798276
0.772702 0.778164 0.771450
0.863554 0.693568 0.563104
0.798489 0.873014 0.848966
0.801450 0.873136 0.849546
0.808469 0.871061 0.846403
0.818723 0.854459 0.831296
0.805173 0.817014 0.816526
0.087373 0.150088 0.188174
0.238773 0.152071 0.188235
0.719966 0.108217 0.103700
0.930358 0.276677 0.031220
1.000000 0.365209 0.125551
0.133303 0.334447 0.283482
0.317205 0.297917 0.267826
0.678218 0.271122 0.154391
0.904601 0.351507 0.103212
0.994507 0.414343 0.161593
0.633906 0.778775 0.681361
0.678279 0.775326 0.689570
0.689998 0.670405 0.636286
0.820371 0.502403 0.242313
0.945068 0.538109 0.285679
0.757931 0.853941 0.812161
0.768246 0.854856 0.815610
0.789120 0.837186 0.804562
0.774105 0.779812 0.773892
0.863127 0.692195 0.560510
0.799924 0.872648 0.850828
0.802884 0.872740 0.851408
0.813565 0.872313 0.852567
0.821195 0.856443 0.836942
0.806363 0.818326 0.818143
0.000000 0.219852 0.384985
0.196292 0.247990 0.376867
0.682124 0.268070 0.429267
0.934783 0.335363 0.248844
1.000000 0.387213 0.140291
0.000000 0.338109 0.439216
0.320409 0.364843 0.448890
0.741543 0.354223 0.432227
0.905425 0.416510 0.291051
0.988342 0.431983 0.175479
0.571618 0.723354 0.683284
0.638392 0.721553 0.686213
0.691615 0.661311 0.630518
0.817960 0.551049 0.404120
0.942687 0.536461 0.282261
0.756130 0.842039 0.815824
0.764096 0.843351 0.817624
0.790921 0.836393 0.818845
0.777401 0.783261 0.779385
0.861875 0.681025 0.550439
0.800107 0.870024 0.854337
0.802640 0.870634 0.854795
0.816556 0.872038 0.859281
0.824674 0.860014 0.848142
0.809506 0.822568 0.824155
0.000000 0.345098 0.610864
0.000000 0.354833 0.616999
0.569909 0.528191 0.605402
0.817655 0.522423 0.634119
0.974212 0.461006 0.477913
0.000000 0.422766 0.621576
0.181308 0.430152 0.627192
0.599634 0.571313 0.624964
0.820218 0.547295 0.634180
0.957427 0.519890 0.502556
0.138064 0.616327 0.666011
0.330846 0.607660 0.657404
0.663111 0.664454 0.678950
0.819150 0.638025 0.635401
0.914549 0.614160 0.555108
0.703304 0.813443 0.803922
0.718013 0.812528 0.803891
0.765408 0.817441 0.811948
0.769741 0.768734 0.765621
0.861143 0.672999 0.591882
0.785214 0.863615 0.853910
0.791287 0.863828 0.855497
0.811612 0.865934 0.861814
0.831815 0.868193 0.866728
0.816648 0.831724 0.836576
0.000000 0.488380 0.755184
0.000000 0.490974 0.754299
0.540917 0.572961 0.745846
0.711482 0.643183 0.734676
0.846342 0.648371 0.737758
0.000000 0.515007 0.748562
0.000000 0.517571 0.749081
0.545434 0.584588 0.744961
0.713222 0.655665 0.736538
0.845457 0.656306 0.739040
0.000000 0.568292 0.730190
0.000000 0.578454 0.734005
0.540398 0.622705 0.747005
0.723110 0.702388 0.751949
0.844083 0.693629 0.751919
0.356878 0.749142 0.790646
0.400061 0.745235 0.787594
0.523278 0.727413 0.773739
0.742733 0.760891 0.784421
0.840421 0.740414 0.764187
0.712795 0.850950 0.848508
0.722042 0.850645 0.849027
0.757717 0.850828 0.852384
0.803128 0.851347 0.856504
0.814755 0.830198 0.838804
