lut_library_archive/removed_20260629/抖音热门推荐/抖音热门推荐01.cube
# 版权归凌孟成所有，侵权必究
# Created by Adobe Lightroom plugin Export LUT (1.24.0)
# www.johnrellis.com/lightroom/exportlut.htm
# Preset: INS风格-缇米设计01
# Color profile: C:\Program Files (x86)\Common Files\Adobe\Color\Profiles\Recommended\VideoHD.icc
LUT_3D_SIZE 32
DOMAIN_MIN 0.0 0.0 0.0
DOMAIN_MAX 1.0 1.0 1.0
0.110475 0.096010 0.094759
0.110475 0.096010 0.094759
0.119326 0.095125 0.095033
0.149294 0.093965 0.095033
0.194553 0.095827 0.099397
0.256626 0.094545 0.104463
0.323522 0.086488 0.108431
0.389075 0.058808 0.112398
0.450965 0.023499 0.116030
0.509148 0.000000 0.120363
0.565332 0.000000 0.125338
0.617212 0.000000 0.130739
0.663691 0.039185 0.136812
0.703548 0.107942 0.143771
0.736812 0.149905 0.152071
0.765377 0.190127 0.161410
0.791226 0.228153 0.172335
0.820157 0.269230 0.186709
0.847837 0.308415 0.203311
0.870817 0.344640 0.221988
0.888823 0.378882 0.242679
0.902220 0.410986 0.265385
0.912749 0.439612 0.289921
0.922240 0.465583 0.316075
0.931701 0.489143 0.344701
0.941222 0.510979 0.374762
0.950134 0.532403 0.406622
0.957702 0.554131 0.439826
0.963165 0.577325 0.473304
0.966522 0.602228 0.507134
0.968048 0.627924 0.541772
0.968475 0.652583 0.576837
0.110475 0.096010 0.094759
0.110475 0.096010 0.094759
0.120333 0.094942 0.095033
0.149538 0.096223 0.095125
0.194369 0.098573 0.099397
0.255070 0.098329 0.104463
0.320714 0.091463 0.108553
0.384619 0.074647 0.112306
0.446326 0.041047 0.115694
0.504448 0.013825 0.120119
0.560235 0.000000 0.124910
0.612177 0.003693 0.130343
0.658869 0.054719 0.136263
0.699550 0.109194 0.143465
0.733211 0.149966 0.151492
0.762081 0.189456 0.160769
0.788174 0.226993 0.171328
0.816739 0.266972 0.185122
0.843992 0.304845 0.201297
0.866941 0.340093 0.219120
0.885283 0.373541 0.238651
0.899168 0.404761 0.260136
0.909880 0.433387 0.283452
0.919463 0.459297 0.308751
0.928862 0.483070 0.336248
0.938445 0.505150 0.365850
0.947723 0.526574 0.397345
0.955871 0.548425 0.430762
0.962036 0.571527 0.464851
0.966003 0.596429 0.499184
0.967895 0.622492 0.534081
0.968505 0.647944 0.569696
0.108431 0.102174 0.096254
0.108797 0.102480 0.096193
0.117098 0.100618 0.097810
0.150698 0.107729 0.096101
0.195163 0.111299 0.100801
0.254337 0.112825 0.104952
0.318395 0.109194 0.108583
0.381018 0.102144 0.112001
0.441657 0.094026 0.115908
0.499428 0.081270 0.119875
0.554742 0.071565 0.124483
0.606714 0.079255 0.129702
0.653742 0.100374 0.135775
0.694636 0.128481 0.142794
0.728847 0.162295 0.150912
0.757992 0.197848 0.159792
0.784482 0.232883 0.170718
0.813016 0.271244 0.184390
0.839872 0.307164 0.199527
0.863127 0.341222 0.216892
0.882078 0.373510 0.236210
0.896513 0.404242 0.257450
0.907591 0.432319 0.280308
0.917327 0.458045 0.305089
0.926726 0.481575 0.332219
0.936461 0.503380 0.361364
0.945861 0.524865 0.392737
0.954406 0.546532 0.425971
0.961028 0.569451 0.460273
0.965270 0.594293 0.494850
0.967498 0.620203 0.530022
0.968261 0.645838 0.565698
0.109377 0.121889 0.101656
0.110567 0.122316 0.101930
0.119539 0.122194 0.102083
0.143679 0.118624 0.110506
0.191714 0.131868 0.107942
0.254551 0.137789 0.105715
0.315923 0.137697 0.108766
0.376165 0.135348 0.112032
0.436011 0.131044 0.115663
0.492744 0.127352 0.119844
0.547753 0.126040 0.124178
0.599207 0.129061 0.129244
0.646662 0.140108 0.135317
0.687861 0.159823 0.142367
0.722560 0.184939 0.150362
0.752132 0.215122 0.159731
0.778622 0.246250 0.170169
0.806668 0.281376 0.183261
0.832761 0.313634 0.197513
0.855924 0.344396 0.213626
0.875456 0.374182 0.231907
0.890929 0.403174 0.252262
0.902922 0.430518 0.274601
0.913298 0.456306 0.299046
0.923247 0.480323 0.326604
0.933471 0.502983 0.356664
0.943603 0.524926 0.388983
0.952728 0.546990 0.423377
0.959808 0.570092 0.458473
0.964355 0.594873 0.493202
0.966766 0.620386 0.528038
0.967712 0.645411 0.563256
0.113527 0.152285 0.112184
0.115450 0.152346 0.112154
0.121981 0.152438 0.112306
0.147982 0.150118 0.113710
0.179446 0.145052 0.127565
0.237369 0.162234 0.122408
0.308598 0.172152 0.108583
0.367193 0.172213 0.111757
0.424964 0.171084 0.115145
0.480995 0.170138 0.119051
0.535180 0.170108 0.123323
0.586969 0.173373 0.128359
0.635004 0.181064 0.134585
0.677455 0.195071 0.141695
0.713283 0.215030 0.150027
0.743587 0.239994 0.159274
0.771695 0.267582 0.169619
0.799557 0.298619 0.182254
0.825711 0.327825 0.196445
0.849454 0.355566 0.212497
0.869657 0.383062 0.230228
0.885954 0.409918 0.250217
0.898680 0.435828 0.272221
0.909758 0.460609 0.296880
0.920104 0.483955 0.324224
0.930694 0.506249 0.354528
0.941192 0.527733 0.387121
0.950683 0.549371 0.421515
0.958068 0.572015 0.456428
0.962921 0.596216 0.491127
0.965606 0.621210 0.525933
0.966766 0.645747 0.560845
0.107515 0.191012 0.123049
0.108400 0.191135 0.123293
0.117372 0.190219 0.122805
0.130739 0.189364 0.123049
0.185946 0.184176 0.128664
0.221530 0.177676 0.149447
0.281285 0.197391 0.143404
0.354253 0.208835 0.120699
0.414008 0.212131 0.114443
0.469398 0.212894 0.118257
0.523583 0.214054 0.123018
0.575280 0.217472 0.128298
0.623804 0.223697 0.134981
0.666987 0.235019 0.142367
0.703609 0.250828 0.150393
0.735042 0.270909 0.159670
0.764584 0.296117 0.170260
0.792721 0.322942 0.183169
0.819181 0.348669 0.197055
0.843320 0.373877 0.212772
0.864256 0.398657 0.230472
0.881285 0.423407 0.250492
0.908598 0.480629 0.306920
0.919280 0.501762 0.335729
0.930022 0.521691 0.366094
0.940154 0.541161 0.397864
0.949004 0.560845 0.430671
0.955779 0.581628 0.463111
0.960357 0.603662 0.495277
0.963073 0.626276 0.527611
0.964477 0.648219 0.560052
0.965515 0.667628 0.592065
0.077760 0.242741 0.138491
0.082918 0.242649 0.138491
0.098909 0.241398 0.138003
0.119417 0.239353 0.137606
0.152102 0.236088 0.133364
0.236667 0.228336 0.151553
0.273594 0.222202 0.180209
0.332250 0.243473 0.174380
0.404303 0.255100 0.144198
0.464790 0.260014 0.118593
0.519585 0.262303 0.124147
0.571862 0.266545 0.130037
0.620142 0.272648 0.137148
0.662959 0.282017 0.144686
0.699397 0.295293 0.152987
0.731136 0.312413 0.162509
0.762936 0.336828 0.174289
0.791806 0.360693 0.187564
0.818997 0.383764 0.202457
0.844266 0.406958 0.220371
0.866056 0.430915 0.240909
0.883696 0.455207 0.264836
0.897978 0.479164 0.292485
0.910552 0.502037 0.323522
0.922667 0.523369 0.356146
0.934081 0.543267 0.389410
0.944060 0.562646 0.422766
0.951812 0.582849 0.455787
0.957183 0.604181 0.488411
0.960601 0.625910 0.520470
0.962554 0.647425 0.553033
0.963989 0.666682 0.585412
0.000000 0.289891 0.155276
0.012085 0.289616 0.155306
0.050080 0.288060 0.154696
0.100313 0.285466 0.153628
0.131899 0.280980 0.152834
0.200931 0.276493 0.151705
0.284123 0.269200 0.177707
0.319554 0.264683 0.212161
0.372168 0.285618 0.209995
0.442573 0.297307 0.174411
0.500816 0.301884 0.140475
0.552178 0.304997 0.131044
0.600763 0.310338 0.137575
0.644587 0.317723 0.144747
0.682795 0.328222 0.152895
0.717952 0.345006 0.162600
0.748898 0.364385 0.173220
0.777432 0.384344 0.185489
0.805112 0.404150 0.200168
0.831266 0.424231 0.217258
0.854582 0.445014 0.237125
0.874052 0.466346 0.260716
0.889769 0.488014 0.287785
0.903227 0.509209 0.317876
0.915831 0.529473 0.350347
0.927947 0.548455 0.383642
0.938689 0.567254 0.417273
0.947356 0.586786 0.450568
0.953582 0.607416 0.483192
0.957641 0.628504 0.515831
0.960204 0.649256 0.548791
0.962127 0.668025 0.581353
0.000000 0.337926 0.176272
0.000000 0.337682 0.175998
0.000000 0.336248 0.175509
0.059388 0.333135 0.174136
0.117556 0.328222 0.172488
0.160769 0.322484 0.169070
0.256199 0.318029 0.178622
0.332921 0.311986 0.209506
0.365393 0.309056 0.247379
0.411994 0.328832 0.249485
0.480232 0.339879 0.209323
0.535271 0.343816 0.171389
0.580591 0.344671 0.138796
0.625391 0.351202 0.145327
0.667414 0.362554 0.153719
0.703059 0.376104 0.162844
0.734127 0.392065 0.173098
0.762966 0.409277 0.184726
0.791135 0.426581 0.198489
0.818204 0.444129 0.214878
0.843107 0.462013 0.234897
0.864256 0.480751 0.258183
0.881407 0.500053 0.284886
0.895811 0.519554 0.314916
0.908995 0.538537 0.347082
0.921691 0.556603 0.380560
0.933165 0.574701 0.414191
0.942626 0.593591 0.447608
0.949554 0.613428 0.480629
0.954314 0.633570 0.513359
0.957458 0.653346 0.546471
0.959899 0.671168 0.579461
0.000000 0.385931 0.201053
0.000000 0.385351 0.200656
0.000000 0.383673 0.199863
0.000000 0.380377 0.198215
0.096681 0.375128 0.195682
0.143313 0.367956 0.193423
0.200107 0.363592 0.183780
0.309178 0.358648 0.209476
0.379004 0.353948 0.243778
0.408942 0.352270 0.284398
0.449378 0.370489 0.290806
0.514061 0.380255 0.246738
0.565637 0.383673 0.205539
0.608148 0.384710 0.163973
0.648157 0.391089 0.153475
0.684993 0.403082 0.162051
0.717372 0.417273 0.171786
0.747494 0.433265 0.183108
0.776669 0.449195 0.197024
0.805020 0.464912 0.213657
0.831235 0.480323 0.233249
0.853788 0.496040 0.255863
0.872007 0.512444 0.281651
0.887114 0.529442 0.309728
0.900603 0.546471 0.340642
0.913664 0.563348 0.373053
0.925933 0.580774 0.406744
0.936522 0.599084 0.440803
0.944610 0.618402 0.474830
0.950286 0.638148 0.508690
0.954253 0.657343 0.542870
0.957336 0.674617 0.576867
0.000000 0.429603 0.226902
0.000000 0.429328 0.226627
0.000000 0.427924 0.225803
0.000000 0.424750 0.223728
0.042390 0.419898 0.221073
0.126223 0.412757 0.217533
0.169558 0.403815 0.214359
0.257816 0.402716 0.211063
0.359319 0.398138 0.242557
0.423651 0.395300 0.280156
0.451240 0.395056 0.323888
0.486976 0.413184 0.336797
0.548791 0.422766 0.289525
0.596887 0.425910 0.244450
0.633906 0.425544 0.199161
0.665156 0.426398 0.160372
0.699123 0.439246 0.169497
0.730404 0.454017 0.180606
0.760098 0.468940 0.193820
0.789670 0.483101 0.210513
0.817533 0.496803 0.229953
0.842069 0.510765 0.252689
0.862181 0.525811 0.278294
0.878660 0.541466 0.306767
0.892882 0.557702 0.337621
0.906462 0.574060 0.370306
0.919402 0.590967 0.404364
0.930724 0.608698 0.438758
0.939696 0.627100 0.473243
0.946166 0.645777 0.507561
0.950835 0.663722 0.542229
0.954589 0.679774 0.576654
0.000000 0.472999 0.255833
0.000000 0.472511 0.255192
0.000000 0.471199 0.254246
0.000000 0.468330 0.252201
0.000000 0.463752 0.248966
0.103761 0.457160 0.244968
0.154116 0.448157 0.240024
0.209873 0.441901 0.230411
0.316747 0.440345 0.243595
0.408392 0.437781 0.279057
0.469001 0.437812 0.321233
0.495735 0.440803 0.369116
0.542016 0.476143 0.407752
0.597009 0.483040 0.354040
0.638056 0.484810 0.302037
0.670558 0.483986 0.249363
0.697871 0.482795 0.194217
0.728389 0.492836 0.185122
0.760708 0.506615 0.201877
0.792172 0.519310 0.221683
0.820829 0.531640 0.245396
0.844511 0.544305 0.271122
0.863340 0.557946 0.299321
0.878843 0.572534 0.329900
0.892943 0.587518 0.362066
0.906523 0.602747 0.395087
0.918883 0.618036 0.427832
0.929290 0.633570 0.460548
0.937316 0.649256 0.493019
0.943511 0.664607 0.525628
0.948363 0.678889 0.558770
0.952422 0.692042 0.591608
0.000000 0.520653 0.292729
0.000000 0.520439 0.292607
0.000000 0.518608 0.290867
0.000000 0.515343 0.287663
0.000000 0.510643 0.283909
0.068696 0.503563 0.278202
0.141726 0.495491 0.272343
0.184146 0.485634 0.266087
0.255528 0.485786 0.253788
0.378241 0.484779 0.285344
0.463905 0.484749 0.326329
0.519738 0.487373 0.373449
0.544396 0.492836 0.424781
0.565728 0.507805 0.448615
0.615045 0.514214 0.397101
0.653407 0.515801 0.344396
0.684627 0.515190 0.290806
0.711788 0.514092 0.235813
0.738582 0.516686 0.192782
0.771298 0.529564 0.212619
0.802090 0.541436 0.234958
0.828977 0.553674 0.260777
0.850523 0.566766 0.289311
0.867826 0.581079 0.320012
0.882750 0.596124 0.352636
0.897002 0.611353 0.386236
0.910521 0.626581 0.420569
0.922301 0.641749 0.454627
0.931670 0.656825 0.488441
0.938964 0.671321 0.522484
0.944701 0.684688 0.556634
0.949371 0.697200 0.590509
0.000000 0.556847 0.327276
0.000000 0.556481 0.326757
0.000000 0.555016 0.325078
0.000000 0.552148 0.321813
0.000000 0.547997 0.317510
0.048463 0.542168 0.311528
0.132113 0.534386 0.304082
0.174594 0.524712 0.295811
0.220279 0.515862 0.285924
0.317082 0.517601 0.284581
0.429419 0.516442 0.322210
0.505638 0.516960 0.365576
0.553216 0.520073 0.413031
0.572930 0.525383 0.461860
0.587060 0.538109 0.488594
0.631342 0.542779 0.439246
0.667414 0.543725 0.387274
0.698146 0.543145 0.334722
0.726070 0.542229 0.280888
0.752316 0.542046 0.224491
0.783200 0.551171 0.225010
0.813169 0.563470 0.250950
0.837827 0.576684 0.280217
0.857053 0.591180 0.311620
0.872953 0.606592 0.345098
0.887968 0.621973 0.379736
0.902434 0.636957 0.415381
0.915404 0.651545 0.450690
0.926055 0.665614 0.485725
0.934417 0.678920 0.520928
0.940948 0.691371 0.556237
0.946227 0.703273 0.590997
0.000000 0.588342 0.363012
0.000000 0.587884 0.362280
0.000000 0.586542 0.360510
0.000000 0.583825 0.356878
0.000000 0.579706 0.351598
0.092134 0.574182 0.344976
0.138064 0.567071 0.336584
0.174960 0.558404 0.327214
0.205997 0.547936 0.316991
0.267979 0.544671 0.304051
0.378637 0.544976 0.320134
0.476967 0.544152 0.360327
0.541741 0.545190 0.404150
0.580438 0.548547 0.450141
0.596124 0.553368 0.494911
0.605493 0.564569 0.523278
0.646143 0.568536 0.478126
0.680964 0.569238 0.429847
0.712276 0.568627 0.379583
0.741390 0.567987 0.328161
0.768887 0.568322 0.275425
0.796689 0.572961 0.239872
0.824460 0.586511 0.269749
0.845945 0.601404 0.302159
0.863127 0.617121 0.336858
0.878813 0.632807 0.372930
0.894377 0.647761 0.410132
0.908629 0.662013 0.447547
0.920714 0.675380 0.484840
0.930205 0.687861 0.522148
0.937560 0.699825 0.559533
0.943236 0.711574 0.595941
0.000000 0.614008 0.395087
0.000000 0.613794 0.394965
0.000000 0.612757 0.393378
0.036408 0.610529 0.390051
0.099092 0.607202 0.385382
0.130831 0.602625 0.379004
0.160830 0.596918 0.371252
0.188113 0.589715 0.361852
0.213413 0.580743 0.350988
0.236728 0.570001 0.339117
0.316899 0.572076 0.325841
0.436194 0.570397 0.358282
0.518791 0.569299 0.398627
0.571344 0.570214 0.440925
0.602167 0.572992 0.482521
0.614954 0.577020 0.522820
0.621302 0.587701 0.553429
0.659693 0.591333 0.512535
0.694179 0.591913 0.468818
0.726162 0.591821 0.423621
0.756252 0.592309 0.376837
0.784573 0.594202 0.328954
0.810971 0.598199 0.278355
0.834775 0.611872 0.291997
0.853574 0.628504 0.328832
0.870207 0.644831 0.367437
0.886870 0.659815 0.407233
0.902525 0.673365 0.446693
0.915831 0.685512 0.485695
0.926146 0.696864 0.524010
0.934051 0.707942 0.561913
0.939971 0.719265 0.598505
0.115419 0.637201 0.425483
0.116426 0.636957 0.425025
0.121675 0.636042 0.423651
0.132601 0.634241 0.420996
0.147921 0.631189 0.416388
0.165805 0.627344 0.410742
0.185611 0.622126 0.403052
0.206088 0.615564 0.393805
0.226261 0.607691 0.383062
0.244450 0.598108 0.370520
0.287175 0.592004 0.356756
0.376989 0.593378 0.355657
0.483253 0.591455 0.393591
0.551019 0.591150 0.433356
0.594476 0.592554 0.473182
0.621210 0.595666 0.511864
0.632776 0.599573 0.549157
0.636652 0.610315 0.582483
0.674403 0.614130 0.545556
0.708766 0.615045 0.506371
0.740688 0.616297 0.467628
0.770596 0.618311 0.427100
0.798032 0.622187 0.384955
0.822507 0.628473 0.341009
0.843839 0.639490 0.319127
0.861601 0.656336 0.360784
0.879454 0.671351 0.403388
0.896635 0.684108 0.445502
0.911162 0.695369 0.486793
0.922301 0.706111 0.526848
0.930571 0.717006 0.566033
0.936614 0.728542 0.603418
0.174533 0.660365 0.454994
0.175082 0.660243 0.454871
0.205844 0.671015 0.468360
0.209934 0.669368 0.465888
0.216342 0.666651 0.461982
0.225010 0.662928 0.456611
0.235966 0.658137 0.449744
0.247929 0.652033 0.440925
0.260990 0.644831 0.430457
0.274022 0.636164 0.418128
0.286381 0.625971 0.403845
0.349371 0.624933 0.390143
0.448157 0.624262 0.405035
0.532128 0.622705 0.442481
0.585870 0.622675 0.479408
0.622187 0.624048 0.515373
0.646235 0.626429 0.550134
0.656916 0.629603 0.583825
0.659113 0.640162 0.617914
0.695064 0.644160 0.585199
0.728023 0.645838 0.550805
0.758267 0.648219 0.517296
0.785397 0.651942 0.483803
0.809628 0.657252 0.449378
0.831998 0.663905 0.413001
0.853971 0.671748 0.374487
0.873533 0.683986 0.402747
0.891661 0.695155 0.446235
0.906981 0.705318 0.488563
0.918547 0.715602 0.529931
0.927001 0.726558 0.570123
0.932921 0.738521 0.608026
0.228214 0.685756 0.486152
0.231205 0.686641 0.487221
0.234989 0.686976 0.487526
0.240299 0.686580 0.486732
0.246708 0.685054 0.484413
0.253117 0.682185 0.480171
0.261112 0.678065 0.474281
0.269413 0.672724 0.466560
0.278996 0.666194 0.457252
0.289494 0.658564 0.446540
0.299748 0.649531 0.433600
0.319860 0.640986 0.419165
0.391394 0.642817 0.407263
0.491859 0.641077 0.436622
0.559472 0.640406 0.472023
0.605707 0.641016 0.506737
0.639338 0.642634 0.540551
0.662654 0.645411 0.573602
0.673152 0.648859 0.605402
0.676295 0.659510 0.638209
0.708705 0.665187 0.613397
0.739864 0.668910 0.584649
0.767636 0.673121 0.556725
0.792508 0.677943 0.528862
0.815518 0.683619 0.501244
0.838529 0.689784 0.473457
0.862760 0.696132 0.445167
0.885557 0.703822 0.441627
0.902098 0.713771 0.486213
0.914336 0.724178 0.529717
0.922972 0.735744 0.571344
0.928985 0.748196 0.610620
0.264500 0.704158 0.508568
0.267308 0.704982 0.509606
0.270848 0.705531 0.510246
0.274968 0.705379 0.509758
0.279698 0.704280 0.507988
0.284123 0.701930 0.504356
0.289281 0.698604 0.499336
0.295079 0.694057 0.492592
0.302068 0.688563 0.484596
0.309483 0.682002 0.475105
0.317662 0.674250 0.464118
0.325444 0.665034 0.451209
0.367926 0.661189 0.437659
0.441596 0.662257 0.436011
0.527733 0.660792 0.469856
0.584436 0.660609 0.503014
0.626734 0.661433 0.535760
0.659236 0.662867 0.567712
0.681025 0.665644 0.598596
0.690639 0.669062 0.628138
0.694179 0.679011 0.658869
0.722133 0.685847 0.641596
0.750271 0.690852 0.618006
0.775631 0.695827 0.595270
0.799374 0.700893 0.573388
0.823148 0.705989 0.552148
0.848051 0.711177 0.531487
0.873045 0.716732 0.511650
0.896544 0.723049 0.492714
0.910124 0.733608 0.529839
0.918822 0.745907 0.573053
0.924987 0.758480 0.613672
0.301579 0.721920 0.531640
0.303960 0.722621 0.532677
0.306279 0.723049 0.533074
0.309880 0.722927 0.532830
0.312932 0.722011 0.531090
0.316320 0.720272 0.528161
0.319341 0.717617 0.523613
0.323400 0.714107 0.518059
0.328069 0.709804 0.511192
0.333471 0.704585 0.503136
0.338933 0.698207 0.493477
0.345251 0.690730 0.482521
0.350652 0.681697 0.469581
0.411414 0.682490 0.458747
0.488808 0.682429 0.471229
0.558679 0.681544 0.503197
0.609888 0.681788 0.535119
0.651392 0.682643 0.566827
0.682063 0.684565 0.597467
0.701869 0.687770 0.627008
0.710658 0.691585 0.654841
0.714717 0.700923 0.683803
0.737850 0.708248 0.673976
0.763424 0.714046 0.656977
0.787900 0.719570 0.640986
0.812863 0.724971 0.626276
0.838224 0.730526 0.612512
0.862516 0.736904 0.600153
0.883970 0.744686 0.589441
0.902586 0.753475 0.580072
0.915648 0.763821 0.592157
0.921508 0.775418 0.632593
0.351659 0.742245 0.563409
0.352575 0.742458 0.563806
0.353491 0.742367 0.563470
0.354498 0.741909 0.562463
0.355657 0.740932 0.560388
0.356939 0.739406 0.557397
0.358709 0.737362 0.553338
0.360784 0.734768 0.548272
0.363378 0.731594 0.542199
0.366888 0.727871 0.535332
0.370642 0.723415 0.527306
0.374609 0.717922 0.517998
0.378820 0.711299 0.507347
0.400549 0.706172 0.495735
0.455909 0.707424 0.488167
0.532036 0.706111 0.511955
0.593164 0.704891 0.542290
0.642512 0.704158 0.572198
0.680049 0.704280 0.601221
0.706020 0.705409 0.629175
0.721553 0.707729 0.655421
0.727901 0.710506 0.679744
0.731136 0.717952 0.705226
0.750179 0.724788 0.699825
0.774289 0.730739 0.686915
0.799283 0.736782 0.675166
0.824308 0.743496 0.665248
0.847837 0.751247 0.656764
0.868406 0.760098 0.650019
0.886229 0.769436 0.645014
0.902342 0.778347 0.641871
0.917266 0.785550 0.639216
0.386938 0.755978 0.588525
0.387701 0.756100 0.588800
0.388830 0.756069 0.588800
0.389776 0.755734 0.587976
0.390570 0.754971 0.586114
0.391669 0.753872 0.583642
0.392706 0.752316 0.580163
0.394171 0.750393 0.575769
0.396063 0.748135 0.570611
0.398627 0.745449 0.564813
0.401282 0.742275 0.558038
0.403998 0.738460 0.550042
0.406775 0.733974 0.541070
0.409857 0.728573 0.530877
0.447883 0.727138 0.522271
0.501183 0.727382 0.522026
0.573907 0.725124 0.551324
0.631556 0.723232 0.579950
0.675807 0.722133 0.607874
0.706813 0.722103 0.634638
0.726741 0.723354 0.659815
0.738796 0.725429 0.683009
0.743984 0.727871 0.704219
0.747127 0.734707 0.726711
0.761746 0.739559 0.721798
0.785855 0.746609 0.712062
0.810513 0.754604 0.704005
0.833524 0.763516 0.697932
0.853819 0.773007 0.693507
0.871489 0.782559 0.691096
0.887541 0.791012 0.690242
0.902312 0.797421 0.689815
0.429023 0.771969 0.619959
0.430304 0.772305 0.620630
0.430976 0.772305 0.620539
0.431250 0.771817 0.619501
0.431128 0.770962 0.617548
0.431067 0.769650 0.614740
0.431098 0.768063 0.611200
0.431250 0.766140 0.606806
0.431891 0.763912 0.601740
0.433021 0.761440 0.596063
0.434333 0.758633 0.589593
0.435889 0.755550 0.582391
0.437781 0.751980 0.574273
0.439307 0.747890 0.565118
0.443458 0.743404 0.554955
0.491249 0.743160 0.549065
0.549645 0.741604 0.559106
0.615137 0.738735 0.585962
0.665919 0.736690 0.612543
0.701991 0.736019 0.638331
0.725948 0.736660 0.662623
0.742061 0.738125 0.685084
0.752407 0.740230 0.705257
0.757107 0.742397 0.723415
0.760220 0.749020 0.742916
0.775601 0.757321 0.743374
0.798734 0.765743 0.735988
0.821286 0.775082 0.730587
0.841245 0.784695 0.727260
0.858885 0.793668 0.725795
0.874876 0.800992 0.725216
0.889586 0.807095 0.726070
0.458198 0.785855 0.643488
0.459236 0.786191 0.644038
0.460182 0.786252 0.644129
0.460822 0.785977 0.643610
0.461402 0.785336 0.642390
0.462013 0.784390 0.640528
0.463081 0.783200 0.638178
0.464393 0.781735 0.635340
0.466011 0.780056 0.631891
0.468360 0.778164 0.628107
0.470497 0.775906 0.623377
0.473030 0.773404 0.618097
0.475532 0.770565 0.612055
0.477852 0.767300 0.604913
0.479713 0.763638 0.596735
0.499825 0.761166 0.589227
0.542901 0.760586 0.585657
0.605829 0.757931 0.603357
0.661189 0.755428 0.627802
0.699489 0.754482 0.651423
0.725704 0.754849 0.673793
0.744717 0.756191 0.694423
0.759060 0.758083 0.713161
0.769284 0.760403 0.730098
0.774289 0.762722 0.745510
0.777768 0.769711 0.762325
0.791501 0.778805 0.764858
0.812528 0.787839 0.760006
0.832090 0.797086 0.757534
0.849393 0.804807 0.756191
0.865202 0.811490 0.756283
0.879576 0.817136 0.757534
0.495705 0.803281 0.669978
0.496315 0.803433 0.670253
0.496834 0.803433 0.670192
0.497261 0.803128 0.669673
0.497749 0.802548 0.668666
0.498116 0.801755 0.667262
0.498848 0.800717 0.665400
0.499886 0.799435 0.663142
0.501518 0.798032 0.660578
0.503441 0.796384 0.657557
0.505791 0.794491 0.654139
0.508629 0.792386 0.650324
0.511559 0.789944 0.645869
0.514336 0.787198 0.640772
0.517174 0.783963 0.634821
0.519860 0.780484 0.628260
0.553704 0.779263 0.623194
0.593896 0.778775 0.622034
0.653315 0.776181 0.644221
0.693538 0.775204 0.665675
0.721889 0.775448 0.685969
0.743984 0.776333 0.704677
0.762325 0.777554 0.721736
0.776638 0.779141 0.737331
0.786313 0.781125 0.751553
0.790829 0.783047 0.764553
0.794186 0.789151 0.778744
0.805234 0.796933 0.782132
0.823178 0.804257 0.778561
0.840543 0.811826 0.777462
0.856352 0.818448 0.777676
0.870542 0.824186 0.779019
0.533715 0.818936 0.693080
0.534295 0.819028 0.693294
0.534874 0.819028 0.693263
0.535454 0.818906 0.693019
0.536400 0.818662 0.692561
0.537743 0.818357 0.691981
0.540093 0.818112 0.691493
0.543114 0.817838 0.690974
0.546838 0.817563 0.690364
0.551171 0.817197 0.689723
0.556054 0.816770 0.688899
0.561120 0.816159 0.687800
0.566217 0.815305 0.686336
0.571069 0.814115 0.684291
0.575647 0.812619 0.681727
0.579767 0.810605 0.678401
0.588708 0.808591 0.674708
0.621973 0.808133 0.672206
0.657527 0.807370 0.678187
0.695613 0.806119 0.695918
0.725643 0.805447 0.712642
0.751858 0.805112 0.728267
0.773556 0.804990 0.742641
0.790249 0.805264 0.755886
0.801877 0.805814 0.767727
0.809079 0.806546 0.778286
0.812070 0.807309 0.787808
0.814298 0.810941 0.798367
0.822477 0.816403 0.801968
0.837308 0.821958 0.799619
0.852201 0.828153 0.799680
0.865263 0.833585 0.800504
0.588678 0.835904 0.722805
0.588678 0.835904 0.722774
0.588830 0.835782 0.722621
0.588983 0.835630 0.722286
0.589227 0.835386 0.721798
0.589868 0.835080 0.721157
0.590936 0.834745 0.720485
0.592279 0.834318 0.719631
0.594202 0.833890 0.718776
0.596643 0.833371 0.717830
0.599390 0.832853 0.716793
0.602594 0.832242 0.715663
0.606073 0.831571 0.714382
