lut_library_archive/removed_20260629/抖音热门推荐/抖音热门推荐07.cube
# 版权归凌孟成所有，侵权必究
# Created by Adobe Lightroom plugin Export LUT (1.24.0)
# www.johnrellis.com/lightroom/exportlut.htm
# Preset: INS风格-缇米设计07
# Color profile: C:\Program Files (x86)\Common Files\Adobe\Color\Profiles\Recommended\VideoHD.icc
LUT_3D_SIZE 8
DOMAIN_MIN 0.000000 0.000000 0.000000
DOMAIN_MAX 0.903226 0.903226 0.903226
0.156710 0.128664 0.119570
0.198795 0.133059 0.123415
0.328771 0.133181 0.131075
0.496193 0.111055 0.136538
0.655573 0.101442 0.143893
0.778164 0.201968 0.161807
0.852293 0.298558 0.190982
0.904906 0.394568 0.243259
0.164553 0.156710 0.128115
0.196780 0.157076 0.131136
0.321202 0.165530 0.130343
0.481544 0.156802 0.135256
0.641505 0.156832 0.142519
0.760372 0.220340 0.157778
0.836912 0.302892 0.184054
0.897307 0.393744 0.233829
0.162173 0.238651 0.145815
0.176333 0.234714 0.143679
0.313878 0.248539 0.158358
0.480507 0.275334 0.128817
0.641444 0.287388 0.137911
0.751095 0.326360 0.154665
0.834073 0.386847 0.188479
0.892607 0.453010 0.247807
0.094636 0.365087 0.175540
0.128206 0.358495 0.171908
0.233463 0.352087 0.172946
0.496803 0.414527 0.229404
0.648005 0.440742 0.179446
0.733242 0.455329 0.150271
0.814603 0.480903 0.191623
0.876555 0.517174 0.258091
0.000000 0.492927 0.223850
0.000000 0.487129 0.218814
0.112581 0.465034 0.202548
0.367803 0.484962 0.230320
0.622827 0.545098 0.334783
0.717281 0.553063 0.289891
0.783627 0.555138 0.195224
0.855070 0.580407 0.270390
0.000000 0.589410 0.292027
0.000000 0.589166 0.289799
0.000000 0.573541 0.267033
0.171328 0.539330 0.235599
0.522362 0.587549 0.324926
0.700435 0.640009 0.464759
0.780789 0.647303 0.450874
0.834195 0.656703 0.374273
0.000000 0.675135 0.387732
0.000000 0.673579 0.383642
0.000000 0.662745 0.360937
0.130831 0.641291 0.317998
0.381720 0.631373 0.322576
0.624353 0.677516 0.451545
0.758114 0.712123 0.579522
0.807950 0.718654 0.593622
0.302068 0.757107 0.516960
0.304112 0.756313 0.514153
0.315129 0.753353 0.502983
0.336248 0.747585 0.480934
0.328985 0.728115 0.420233
0.569482 0.736233 0.500877
0.734432 0.752560 0.613825
0.800137 0.769589 0.695216
0.159609 0.136324 0.137362
0.201999 0.133272 0.142580
0.327062 0.129091 0.146822
0.484779 0.129213 0.158358
0.645533 0.128176 0.167575
0.759823 0.197971 0.182589
0.834165 0.284031 0.204593
0.894743 0.375860 0.246738
0.166995 0.162020 0.140536
0.205234 0.164614 0.145083
0.322667 0.170260 0.150729
0.481910 0.168032 0.157687
0.641505 0.172671 0.166629
0.752804 0.225040 0.180667
0.826200 0.297185 0.201114
0.888945 0.380224 0.241154
0.188815 0.251743 0.165835
0.202792 0.248356 0.162814
0.321263 0.256260 0.177066
0.481483 0.278630 0.154116
0.633417 0.286900 0.162814
0.740627 0.319097 0.176669
0.818051 0.370123 0.200961
0.883268 0.435462 0.248692
0.142580 0.371832 0.194308
0.164126 0.366186 0.190158
0.240513 0.353674 0.186465
0.483162 0.402960 0.238193
0.627771 0.422400 0.189242
0.717952 0.436133 0.169619
0.798032 0.462654 0.198886
0.867216 0.501030 0.253666
0.000000 0.499519 0.242344
0.000000 0.493233 0.236545
0.152621 0.470192 0.217990
0.366522 0.480598 0.239139
0.614130 0.536217 0.336187
0.708309 0.544732 0.290043
0.775570 0.547662 0.206546
0.849699 0.571679 0.271458
0.000000 0.589532 0.304143
0.000000 0.586267 0.298772
0.000000 0.571405 0.276921
0.189975 0.539361 0.244114
0.517815 0.583307 0.328588
0.696834 0.636957 0.466865
0.777401 0.643305 0.449378
0.831479 0.650996 0.368841
0.000000 0.671717 0.391852
0.000000 0.668391 0.385504
0.000000 0.657527 0.362829
0.152956 0.636866 0.321416
0.373846 0.626246 0.321965
0.619898 0.672694 0.448707
0.754513 0.708095 0.574029
0.804868 0.714260 0.584131
0.293034 0.754086 0.513878
0.299565 0.753902 0.512718
0.309178 0.750698 0.500877
0.330236 0.744656 0.478370
0.352850 0.733089 0.437873
0.570153 0.737148 0.505791
0.733425 0.751888 0.613764
0.799496 0.768978 0.695186
0.161440 0.157321 0.191592
0.184451 0.147250 0.201755
0.345006 0.129366 0.229435
0.543999 0.088777 0.241520
0.687709 0.105898 0.241978
0.774868 0.234897 0.266453
0.842649 0.315923 0.286656
0.895689 0.399817 0.323980
0.185092 0.193149 0.197024
0.206180 0.185336 0.207370
0.352453 0.170871 0.233066
0.531945 0.161471 0.238254
0.676631 0.170260 0.240177
0.766506 0.259983 0.263798
0.835355 0.326696 0.281468
0.891203 0.404303 0.318120
0.179782 0.284092 0.223270
0.220706 0.289464 0.228519
0.357244 0.295781 0.244297
0.515526 0.302342 0.244053
0.662715 0.316686 0.252842
0.754574 0.348272 0.263035
0.825132 0.391333 0.281712
0.882872 0.448676 0.320867
0.158389 0.428046 0.265507
0.219425 0.427893 0.270848
0.311620 0.412055 0.265049
0.516075 0.440406 0.316594
0.641871 0.449653 0.254948
0.730556 0.459571 0.261906
0.806668 0.479438 0.283818
0.868528 0.512474 0.328099
0.193210 0.543664 0.332372
0.223392 0.539879 0.329412
0.268101 0.519615 0.302647
0.392615 0.505943 0.298985
0.627192 0.558648 0.405615
0.712306 0.558282 0.345464
0.781491 0.556481 0.287083
0.849668 0.577813 0.337804
0.195987 0.614801 0.383093
0.206241 0.612116 0.377447
0.240543 0.598260 0.352575
0.283360 0.568719 0.309117
0.527306 0.591730 0.372595
0.698543 0.644038 0.501976
0.775051 0.647700 0.475654
0.829770 0.653346 0.395880
0.224338 0.687800 0.450233
0.227207 0.684901 0.444526
0.242832 0.673884 0.422004
0.270939 0.652918 0.379400
0.372351 0.629694 0.349371
0.621180 0.676875 0.474495
0.755489 0.712581 0.595911
0.805356 0.718502 0.601312
0.354711 0.757351 0.543664
0.354498 0.756313 0.540124
0.360082 0.753109 0.528527
0.377508 0.748074 0.508904
0.391333 0.737026 0.469825
0.565454 0.737942 0.516747
0.733089 0.753445 0.624353
0.799771 0.771023 0.702724
0.120882 0.192752 0.302403
0.137942 0.178805 0.314977
0.314061 0.156252 0.353948
0.557244 0.102205 0.397223
0.736568 0.143832 0.428534
0.804318 0.234745 0.403113
0.856840 0.306249 0.391180
0.892973 0.402319 0.417792
0.164675 0.238254 0.316167
0.181521 0.224857 0.326177
0.323766 0.196017 0.362585
0.564263 0.170993 0.403845
0.732357 0.208499 0.427619
0.798734 0.268009 0.401282
0.851987 0.325475 0.389685
0.887175 0.421332 0.423896
0.187137 0.333104 0.333806
0.230472 0.336645 0.338323
0.344030 0.326207 0.370886
0.568292 0.322210 0.413214
0.706142 0.346410 0.415290
0.778897 0.371435 0.400397
0.832670 0.428656 0.417884
0.879271 0.473426 0.438056
0.056916 0.478798 0.390448
0.179263 0.481483 0.394690
0.362493 0.493233 0.413733
0.552361 0.493446 0.435920
0.660700 0.487098 0.413336
0.739345 0.489357 0.408026
0.809476 0.499580 0.412299
0.864408 0.525078 0.435523
0.176394 0.601099 0.447089
0.241611 0.598230 0.447547
0.393957 0.588525 0.454017
0.477943 0.561944 0.432013
0.644404 0.593072 0.508141
0.717311 0.578851 0.432136
0.789303 0.574121 0.416510
0.847196 0.589319 0.442481
0.322820 0.656916 0.490089
0.352056 0.657435 0.494087
0.428962 0.648554 0.496376
0.445808 0.623682 0.454932
0.548241 0.615137 0.457404
0.706996 0.663203 0.565301
0.772915 0.658961 0.521660
0.827207 0.658625 0.453773
0.372168 0.712764 0.532952
0.387732 0.711543 0.533715
0.409827 0.704189 0.523247
0.416022 0.686824 0.488167
0.419287 0.654017 0.426856
0.625605 0.686610 0.520653
0.756497 0.719326 0.629633
0.805020 0.722957 0.622950
0.449989 0.765682 0.603937
0.450263 0.764950 0.601282
0.451850 0.761929 0.590295
0.455970 0.756130 0.568597
0.458961 0.745937 0.531579
0.548882 0.738613 0.531945
0.730953 0.755276 0.640040
0.800229 0.774655 0.715419
0.000000 0.252995 0.461524
0.000000 0.240177 0.471229
0.229953 0.206363 0.500206
0.538201 0.153689 0.546685
0.724544 0.192203 0.576257
0.828244 0.309148 0.587091
0.865568 0.379095 0.555566
0.892973 0.443030 0.546044
0.000000 0.296544 0.471015
0.000000 0.284794 0.480293
0.243992 0.241825 0.507622
0.541100 0.206149 0.549279
0.722957 0.242710 0.577691
0.824155 0.342077 0.586969
0.861234 0.397375 0.554528
0.890074 0.453223 0.545586
0.153292 0.405493 0.477333
0.201602 0.404517 0.484718
0.313054 0.377996 0.512627
0.539208 0.346929 0.553643
0.708614 0.374731 0.576135
0.798611 0.427680 0.573693
0.843473 0.452979 0.547662
0.878508 0.484352 0.540246
0.147341 0.514946 0.510857
0.217960 0.516136 0.513146
0.380407 0.522026 0.523369
0.533928 0.515618 0.555566
0.685817 0.526879 0.581170
0.762417 0.530205 0.563684
0.817044 0.527367 0.544488
0.857694 0.543084 0.544762
0.234043 0.621759 0.552911
0.282750 0.622583 0.555413
0.414649 0.624628 0.564172
0.551202 0.630274 0.579980
0.656306 0.623224 0.588190
0.723720 0.604028 0.556603
0.788540 0.593896 0.542290
0.839902 0.599817 0.542809
0.331395 0.693202 0.572625
0.357366 0.691798 0.573114
0.436042 0.684474 0.573114
0.534234 0.672084 0.576532
0.576410 0.642329 0.548608
0.712642 0.680018 0.623163
0.768215 0.664607 0.561059
0.821378 0.664668 0.544579
0.384100 0.736843 0.595850
0.395880 0.735286 0.594934
0.441291 0.729824 0.593286
0.519158 0.720150 0.596368
0.534234 0.696681 0.556909
0.620539 0.691005 0.562951
0.755337 0.724483 0.662562
0.802335 0.723079 0.636255
0.413703 0.776364 0.632410
0.425330 0.775326 0.632746
0.469795 0.771176 0.634791
0.538933 0.764797 0.640497
0.534783 0.755154 0.606683
0.526329 0.739651 0.553399
0.721828 0.753475 0.650721
0.798245 0.775265 0.725185
0.000000 0.341131 0.604395
0.000000 0.329717 0.609186
0.000000 0.270268 0.624323
0.482521 0.256168 0.649897
0.708522 0.248508 0.678889
0.812314 0.346166 0.684657
0.861143 0.455055 0.679805
0.884520 0.517815 0.666957
0.000000 0.371954 0.600580
0.000000 0.360876 0.604334
0.088563 0.303349 0.620203
0.477638 0.284886 0.644251
0.701656 0.278965 0.673335
0.805844 0.365728 0.680110
0.856840 0.465034 0.676661
0.881529 0.521294 0.663966
0.085359 0.477882 0.605097
0.177676 0.475410 0.608911
0.290379 0.444526 0.624567
0.483040 0.396002 0.646052
0.688075 0.401465 0.673030
0.792050 0.457435 0.679194
0.843107 0.523339 0.678279
0.870939 0.553704 0.664179
0.254002 0.569604 0.610163
0.294133 0.569482 0.610651
0.411810 0.570123 0.619898
0.524315 0.554284 0.648341
0.666346 0.547539 0.675959
0.773648 0.569207 0.683986
0.821439 0.599298 0.682460
0.854368 0.603388 0.666285
0.319188 0.637476 0.633021
0.349035 0.637293 0.633845
0.441901 0.637568 0.637781
0.552667 0.641505 0.645686
0.646235 0.639887 0.666285
0.748196 0.649439 0.680720
0.794553 0.644495 0.666957
0.835294 0.636866 0.652247
0.390723 0.708736 0.653895
0.411322 0.709712 0.656092
0.472602 0.709682 0.659998
0.558709 0.710353 0.667689
0.652918 0.711574 0.678798
0.725612 0.705898 0.684382
0.769314 0.688319 0.654444
0.816617 0.682277 0.644739
0.434638 0.761959 0.678553
0.447974 0.761471 0.679347
0.491066 0.758053 0.679683
0.559228 0.751095 0.679805
0.633753 0.739681 0.678553
0.653742 0.715602 0.644923
0.760220 0.737758 0.708186
0.803616 0.727230 0.661952
0.428717 0.793820 0.686336
0.436683 0.792874 0.685908
0.472602 0.789578 0.685634
0.534600 0.783627 0.686122
0.610651 0.772732 0.686671
0.630121 0.756466 0.658717
0.707637 0.752834 0.668605
0.797726 0.779324 0.742031
0.000000 0.434882 0.698268
0.000000 0.426215 0.701289
0.000000 0.378210 0.710262
0.425177 0.342260 0.723110
0.651026 0.344366 0.736782
0.788998 0.384619 0.748013
0.849119 0.471962 0.747372
0.873777 0.550011 0.735897
0.000000 0.455879 0.693965
0.000000 0.448524 0.697169
0.000000 0.404852 0.706264
0.421454 0.361303 0.719142
0.644739 0.363043 0.732876
0.783139 0.397406 0.744228
0.845029 0.476143 0.743496
0.870909 0.549645 0.732662
0.178256 0.537713 0.692744
0.209018 0.532891 0.694667
0.286412 0.504784 0.702358
0.430030 0.446296 0.717159
0.631708 0.450904 0.729824
0.771786 0.473610 0.742306
0.833860 0.530388 0.743252
0.862058 0.589776 0.735592
0.311070 0.606683 0.689235
0.335302 0.605097 0.690303
0.421271 0.600244 0.696803
0.505028 0.579644 0.710933
0.617945 0.558984 0.726772
0.757595 0.569390 0.741756
0.815976 0.603967 0.743191
0.847501 0.643214 0.738491
0.362036 0.660304 0.694484
0.380224 0.659480 0.694087
0.446448 0.658778 0.694759
0.537102 0.660975 0.698299
0.623163 0.650660 0.718013
0.732937 0.647883 0.736172
0.795010 0.666499 0.740291
0.833738 0.688472 0.741085
0.394568 0.718990 0.710414
0.409918 0.718837 0.710842
0.464515 0.717952 0.712276
0.546410 0.716609 0.715114
0.640375 0.715145 0.719326
0.716213 0.713710 0.734249
0.782589 0.720211 0.745174
0.820340 0.716091 0.737087
0.457893 0.761868 0.724819
0.470100 0.761807 0.725582
0.512932 0.760678 0.727321
0.583612 0.758907 0.731014
0.659693 0.757412 0.736477
0.721431 0.759213 0.744564
0.768368 0.755093 0.747463
0.805112 0.738155 0.724941
0.473365 0.810727 0.737667
0.483864 0.810208 0.738003
0.525109 0.808225 0.739559
0.584192 0.803769 0.741146
0.644526 0.797238 0.742489
0.695766 0.787900 0.742275
0.716670 0.765774 0.719966
0.799863 0.788022 0.765042
0.000000 0.532464 0.764065
0.000000 0.526604 0.765438
0.208133 0.495338 0.769558
0.405402 0.442298 0.777554
0.608240 0.448768 0.782620
0.748196 0.466560 0.788571
0.828885 0.514427 0.791409
0.870909 0.577203 0.788785
0.000000 0.544457 0.761532
0.124086 0.539391 0.762905
0.244388 0.511711 0.767300
0.403967 0.455634 0.775662
0.604456 0.461219 0.780850
0.744564 0.477180 0.787045
0.826352 0.520226 0.790036
0.868803 0.579980 0.787503
0.302983 0.591028 0.757107
0.314672 0.587182 0.758145
0.356268 0.568383 0.761959
0.436042 0.524529 0.771389
0.596338 0.516045 0.777523
0.734615 0.524773 0.783780
0.817502 0.556634 0.787900
0.860960 0.606592 0.785916
0.367620 0.641474 0.751247
0.387457 0.640986 0.752193
0.453681 0.637903 0.755215
0.508415 0.616938 0.762783
0.589899 0.587030 0.772549
0.721401 0.592523 0.779751
0.803067 0.614008 0.785550
0.848386 0.650446 0.784512
0.378210 0.690761 0.745357
0.393866 0.690913 0.745632
0.442420 0.688411 0.747005
0.529961 0.685603 0.753292
0.610346 0.670680 0.763333
0.701564 0.656489 0.774014
0.785946 0.669795 0.782864
0.836210 0.692378 0.783841
0.389654 0.731411 0.753140
0.401038 0.730739 0.752895
0.446418 0.728634 0.752499
0.522698 0.725917 0.752773
0.615229 0.723354 0.753933
0.698268 0.717769 0.768704
0.772122 0.719997 0.782589
0.827359 0.731106 0.785885
0.423560 0.769467 0.765072
0.434424 0.769009 0.765072
0.477607 0.767117 0.765225
0.551019 0.764034 0.766079
0.634180 0.760708 0.767727
0.704280 0.760372 0.770596
0.760952 0.761563 0.779934
0.816159 0.768795 0.786923
0.480781 0.809598 0.772030
0.489937 0.809140 0.772091
0.527428 0.807523 0.772610
0.589105 0.804990 0.774075
0.652430 0.803037 0.776761
0.710048 0.802121 0.780667
0.766323 0.802640 0.786282
0.805295 0.801053 0.789761
