lut_library_archive/removed_20260629/抖音热门推荐/抖音热门推荐07.cube
# 版权归凌孟成所有，侵权必究
# Created by Adobe Lightroom plugin Export LUT (1.24.0)
# www.johnrellis.com/lightroom/exportlut.htm
# Preset: INS风格-缇米设计07
# Color profile: C:\Program Files (x86)\Common Files\Adobe\Color\Profiles\Recommended\VideoHD.icc
LUT_3D_SIZE 32
DOMAIN_MIN 0.0 0.0 0.0
DOMAIN_MAX 1.0 1.0 1.0
0.156710 0.128664 0.119570
0.158816 0.128847 0.119753
0.166079 0.129488 0.120302
0.179995 0.130648 0.121401
0.198795 0.133059 0.123415
0.224765 0.135195 0.126101
0.255650 0.135988 0.127932
0.290623 0.135439 0.129671
0.328771 0.133181 0.131075
0.368566 0.129763 0.132509
0.410437 0.124636 0.133944
0.453010 0.118288 0.135073
0.496193 0.111055 0.136538
0.539086 0.103334 0.138064
0.580499 0.097322 0.139651
0.619562 0.095338 0.141787
0.655573 0.101442 0.143893
0.693629 0.118959 0.147494
0.727138 0.144930 0.151553
0.754635 0.174075 0.156283
0.778164 0.201968 0.161807
0.798795 0.228519 0.167971
0.817624 0.252659 0.174777
0.835538 0.276036 0.182345
0.852293 0.298558 0.190982
0.867826 0.321324 0.200839
0.882017 0.344823 0.212558
0.894347 0.369146 0.226413
0.904906 0.394568 0.243259
0.914092 0.420722 0.263859
0.922301 0.447059 0.289494
0.930053 0.473030 0.320653
0.156924 0.130129 0.119905
0.158267 0.129946 0.119905
0.165988 0.131014 0.120363
0.179721 0.131960 0.121492
0.198642 0.134035 0.123537
0.224033 0.136324 0.125948
0.254368 0.137026 0.128115
0.288609 0.136568 0.129641
0.326329 0.134615 0.131044
0.365606 0.131441 0.132296
0.406836 0.126741 0.133761
0.449104 0.120821 0.134951
0.491890 0.113985 0.136507
0.534691 0.106477 0.137881
0.576074 0.100618 0.139559
0.615473 0.099245 0.141421
0.651881 0.103853 0.143832
0.689845 0.119112 0.147066
0.722988 0.143954 0.150973
0.750332 0.170748 0.155581
0.773709 0.198398 0.160586
0.794186 0.224094 0.166476
0.812802 0.247837 0.172915
0.830655 0.270726 0.180270
0.847593 0.293156 0.188266
0.863462 0.315404 0.197848
0.878233 0.338628 0.208896
0.891264 0.363012 0.222171
0.902495 0.388434 0.238529
0.912139 0.414893 0.258488
0.920684 0.441596 0.283330
0.928649 0.468055 0.313664
0.157870 0.134890 0.121157
0.158785 0.135012 0.121096
0.165530 0.134737 0.121798
0.180331 0.137392 0.121736
0.199252 0.139132 0.123812
0.223941 0.141390 0.126223
0.253880 0.141970 0.127901
0.287449 0.141787 0.129702
0.324712 0.140169 0.131106
0.363622 0.137179 0.132418
0.404303 0.133486 0.133364
0.446418 0.128298 0.134829
0.488899 0.122530 0.136141
0.531426 0.116396 0.137545
0.572808 0.111330 0.139254
0.612207 0.110140 0.141176
0.648707 0.114656 0.143587
0.686885 0.127993 0.146609
0.719661 0.149569 0.150607
0.747005 0.174899 0.154910
0.770596 0.200900 0.159915
0.791073 0.226047 0.165682
0.809751 0.249149 0.171939
0.827695 0.271244 0.178988
0.844663 0.293095 0.186923
0.860746 0.314794 0.195987
0.875731 0.337774 0.206973
0.889189 0.361761 0.220127
0.900755 0.386969 0.236057
0.910704 0.413367 0.255711
0.919493 0.439857 0.280156
0.927550 0.466255 0.309911
0.160647 0.144289 0.123964
0.161196 0.144442 0.123903
0.165591 0.144503 0.124605
0.179110 0.144472 0.126345
0.199313 0.148104 0.126131
0.224949 0.150881 0.126467
0.254154 0.151736 0.128115
0.287114 0.151705 0.129397
0.323888 0.150637 0.130770
0.362249 0.148440 0.132052
0.402594 0.145571 0.133272
0.443915 0.141573 0.134249
0.486244 0.137148 0.135805
0.528222 0.133333 0.137362
0.569268 0.129793 0.138857
0.608270 0.129000 0.140871
0.644709 0.132570 0.143130
0.682490 0.144381 0.146212
0.714199 0.162081 0.149752
0.740902 0.183505 0.153933
0.764309 0.206271 0.158633
0.784878 0.229465 0.164034
0.803799 0.251408 0.170169
0.822232 0.273198 0.177127
0.840116 0.294865 0.185031
0.857115 0.316930 0.194247
0.873075 0.339940 0.205447
0.887236 0.364050 0.218906
0.899321 0.389227 0.234836
0.909514 0.415229 0.254551
0.918334 0.441260 0.278599
0.926360 0.466773 0.307683
0.164553 0.156710 0.128115
0.165255 0.156649 0.127840
0.167941 0.156497 0.128054
0.177737 0.156771 0.129030
0.196780 0.157076 0.131136
0.222416 0.161044 0.130220
0.253178 0.165927 0.127901
0.285252 0.166140 0.129213
0.321202 0.165530 0.130343
0.359106 0.164462 0.131289
0.398657 0.162448 0.132540
0.439765 0.159762 0.133700
0.481544 0.156802 0.135256
0.523522 0.154421 0.136568
0.564508 0.152682 0.138430
0.603754 0.153231 0.140322
0.641505 0.156832 0.142519
0.679042 0.166751 0.145632
0.710384 0.181674 0.149081
0.737087 0.199893 0.153201
0.760372 0.220340 0.157778
0.780941 0.241367 0.162936
0.799954 0.261784 0.169039
0.818692 0.282200 0.175906
0.836912 0.302892 0.184054
0.854307 0.324193 0.193423
0.870603 0.346044 0.204501
0.885069 0.369421 0.217838
0.897307 0.393744 0.233829
0.907683 0.418799 0.253300
0.916686 0.443854 0.276951
0.924834 0.468605 0.305699
0.166751 0.171359 0.131685
0.167086 0.171328 0.131685
0.169314 0.171084 0.131411
0.173587 0.170596 0.131380
0.192752 0.171817 0.133303
0.218235 0.172519 0.135927
0.249302 0.177157 0.134920
0.284489 0.183200 0.130587
0.320317 0.185397 0.129366
0.357977 0.185061 0.130465
0.397345 0.183810 0.131655
0.438148 0.182528 0.132937
0.479683 0.181216 0.134310
0.521355 0.180179 0.135988
0.562249 0.179629 0.137758
0.601648 0.180880 0.139742
0.641016 0.185611 0.142061
0.677699 0.194553 0.145113
0.708583 0.207279 0.148562
0.734951 0.223423 0.152590
0.758114 0.241398 0.157412
0.778744 0.260136 0.162570
0.821469 0.308507 0.178073
0.839445 0.327337 0.186770
0.856046 0.346410 0.196841
0.871275 0.366064 0.208347
0.884611 0.386511 0.222110
0.895872 0.407813 0.237766
0.905577 0.429725 0.256596
0.914092 0.451850 0.279088
0.921843 0.473640 0.305730
0.929229 0.495125 0.336492
0.166751 0.192325 0.136141
0.167086 0.192294 0.136141
0.169558 0.191775 0.135958
0.173556 0.191104 0.135256
0.185885 0.190707 0.136202
0.214511 0.193393 0.138674
0.248203 0.195102 0.142489
0.286961 0.200687 0.141238
0.325963 0.208011 0.134615
0.365026 0.213596 0.128969
0.405432 0.213169 0.130343
0.446998 0.212955 0.131991
0.488838 0.212589 0.133272
0.530144 0.212375 0.134981
0.570367 0.212863 0.136721
0.609155 0.215061 0.138888
0.650935 0.221958 0.141726
0.686183 0.231632 0.145113
0.715724 0.244602 0.148989
0.741787 0.260197 0.153292
0.765377 0.277867 0.158816
0.787106 0.296727 0.165255
0.808225 0.315892 0.173342
0.828733 0.335332 0.182406
0.847593 0.354803 0.192935
0.864408 0.374151 0.204837
0.878843 0.393561 0.218204
0.890959 0.413489 0.233829
0.901274 0.434119 0.252140
0.910216 0.454841 0.273869
0.918364 0.475593 0.299748
0.926024 0.496284 0.329839
0.165438 0.213657 0.140566
0.166049 0.213596 0.140566
0.168185 0.212955 0.140230
0.172580 0.211948 0.139651
0.178805 0.210117 0.139254
0.203128 0.212070 0.141268
0.238590 0.216526 0.144503
0.279179 0.219577 0.149569
0.322057 0.225467 0.148898
0.362707 0.233494 0.140658
0.402625 0.240330 0.132509
0.442908 0.242679 0.129976
0.484199 0.242985 0.131472
0.525017 0.243351 0.133150
0.564630 0.244144 0.134981
0.607019 0.247959 0.137270
0.645808 0.253880 0.139925
0.679500 0.261753 0.143313
0.708583 0.272160 0.146975
0.734279 0.284977 0.151522
0.757687 0.300359 0.156741
0.779477 0.316716 0.163027
0.800534 0.333837 0.170779
0.821225 0.351202 0.179812
0.840543 0.368994 0.190219
0.857939 0.386511 0.202029
0.873136 0.404364 0.215518
0.885985 0.422766 0.230808
0.896910 0.441932 0.249180
0.906371 0.461402 0.270878
0.914916 0.480995 0.296422
0.922911 0.500694 0.326146
0.162173 0.238651 0.145815
0.162814 0.238590 0.145815
0.165164 0.237919 0.145296
0.169528 0.236637 0.144656
0.176333 0.234714 0.143679
0.190127 0.232944 0.144656
0.224857 0.237888 0.147463
0.267674 0.244358 0.151614
0.313878 0.248539 0.158358
0.360266 0.254337 0.159274
0.402502 0.263218 0.148196
0.442390 0.270176 0.138125
0.480507 0.275334 0.128817
0.520989 0.275914 0.130770
0.564080 0.278904 0.132570
0.604578 0.282689 0.134951
0.641444 0.287388 0.137911
0.673976 0.293828 0.141238
0.702358 0.302434 0.145052
0.727810 0.313359 0.149447
0.751095 0.326360 0.154665
0.772641 0.340764 0.161044
0.793668 0.355688 0.169039
0.814420 0.371130 0.178103
0.834073 0.386847 0.188479
0.851926 0.402502 0.200381
0.867704 0.418647 0.213993
0.881163 0.435462 0.229465
0.892607 0.453010 0.247807
0.902556 0.470863 0.269352
0.911437 0.489143 0.294926
0.919707 0.507591 0.324681
0.155734 0.266606 0.151736
0.156527 0.266270 0.151614
0.158785 0.265599 0.151156
0.163973 0.264103 0.150240
0.170962 0.261814 0.149294
0.180575 0.258732 0.148287
0.208530 0.259861 0.150729
0.250248 0.266758 0.154635
0.299382 0.274907 0.160159
0.350347 0.280461 0.169223
0.399878 0.286290 0.172213
0.441901 0.294957 0.158755
0.481392 0.302098 0.146090
0.520775 0.309667 0.133089
0.560784 0.313878 0.129549
0.600122 0.317052 0.132021
0.636194 0.321202 0.134951
0.668482 0.326970 0.138613
0.696803 0.334600 0.142519
0.721981 0.344091 0.147341
0.744808 0.354864 0.152651
0.765774 0.366491 0.159091
0.786130 0.378576 0.166751
0.806210 0.391333 0.175357
0.825650 0.404334 0.185458
0.843748 0.417884 0.197116
0.860258 0.432044 0.210575
0.874693 0.447333 0.226108
0.887053 0.463416 0.244663
0.897734 0.480262 0.266545
0.907225 0.497536 0.292546
0.916014 0.515312 0.322667
0.145388 0.295171 0.157992
0.145907 0.294896 0.157687
0.149233 0.294194 0.157473
0.154452 0.292760 0.156466
0.162936 0.290410 0.155276
0.173159 0.287144 0.153902
0.188357 0.282689 0.154177
0.230716 0.289555 0.158053
0.279606 0.298436 0.163302
0.334783 0.308873 0.170809
0.389990 0.315587 0.182650
0.444007 0.323400 0.189181
0.487953 0.333532 0.173190
0.527520 0.341222 0.158083
0.562615 0.347143 0.142184
0.595026 0.351781 0.128176
0.630335 0.355077 0.131563
0.661982 0.359869 0.135195
0.689784 0.366186 0.139590
0.714565 0.373816 0.144411
0.737270 0.382910 0.150271
0.758236 0.392554 0.156710
0.778622 0.403174 0.164553
0.798978 0.414038 0.173556
0.818723 0.425299 0.184115
0.837247 0.437049 0.195956
0.854307 0.449653 0.209751
0.869291 0.463172 0.225681
0.882231 0.477577 0.244450
0.893400 0.492836 0.266880
0.903288 0.508812 0.292943
0.912413 0.525383 0.323278
0.128847 0.326299 0.165194
0.129824 0.326085 0.165103
0.132876 0.325353 0.164584
0.140352 0.323766 0.163729
0.150362 0.321355 0.162356
0.162325 0.318029 0.160678
0.176394 0.313512 0.159121
0.207431 0.312810 0.161807
0.257694 0.322148 0.167147
0.313451 0.333928 0.174685
0.375860 0.348547 0.184970
0.437201 0.358892 0.201053
0.517174 0.386969 0.222721
0.559106 0.396185 0.200870
0.593927 0.402319 0.181369
0.623407 0.406561 0.160525
0.647974 0.409918 0.138216
0.674220 0.413733 0.133944
0.699886 0.419074 0.139742
0.723262 0.425391 0.146090
0.744747 0.432319 0.153628
0.765225 0.439460 0.161807
0.785550 0.446845 0.171420
0.805417 0.454841 0.182162
0.824277 0.463355 0.194278
0.841794 0.472267 0.207706
0.857420 0.481819 0.222477
0.870878 0.492439 0.239597
0.882536 0.504021 0.259342
0.892912 0.516655 0.282292
0.902342 0.530175 0.308751
0.911254 0.544762 0.339422
0.094636 0.365087 0.175540
0.095857 0.364782 0.175631
0.102541 0.363653 0.174838
0.113375 0.361639 0.173434
0.128206 0.358495 0.171908
0.144350 0.354345 0.169924
0.162387 0.349767 0.167819
0.182040 0.344732 0.166812
0.233463 0.352087 0.172946
0.293339 0.365606 0.181216
0.358556 0.381750 0.192355
0.429603 0.400458 0.207187
0.496803 0.414527 0.229404
0.554864 0.423621 0.247410
0.593072 0.432410 0.223972
0.623316 0.437568 0.202090
0.648005 0.440742 0.179446
0.668757 0.442847 0.155703
0.688380 0.445228 0.136080
0.711666 0.450050 0.142733
0.733242 0.455329 0.150271
0.753964 0.461128 0.158877
0.774533 0.467262 0.168826
0.794949 0.473854 0.179599
0.814603 0.480903 0.191623
0.832914 0.488563 0.205325
0.849546 0.497047 0.220615
0.864042 0.506523 0.238071
0.876555 0.517174 0.258091
0.887572 0.528923 0.281621
0.897490 0.541680 0.308354
0.906767 0.555474 0.339544
0.000000 0.399481 0.186221
0.000000 0.399268 0.185977
0.006867 0.398169 0.185428
0.045869 0.396094 0.183963
0.093568 0.393103 0.182132
0.117983 0.389166 0.179782
0.141817 0.384161 0.177218
0.164340 0.378027 0.174655
0.198886 0.373785 0.176455
0.262638 0.386603 0.184451
0.328069 0.401892 0.195102
0.397986 0.419654 0.209049
0.471595 0.439338 0.227329
0.536950 0.453315 0.253269
0.590387 0.461494 0.276677
0.622187 0.468025 0.250675
0.647181 0.471260 0.225986
0.668055 0.473060 0.202029
0.686488 0.474311 0.177310
0.702907 0.475380 0.150820
0.722774 0.478706 0.148257
0.743832 0.483375 0.157290
0.764828 0.488441 0.167269
0.785824 0.493874 0.178378
0.806058 0.499702 0.190921
0.825101 0.506340 0.204929
0.842496 0.513573 0.220554
0.857664 0.521996 0.238315
0.870787 0.531609 0.258701
0.882322 0.542473 0.282353
0.892638 0.554406 0.309850
0.902281 0.567651 0.341344
0.000000 0.434272 0.198337
0.000000 0.433967 0.198306
0.000000 0.432868 0.197421
0.000000 0.430426 0.195743
0.000000 0.426947 0.193515
0.055909 0.422278 0.190616
0.111452 0.416724 0.187350
0.141756 0.410285 0.184115
0.168185 0.402716 0.180972
0.226322 0.405921 0.187350
0.294835 0.420661 0.197604
0.365393 0.437507 0.211246
0.438209 0.455848 0.228428
0.511620 0.475532 0.250278
0.572259 0.488716 0.279606
0.618799 0.496010 0.308385
0.645624 0.500633 0.280308
0.667231 0.502373 0.253544
0.685939 0.503136 0.228214
0.702693 0.503349 0.202609
0.718074 0.503593 0.176120
0.734432 0.505058 0.156588
0.755825 0.508995 0.166781
0.777127 0.513420 0.178378
0.797910 0.518273 0.190951
0.817563 0.523857 0.205264
0.835660 0.530388 0.221347
0.851560 0.538109 0.239963
0.865415 0.547265 0.261204
0.877501 0.557733 0.286137
0.888273 0.569635 0.315038
0.898253 0.582818 0.348180
0.000000 0.465003 0.210758
0.000000 0.464790 0.210697
0.000000 0.463752 0.209903
0.000000 0.461799 0.208255
0.000000 0.458656 0.205936
0.000000 0.454505 0.202853
0.022889 0.449378 0.199344
0.108400 0.443305 0.195651
0.144503 0.435920 0.191531
0.181735 0.427039 0.190982
0.258244 0.439643 0.200870
0.331304 0.455146 0.213626
0.404639 0.471839 0.229892
0.477760 0.489265 0.250187
0.546685 0.507042 0.274571
0.599695 0.518456 0.306432
0.640528 0.525017 0.340032
0.664149 0.528222 0.311254
0.684047 0.528985 0.282811
0.701442 0.528954 0.257023
0.717708 0.528771 0.231357
0.733455 0.528923 0.205264
0.748928 0.529595 0.177951
0.769284 0.532769 0.179507
0.790677 0.537011 0.192752
0.811002 0.542077 0.207645
0.829709 0.548058 0.224521
0.846189 0.555169 0.243626
0.860288 0.563684 0.265476
0.872526 0.573510 0.290715
0.883452 0.584680 0.319707
0.893492 0.597192 0.352697
0.000000 0.492927 0.223850
0.000000 0.492592 0.223606
0.000000 0.491768 0.222812
0.000000 0.489937 0.221195
0.000000 0.487129 0.218814
0.000000 0.483253 0.215518
0.000000 0.478340 0.211612
0.015167 0.472267 0.207370
0.112581 0.465034 0.202548
0.150332 0.456519 0.198184
0.212070 0.454322 0.202548
0.291844 0.469215 0.214786
0.367803 0.484962 0.230320
0.441901 0.501305 0.249485
0.513359 0.517784 0.272862
0.577020 0.534325 0.300786
0.622827 0.545098 0.334783
0.659724 0.551568 0.373999
0.681392 0.553674 0.344976
0.700160 0.553338 0.315557
0.717281 0.553063 0.289891
0.733944 0.552605 0.264103
0.750149 0.552605 0.238254
0.766171 0.553155 0.211887
0.783627 0.555138 0.195224
0.804532 0.559686 0.210727
0.823819 0.565301 0.228000
0.840665 0.572137 0.247745
0.855070 0.580407 0.270390
0.867521 0.590051 0.296330
0.878599 0.601038 0.326116
0.888914 0.613123 0.359960
0.000000 0.520287 0.239048
0.000000 0.520317 0.238926
0.000000 0.532494 0.246738
0.000000 0.530816 0.244816
0.000000 0.528069 0.241886
0.000000 0.524315 0.238041
0.000000 0.519341 0.233341
0.000000 0.513207 0.227756
0.011536 0.505943 0.221744
0.117556 0.497230 0.215396
0.163455 0.486915 0.211124
0.252445 0.494148 0.221897
0.337163 0.509056 0.237888
0.416449 0.524071 0.257694
0.490761 0.538628 0.281254
0.556817 0.553094 0.308934
0.610742 0.568170 0.340063
0.649592 0.577661 0.376043
0.682521 0.582666 0.418494
0.702937 0.582757 0.389776
0.721187 0.581262 0.359319
0.738277 0.580102 0.332525
0.754696 0.579126 0.306310
0.770657 0.578546 0.280278
0.786038 0.578637 0.253605
0.801266 0.579706 0.226535
0.819120 0.583917 0.234440
0.835569 0.590082 0.253819
0.849851 0.597772 0.276493
0.862303 0.607080 0.302678
0.873503 0.617609 0.332921
0.884001 0.629053 0.367437
0.000000 0.549035 0.258305
0.000000 0.549950 0.258915
0.000000 0.550469 0.259098
0.000000 0.549981 0.257969
0.000000 0.548486 0.255772
0.000000 0.545464 0.252140
0.000000 0.541039 0.247196
0.000000 0.535363 0.241245
0.000000 0.528649 0.234684
0.064668 0.520531 0.227787
0.131350 0.511192 0.220645
0.192752 0.502739 0.220768
0.290532 0.516899 0.236118
0.374121 0.531151 0.254673
0.451575 0.545068 0.276860
0.522057 0.558709 0.303105
0.581323 0.572869 0.332891
0.629450 0.587915 0.365850
0.665248 0.597131 0.403204
0.697047 0.602014 0.445350
0.717830 0.602319 0.422889
0.736202 0.601251 0.394629
0.753262 0.600305 0.368627
0.769436 0.599573 0.343267
0.785000 0.599329 0.317784
0.800015 0.599969 0.292515
0.814542 0.601801 0.267399
0.829160 0.606073 0.257053
0.843595 0.613672 0.279911
0.856321 0.622675 0.306523
0.867826 0.632837 0.337499
0.878721 0.643732 0.372869
0.000000 0.569360 0.274205
0.000000 0.570245 0.274937
0.000000 0.570825 0.275151
0.000000 0.570611 0.274357
0.000000 0.569299 0.272068
0.000000 0.566674 0.268376
0.000000 0.562799 0.263249
0.000000 0.557794 0.257023
0.000000 0.551690 0.250034
0.000000 0.544396 0.242374
0.098756 0.535760 0.234226
0.144472 0.525719 0.226078
0.236820 0.526360 0.234958
0.330663 0.540063 0.252873
0.413184 0.553399 0.274571
0.487739 0.566308 0.299565
0.552331 0.579553 0.328252
0.604181 0.593622 0.359869
0.647486 0.608240 0.394263
0.681483 0.617029 0.431708
0.712123 0.621820 0.472572
0.732418 0.622400 0.456153
0.750149 0.621668 0.430304
0.766751 0.620966 0.405524
0.782254 0.620691 0.381537
0.797024 0.621118 0.357763
0.811063 0.622553 0.334295
0.824552 0.625452 0.311803
0.837583 0.630182 0.290929
0.850401 0.638544 0.311192
0.862211 0.648127 0.342962
0.873594 0.658167 0.378912
0.000000 0.589410 0.292027
0.000000 0.590173 0.292638
0.000000 0.590631 0.292851
0.000000 0.590326 0.292027
0.000000 0.589166 0.289799
0.000000 0.586786 0.285985
0.000000 0.583337 0.280705
0.000000 0.578943 0.274266
0.000000 0.573541 0.267033
0.000000 0.567010 0.258732
0.019745 0.559289 0.249882
0.117800 0.550378 0.240665
0.171328 0.539330 0.235599
0.280766 0.549432 0.251316
0.372259 0.562310 0.272435
0.452247 0.574762 0.296818
0.522362 0.587549 0.324926
0.579461 0.601160 0.356512
0.625483 0.615656 0.390967
0.666529 0.630976 0.426978
0.700435 0.640009 0.464759
0.729305 0.645594 0.504875
0.748592 0.647028 0.494575
0.765316 0.647059 0.472511
0.780789 0.647303 0.450874
0.794980 0.648066 0.430457
0.808469 0.649653 0.410346
0.821500 0.652430 0.391272
0.834195 0.656703 0.374273
0.846860 0.662379 0.359808
0.859495 0.669764 0.366003
0.871275 0.678370 0.403937
0.000000 0.614984 0.318151
0.000000 0.615198 0.318334
0.000000 0.615106 0.317998
0.000000 0.614191 0.316289
0.000000 0.612512 0.313268
0.000000 0.610010 0.309087
0.000000 0.606744 0.303532
0.000000 0.602655 0.296788
0.000000 0.597711 0.288884
0.000000 0.591943 0.280125
0.000000 0.585168 0.270603
0.095460 0.577203 0.260258
0.137881 0.567803 0.249393
0.220310 0.562646 0.252506
0.329625 0.574823 0.273289
0.418036 0.586694 0.297765
0.493690 0.598657 0.325231
0.555138 0.611139 0.356115
0.603998 0.624598 0.389441
0.645594 0.638972 0.424323
0.686030 0.653223 0.459358
0.717647 0.661067 0.495003
0.742763 0.666011 0.532555
0.759762 0.667292 0.526146
0.774533 0.667323 0.505913
0.788540 0.667933 0.486641
0.801663 0.669368 0.469490
0.814359 0.671717 0.453620
0.826993 0.675196 0.439582
0.839719 0.679774 0.428107
0.853056 0.685084 0.420020
0.866941 0.690852 0.415991
0.000000 0.634180 0.339330
0.000000 0.634333 0.339513
0.000000 0.634180 0.338964
0.000000 0.633448 0.337346
0.000000 0.632013 0.334600
0.000000 0.629847 0.330510
0.000000 0.626947 0.324987
0.000000 0.623316 0.318303
0.000000 0.618952 0.310430
0.000000 0.613794 0.301488
0.000000 0.607721 0.291478
0.067597 0.600580 0.280491
0.123568 0.592370 0.268589
0.165530 0.582452 0.258976
0.275090 0.585870 0.272557
0.377111 0.597406 0.296574
0.460761 0.608911 0.324071
0.528618 0.620661 0.354528
0.581262 0.633631 0.387488
0.624811 0.647456 0.422034
0.665766 0.661219 0.456764
0.705348 0.674128 0.490791
0.733791 0.681056 0.525261
0.754543 0.685695 0.560693
0.767880 0.684596 0.554131
0.781125 0.684962 0.536492
0.794339 0.686000 0.519921
0.806882 0.687953 0.506462
0.819394 0.690700 0.494759
0.832273 0.694270 0.485725
0.845823 0.698573 0.480140
0.859709 0.703365 0.478309
0.000000 0.657008 0.366613
0.000000 0.657404 0.367102
0.000000 0.657252 0.366583
0.000000 0.656336 0.364691
0.000000 0.654658 0.361425
0.000000 0.652277 0.356817
0.000000 0.649165 0.350805
0.000000 0.645350 0.343633
0.000000 0.640955 0.335088
0.000000 0.635920 0.325597
0.000000 0.629999 0.314824
0.056001 0.623346 0.302861
0.116762 0.615656 0.290227
0.146639 0.606714 0.276677
0.196994 0.596155 0.270298
0.326482 0.606744 0.293584
0.420966 0.617273 0.319890
0.496376 0.628107 0.349401
0.554803 0.640253 0.381506
0.601465 0.653559 0.415656
0.643183 0.666896 0.450294
0.684352 0.679286 0.484230
0.721492 0.690547 0.517144
0.745632 0.696132 0.549523
0.762631 0.699580 0.582300
0.775631 0.700893 0.583429
0.787778 0.701259 0.568078
0.800259 0.702480 0.554589
0.812619 0.704494 0.544305
0.825406 0.707271 0.536797
0.838743 0.710719 0.532494
0.852262 0.714931 0.532219
0.000000 0.675135 0.387732
0.000000 0.675532 0.388190
0.000000 0.675471 0.387854
0.000000 0.674800 0.386419
0.000000 0.673579 0.383642
0.000000 0.671717 0.379858
0.000000 0.669337 0.374853
0.000000 0.666316 0.368475
0.000000 0.662745 0.360937
0.000000 0.658564 0.352117
0.007080 0.653651 0.342046
0.097719 0.647913 0.330724
0.130831 0.641291 0.317998
0.154879 0.633539 0.303746
0.174533 0.624689 0.288731
0.268864 0.621607 0.296147
0.381720 0.631373 0.322576
0.466438 0.641474 0.351812
0.530694 0.652827 0.383612
0.580774 0.665126 0.417243
0.624353 0.677516 0.451545
0.667079 0.688930 0.485054
0.706661 0.698970 0.517876
0.738796 0.707820 0.549279
0.758114 0.712123 0.579522
0.772122 0.714870 0.610468
0.783963 0.716274 0.615229
0.795438 0.716915 0.602899
0.807950 0.718654 0.593622
0.820645 0.721035 0.587457
0.833555 0.724178 0.584802
0.846342 0.728206 0.585748
0.000000 0.696620 0.414771
0.000000 0.696834 0.414923
0.000000 0.696620 0.414466
0.000000 0.696010 0.412909
0.000000 0.694911 0.410437
0.000000 0.693263 0.406836
0.000000 0.691096 0.401984
0.000000 0.688472 0.396002
0.000000 0.685298 0.388830
0.042603 0.681605 0.380560
0.103243 0.677180 0.370733
0.130587 0.672145 0.359838
0.152804 0.666346 0.347509
0.171603 0.659541 0.333593
0.188083 0.651698 0.318212
0.218448 0.642451 0.307012
0.334447 0.646509 0.326177
0.432563 0.656062 0.355200
0.504540 0.666438 0.386664
0.559258 0.677607 0.419898
0.605371 0.688808 0.453712
0.649928 0.698909 0.486885
0.691768 0.707454 0.519188
0.726741 0.714931 0.550195
0.752590 0.722011 0.579156
0.768368 0.725307 0.607111
0.780575 0.727413 0.635523
0.791745 0.728786 0.642725
0.802945 0.729580 0.632990
0.815396 0.731960 0.627466
0.827848 0.735164 0.625238
0.839780 0.739498 0.627008
0.000000 0.716609 0.441627
0.001984 0.716732 0.441749
0.012757 0.716670 0.441352
0.032929 0.716243 0.440192
0.059449 0.715541 0.438422
0.089906 0.714565 0.435706
0.109133 0.713527 0.432593
0.128054 0.712184 0.428626
0.147158 0.710658 0.423987
0.165805 0.708736 0.418280
0.183078 0.706386 0.411505
0.198917 0.703487 0.403265
0.214267 0.699794 0.393439
0.227085 0.695277 0.381750
0.238926 0.689693 0.368231
0.249058 0.682887 0.352361
0.295689 0.675990 0.349584
0.411383 0.684230 0.379492
0.489326 0.693019 0.411444
0.547753 0.702144 0.444343
0.597620 0.710658 0.476997
0.645899 0.717647 0.509178
0.689296 0.723507 0.540246
0.723629 0.729061 0.569482
0.748714 0.734829 0.596979
0.768399 0.740780 0.622553
0.781704 0.743343 0.646662
0.792844 0.744900 0.670893
0.803250 0.746517 0.679225
0.813443 0.747768 0.672724
0.824704 0.751492 0.671351
0.835264 0.756344 0.672999
0.222538 0.741054 0.482948
0.222782 0.740993 0.482856
0.222751 0.740810 0.482216
0.223514 0.740414 0.480995
0.224552 0.739773 0.479103
0.226627 0.738888 0.476356
0.229984 0.737819 0.473091
0.234104 0.736507 0.468971
0.239353 0.734981 0.464118
0.245701 0.733181 0.458381
0.252750 0.731014 0.451637
0.260380 0.728481 0.443793
0.268254 0.725490 0.434638
