lut_library_archive/removed_20260629/抖音热门推荐/抖音热门推荐11.cube
# 版权归凌孟成所有，侵权必究
# Created by Adobe Lightroom plugin Export LUT (1.24.0)
# www.johnrellis.com/lightroom/exportlut.htm
# Preset: INS风格-缇米设计11
# Color profile: C:\Program Files (x86)\Common Files\Adobe\Color\Profiles\Recommended\VideoHD.icc
LUT_3D_SIZE 32
DOMAIN_MIN 0.0 0.0 0.0
DOMAIN_MAX 1.0 1.0 1.0
0.167361 0.167361 0.167361
0.167361 0.167361 0.167361
0.167361 0.167361 0.167361
0.167361 0.167361 0.167361
0.223758 0.161929 0.169406
0.304448 0.150179 0.174472
0.404730 0.114992 0.179141
0.503502 0.016205 0.181735
0.595514 0.000000 0.181491
0.682277 0.000000 0.179568
0.765682 0.000000 0.176333
0.841245 0.000000 0.172122
0.905882 0.000000 0.168399
0.959442 0.000000 0.165713
1.000000 0.000000 0.165225
1.000000 0.018524 0.166690
1.000000 0.116518 0.170199
1.000000 0.157290 0.184604
1.000000 0.186282 0.203220
1.000000 0.212589 0.222385
1.000000 0.235203 0.241123
1.000000 0.255589 0.258854
1.000000 0.273716 0.275486
1.000000 0.290349 0.290990
1.000000 0.305577 0.305821
1.000000 0.319982 0.320073
1.000000 0.333959 0.334142
1.000000 0.347692 0.348211
1.000000 0.361334 0.362341
1.000000 0.375219 0.376715
1.000000 0.389227 0.391333
1.000000 0.403662 0.406378
0.167361 0.167361 0.167361
0.167361 0.167361 0.167361
0.167361 0.167361 0.167361
0.167361 0.167361 0.167361
0.224796 0.161746 0.169375
0.303288 0.150301 0.174350
0.400580 0.117098 0.178897
0.494606 0.064607 0.180728
0.585168 0.000000 0.180545
0.670954 0.000000 0.178714
0.753048 0.000000 0.175326
0.829831 0.000000 0.171389
0.895598 0.000000 0.167514
0.950774 0.000000 0.164553
0.994018 0.000000 0.163516
1.000000 0.053468 0.164858
1.000000 0.123995 0.167880
1.000000 0.159426 0.181491
1.000000 0.186770 0.199496
1.000000 0.210971 0.218173
1.000000 0.232761 0.236118
1.000000 0.251835 0.253513
1.000000 0.269596 0.269718
1.000000 0.285740 0.285039
1.000000 0.300755 0.299779
1.000000 0.314763 0.314031
1.000000 0.328527 0.328130
1.000000 0.342382 0.342382
1.000000 0.356176 0.356786
1.000000 0.370062 0.371283
1.000000 0.384314 0.386084
1.000000 0.398779 0.401190
0.167361 0.167361 0.167361
0.167361 0.167361 0.167361
0.167361 0.167361 0.167361
0.176791 0.166262 0.167330
0.233341 0.160891 0.169955
0.307103 0.155856 0.173709
0.393652 0.146242 0.175723
0.481910 0.132418 0.176761
0.568658 0.116945 0.176089
0.653407 0.095918 0.174075
0.735592 0.060548 0.170840
0.813809 0.017243 0.166690
0.881285 0.017823 0.162448
0.938415 0.056336 0.158999
0.984466 0.099763 0.157992
1.000000 0.130159 0.159030
1.000000 0.156832 0.162661
1.000000 0.180636 0.177401
1.000000 0.201144 0.195254
1.000000 0.221073 0.213718
1.000000 0.239780 0.231998
1.000000 0.257359 0.249393
1.000000 0.273411 0.265782
1.000000 0.288243 0.281285
1.000000 0.302190 0.296056
1.000000 0.315312 0.310216
1.000000 0.328893 0.324590
1.000000 0.342168 0.338872
1.000000 0.355505 0.353216
1.000000 0.369299 0.367956
1.000000 0.383124 0.382940
1.000000 0.397345 0.397986
0.166018 0.178744 0.171969
0.166171 0.179202 0.172396
0.166751 0.180545 0.173220
0.178958 0.180179 0.174746
0.235691 0.187625 0.166751
0.301732 0.190433 0.167391
0.379339 0.191287 0.168551
0.460365 0.189761 0.168795
0.544030 0.186313 0.167697
0.626612 0.181888 0.165530
0.708583 0.177401 0.161807
0.787472 0.173281 0.157137
0.858335 0.172671 0.152102
0.918425 0.176486 0.148226
0.968231 0.182162 0.146365
1.000000 0.192905 0.147250
1.000000 0.203464 0.154574
1.000000 0.215579 0.170077
1.000000 0.227787 0.187655
1.000000 0.240665 0.206027
1.000000 0.253819 0.223880
1.000000 0.267582 0.241642
1.000000 0.280919 0.258396
1.000000 0.294041 0.274540
1.000000 0.306920 0.290074
1.000000 0.319799 0.305486
1.000000 0.332982 0.320928
1.000000 0.345892 0.335912
1.000000 0.358862 0.350927
1.000000 0.372076 0.365850
1.000000 0.385321 0.380774
1.000000 0.398566 0.395605
0.169467 0.210819 0.189609
0.170779 0.210575 0.189761
0.175692 0.208957 0.190829
0.183597 0.207858 0.190280
0.208530 0.209781 0.192447
0.271031 0.224430 0.182315
0.352087 0.230564 0.161715
0.426184 0.234440 0.158877
0.504326 0.237613 0.157229
0.583886 0.239994 0.154269
0.664912 0.241093 0.149966
0.745174 0.242496 0.143893
0.820676 0.243992 0.137270
0.886809 0.245945 0.131441
0.942718 0.248569 0.128145
0.986297 0.251713 0.130648
1.000000 0.254185 0.143282
1.000000 0.258518 0.160403
1.000000 0.264042 0.179110
1.000000 0.270878 0.198367
1.000000 0.279057 0.217044
1.000000 0.288212 0.235233
1.000000 0.298039 0.252537
1.000000 0.308293 0.269291
1.000000 0.318944 0.285710
1.000000 0.330175 0.301732
1.000000 0.341588 0.317388
1.000000 0.353124 0.332799
1.000000 0.364965 0.347875
1.000000 0.376898 0.362921
1.000000 0.389136 0.377813
1.000000 0.401556 0.392615
0.174868 0.240574 0.206760
0.175937 0.240299 0.206912
0.180880 0.237949 0.207492
0.188266 0.235721 0.207340
0.208255 0.238804 0.206455
0.241794 0.242039 0.209445
0.306432 0.259617 0.200320
0.388647 0.272007 0.172244
0.460853 0.273747 0.147250
0.537011 0.281193 0.142061
0.616571 0.288121 0.136019
0.697475 0.294530 0.127687
0.776974 0.300237 0.117281
0.849546 0.304387 0.107790
0.913939 0.305730 0.105776
0.968566 0.305882 0.113344
1.000000 0.305699 0.128511
1.000000 0.305364 0.148562
1.000000 0.305669 0.169528
1.000000 0.307744 0.190494
1.000000 0.311437 0.210666
1.000000 0.316564 0.229740
1.000000 0.345220 0.277928
1.000000 0.353155 0.295232
1.000000 0.361303 0.311559
1.000000 0.370062 0.327245
1.000000 0.379187 0.342565
1.000000 0.388434 0.356970
1.000000 0.398199 0.371283
1.000000 0.408301 0.385443
1.000000 0.418769 0.399573
1.000000 0.429175 0.413184
0.179110 0.275731 0.226932
0.180179 0.275212 0.227024
0.185336 0.272740 0.227481
0.192752 0.270451 0.226505
0.208042 0.274449 0.222904
0.242985 0.278660 0.225986
0.285161 0.284245 0.230350
0.352483 0.302800 0.225467
0.435615 0.319463 0.187808
0.509514 0.325780 0.154391
0.577600 0.326574 0.120638
0.662287 0.338842 0.108125
0.748470 0.349615 0.093751
0.828763 0.356878 0.076356
0.902403 0.361517 0.066163
0.963256 0.362951 0.089296
1.000000 0.360571 0.113558
1.000000 0.357153 0.139864
1.000000 0.354559 0.165682
1.000000 0.353307 0.190311
1.000000 0.354162 0.213931
1.000000 0.357031 0.236912
1.000000 0.361944 0.259159
1.000000 0.368170 0.279942
1.000000 0.375006 0.299413
1.000000 0.382361 0.317144
1.000000 0.389410 0.333104
1.000000 0.397040 0.348516
1.000000 0.405249 0.363348
1.000000 0.413703 0.377722
1.000000 0.422736 0.391974
1.000000 0.432105 0.405859
0.184512 0.303166 0.243931
0.185763 0.302708 0.244083
0.190249 0.300572 0.244327
0.196872 0.298680 0.243290
0.204654 0.303166 0.237369
0.237888 0.308049 0.240970
0.277470 0.314305 0.245823
0.324285 0.322148 0.252293
0.389014 0.340612 0.256626
0.473671 0.360266 0.212528
0.549706 0.369299 0.172610
0.619074 0.372290 0.132601
0.687465 0.374731 0.088228
0.781857 0.392065 0.030793
0.863890 0.402258 0.000000
0.929168 0.405402 0.010193
0.977752 0.403540 0.067292
1.000000 0.398840 0.111574
1.000000 0.393744 0.142336
1.000000 0.389624 0.170687
1.000000 0.387121 0.196506
1.000000 0.386358 0.221561
1.000000 0.387518 0.245365
1.000000 0.390204 0.267582
1.000000 0.394263 0.288243
1.000000 0.398749 0.306828
1.000000 0.403845 0.324071
1.000000 0.409339 0.340063
1.000000 0.415717 0.355505
1.000000 0.422827 0.370611
1.000000 0.430304 0.385199
1.000000 0.438514 0.399634
0.194888 0.335607 0.266209
0.196048 0.335058 0.266270
0.199863 0.333165 0.266392
0.206790 0.330541 0.266148
0.211154 0.335027 0.260075
0.236851 0.340307 0.260868
0.274022 0.346593 0.265782
0.317662 0.354650 0.272374
0.367041 0.364385 0.280613
0.430518 0.382544 0.294285
0.517266 0.405280 0.245884
0.599176 0.418830 0.200259
0.675288 0.425727 0.151705
0.745449 0.428077 0.087037
0.816190 0.432349 0.000000
0.887907 0.439948 0.000000
0.944823 0.441108 0.000000
0.987213 0.437751 0.044221
1.000000 0.432166 0.110994
1.000000 0.426429 0.146426
1.000000 0.421546 0.177005
1.000000 0.418158 0.204715
1.000000 0.416297 0.230900
1.000000 0.415900 0.254795
1.000000 0.416968 0.276738
1.000000 0.418830 0.296635
1.000000 0.421637 0.314916
1.000000 0.425269 0.331792
1.000000 0.429786 0.348241
1.000000 0.435004 0.363836
1.000000 0.441169 0.379156
1.000000 0.447883 0.393896
0.207340 0.368719 0.289830
0.208255 0.368109 0.289769
0.211612 0.366278 0.289738
0.218692 0.362524 0.289860
0.222812 0.366430 0.285100
0.236332 0.371954 0.281254
0.271824 0.377874 0.285985
0.312352 0.385748 0.292454
0.360479 0.397589 0.301976
0.414649 0.411170 0.313420
0.479744 0.431708 0.339239
0.567529 0.455879 0.287022
0.648341 0.468757 0.236179
0.721767 0.474464 0.183444
0.786770 0.474037 0.120729
0.843351 0.469276 0.000000
0.903838 0.471077 0.000000
0.956237 0.471870 0.000000
0.995117 0.467933 0.026734
1.000000 0.462135 0.113588
1.000000 0.455818 0.152224
1.000000 0.450050 0.184268
1.000000 0.445441 0.212436
1.000000 0.442176 0.237369
1.000000 0.440070 0.260472
1.000000 0.439277 0.281437
1.000000 0.439673 0.301305
1.000000 0.441199 0.319585
1.000000 0.443915 0.337163
1.000000 0.447852 0.354253
1.000000 0.452613 0.370703
1.000000 0.458289 0.386725
0.220401 0.401678 0.313634
0.220920 0.401465 0.313695
0.224186 0.400092 0.313817
0.230503 0.397070 0.314092
0.235813 0.400000 0.311376
0.241855 0.406714 0.305943
0.272984 0.413977 0.309636
0.312840 0.422644 0.316564
0.357733 0.433082 0.325200
0.408179 0.445350 0.335637
0.463539 0.459113 0.347753
0.528313 0.479744 0.375372
0.613031 0.503288 0.329595
0.692439 0.515801 0.275853
0.761715 0.519463 0.222263
0.821866 0.516869 0.164858
0.874205 0.510002 0.082734
0.918944 0.499886 0.000000
0.965209 0.498695 0.000000
1.000000 0.494240 0.012970
1.000000 0.487800 0.114931
1.000000 0.481086 0.156405
1.000000 0.475013 0.189761
1.000000 0.469703 0.218631
1.000000 0.465583 0.244266
1.000000 0.462776 0.267521
1.000000 0.461158 0.288884
1.000000 0.460792 0.308751
1.000000 0.461646 0.327581
1.000000 0.463813 0.345739
1.000000 0.467109 0.363226
1.000000 0.471290 0.380102
0.235477 0.441566 0.342351
0.236149 0.441260 0.342260
0.238834 0.439826 0.342321
0.244663 0.437079 0.342382
0.250492 0.437781 0.340642
0.256443 0.443824 0.336095
0.274510 0.451240 0.334142
0.313237 0.459297 0.340795
0.356268 0.469032 0.349004
0.403876 0.480507 0.358831
0.456123 0.493477 0.370214
0.512718 0.507836 0.383368
0.620111 0.567681 0.442878
0.701747 0.588251 0.403418
0.774777 0.595026 0.344945
0.836271 0.592004 0.288914
0.887358 0.582330 0.233494
0.929503 0.568322 0.174563
0.964202 0.551659 0.097261
0.993866 0.536034 0.000000
1.000000 0.528893 0.095277
1.000000 0.520928 0.149996
1.000000 0.513176 0.188388
1.000000 0.506401 0.220127
1.000000 0.500603 0.247593
1.000000 0.495979 0.271672
1.000000 0.492287 0.293462
1.000000 0.489937 0.313298
1.000000 0.488899 0.332250
1.000000 0.489082 0.350042
1.000000 0.490455 0.367346
1.000000 0.492897 0.384009
0.257786 0.500023 0.384649
0.258457 0.499458 0.384405
0.260990 0.497200 0.383764
0.265995 0.493324 0.382879
0.272282 0.490425 0.380835
0.277379 0.494636 0.375738
0.285008 0.500969 0.369024
0.320806 0.507897 0.373754
0.363378 0.516838 0.381567
0.410712 0.528222 0.391516
0.463111 0.542229 0.403967
0.520470 0.558495 0.418921
0.581750 0.576196 0.435676
0.649226 0.598566 0.466865
0.724636 0.618708 0.442115
0.793637 0.625360 0.386358
0.850858 0.621607 0.332891
0.897765 0.610864 0.280949
0.936400 0.596002 0.229313
0.968353 0.578729 0.174716
0.995270 0.560143 0.103334
1.000000 0.546715 0.085481
1.000000 0.538903 0.146914
1.000000 0.531182 0.187350
1.000000 0.524102 0.220340
1.000000 0.518059 0.248325
1.000000 0.513054 0.273503
1.000000 0.509209 0.295995
1.000000 0.506676 0.316991
1.000000 0.505486 0.336919
1.000000 0.505516 0.355901
1.000000 0.506859 0.374273
0.273106 0.534844 0.410498
0.273228 0.534173 0.410132
0.275303 0.531884 0.409308
0.279484 0.527855 0.408057
0.286076 0.522087 0.406439
0.290623 0.525353 0.401801
0.297368 0.530602 0.395819
0.317235 0.537255 0.393713
0.358099 0.545098 0.400793
0.402564 0.555261 0.409918
0.451392 0.567926 0.421302
0.504570 0.582605 0.435004
0.561608 0.598627 0.450446
0.620600 0.614801 0.467109
0.682002 0.633326 0.496345
0.747524 0.649348 0.482918
0.810513 0.653956 0.428229
0.862455 0.648829 0.376593
0.905608 0.637385 0.327550
0.941283 0.622004 0.280034
0.971374 0.604303 0.232517
0.997131 0.585595 0.182071
1.000000 0.566339 0.119265
1.000000 0.556054 0.147036
1.000000 0.548333 0.189425
1.000000 0.541314 0.223056
1.000000 0.535027 0.251865
1.000000 0.529839 0.277653
1.000000 0.525933 0.301244
1.000000 0.523369 0.323186
1.000000 0.522179 0.344152
1.000000 0.522271 0.364111
0.289464 0.569787 0.436866
0.289738 0.569299 0.436530
0.291417 0.567224 0.435706
0.294804 0.563317 0.434333
0.300694 0.557610 0.432532
0.305913 0.557458 0.428717
0.311833 0.561730 0.423377
0.319860 0.568109 0.416968
0.355535 0.575128 0.421820
0.398138 0.584222 0.430274
0.443977 0.595483 0.440772
0.493935 0.608606 0.453315
0.546380 0.622553 0.467353
0.600916 0.636561 0.482734
0.655756 0.649775 0.498726
0.710689 0.664393 0.525566
0.767208 0.677180 0.522606
0.824277 0.680201 0.470039
0.871977 0.674006 0.420081
0.911528 0.662013 0.373083
0.944915 0.646509 0.328405
0.973571 0.628962 0.284794
0.998199 0.610132 0.240848
1.000000 0.590723 0.194034
1.000000 0.572045 0.148898
1.000000 0.564416 0.192355
1.000000 0.557305 0.227146
1.000000 0.551263 0.257267
1.000000 0.546319 0.284459
1.000000 0.542809 0.309667
1.000000 0.540764 0.333562
1.000000 0.540154 0.356298
0.306401 0.602502 0.461982
0.306950 0.602289 0.462013
0.308507 0.600885 0.461616
0.311925 0.598077 0.460822
0.317357 0.593866 0.459815
0.323583 0.591699 0.457740
0.329931 0.596429 0.453834
0.338048 0.602869 0.449012
0.358801 0.610468 0.447791
0.399512 0.618433 0.455604
0.442908 0.627497 0.464759
0.488777 0.637415 0.475257
0.536614 0.647791 0.487037
0.585718 0.658228 0.499825
0.634974 0.668421 0.513268
0.684291 0.678401 0.527550
0.733700 0.690059 0.551965
0.781888 0.700465 0.559228
0.833951 0.702541 0.509178
0.877928 0.696162 0.461646
0.915068 0.684565 0.417304
0.946990 0.669581 0.375158
0.974456 0.652491 0.334447
0.998352 0.633967 0.294163
1.000000 0.614588 0.253025
1.000000 0.594690 0.209323
1.000000 0.580194 0.199435
1.000000 0.573266 0.235294
1.000000 0.567407 0.266514
1.000000 0.562768 0.294591
1.000000 0.559411 0.320562
1.000000 0.557427 0.344915
0.325414 0.633967 0.487221
0.325780 0.633631 0.487129
0.327306 0.632532 0.486763
0.330175 0.630365 0.486213
0.335180 0.626886 0.485512
0.341741 0.622553 0.484657
0.347631 0.626734 0.481331
0.355322 0.632227 0.477089
0.365087 0.639063 0.471839
0.399603 0.645747 0.477058
0.440681 0.653223 0.485451
0.483680 0.661463 0.495064
0.528222 0.670161 0.505760
0.573663 0.678889 0.517357
0.619409 0.687678 0.529870
0.665187 0.696162 0.542901
0.710323 0.704616 0.556725
0.754971 0.714412 0.579461
0.795163 0.722744 0.596277
0.842344 0.724086 0.549340
0.882780 0.717891 0.504753
0.917784 0.706630 0.462226
0.947906 0.692226 0.422248
0.974273 0.675441 0.383429
0.997345 0.657221 0.345373
1.000000 0.638056 0.307500
1.000000 0.618280 0.268559
1.000000 0.598230 0.227634
1.000000 0.588678 0.245792
1.000000 0.583154 0.277897
1.000000 0.578820 0.307012
1.000000 0.575830 0.334112
0.351080 0.666255 0.515038
0.351598 0.666346 0.515282
0.374914 0.687007 0.535546
0.377386 0.685267 0.535088
0.380835 0.682399 0.534356
0.385779 0.678462 0.533501
0.391760 0.679133 0.530999
0.399420 0.683070 0.527031
0.408728 0.688289 0.522759
0.428412 0.694026 0.521691
0.466346 0.699428 0.529351
0.505730 0.705348 0.538048
0.545800 0.711299 0.547387
0.586419 0.717281 0.557366
0.627039 0.723171 0.567834
0.667292 0.728908 0.578759
0.706783 0.734463 0.590021
0.745510 0.740017 0.601831
0.782650 0.746334 0.620478
0.812741 0.751003 0.643122
0.853239 0.750851 0.600641
0.889189 0.744106 0.558740
0.921050 0.732540 0.517388
0.949035 0.717800 0.477943
0.973816 0.700649 0.439033
0.995727 0.682002 0.401068
1.000000 0.662440 0.363439
1.000000 0.642329 0.325933
1.000000 0.622034 0.288273
1.000000 0.603693 0.258915
1.000000 0.598444 0.291783
1.000000 0.594507 0.321721
0.387762 0.701534 0.548730
0.390234 0.703182 0.550530
0.393744 0.704433 0.552422
0.397864 0.704616 0.553857
0.402411 0.703639 0.554711
0.407355 0.700893 0.554620
0.412940 0.699275 0.553307
0.419562 0.702480 0.549920
0.428168 0.706630 0.546258
0.438361 0.711727 0.541985
0.468513 0.716396 0.546685
0.504265 0.721309 0.554528
0.541222 0.726253 0.562951
0.578637 0.731411 0.572137
0.616114 0.736538 0.581781
0.653498 0.741665 0.591974
0.690486 0.746761 0.602564
0.726833 0.751858 0.613886
0.762448 0.757198 0.626032
0.796170 0.763088 0.643549
0.820554 0.766842 0.672328
0.857115 0.767575 0.635615
0.890013 0.761929 0.598230
0.919646 0.751461 0.560143
0.946258 0.737453 0.521935
0.970153 0.721065 0.484627
0.991577 0.703120 0.447944
1.000000 0.684169 0.412055
1.000000 0.664698 0.376776
1.000000 0.644862 0.341833
1.000000 0.624933 0.306828
1.000000 0.612360 0.304479
0.415778 0.723964 0.572015
0.418402 0.725551 0.573938
0.422126 0.726802 0.575921
0.426123 0.727291 0.577630
0.430488 0.726650 0.578668
0.434760 0.724514 0.578790
0.439368 0.721218 0.578363
0.445563 0.723568 0.575738
0.453346 0.726986 0.572625
0.462531 0.731014 0.569177
0.478706 0.735500 0.568048
0.511101 0.739437 0.575189
0.544366 0.743557 0.582757
0.578515 0.747829 0.591089
0.612757 0.752193 0.599939
0.647028 0.756466 0.609277
0.681025 0.760769 0.619013
0.714382 0.765103 0.629267
0.747250 0.769619 0.640345
0.779110 0.774350 0.652186
0.809110 0.779416 0.668177
0.829557 0.782315 0.695491
0.860594 0.783322 0.668971
0.890318 0.778622 0.635798
0.917510 0.769314 0.601404
0.942443 0.756558 0.566247
0.965393 0.741146 0.530449
0.986267 0.724147 0.495399
1.000000 0.706081 0.461311
1.000000 0.687373 0.428168
1.000000 0.667872 0.394476
1.000000 0.647852 0.360266
0.448157 0.746059 0.597131
0.450813 0.747372 0.598871
0.454047 0.748409 0.600641
0.457771 0.748745 0.602197
0.461524 0.748226 0.603204
0.465187 0.746517 0.603388
0.468940 0.743801 0.603113
0.474189 0.743587 0.601678
0.481239 0.746426 0.599298
0.489570 0.749813 0.596551
0.499458 0.753750 0.593561
0.522942 0.757259 0.597070
0.552667 0.760555 0.603967
0.583124 0.764034 0.611414
0.614496 0.767636 0.619593
0.645777 0.771359 0.628351
0.677272 0.775326 0.637964
0.708522 0.779507 0.648371
0.739284 0.783932 0.659663
0.769131 0.788632 0.671809
0.797635 0.793484 0.684779
0.824002 0.798611 0.700404
0.840696 0.800931 0.724941
0.865629 0.802426 0.709133
0.891478 0.798947 0.681575
0.915496 0.791226 0.652461
0.937987 0.780270 0.622217
0.959045 0.766842 0.591333
0.978759 0.751522 0.560082
0.997192 0.734249 0.527428
1.000000 0.715816 0.494759
1.000000 0.696529 0.462104
0.499702 0.774350 0.633906
0.500816 0.774807 0.634638
0.502220 0.774807 0.635126
0.503593 0.774350 0.635340
0.505241 0.773251 0.635248
0.507164 0.771420 0.634882
0.509850 0.769070 0.634394
0.513451 0.766842 0.633783
0.519432 0.768978 0.631769
0.527062 0.771695 0.629816
0.535790 0.774868 0.627741
0.547845 0.778286 0.626642
0.573663 0.780789 0.632807
0.600427 0.783413 0.639521
0.627588 0.786130 0.646662
0.655146 0.788968 0.654505
0.682734 0.791897 0.662806
0.710140 0.794980 0.671778
0.737148 0.798276 0.681422
0.763455 0.801724 0.691737
0.788815 0.805386 0.702602
0.812772 0.809201 0.713954
0.834958 0.813260 0.726558
0.848356 0.814298 0.746334
0.868254 0.815457 0.737148
0.890745 0.812863 0.713771
0.912261 0.806577 0.688624
0.932708 0.797330 0.662257
0.952117 0.785519 0.634699
0.970611 0.771572 0.605982
0.988251 0.755734 0.575952
1.000000 0.738186 0.544488
0.535637 0.791562 0.658686
0.536614 0.791806 0.659297
0.537865 0.791836 0.659754
0.539208 0.791501 0.660060
0.540612 0.790707 0.660121
0.542290 0.789395 0.659937
0.544396 0.787594 0.659693
0.547143 0.785397 0.659480
0.552117 0.785824 0.658442
0.558831 0.787961 0.657008
0.566674 0.790524 0.655573
0.575677 0.793393 0.654078
0.592462 0.795895 0.656489
0.615961 0.798001 0.662715
0.640162 0.800259 0.669429
0.664576 0.802640 0.676722
0.689387 0.805142 0.684565
0.713893 0.807767 0.692958
0.738155 0.810605 0.701869
0.761746 0.813565 0.711330
0.784543 0.816709 0.721218
0.806119 0.820035 0.731350
0.826444 0.823453 0.741634
0.845335 0.827146 0.752377
0.854612 0.825101 0.763851
0.870451 0.826169 0.759823
0.890135 0.824338 0.740078
0.909056 0.819303 0.718685
0.927581 0.811398 0.695399
0.945403 0.801236 0.671046
0.962585 0.789029 0.645624
0.979156 0.774838 0.618555
0.581903 0.809964 0.689326
0.583551 0.810422 0.690272
0.584497 0.810422 0.690700
0.584924 0.809964 0.690578
0.585046 0.808988 0.690028
0.585138 0.807553 0.689174
0.585504 0.805753 0.688136
0.586389 0.803586 0.687160
0.588342 0.801785 0.686152
0.592828 0.803006 0.684260
0.598291 0.804471 0.682277
0.605097 0.806363 0.680568
0.612757 0.808530 0.678828
0.631678 0.809873 0.683284
0.651698 0.811276 0.688441
0.672358 0.812833 0.694148
0.693629 0.814572 0.700496
0.715328 0.816587 0.707698
0.737179 0.818997 0.715724
0.758907 0.821653 0.724514
0.779843 0.824552 0.733700
0.799893 0.827543 0.743038
0.818540 0.830503 0.752132
0.835782 0.833280 0.760800
0.851743 0.836027 0.769039
0.860899 0.835691 0.781369
0.873014 0.836149 0.780270
0.889952 0.834775 0.763424
0.906493 0.830686 0.745144
0.922820 0.824186 0.725338
0.938842 0.815579 0.704158
0.954437 0.805020 0.681727
0.612299 0.821042 0.709346
0.613733 0.821378 0.710201
0.614893 0.821500 0.710750
0.615625 0.821256 0.710964
0.616358 0.820676 0.710903
0.617212 0.819883 0.710780
0.618647 0.818784 0.710719
0.620508 0.817502 0.710719
0.623041 0.816007 0.710933
0.627466 0.816342 0.710628
0.633082 0.817807 0.709804
0.639551 0.819516 0.709071
0.646571 0.821347 0.708278
0.657130 0.822965 0.709224
0.673884 0.824063 0.713771
0.691249 0.825254 0.718685
0.709071 0.826627 0.724117
0.727382 0.828244 0.730190
0.745998 0.830167 0.737026
0.764553 0.832273 0.744350
0.782681 0.834562 0.752041
0.800076 0.836973 0.759854
0.816526 0.839445 0.767636
0.831968 0.841886 0.775235
0.846342 0.844297 0.782589
0.859648 0.846708 0.789731
0.867277 0.846250 0.799161
0.876341 0.846372 0.800534
0.890562 0.845640 0.787045
0.904417 0.842649 0.772580
0.918120 0.837675 0.756771
0.931640 0.830869 0.739651
0.649653 0.832975 0.733547
0.650385 0.833127 0.733944
0.650904 0.833097 0.734188
0.651423 0.832853 0.734249
0.651911 0.832395 0.734218
0.652583 0.831724 0.734096
0.653498 0.830900 0.734005
0.654963 0.829831 0.734005
0.656947 0.828672 0.734218
0.659846 0.827634 0.734554
0.664515 0.828824 0.733974
0.670100 0.830198 0.733608
0.676051 0.831724 0.733181
0.682155 0.833249 0.732540
0.693996 0.834287 0.735073
0.708156 0.835203 0.739101
0.723018 0.836240 0.743526
0.738308 0.837461 0.748501
0.754055 0.838956 0.754116
0.769986 0.840665 0.760250
0.785794 0.842588 0.766812
0.801083 0.844602 0.773495
0.815579 0.846647 0.780148
0.829404 0.848692 0.786679
0.842313 0.850736 0.792996
0.854429 0.852781 0.799130
0.865751 0.854826 0.805203
0.872099 0.854124 0.812284
0.878874 0.853880 0.815061
0.891020 0.853544 0.803952
0.902770 0.851377 0.792081
0.914336 0.847593 0.779355
0.679713 0.842252 0.753201
0.680293 0.842374 0.753506
0.680842 0.842344 0.753780
0.681483 0.842222 0.753994
0.682368 0.842008 0.754299
0.683833 0.841703 0.754757
0.686152 0.841459 0.755734
0.689204 0.841154 0.756985
0.692958 0.840848 0.758633
0.697353 0.840452 0.760494
0.702907 0.841154 0.762081
0.709163 0.842802 0.763210
0.715572 0.844480 0.764218
0.721828 0.846098 0.764981
0.728481 0.847654 0.765774
0.739925 0.848539 0.769406
0.751522 0.849454 0.773190
0.763455 0.850462 0.777218
0.775784 0.851682 0.781735
0.788296 0.853056 0.786618
0.800717 0.854551 0.791775
0.812894 0.856138 0.797055
0.824521 0.857725 0.802243
0.835599 0.859342 0.807370
0.846128 0.860929 0.812314
0.856077 0.862547 0.817197
0.865446 0.864195 0.821988
0.874266 0.865873 0.826719
0.878996 0.864897 0.831113
0.883268 0.864073 0.833982
0.892576 0.863798 0.825284
0.901610 0.862181 0.816068
0.719936 0.853544 0.779355
0.719997 0.853544 0.779385
0.720058 0.853452 0.779355
0.720211 0.853269 0.779324
0.720516 0.853025 0.779294
0.721004 0.852659 0.779324
0.721981 0.852232 0.779568
0.723354 0.851774 0.779934
0.725154 0.851225 0.780514
0.727443 0.850614 0.781247
0.730129 0.849943 0.782223
0.734035 0.850919 0.782406
0.738247 0.851987 0.782620
