lut_library_archive/removed_20260629/抖音热门推荐/抖音热门推荐04.cube
# 版权归凌孟成所有，侵权必究
# Created by Adobe Lightroom plugin Export LUT (1.24.0)
# www.johnrellis.com/lightroom/exportlut.htm
# Preset: INS风格-缇米设计04
# Color profile: C:\Program Files (x86)\Common Files\Adobe\Color\Profiles\Recommended\VideoHD.icc
LUT_3D_SIZE 32
DOMAIN_MIN 0.0 0.0 0.0
DOMAIN_MAX 1.0 1.0 1.0
0.187564 0.151980 0.136934
0.187564 0.151980 0.136934
0.193179 0.151522 0.136843
0.214450 0.150515 0.137209
0.235294 0.155673 0.140047
0.261601 0.160769 0.144442
0.293553 0.164004 0.147402
0.331823 0.165530 0.149691
0.375463 0.165347 0.151522
0.422980 0.163912 0.152865
0.474556 0.160922 0.153872
0.528405 0.156954 0.154391
0.583551 0.153475 0.154421
0.637385 0.153536 0.154452
0.686915 0.161074 0.154238
0.728176 0.179660 0.154177
0.773434 0.215763 0.155245
0.813260 0.256535 0.158907
0.847623 0.294804 0.165408
0.875883 0.332921 0.176516
0.896818 0.369635 0.192355
0.911437 0.404181 0.212894
0.922118 0.434516 0.237095
0.931304 0.461433 0.265171
0.939849 0.485481 0.296605
0.947478 0.507897 0.331243
0.953887 0.529992 0.369421
0.958373 0.552697 0.410803
0.960388 0.577295 0.453864
0.960052 0.603693 0.496132
0.957794 0.630488 0.536919
0.954101 0.656031 0.576928
0.187564 0.151980 0.136934
0.187564 0.151980 0.136934
0.194095 0.151553 0.137026
0.214023 0.152224 0.137209
0.234501 0.157198 0.140536
0.259892 0.162081 0.144533
0.290898 0.165194 0.147555
0.327794 0.166720 0.149752
0.370397 0.166751 0.151431
0.416876 0.165560 0.152682
0.467109 0.163333 0.153780
0.520134 0.159640 0.154299
0.574670 0.156252 0.154543
0.628656 0.155428 0.154421
0.678706 0.161685 0.154208
0.721431 0.178744 0.154299
0.766659 0.212253 0.155032
0.805447 0.250767 0.158053
0.839353 0.287480 0.163882
0.868284 0.323583 0.173220
0.890532 0.359258 0.186984
0.906340 0.392889 0.205203
0.917693 0.423133 0.226932
0.927123 0.450568 0.252445
0.935790 0.475166 0.281834
0.943938 0.497871 0.314641
0.951171 0.520165 0.351568
0.956756 0.543023 0.392676
0.960021 0.567468 0.436713
0.960510 0.594202 0.480995
0.958831 0.621820 0.523522
0.955444 0.648676 0.564843
0.187930 0.155093 0.137850
0.187961 0.155489 0.138033
0.191775 0.155276 0.139345
0.212009 0.160372 0.138308
0.232792 0.164248 0.142184
0.257755 0.168124 0.145632
0.287907 0.170687 0.148104
0.323857 0.172183 0.150149
0.365301 0.172793 0.151827
0.411017 0.171908 0.152987
0.460365 0.170260 0.153750
0.512993 0.167514 0.154299
0.567010 0.164920 0.154635
0.620691 0.164706 0.154604
0.671351 0.170108 0.154269
0.714961 0.185153 0.154269
0.760800 0.215946 0.154910
0.798581 0.252201 0.157626
0.832303 0.287114 0.162539
0.861845 0.322026 0.171328
0.885496 0.356603 0.184268
0.902312 0.389899 0.201663
0.914397 0.419898 0.222385
0.924193 0.447120 0.247013
0.932982 0.471626 0.275059
0.941436 0.494240 0.306920
0.949035 0.516564 0.343328
0.955230 0.539269 0.383978
0.959167 0.563470 0.428107
0.960174 0.590143 0.473304
0.958953 0.617853 0.516564
0.955840 0.645045 0.558282
0.194888 0.165469 0.143069
0.196567 0.165225 0.143496
0.201755 0.164767 0.145388
0.207950 0.168215 0.148959
0.230869 0.174777 0.147066
0.255222 0.178042 0.147677
0.284489 0.180575 0.149538
0.318975 0.182437 0.151186
0.359838 0.183413 0.152438
0.404547 0.183383 0.153384
0.453193 0.182742 0.154177
0.504509 0.181186 0.154574
0.558221 0.179995 0.154696
0.611383 0.180606 0.154726
0.661860 0.185550 0.154360
0.706386 0.198672 0.154208
0.752499 0.226230 0.154696
0.788296 0.257969 0.157015
0.820432 0.289250 0.161349
0.849851 0.320775 0.168551
0.874815 0.352270 0.179538
0.893797 0.383612 0.194766
0.907622 0.413519 0.213993
0.918730 0.441566 0.237797
0.928527 0.467506 0.265934
0.937804 0.491737 0.299168
0.946380 0.515251 0.337194
0.953368 0.538811 0.379492
0.957916 0.563439 0.424903
0.959289 0.590143 0.470802
0.958282 0.617334 0.513848
0.955566 0.643641 0.554467
0.205539 0.177218 0.150454
0.206760 0.176883 0.150698
0.211063 0.175570 0.152010
0.217227 0.177401 0.154574
0.226535 0.183352 0.160525
0.253269 0.190616 0.155825
0.277928 0.192508 0.151614
0.310704 0.195132 0.152773
0.349584 0.197147 0.153628
0.392859 0.198428 0.154299
0.440131 0.198947 0.154726
0.490822 0.199008 0.155093
0.543816 0.199283 0.155276
0.597345 0.201114 0.155032
0.649073 0.206058 0.154574
0.698360 0.219486 0.154391
0.743435 0.243473 0.154696
0.779171 0.271916 0.156527
0.811215 0.301183 0.160616
0.841154 0.330327 0.167605
0.867094 0.359777 0.178225
0.887388 0.389075 0.192844
0.902434 0.417639 0.211673
0.914458 0.445075 0.235233
0.924834 0.470588 0.263828
0.934600 0.494728 0.297307
0.943603 0.517784 0.335393
0.951049 0.540795 0.377569
0.955993 0.564813 0.422583
0.957794 0.590784 0.467964
0.957214 0.617365 0.510704
0.954833 0.643091 0.551110
0.214359 0.188998 0.157046
0.215061 0.188754 0.157259
0.218692 0.187320 0.158175
0.224643 0.186282 0.160098
0.234714 0.191867 0.165194
0.249943 0.203372 0.175906
0.284062 0.212314 0.166812
0.307988 0.211185 0.156741
0.341375 0.213321 0.155459
0.383886 0.216251 0.155703
0.430396 0.218448 0.155917
0.480446 0.220401 0.155856
0.533257 0.222477 0.155978
0.586938 0.225834 0.155673
0.639216 0.231937 0.155276
0.693141 0.246586 0.154696
0.737148 0.269017 0.154788
0.773007 0.295232 0.156893
0.805325 0.322393 0.161074
0.835569 0.349462 0.168429
0.862028 0.376959 0.179568
0.883055 0.404425 0.194858
0.920836 0.488380 0.273960
0.930632 0.509728 0.307866
0.939330 0.529747 0.344396
0.946288 0.549584 0.382971
0.951141 0.570062 0.422919
0.953552 0.591882 0.462409
0.953948 0.614343 0.500023
0.952880 0.636591 0.535912
0.950713 0.657374 0.570489
0.947845 0.675624 0.604181
0.224155 0.205997 0.165957
0.225223 0.205447 0.166018
0.228397 0.203952 0.166751
0.234623 0.200748 0.168368
0.244663 0.204776 0.172946
0.263249 0.217197 0.183993
0.294011 0.243137 0.207797
0.342840 0.255009 0.187839
0.366125 0.247135 0.167239
0.386755 0.241032 0.158236
0.435279 0.245670 0.157961
0.487495 0.250004 0.157717
0.541466 0.254429 0.157290
0.595453 0.260044 0.156466
0.652033 0.270970 0.155550
0.706600 0.291539 0.155093
0.748165 0.316197 0.156008
0.782925 0.341833 0.159762
0.815732 0.367803 0.166598
0.846372 0.394537 0.177890
0.872435 0.422797 0.195224
0.892180 0.451575 0.219455
0.907225 0.479164 0.250706
0.919768 0.504662 0.287938
0.930938 0.527703 0.328466
0.939849 0.548791 0.370001
0.946227 0.569146 0.410956
0.949889 0.590295 0.451392
0.951324 0.612177 0.489662
0.951110 0.633631 0.525566
0.949615 0.654200 0.560296
0.947326 0.672602 0.594293
0.232822 0.221653 0.174014
0.233463 0.221439 0.174197
0.236454 0.219608 0.174624
0.242252 0.216129 0.175753
0.250919 0.213870 0.178714
0.268803 0.227146 0.189029
0.297917 0.249088 0.208377
0.345647 0.293034 0.249699
0.403052 0.305913 0.219486
0.425055 0.290043 0.183932
0.426703 0.269902 0.162875
0.470222 0.272953 0.160372
0.522942 0.279210 0.159640
0.578363 0.286900 0.158480
0.639765 0.301183 0.157198
0.691310 0.318791 0.156374
0.732052 0.339971 0.156954
0.766415 0.362432 0.160159
0.799008 0.385687 0.166476
0.830564 0.409735 0.177096
0.858671 0.435035 0.193210
0.880980 0.460975 0.216434
0.897765 0.486397 0.246433
0.911284 0.510338 0.282536
0.923156 0.532372 0.322423
0.933074 0.552544 0.363226
0.940520 0.572259 0.404303
0.945312 0.592645 0.444800
0.947723 0.613764 0.483619
0.948272 0.634668 0.519982
0.947509 0.654627 0.554986
0.945800 0.672694 0.589227
0.242222 0.240787 0.183719
0.243076 0.240269 0.183810
0.245823 0.238437 0.184237
0.251347 0.234775 0.185092
0.259190 0.229129 0.186831
0.274113 0.237827 0.194797
0.302983 0.259892 0.213565
0.346197 0.295781 0.246433
0.411658 0.359411 0.310063
0.474952 0.372045 0.269139
0.495613 0.347936 0.213565
0.493385 0.317906 0.176944
0.508385 0.304448 0.162844
0.568811 0.317205 0.161410
0.626520 0.331090 0.159945
0.676600 0.347326 0.158663
0.717372 0.366339 0.159030
0.751949 0.386877 0.162020
0.784451 0.408270 0.168185
0.816648 0.430243 0.178866
0.846250 0.452705 0.195071
0.870420 0.475746 0.218082
0.888701 0.498695 0.247807
0.903136 0.520806 0.283238
0.915526 0.541436 0.322271
0.926177 0.560510 0.362676
0.934447 0.579431 0.403601
0.940093 0.599054 0.444007
0.943297 0.619318 0.482673
0.944610 0.639124 0.518853
0.944518 0.658076 0.553643
0.943511 0.675105 0.587701
0.252293 0.263188 0.195193
0.252934 0.262455 0.195193
0.255680 0.260441 0.195377
0.261234 0.256229 0.196078
0.268589 0.250126 0.197299
0.279973 0.247349 0.201419
0.306065 0.270115 0.218540
0.347662 0.304173 0.248844
0.404730 0.354253 0.298070
0.484993 0.435248 0.386664
0.547448 0.446113 0.336980
0.571649 0.420111 0.262333
0.572015 0.384009 0.204929
0.553002 0.343053 0.166506
0.606806 0.355596 0.163790
0.658442 0.372290 0.162173
0.701472 0.391455 0.162325
0.737789 0.412177 0.165286
0.771298 0.433234 0.171969
0.804349 0.453559 0.183261
0.834592 0.473182 0.199863
0.859617 0.492287 0.222171
0.878599 0.511376 0.249668
0.893431 0.530297 0.281895
0.906035 0.548425 0.317815
0.917235 0.565972 0.356085
0.926604 0.583886 0.396094
0.933593 0.602838 0.436866
0.938109 0.622614 0.476661
0.940459 0.642237 0.514305
0.941161 0.660945 0.550378
0.940826 0.677699 0.585657
0.261967 0.286107 0.207431
0.262608 0.285649 0.207523
0.265324 0.283665 0.207736
0.270695 0.279393 0.208072
0.278325 0.273075 0.208988
0.287968 0.264439 0.210636
0.308476 0.279088 0.223484
0.347906 0.312657 0.252171
0.403784 0.360845 0.298283
0.476753 0.428016 0.370672
0.566278 0.524865 0.485695
0.617853 0.535149 0.440803
0.638361 0.504112 0.341955
0.640833 0.461250 0.254673
0.626184 0.411109 0.190127
0.639979 0.395605 0.167117
0.684688 0.415015 0.166934
0.722133 0.435187 0.169650
0.756008 0.455207 0.176486
0.789395 0.474006 0.188052
0.820981 0.491524 0.204776
0.847807 0.508568 0.226963
0.868498 0.526055 0.254429
0.884489 0.543420 0.286442
0.897642 0.560601 0.322179
0.909300 0.577478 0.360204
0.919280 0.594781 0.399908
0.927001 0.612940 0.440375
0.932341 0.631586 0.479622
0.935515 0.649958 0.516960
0.937072 0.667231 0.552789
0.937438 0.682704 0.587884
0.273259 0.312902 0.222324
0.273777 0.312413 0.222293
0.276219 0.310338 0.222324
0.281559 0.306157 0.222721
0.289250 0.299626 0.223148
0.298711 0.290593 0.224216
0.312627 0.287022 0.229404
0.349126 0.322820 0.257237
0.406348 0.373388 0.304570
0.481239 0.440528 0.376257
0.560418 0.518486 0.470314
0.625452 0.598352 0.570855
0.697932 0.646632 0.588251
0.712734 0.613977 0.503197
0.718532 0.573632 0.390234
0.713436 0.528069 0.272831
0.703914 0.481331 0.184878
0.740536 0.500206 0.194461
0.776516 0.516533 0.209354
0.809842 0.531304 0.229129
0.837613 0.545495 0.253788
0.858213 0.559838 0.282475
0.874022 0.574273 0.314153
0.887022 0.589166 0.349004
0.898589 0.603967 0.385199
0.908598 0.618555 0.421515
0.916686 0.632898 0.456397
0.922850 0.646998 0.489296
0.927245 0.660761 0.521019
0.930205 0.673945 0.552209
0.931945 0.686305 0.583246
0.932464 0.698207 0.614343
0.289555 0.355535 0.247257
0.290166 0.354986 0.247166
0.293065 0.352483 0.247044
0.298650 0.347753 0.247013
0.306706 0.340581 0.247013
0.317113 0.330388 0.247379
0.328649 0.317632 0.248356
0.359197 0.341314 0.270451
0.416114 0.394720 0.319310
0.493416 0.463844 0.394202
0.574212 0.540642 0.489418
0.633661 0.608820 0.577142
0.693538 0.679103 0.659785
0.721370 0.681575 0.634241
0.735988 0.654871 0.564080
0.744320 0.617395 0.473060
0.744717 0.576043 0.355627
0.735622 0.533135 0.241123
0.753567 0.526696 0.212497
0.788357 0.541070 0.230961
0.818967 0.554498 0.253788
0.842924 0.568353 0.281102
0.860868 0.582452 0.311925
0.875059 0.597223 0.345678
0.887388 0.611902 0.381537
0.898405 0.626307 0.418097
0.907774 0.640406 0.454017
0.915343 0.654078 0.487922
0.921019 0.667292 0.520592
0.925078 0.679744 0.552667
0.927703 0.691371 0.584283
0.928862 0.702724 0.615747
0.303960 0.392432 0.270573
0.304387 0.391608 0.270298
0.307164 0.388556 0.269749
0.312200 0.382910 0.268681
0.319707 0.374456 0.267582
0.329137 0.363348 0.266545
0.340337 0.349371 0.265904
0.356176 0.342107 0.271031
0.405035 0.392828 0.313725
0.476753 0.457130 0.381506
0.557061 0.529870 0.470130
0.619867 0.595697 0.556573
0.673671 0.656641 0.630518
0.722408 0.710292 0.697078
0.740902 0.710780 0.677180
0.752041 0.689815 0.616815
0.761990 0.657740 0.539696
0.768521 0.618524 0.441688
0.768154 0.579431 0.324071
0.768154 0.551476 0.235416
0.801114 0.565118 0.257755
0.828275 0.578912 0.284642
0.848386 0.593317 0.315190
0.863798 0.608301 0.349035
0.876707 0.623041 0.384985
0.888548 0.637263 0.421698
0.898985 0.650660 0.457496
0.907713 0.663447 0.491432
0.914672 0.675471 0.524132
0.919707 0.686824 0.556298
0.923095 0.697688 0.588190
0.924834 0.708492 0.619715
0.317754 0.427497 0.294408
0.318334 0.426642 0.294255
0.320439 0.423621 0.293370
0.325139 0.417548 0.291600
0.332219 0.408515 0.289525
0.341283 0.396704 0.287358
0.351934 0.382238 0.285527
0.363378 0.365362 0.284245
0.397314 0.389807 0.310277
0.461372 0.451423 0.370855
0.539544 0.520836 0.453254
0.606012 0.585077 0.538842
0.659419 0.643519 0.611688
0.707454 0.694026 0.673304
0.742458 0.731380 0.724666
0.755489 0.730556 0.708461
0.763180 0.713771 0.659571
0.771908 0.690455 0.594293
0.781704 0.658473 0.514549
0.790127 0.621881 0.413611
0.792905 0.588006 0.300511
0.813809 0.590265 0.290867
0.835966 0.604944 0.321202
0.852537 0.620050 0.354742
0.866117 0.634730 0.390417
0.878630 0.648615 0.427283
0.890135 0.661646 0.463355
0.900175 0.673732 0.498054
0.908354 0.684993 0.531823
0.914336 0.695766 0.565179
0.918273 0.706386 0.598444
0.920287 0.717220 0.630701
0.331151 0.459876 0.318517
0.331884 0.459358 0.318547
0.334234 0.456825 0.317754
0.338720 0.451759 0.316289
0.345830 0.443763 0.314214
0.355047 0.432990 0.311864
0.365942 0.419715 0.309911
0.378027 0.403540 0.308080
0.393652 0.390661 0.310674
0.451270 0.450599 0.366155
0.526238 0.517266 0.443641
0.593744 0.578180 0.525536
0.645960 0.633173 0.595880
0.694789 0.682704 0.656306
0.729671 0.717586 0.703853
0.756527 0.746822 0.743008
0.766995 0.745602 0.729824
0.772274 0.730434 0.691066
0.778988 0.712276 0.638209
0.788022 0.689418 0.571252
0.799008 0.661189 0.492714
0.810636 0.631373 0.395209
0.823636 0.616876 0.329076
0.841642 0.632837 0.363806
0.856016 0.647974 0.400763
0.869383 0.661860 0.438514
0.881956 0.674220 0.474891
0.893248 0.685145 0.509453
0.902342 0.695155 0.542870
0.908965 0.704799 0.575463
0.913359 0.714504 0.607477
0.915679 0.724758 0.638117
0.346197 0.491524 0.344488
0.346838 0.490822 0.344305
0.348760 0.488716 0.343511
0.353155 0.484138 0.341924
0.359869 0.477058 0.339849
0.368566 0.467323 0.337224
0.379187 0.454780 0.334539
0.391150 0.439307 0.332036
0.403449 0.420752 0.329564
0.439734 0.443458 0.358587
0.507164 0.507774 0.427619
0.577325 0.567712 0.507713
0.630304 0.620935 0.577935
0.679683 0.670436 0.638544
0.719417 0.708278 0.688655
0.745632 0.734493 0.726436
0.769070 0.761532 0.757595
0.778012 0.760616 0.747311
0.782132 0.745907 0.716548
0.787045 0.729793 0.675319
0.794369 0.712856 0.622156
0.804410 0.693477 0.557977
0.816861 0.671962 0.484382
0.831144 0.650782 0.394934
0.846067 0.660670 0.411902
0.860227 0.674281 0.450172
0.874113 0.685756 0.486702
0.886503 0.695766 0.521416
0.896452 0.705013 0.554894
0.903624 0.714199 0.587457
0.908263 0.723751 0.619043
0.910613 0.734127 0.648768
0.366949 0.525902 0.376318
0.367529 0.525872 0.376532
0.391577 0.550286 0.404425
0.394934 0.546593 0.402686
0.400366 0.540429 0.399786
0.407721 0.531640 0.396185
0.417029 0.519982 0.391913
0.427893 0.504967 0.387427
0.440192 0.486885 0.383154
0.452949 0.465736 0.379644
0.518608 0.528008 0.448219
0.583124 0.583154 0.522423
0.633906 0.633112 0.587732
0.682643 0.678798 0.644739
0.720851 0.712276 0.691279
0.746334 0.736294 0.726650
0.766690 0.758450 0.753109
0.786313 0.782162 0.775448
0.792538 0.780636 0.767269
0.795285 0.766934 0.743099
0.799496 0.751217 0.712398
0.805722 0.735958 0.673915
0.814298 0.721492 0.625055
0.825254 0.707301 0.567681
0.838437 0.693294 0.502556
0.853422 0.689723 0.472724
0.867826 0.698695 0.505455
0.880613 0.706905 0.537255
0.890867 0.715084 0.568750
0.898222 0.723751 0.600153
0.902922 0.733303 0.630579
0.905333 0.743771 0.658900
0.401038 0.565026 0.420203
0.403876 0.566857 0.422766
0.408057 0.567773 0.425086
0.413458 0.566705 0.426093
0.419562 0.563409 0.425666
0.426307 0.556939 0.423133
0.434180 0.547509 0.419135
0.443214 0.534936 0.414405
0.453986 0.519432 0.409613
0.465797 0.500267 0.405097
0.501274 0.515953 0.433143
0.563348 0.570336 0.501793
0.615717 0.618494 0.567193
0.663264 0.664179 0.624262
0.705928 0.700862 0.673030
0.735470 0.726619 0.711666
0.757137 0.748165 0.740993
0.775875 0.769497 0.763363
0.793668 0.790738 0.782589
0.799344 0.790188 0.776547
0.801816 0.778836 0.756710
0.806149 0.765713 0.732479
0.812467 0.752010 0.703273
0.821042 0.738766 0.666835
0.831815 0.726802 0.622370
0.844846 0.716335 0.571771
0.859953 0.707607 0.517327
0.873686 0.714961 0.546014
0.884672 0.722988 0.577264
0.892454 0.731807 0.608362
0.897368 0.741726 0.638392
0.900053 0.752285 0.666194
0.427863 0.588434 0.450385
0.431098 0.590265 0.453223
0.435462 0.591333 0.455787
0.440589 0.591028 0.457343
0.446204 0.588525 0.457313
0.452216 0.583368 0.455421
0.458442 0.575799 0.451850
0.465980 0.565698 0.447456
0.474922 0.553094 0.442817
0.484749 0.537530 0.437903
0.495735 0.518456 0.433295
0.551873 0.563653 0.492012
0.602075 0.610071 0.553216
0.648341 0.654536 0.609674
0.692744 0.692470 0.659083
0.725887 0.719539 0.699428
0.749142 0.740780 0.730678
0.768490 0.761410 0.754604
0.785428 0.780880 0.773281
0.800900 0.798795 0.789456
0.805814 0.798764 0.785000
0.807919 0.789761 0.768765
0.811978 0.779171 0.749264
0.818112 0.767697 0.726406
0.826413 0.756069 0.699336
0.837095 0.745266 0.667048
0.850126 0.736080 0.629664
0.865202 0.729213 0.589410
0.878508 0.731350 0.587060
0.886534 0.740566 0.617670
0.891691 0.750668 0.646998
0.894743 0.760739 0.673274
0.459113 0.612482 0.483131
0.462104 0.614160 0.485634
0.466011 0.615167 0.487953
0.470466 0.614832 0.489479
0.475441 0.612848 0.489601
0.480446 0.608545 0.488106
0.485756 0.602319 0.485206
0.492226 0.594049 0.481636
0.499733 0.583978 0.477729
0.508324 0.571466 0.473457
0.517815 0.556359 0.469215
0.544152 0.561242 0.487709
0.592401 0.605554 0.544884
0.636011 0.648035 0.598627
0.680842 0.686030 0.647852
0.717067 0.714107 0.689174
0.742153 0.735500 0.722042
0.762448 0.755764 0.747616
0.780453 0.775631 0.767605
0.795651 0.792782 0.783413
0.808957 0.807218 0.797116
0.813443 0.807919 0.794308
0.815183 0.801480 0.781796
0.818906 0.794156 0.767147
0.824582 0.786252 0.750576
0.832395 0.778134 0.731899
0.842283 0.770535 0.711238
0.854215 0.764248 0.688930
0.867674 0.760037 0.666041
0.881132 0.759152 0.648615
0.885588 0.768734 0.674372
0.888457 0.777371 0.696620
0.504631 0.650538 0.533013
0.505852 0.651179 0.533959
0.507378 0.651026 0.534478
0.509514 0.649592 0.534112
0.512322 0.646723 0.532952
0.515709 0.642298 0.530846
0.520226 0.636469 0.528252
0.525750 0.629267 0.525292
0.532403 0.620630 0.522087
0.540276 0.610681 0.519097
0.548882 0.598932 0.516136
0.558282 0.584894 0.513176
0.593896 0.612604 0.552331
0.633143 0.652766 0.600336
0.676814 0.687831 0.646784
0.713191 0.714107 0.686519
0.738552 0.734371 0.718441
0.758511 0.753323 0.743465
0.776425 0.772213 0.763363
0.791897 0.788998 0.779202
0.804379 0.802335 0.791897
0.815213 0.813474 0.803128
0.818936 0.814145 0.800992
0.820157 0.808774 0.790372
0.823239 0.803067 0.778470
0.828153 0.797299 0.765408
0.835050 0.791653 0.751156
0.843870 0.786709 0.736294
0.854246 0.783017 0.721492
0.865660 0.780911 0.707362
0.877562 0.780026 0.693935
0.883635 0.785122 0.703670
0.529076 0.677089 0.564721
0.530053 0.677577 0.565576
0.531426 0.677424 0.566033
0.533288 0.676417 0.565911
0.535821 0.674159 0.565148
0.538964 0.670619 0.563684
0.543023 0.665766 0.561700
0.548180 0.659693 0.559442
0.554528 0.652461 0.557214
0.561975 0.643885 0.555138
0.570397 0.633936 0.553124
0.579553 0.622248 0.551202
0.594415 0.618677 0.558465
0.631434 0.656123 0.602655
0.671839 0.689021 0.644984
0.708522 0.713802 0.683345
0.734554 0.733181 0.714687
0.754482 0.751186 0.739620
0.772457 0.769406 0.759518
0.788327 0.785916 0.775540
0.801358 0.799466 0.788510
0.811704 0.809903 0.799008
0.820737 0.818814 0.808530
0.823941 0.819669 0.807156
0.824063 0.814145 0.796872
0.826749 0.809689 0.787106
0.831266 0.805509 0.776852
0.837461 0.801755 0.766171
0.845274 0.798795 0.755428
0.854307 0.796689 0.744991
0.864134 0.795773 0.735683
0.874052 0.795804 0.727901
0.562921 0.708919 0.606714
0.564630 0.709712 0.608148
0.565789 0.709682 0.608576
0.566766 0.708461 0.607904
0.567803 0.706172 0.606256
0.569146 0.702815 0.603906
0.571191 0.698299 0.601007
0.574212 0.692714 0.597833
0.578424 0.686000 0.594629
0.583917 0.678248 0.591699
0.590387 0.669032 0.588800
0.598199 0.658503 0.586419
0.606714 0.646204 0.584222
0.630854 0.660456 0.606531
0.667018 0.689906 0.643397
0.702174 0.712551 0.678553
0.728511 0.730556 0.708736
0.748592 0.747280 0.733425
0.766445 0.764614 0.753597
0.782773 0.781125 0.770260
0.796628 0.795193 0.783780
0.807797 0.806210 0.794766
0.816617 0.814725 0.803830
0.824216 0.822171 0.812070
0.827054 0.823026 0.811124
0.828000 0.819333 0.803220
0.830472 0.815824 0.795163
0.834531 0.812741 0.787106
0.840024 0.810086 0.778897
0.846921 0.808164 0.770962
0.854765 0.807156 0.763912
0.863035 0.807004 0.758206
0.589532 0.725429 0.633539
0.591241 0.726040 0.634852
0.592706 0.726162 0.635584
0.593957 0.725551 0.635523
0.595270 0.724269 0.634821
0.597070 0.722347 0.633692
0.599481 0.719844 0.632441
0.602838 0.716670 0.631067
0.607172 0.712825 0.629816
0.612573 0.708217 0.628687
0.618677 0.702480 0.627466
0.625849 0.695521 0.626429
0.633661 0.687007 0.625483
0.642115 0.676570 0.624567
0.675471 0.700465 0.656336
0.705226 0.719081 0.685542
0.729274 0.734707 0.712337
0.748135 0.749996 0.734737
0.765286 0.766049 0.753536
0.781186 0.781308 0.769253
0.794949 0.794583 0.782315
0.806180 0.805142 0.793057
0.815152 0.813504 0.801968
0.822324 0.820279 0.809598
0.828458 0.826291 0.816556
0.830991 0.827237 0.816190
0.832029 0.824399 0.809689
0.834348 0.821805 0.803159
0.838102 0.819760 0.797086
0.843076 0.818296 0.791470
0.849027 0.817472 0.786465
0.855497 0.817258 0.782406
0.629175 0.742855 0.667292
0.630121 0.743099 0.667933
0.630915 0.743008 0.668147
0.631769 0.742428 0.667933
0.632715 0.741451 0.667353
0.634058 0.739956 0.666468
0.635889 0.738064 0.665461
0.638392 0.735714 0.664393
0.641749 0.732967 0.663447
0.646021 0.729732 0.662654
0.650996 0.725795 0.661921
0.656886 0.721309 0.661524
0.663294 0.715938 0.661158
0.670161 0.709346 0.660853
0.686000 0.711238 0.670954
0.710750 0.726192 0.695094
0.730892 0.739895 0.717342
0.748440 0.753933 0.737331
0.764797 0.768551 0.754421
0.780148 0.782498 0.769070
0.793606 0.794675 0.781430
0.804746 0.804593 0.791745
0.813687 0.812558 0.800381
0.820920 0.819120 0.807828
0.826688 0.824491 0.814176
0.831601 0.829343 0.820035
0.833768 0.830320 0.819974
0.834745 0.828000 0.814420
0.836973 0.826017 0.809049
0.840513 0.824765 0.804410
0.844968 0.824033 0.800443
0.850034 0.823880 0.797330
0.661219 0.757961 0.694331
0.661799 0.758175 0.694728
0.662593 0.758145 0.695064
0.663600 0.757839 0.695216
0.665064 0.757259 0.695369
0.667231 0.756497 0.695644
0.670649 0.755795 0.696590
0.674952 0.754971 0.697932
0.680079 0.754086 0.699641
0.685908 0.752956 0.701747
0.692378 0.751583 0.704097
0.699062 0.749813 0.706538
0.705928 0.747463 0.708980
0.712673 0.744411 0.711177
0.719417 0.740536 0.713161
0.732692 0.748318 0.725948
0.746334 0.760311 0.740475
0.761135 0.772335 0.754574
0.775723 0.783871 0.767391
0.788998 0.794308 0.778714
0.800381 0.803189 0.788479
0.809659 0.810483 0.796811
0.817258 0.816617 0.803952
0.823453 0.821866 0.810239
0.828519 0.826322 0.815793
0.832547 0.830198 0.820676
0.836027 0.833707 0.825101
0.837705 0.834531 0.825254
0.838621 0.832944 0.821103
0.840574 0.831724 0.817166
0.843565 0.831174 0.814115
0.847105 0.831083 0.811795
0.696895 0.785183 0.730770
0.696986 0.785153 0.730770
0.697200 0.784909 0.730709
0.697658 0.784451 0.730556
0.698421 0.783719 0.730404
0.699641 0.782773 0.730282
0.701411 0.781674 0.730343
0.703761 0.780423 0.730556
0.706691 0.778988 0.731014
0.710292 0.777371 0.731716
0.714412 0.775479 0.732631
0.719142 0.773342 0.733791
0.724300 0.770840 0.735134
