lut_library_archive/removed_20260629/抖音热门推荐/抖音热门推荐06.cube
# 版权归凌孟成所有，侵权必究
# Created by Adobe Lightroom plugin Export LUT (1.24.0)
# www.johnrellis.com/lightroom/exportlut.htm
# Preset: INS风格-缇米设计06
# Color profile: C:\Program Files (x86)\Common Files\Adobe\Color\Profiles\Recommended\VideoHD.icc
LUT_3D_SIZE 32
DOMAIN_MIN 0.0 0.0 0.0
DOMAIN_MAX 1.0 1.0 1.0
0.194888 0.137697 0.111269
0.194888 0.137697 0.111269
0.199283 0.137118 0.111513
0.213107 0.137179 0.111177
0.233219 0.140597 0.112703
0.265232 0.143801 0.114534
0.308202 0.145144 0.115511
0.361913 0.143374 0.115724
0.426825 0.137118 0.114900
0.499763 0.125338 0.113497
0.578363 0.105287 0.111299
0.656703 0.073426 0.107942
0.731075 0.032349 0.104494
0.798550 0.055177 0.101869
0.855650 0.109834 0.102724
0.903014 0.154543 0.109560
0.942565 0.199527 0.123049
0.983642 0.253971 0.149203
1.000000 0.303563 0.182254
1.000000 0.349950 0.220523
1.000000 0.392401 0.262089
1.000000 0.431769 0.304906
1.000000 0.467842 0.347814
1.000000 0.502129 0.390906
1.000000 0.535027 0.433753
1.000000 0.566979 0.476020
1.000000 0.598566 0.517906
1.000000 0.629267 0.558556
1.000000 0.658747 0.597314
1.000000 0.687282 0.634638
1.000000 0.714900 0.670558
1.000000 0.741726 0.705226
0.194888 0.137697 0.111269
0.194888 0.137697 0.111269
0.199924 0.137209 0.111452
0.213046 0.138613 0.111238
0.232761 0.142061 0.112764
0.263890 0.145480 0.114290
0.305699 0.146792 0.115389
0.357733 0.145510 0.115724
0.421363 0.140291 0.114992
0.493141 0.129824 0.113497
0.570245 0.113344 0.111177
0.648371 0.091035 0.107820
0.722866 0.059815 0.104372
0.791226 0.074372 0.101778
0.849058 0.113802 0.102113
0.897581 0.155398 0.108461
0.938018 0.198886 0.121157
0.978973 0.250614 0.145876
1.000000 0.298833 0.177432
1.000000 0.343816 0.214115
1.000000 0.385412 0.253605
1.000000 0.423896 0.295201
1.000000 0.459541 0.336858
1.000000 0.493507 0.379004
1.000000 0.526177 0.421332
1.000000 0.558099 0.463752
1.000000 0.589776 0.505852
1.000000 0.621241 0.547631
1.000000 0.651423 0.587518
1.000000 0.680659 0.625788
1.000000 0.709010 0.662684
1.000000 0.736385 0.698177
0.194461 0.141665 0.111818
0.194614 0.141848 0.111788
0.199191 0.142184 0.111513
0.212436 0.145663 0.111177
0.232029 0.148928 0.112703
0.261967 0.152468 0.113985
0.302281 0.154635 0.114717
0.352605 0.154513 0.115023
0.414038 0.151858 0.114260
0.484504 0.144320 0.112825
0.560632 0.132631 0.110292
0.638758 0.117952 0.106569
0.713405 0.108217 0.103151
0.782132 0.113680 0.099886
0.841398 0.136751 0.099733
0.890806 0.170382 0.106020
0.932494 0.208896 0.118776
0.973632 0.256535 0.142763
1.000000 0.301457 0.173251
1.000000 0.344457 0.209018
1.000000 0.384894 0.248234
1.000000 0.422736 0.289403
1.000000 0.457649 0.330663
1.000000 0.491005 0.372595
1.000000 0.523278 0.414862
1.000000 0.554772 0.457069
1.000000 0.586450 0.499550
1.000000 0.617884 0.541588
1.000000 0.648280 0.581964
1.000000 0.677760 0.620905
1.000000 0.706203 0.658289
1.000000 0.733730 0.694087
0.197330 0.152224 0.114015
0.197940 0.152316 0.114260
0.201450 0.151919 0.115084
0.211368 0.154849 0.115267
0.231235 0.160159 0.114412
0.259190 0.164950 0.113588
0.297368 0.168124 0.113954
0.344671 0.170291 0.113497
0.404150 0.170077 0.112642
0.472450 0.167025 0.110964
0.547662 0.161257 0.108186
0.624659 0.153933 0.104372
0.699947 0.150515 0.100099
0.769162 0.156069 0.096559
0.829679 0.171939 0.096010
0.880430 0.197635 0.101472
0.924407 0.229831 0.115053
0.964538 0.269566 0.137697
0.996429 0.308934 0.166720
1.000000 0.347417 0.200778
1.000000 0.384497 0.238285
1.000000 0.420325 0.278202
1.000000 0.454322 0.319219
1.000000 0.487495 0.361700
1.000000 0.520134 0.405127
1.000000 0.552605 0.449500
1.000000 0.585107 0.493843
1.000000 0.617243 0.537591
1.000000 0.648096 0.579187
1.000000 0.677607 0.618585
1.000000 0.705776 0.655940
1.000000 0.732662 0.691249
0.201694 0.167239 0.117830
0.202518 0.166934 0.117861
0.205722 0.166079 0.118502
0.211185 0.167208 0.119173
0.228641 0.173587 0.118959
0.257572 0.180056 0.116732
0.288457 0.185183 0.112459
0.332006 0.189212 0.111879
0.387304 0.192172 0.110536
0.452552 0.193698 0.108248
0.525475 0.192782 0.104952
0.602167 0.191653 0.100465
0.677943 0.192020 0.095827
0.749111 0.198184 0.091493
0.812497 0.211490 0.089876
0.865660 0.231876 0.095216
0.913390 0.258762 0.109041
0.954162 0.291783 0.132204
0.987121 0.325872 0.161135
1.000000 0.360113 0.195468
1.000000 0.394202 0.232670
1.000000 0.427222 0.272221
1.000000 0.459327 0.313451
1.000000 0.491341 0.356176
1.000000 0.523186 0.400427
1.000000 0.555200 0.445441
1.000000 0.586938 0.490211
1.000000 0.618524 0.534234
1.000000 0.648859 0.576043
1.000000 0.677852 0.615534
1.000000 0.705623 0.652949
1.000000 0.732113 0.688319
0.204227 0.185794 0.121706
0.204685 0.185733 0.121706
0.207919 0.184512 0.122133
0.213352 0.182345 0.123262
0.223575 0.187839 0.123140
0.252262 0.199069 0.122713
0.291661 0.207370 0.119142
0.326909 0.211765 0.112001
0.369879 0.215610 0.107759
0.432197 0.220890 0.104799
0.503075 0.224704 0.100954
0.578790 0.228275 0.095399
0.655390 0.232578 0.089723
0.727810 0.240787 0.081300
0.793851 0.253239 0.076356
0.850187 0.270176 0.084962
0.901305 0.294255 0.101320
0.943481 0.321721 0.126558
0.977905 0.350896 0.157321
1.000000 0.381201 0.192569
1.000000 0.411627 0.230564
1.000000 0.441871 0.270695
1.000000 0.515160 0.369909
1.000000 0.544976 0.414862
1.000000 0.574212 0.458991
1.000000 0.603174 0.501976
1.000000 0.631617 0.543664
1.000000 0.658686 0.582391
1.000000 0.684718 0.618982
1.000000 0.709804 0.653803
1.000000 0.733852 0.686763
1.000000 0.756863 0.717861
0.204959 0.212894 0.126772
0.205875 0.212558 0.126558
0.209201 0.211032 0.126864
0.215274 0.208103 0.127962
0.223056 0.205966 0.128725
0.243229 0.219272 0.128847
0.288243 0.238163 0.128176
0.345708 0.250065 0.122927
0.386114 0.253056 0.110384
0.421668 0.252049 0.099763
0.489662 0.259648 0.093812
0.566461 0.267948 0.086000
0.643946 0.276555 0.070497
0.717342 0.287358 0.052644
0.784360 0.300694 0.045014
0.845151 0.318883 0.060578
0.898497 0.341741 0.096376
0.941405 0.366247 0.127626
0.976135 0.392340 0.163851
1.000000 0.419928 0.203861
1.000000 0.448981 0.247257
1.000000 0.479347 0.293828
1.000000 0.510460 0.342870
1.000000 0.541802 0.392859
1.000000 0.572625 0.442054
1.000000 0.602228 0.488380
1.000000 0.630365 0.531731
1.000000 0.657221 0.571954
1.000000 0.682887 0.609613
1.000000 0.707424 0.644923
1.000000 0.731167 0.678462
1.000000 0.754055 0.710292
0.205020 0.240360 0.132235
0.205814 0.240177 0.132265
0.209140 0.238376 0.132448
0.215640 0.235111 0.132937
0.224979 0.229831 0.134371
0.236759 0.234806 0.134859
0.267063 0.254246 0.135653
0.328893 0.281407 0.134951
0.404059 0.298131 0.130770
0.446509 0.298711 0.110658
0.482002 0.294835 0.094057
0.529137 0.295628 0.075715
0.606012 0.307500 0.052369
0.681056 0.320073 0.030182
0.752987 0.335149 0.014221
0.819577 0.353948 0.020661
0.874144 0.373236 0.067353
0.919402 0.393439 0.111696
0.956878 0.415290 0.149599
0.987732 0.438819 0.190677
1.000000 0.464149 0.234043
1.000000 0.491035 0.280674
1.000000 0.519219 0.329717
1.000000 0.548119 0.379889
1.000000 0.577081 0.429786
1.000000 0.605097 0.477058
1.000000 0.632410 0.521721
1.000000 0.658473 0.563043
1.000000 0.683619 0.601678
1.000000 0.707851 0.638117
1.000000 0.731136 0.672389
1.000000 0.753780 0.704952
0.203342 0.272587 0.139620
0.204410 0.272129 0.139742
0.207950 0.270420 0.139773
0.214939 0.266728 0.140078
0.225101 0.261143 0.141085
0.237949 0.253239 0.143496
0.255741 0.270481 0.143313
0.299382 0.297978 0.145022
0.379980 0.333654 0.145815
0.473304 0.355810 0.146304
0.515679 0.353521 0.115694
0.548852 0.346136 0.089174
0.574304 0.335973 0.039155
0.643488 0.347967 0.006897
0.721065 0.367041 0.000000
0.789639 0.385565 0.000000
0.847318 0.403265 0.014252
0.895689 0.421424 0.090547
0.936187 0.440375 0.133669
0.970001 0.460853 0.176852
0.997772 0.483040 0.221927
1.000000 0.506920 0.269139
1.000000 0.532280 0.318853
1.000000 0.558618 0.369482
1.000000 0.585443 0.419776
1.000000 0.611688 0.467933
1.000000 0.637629 0.513634
1.000000 0.662806 0.556268
1.000000 0.687190 0.595941
1.000000 0.710597 0.633051
1.000000 0.733333 0.667994
1.000000 0.755398 0.701137
0.198154 0.309453 0.148928
0.199313 0.308843 0.148928
0.203372 0.306859 0.148928
0.211276 0.302708 0.148928
0.222354 0.296574 0.149325
0.236454 0.287907 0.150973
0.248783 0.286412 0.151217
0.280095 0.313054 0.154269
0.339666 0.347936 0.158419
0.438117 0.391028 0.164675
0.545922 0.419287 0.178073
0.584741 0.412940 0.134493
0.616541 0.403601 0.095033
0.641779 0.391974 0.013611
0.679591 0.389319 0.000000
0.752407 0.409766 0.000000
0.815335 0.428748 0.000000
0.868986 0.446998 0.027344
0.913664 0.465217 0.112428
0.950774 0.484016 0.161318
0.981170 0.503502 0.208560
1.000000 0.523980 0.256138
1.000000 0.545800 0.305058
1.000000 0.568627 0.354284
1.000000 0.592279 0.403876
1.000000 0.616236 0.452338
1.000000 0.640711 0.499336
1.000000 0.665156 0.543969
1.000000 0.689113 0.585748
1.000000 0.712459 0.624872
1.000000 0.735134 0.661646
1.000000 0.757198 0.696254
0.188663 0.347570 0.160159
0.189548 0.347143 0.160128
0.194461 0.345251 0.160006
0.203738 0.340917 0.159762
0.216556 0.334569 0.159731
0.232090 0.325780 0.160433
0.249485 0.314336 0.162387
0.267338 0.327855 0.163119
0.312505 0.361822 0.169741
0.389532 0.404028 0.180117
0.503593 0.454139 0.197269
0.622614 0.492012 0.234501
0.658686 0.483345 0.179660
0.685542 0.469306 0.128023
0.705684 0.452583 0.040040
0.721370 0.435401 0.000000
0.778042 0.448737 0.000000
0.837125 0.468208 0.000000
0.886412 0.486213 0.063355
0.927459 0.503868 0.137270
0.961395 0.521904 0.189181
0.989014 0.540581 0.239231
1.000000 0.560601 0.289769
1.000000 0.581506 0.340703
1.000000 0.603326 0.391852
1.000000 0.625757 0.441871
1.000000 0.648768 0.490181
1.000000 0.672114 0.536431
1.000000 0.695094 0.579583
1.000000 0.717647 0.619928
1.000000 0.739620 0.657740
1.000000 0.761044 0.693233
0.172366 0.389654 0.175143
0.173709 0.389105 0.175021
0.179355 0.387030 0.174594
0.190494 0.383062 0.174136
0.205570 0.376562 0.173495
0.224277 0.367437 0.173373
0.244022 0.355596 0.173709
0.264042 0.341558 0.175692
0.293034 0.375402 0.180331
0.355627 0.418311 0.194553
0.451423 0.468879 0.216648
0.574792 0.524315 0.250523
0.723873 0.597894 0.353857
0.753262 0.582513 0.284733
0.774716 0.562127 0.218631
0.791043 0.540093 0.149844
0.804227 0.518120 0.012085
0.828519 0.508812 0.000000
0.880461 0.528161 0.031189
0.922911 0.546014 0.141726
0.957580 0.563531 0.202579
0.985321 0.580987 0.258213
1.000000 0.598962 0.312016
1.000000 0.617823 0.365484
1.000000 0.637232 0.417365
1.000000 0.657038 0.466957
1.000000 0.677089 0.513756
1.000000 0.697078 0.557061
1.000000 0.716793 0.597406
1.000000 0.736385 0.635218
1.000000 0.755673 0.670710
1.000000 0.774929 0.704494
0.142855 0.441810 0.198764
0.144503 0.441291 0.198672
0.153475 0.438849 0.197726
0.169100 0.433936 0.196384
0.189395 0.426886 0.194736
0.212253 0.417945 0.193668
0.236393 0.406226 0.192844
0.260746 0.391669 0.193515
0.279698 0.395850 0.193881
0.333532 0.438911 0.211826
0.417395 0.490364 0.239231
0.529625 0.547448 0.280034
0.655116 0.606592 0.335973
0.759396 0.645533 0.420752
0.790646 0.632746 0.362127
0.811093 0.611902 0.292393
0.826902 0.589380 0.223819
0.839597 0.566491 0.148989
0.850889 0.545525 0.000000
0.889494 0.554925 0.068391
0.929595 0.572686 0.160281
0.962310 0.590051 0.222904
0.988647 0.607507 0.281163
1.000000 0.625483 0.337530
1.000000 0.643977 0.392676
1.000000 0.662867 0.445502
1.000000 0.682338 0.495857
1.000000 0.701991 0.542840
1.000000 0.721431 0.586084
1.000000 0.740810 0.626459
1.000000 0.759823 0.664027
1.000000 0.778683 0.699519
0.102632 0.489326 0.226230
0.105776 0.488716 0.225895
0.120424 0.486244 0.224887
0.141939 0.481392 0.222904
0.168673 0.474098 0.220157
0.196597 0.464332 0.217319
0.225437 0.451667 0.214420
0.252445 0.436316 0.212345
0.278111 0.418219 0.211643
0.307927 0.444434 0.219242
0.377081 0.492622 0.246372
0.473152 0.546502 0.285313
0.586877 0.603143 0.337682
0.700618 0.655695 0.402564
0.788693 0.688930 0.486030
0.820371 0.678340 0.441566
0.839658 0.656794 0.369146
0.854856 0.634180 0.300359
0.868070 0.611658 0.230594
0.879881 0.590723 0.155673
0.898894 0.580743 0.100282
0.937346 0.599115 0.182162
0.968414 0.616968 0.247684
0.993286 0.634791 0.309239
1.000000 0.652796 0.368261
1.000000 0.671107 0.424903
1.000000 0.689784 0.478614
1.000000 0.708888 0.529290
1.000000 0.727840 0.575586
1.000000 0.746670 0.618372
1.000000 0.765255 0.658106
1.000000 0.783749 0.695369
0.000000 0.534081 0.257267
0.001617 0.533379 0.256931
0.047608 0.530999 0.255375
0.107424 0.525933 0.252720
0.144320 0.518425 0.248875
0.179232 0.508385 0.244480
0.211856 0.495796 0.239994
0.242741 0.480659 0.235752
0.270909 0.462776 0.232395
0.295415 0.449012 0.230777
0.344030 0.495033 0.251957
0.427375 0.546258 0.289342
0.529076 0.599969 0.338354
0.636744 0.651392 0.399176
0.737423 0.696895 0.466835
0.812131 0.725429 0.543877
0.843015 0.717830 0.514275
0.861326 0.696956 0.444892
0.876707 0.675074 0.377569
0.890562 0.653498 0.310430
0.903532 0.633570 0.243778
0.916716 0.616449 0.173587
0.945983 0.625635 0.207279
0.975158 0.643824 0.275883
0.998108 0.661677 0.340093
1.000000 0.679591 0.401434
1.000000 0.697871 0.459754
1.000000 0.716793 0.514977
1.000000 0.735775 0.565759
1.000000 0.754604 0.612238
1.000000 0.773281 0.655268
1.000000 0.791745 0.695125
0.000000 0.573938 0.289372
0.000000 0.573480 0.289097
0.000000 0.571466 0.287724
0.041230 0.567346 0.285069
0.119661 0.560845 0.281224
0.161471 0.552026 0.276432
0.198734 0.540887 0.271000
0.232425 0.527245 0.265568
0.263676 0.510552 0.260380
0.292058 0.490791 0.255711
0.317296 0.500359 0.258213
0.389807 0.548272 0.293980
0.481453 0.598688 0.339910
0.581048 0.647303 0.395789
0.678065 0.690822 0.457954
0.765621 0.729610 0.522362
0.830350 0.754452 0.590021
0.859709 0.750088 0.574334
0.876646 0.731106 0.513115
0.892363 0.710994 0.450660
0.907317 0.691646 0.388739
0.921996 0.673915 0.327886
0.936767 0.658564 0.268345
0.955352 0.652430 0.236423
0.982513 0.671107 0.309148
1.000000 0.689357 0.377020
1.000000 0.707668 0.441138
1.000000 0.726223 0.501274
1.000000 0.744808 0.556085
1.000000 0.762997 0.605493
1.000000 0.780850 0.650446
1.000000 0.798428 0.691676
0.000000 0.611231 0.322881
0.000000 0.610712 0.322454
0.000000 0.609003 0.321263
0.000000 0.605371 0.318517
0.098695 0.599664 0.314641
0.147372 0.591852 0.309575
0.187747 0.581689 0.303532
0.224033 0.569024 0.296941
0.256504 0.553552 0.290074
0.286320 0.535210 0.283482
0.312810 0.513664 0.277317
0.355108 0.548089 0.295323
0.437873 0.596216 0.338872
0.531243 0.643122 0.391394
0.625391 0.685908 0.450782
0.712978 0.723995 0.512535
0.789670 0.757992 0.571374
0.845914 0.779873 0.630640
0.874052 0.778561 0.626856
0.889281 0.761929 0.574487
0.904784 0.744839 0.521111
0.920409 0.727840 0.466194
0.936156 0.712337 0.412146
0.952087 0.698878 0.359472
0.968322 0.688014 0.308721
0.989929 0.698573 0.347295
1.000000 0.717098 0.418372
1.000000 0.735592 0.484474
1.000000 0.754086 0.544732
1.000000 0.772000 0.598230
1.000000 0.789487 0.646357
1.000000 0.806546 0.689876
0.000000 0.648280 0.360693
0.000000 0.648280 0.360693
0.016236 0.664485 0.380011
0.090455 0.661524 0.377386
0.129427 0.656641 0.373083
0.165347 0.649744 0.367407
0.199069 0.640711 0.360418
0.231968 0.629053 0.352178
0.263554 0.614954 0.343420
0.293462 0.597650 0.334264
0.320623 0.577447 0.325231
0.345892 0.566827 0.320623
0.414801 0.613001 0.358129
0.504204 0.656580 0.410163
0.593927 0.696010 0.467079
0.678096 0.731289 0.525261
0.752895 0.762966 0.579950
0.817441 0.791165 0.629511
0.864317 0.808804 0.678523
0.889982 0.809232 0.682612
0.903380 0.794888 0.638666
0.917784 0.780484 0.593957
0.932647 0.766415 0.549279
0.948333 0.753109 0.503563
0.964508 0.740963 0.457618
0.980957 0.731014 0.413733
0.998016 0.728450 0.396277
1.000000 0.746120 0.467231
1.000000 0.763851 0.532158
1.000000 0.781247 0.589837
1.000000 0.798215 0.641230
1.000000 0.814633 0.686976
0.093874 0.686702 0.405921
0.103365 0.687892 0.407630
0.119326 0.688350 0.408637
0.139834 0.687160 0.408057
0.164401 0.684230 0.405768
0.189761 0.678920 0.401190
0.215915 0.671290 0.394507
0.242588 0.661341 0.386511
0.269780 0.649256 0.377539
0.296208 0.634607 0.367926
0.321508 0.617182 0.358129
0.345800 0.596338 0.348211
0.377905 0.609827 0.354711
0.462501 0.651545 0.403418
0.549401 0.689937 0.457435
0.633112 0.724788 0.513481
0.708919 0.756313 0.567529
0.775509 0.784634 0.617121
0.833127 0.809903 0.662379
0.874907 0.825864 0.706600
0.899596 0.828519 0.717952
0.912169 0.816983 0.681697
0.925811 0.805203 0.644404
0.939879 0.793881 0.608087
0.954803 0.783139 0.571252
0.970520 0.773556 0.534905
0.986725 0.765682 0.500267
1.000000 0.760067 0.469062
1.000000 0.771511 0.511650
1.000000 0.788815 0.575525
1.000000 0.805600 0.631556
1.000000 0.821775 0.680934
0.168032 0.713802 0.441230
0.173739 0.714961 0.442969
0.182498 0.715511 0.444190
0.195193 0.714870 0.444221
0.210056 0.712551 0.442329
0.227512 0.708156 0.438392
0.245701 0.701869 0.432410
0.266270 0.693568 0.425055
0.287907 0.683406 0.416571
0.309667 0.671077 0.407111
0.331762 0.656397 0.396979
0.353429 0.638941 0.386572
0.373754 0.617945 0.375494
0.428992 0.652186 0.403754
0.513634 0.689021 0.455116
0.595727 0.722591 0.508598
0.671595 0.753262 0.561089
0.738613 0.781003 0.609430
0.797482 0.805936 0.653834
0.848264 0.828092 0.694301
0.885283 0.842130 0.733639
0.908659 0.846342 0.750118
0.920226 0.836912 0.720058
0.933043 0.827237 0.688808
0.946197 0.818173 0.659388
0.960266 0.809812 0.630304
0.975097 0.802609 0.602502
0.990448 0.797177 0.577417
1.000000 0.793942 0.556847
1.000000 0.796841 0.559442
1.000000 0.813413 0.620813
1.000000 0.829313 0.674098
0.230289 0.740322 0.478462
0.234928 0.741360 0.480110
0.240696 0.741848 0.481239
0.249454 0.741299 0.481361
0.259922 0.739345 0.479805
0.271489 0.735714 0.476356
0.284489 0.730465 0.471138
0.299474 0.723629 0.464729
0.315862 0.715297 0.457130
0.333440 0.705074 0.448615
0.351720 0.692836 0.439246
0.370092 0.678492 0.429053
0.387732 0.661280 0.418189
0.410834 0.656001 0.414954
0.484047 0.691646 0.457649
0.564996 0.723751 0.508873
0.640223 0.753475 0.559747
0.707942 0.780850 0.607446
0.767575 0.805570 0.651514
0.819669 0.827756 0.692012
0.864408 0.847440 0.728908
0.897093 0.860075 0.764034
0.918944 0.865507 0.784024
0.929625 0.858335 0.760586
0.941436 0.851194 0.736751
0.953826 0.844663 0.714534
0.966918 0.839017 0.693812
0.980713 0.834684 0.675471
0.994934 0.832120 0.660639
1.000000 0.831418 0.650141
1.000000 0.832700 0.644739
1.000000 0.844175 0.683742
0.311009 0.773404 0.529503
0.312779 0.773709 0.530144
0.315496 0.773434 0.530083
0.319158 0.772244 0.528923
0.324498 0.769986 0.526604
0.331060 0.766537 0.522942
0.339483 0.762020 0.518303
0.349371 0.756313 0.512627
0.360906 0.749355 0.505882
0.374273 0.741176 0.498726
0.388403 0.731441 0.490730
0.403235 0.719936 0.481849
0.417731 0.706172 0.472084
0.432105 0.689937 0.461646
0.467323 0.702846 0.472908
0.546593 0.732357 0.521294
0.619379 0.759792 0.568505
0.684779 0.785122 0.612879
0.743221 0.808194 0.654139
0.794797 0.828977 0.692195
0.839689 0.847532 0.727108
0.878325 0.864042 0.758572
0.906767 0.874571 0.788266
0.926909 0.880064 0.809232
0.936461 0.874113 0.789731
0.947265 0.868528 0.770718
0.958862 0.863706 0.753414
0.971069 0.860014 0.738582
0.983978 0.857633 0.726314
0.997131 0.856870 0.717525
1.000000 0.857786 0.712917
1.000000 0.859403 0.710903
0.368200 0.797208 0.568658
0.369543 0.797452 0.569207
0.371649 0.797177 0.569238
0.374762 0.796262 0.568414
0.378363 0.794461 0.566491
0.383337 0.791714 0.563653
0.389319 0.788022 0.559747
0.396612 0.783322 0.554925
0.405798 0.777707 0.549554
0.416175 0.771023 0.543542
0.427405 0.763180 0.536919
0.439277 0.753902 0.529564
0.451362 0.742977 0.521386
0.463783 0.730159 0.512688
0.476051 0.715297 0.503593
0.531731 0.741451 0.534234
0.602350 0.767025 0.578454
0.665949 0.790677 0.620020
0.723171 0.812345 0.658991
0.774105 0.831907 0.695155
0.818814 0.849546 0.728511
0.857664 0.865324 0.758816
0.891447 0.879423 0.786069
0.916350 0.888457 0.811551
0.933776 0.892241 0.829862
0.942473 0.887480 0.813870
0.952544 0.883391 0.799039
0.963439 0.880186 0.786069
0.974884 0.878141 0.775845
0.986847 0.877440 0.768521
0.998840 0.877653 0.763546
1.000000 0.878996 0.761532
0.435554 0.823667 0.615473
0.437629 0.824125 0.616510
0.439124 0.823941 0.616510
0.440650 0.822873 0.615381
0.442084 0.821073 0.613062
0.444190 0.818357 0.609796
0.447028 0.814878 0.605615
0.450965 0.810575 0.600763
0.456336 0.805417 0.595270
0.462928 0.799496 0.589380
0.470497 0.792508 0.582879
0.479255 0.784543 0.576013
0.488716 0.775326 0.568627
0.498329 0.764584 0.560632
0.508019 0.752041 0.551965
0.526940 0.749691 0.551965
0.586236 0.773251 0.586267
0.647456 0.794919 0.624537
0.703304 0.815091 0.661097
0.753872 0.833738 0.695674
0.798611 0.850584 0.727779
0.837858 0.865782 0.757107
0.872007 0.879301 0.783413
0.901671 0.891325 0.806821
0.923674 0.898894 0.828489
0.940673 0.904173 0.849393
0.948669 0.900511 0.836759
0.957977 0.897612 0.825193
0.968200 0.895628 0.815579
0.978668 0.894560 0.808408
0.989410 0.894469 0.803464
1.000000 0.895537 0.801511
0.481117 0.842679 0.649195
0.482918 0.843046 0.650111
0.484596 0.843046 0.650416
0.486030 0.842405 0.649805
0.487953 0.841123 0.648463
0.490486 0.839261 0.646448
0.493904 0.836881 0.643946
0.498207 0.833829 0.640894
0.503563 0.830228 0.637415
0.510033 0.825956 0.633692
0.517205 0.820859 0.629267
0.525078 0.814878 0.624537
0.533410 0.807919 0.619226
0.541955 0.799649 0.613275
0.550378 0.790036 0.606744
0.559197 0.778958 0.599969
0.586328 0.788327 0.609522
0.643244 0.807279 0.643397
0.695796 0.825132 0.676112
0.743740 0.841733 0.707393
0.786893 0.857023 0.736873
0.824918 0.870909 0.764004
0.858366 0.883482 0.788571
0.887755 0.894774 0.810697
0.913451 0.904906 0.830442
0.932708 0.911254 0.848844
0.947478 0.915709 0.866850
0.955383 0.913787 0.859464
0.963958 0.912016 0.851011
0.973205 0.910918 0.843992
0.982605 0.910857 0.839780
0.992035 0.911772 0.837949
0.533532 0.863432 0.687709
0.534417 0.863615 0.688167
0.535271 0.863432 0.688106
0.536370 0.862882 0.687526
0.537774 0.861814 0.686397
0.539666 0.860319 0.684810
0.542229 0.858366 0.682673
0.545525 0.855924 0.680232
0.549737 0.853056 0.677516
0.554986 0.849638 0.674586
0.561059 0.845609 0.671229
0.567834 0.841032 0.667689
0.575036 0.835721 0.663844
0.582574 0.829435 0.659571
0.590234 0.822080 0.654780
0.598230 0.813718 0.649866
0.606714 0.804257 0.645136
0.644678 0.821103 0.664851
0.693324 0.836606 0.693751
0.738338 0.851194 0.721736
0.779049 0.864775 0.748196
0.815488 0.877256 0.772824
0.847715 0.888579 0.795193
0.876341 0.898924 0.815549
0.901610 0.908232 0.833921
0.923888 0.916686 0.850492
0.940551 0.921813 0.865843
0.953216 0.925200 0.881010
0.960693 0.924041 0.876585
0.968566 0.923186 0.870481
0.976989 0.923064 0.866087
0.985473 0.923919 0.864256
0.579644 0.881590 0.721889
0.580316 0.881682 0.722225
0.581170 0.881621 0.722255
0.582361 0.881254 0.722072
0.584192 0.880613 0.721645
0.586725 0.879789 0.721096
0.590692 0.878874 0.720851
0.595789 0.877714 0.720699
0.601923 0.876402 0.720638
0.608972 0.874784 0.720577
0.616846 0.872862 0.720516
0.625025 0.870451 0.720211
0.633448 0.867491 0.719661
0.641779 0.863890 0.718563
0.649928 0.859434 0.717037
0.657740 0.854032 0.714870
0.665705 0.847868 0.712642
0.679500 0.847623 0.714961
0.715511 0.860227 0.734401
0.754055 0.871733 0.756924
0.789242 0.882567 0.778347
0.821225 0.892668 0.798428
0.849912 0.901946 0.816861
0.875456 0.910369 0.833585
0.898192 0.917906 0.848600
0.918639 0.924773 0.862425
0.936889 0.931060 0.875120
0.950500 0.934722 0.887175
0.960693 0.937072 0.899413
0.967285 0.936584 0.897490
0.974212 0.936645 0.893858
0.981415 0.937377 0.891966
0.642634 0.903929 0.766690
0.642695 0.903899 0.766690
0.642939 0.903685 0.766445
0.643458 0.903319 0.766079
0.644373 0.902708 0.765499
0.645777 0.901884 0.764767
0.648005 0.900877 0.764034
0.650874 0.899657 0.763241
0.654597 0.898253 0.762478
0.659083 0.896605 0.761746
0.664179 0.894682 0.760922
0.669947 0.892515 0.760189
0.676234 0.889952 0.759396
