lut_library_archive/removed_20260629/抖音热门推荐/抖音热门推荐11.cube
# 版权归凌孟成所有，侵权必究
# Created by Adobe Lightroom plugin Export LUT (1.24.0)
# www.johnrellis.com/lightroom/exportlut.htm
# Preset: INS风格-缇米设计11
# Color profile: C:\Program Files (x86)\Common Files\Adobe\Color\Profiles\Recommended\VideoHD.icc
LUT_3D_SIZE 8
DOMAIN_MIN 0.000000 0.000000 0.000000
DOMAIN_MAX 0.903226 0.903226 0.903226
0.167361 0.167361 0.167361
0.223758 0.161929 0.169406
0.595514 0.000000 0.181491
0.905882 0.000000 0.168399
1.000000 0.116518 0.170199
1.000000 0.235203 0.241123
1.000000 0.305577 0.305821
1.000000 0.361334 0.362341
0.169467 0.210819 0.189609
0.208530 0.209781 0.192447
0.504326 0.237613 0.157229
0.820676 0.243992 0.137270
1.000000 0.254185 0.143282
1.000000 0.279057 0.217044
1.000000 0.318944 0.285710
1.000000 0.364965 0.347875
0.194888 0.335607 0.266209
0.211154 0.335027 0.260075
0.367041 0.364385 0.280613
0.675288 0.425727 0.151705
0.944823 0.441108 0.000000
1.000000 0.421546 0.177005
1.000000 0.416968 0.276738
1.000000 0.429786 0.348241
0.257786 0.500023 0.384649
0.272282 0.490425 0.380835
0.363378 0.516838 0.381567
0.581750 0.576196 0.435676
0.850858 0.621607 0.332891
0.995270 0.560143 0.103334
1.000000 0.524102 0.220340
1.000000 0.506676 0.316991
0.325414 0.633967 0.487221
0.335180 0.626886 0.485512
0.365087 0.639063 0.471839
0.528222 0.670161 0.505760
0.710323 0.704616 0.556725
0.882780 0.717891 0.504753
0.997345 0.657221 0.345373
1.000000 0.588678 0.245792
0.448157 0.746059 0.597131
0.461524 0.748226 0.603204
0.481239 0.746426 0.599298
0.552667 0.760555 0.603967
0.677272 0.775326 0.637964
0.797635 0.793484 0.684779
0.891478 0.798947 0.681575
0.978759 0.751522 0.560082
0.612299 0.821042 0.709346
0.616358 0.820676 0.710903
0.623041 0.816007 0.710933
0.646571 0.821347 0.708278
0.709071 0.826627 0.724117
0.782681 0.834562 0.752041
0.846342 0.844297 0.782589
0.890562 0.845640 0.787045
0.742245 0.860197 0.794278
0.743038 0.859861 0.794491
0.747768 0.858671 0.796109
0.758785 0.858701 0.798886
0.766140 0.859159 0.792538
0.806027 0.863493 0.808072
0.844053 0.868711 0.825040
0.875181 0.873747 0.839933
0.157992 0.177218 0.192233
0.230594 0.156558 0.200931
0.571344 0.000000 0.207065
0.857053 0.123018 0.208438
1.000000 0.188540 0.229374
1.000000 0.261845 0.278111
1.000000 0.320073 0.327947
1.000000 0.371374 0.378149
0.168185 0.220188 0.196811
0.229191 0.223941 0.215213
0.508354 0.249210 0.193240
0.807401 0.264378 0.189395
1.000000 0.276188 0.211398
1.000000 0.301640 0.263249
1.000000 0.336095 0.314763
1.000000 0.376196 0.366308
0.232395 0.358526 0.294438
0.248417 0.355413 0.291142
0.391852 0.385046 0.312810
0.672633 0.423529 0.187930
0.927092 0.434089 0.135927
1.000000 0.421180 0.215763
1.000000 0.416724 0.291966
1.000000 0.431250 0.358587
0.272404 0.488838 0.383459
0.285924 0.478798 0.381720
0.366613 0.506462 0.384527
0.561883 0.554559 0.429755
0.818021 0.594415 0.321813
0.973877 0.543755 0.111574
1.000000 0.516625 0.225864
1.000000 0.502312 0.319799
0.335180 0.631464 0.489235
0.343206 0.623285 0.486549
0.370672 0.630213 0.472633
0.521080 0.657923 0.500664
0.697810 0.690883 0.547539
0.874693 0.707332 0.492592
0.992584 0.650019 0.338628
1.000000 0.585840 0.253666
0.443397 0.739071 0.591485
0.448554 0.736416 0.591577
0.468971 0.733577 0.588617
0.541466 0.750607 0.594476
0.670008 0.768338 0.631098
0.794461 0.789822 0.681788
0.890166 0.795682 0.676631
0.978485 0.747738 0.554192
0.600916 0.816526 0.701778
0.600305 0.814633 0.700221
0.606622 0.809415 0.699733
0.632471 0.815183 0.698238
0.701503 0.822721 0.717647
0.777798 0.831205 0.746487
0.842893 0.840574 0.776303
0.889586 0.842008 0.780087
0.736202 0.858488 0.790311
0.738735 0.858518 0.791623
0.743130 0.857237 0.792996
0.754513 0.856992 0.796109
0.774075 0.861173 0.798978
0.809018 0.864378 0.811246
0.844450 0.868772 0.825895
0.875242 0.873808 0.840543
0.000000 0.242405 0.354833
0.147433 0.169955 0.393744
0.599542 0.000000 0.463172
0.939818 0.000000 0.448341
1.000000 0.335027 0.460212
1.000000 0.410132 0.467536
1.000000 0.456886 0.488808
1.000000 0.493935 0.516289
0.122652 0.299138 0.365667
0.213138 0.255894 0.401892
0.627771 0.207584 0.445808
0.914763 0.289342 0.437324
1.000000 0.362310 0.431037
1.000000 0.415167 0.445838
1.000000 0.451942 0.469856
1.000000 0.488045 0.501793
0.325109 0.478859 0.408942
0.388190 0.479927 0.432563
0.503563 0.484382 0.450904
0.762539 0.458930 0.320226
0.966583 0.466102 0.345190
1.000000 0.468849 0.388800
1.000000 0.483742 0.434821
1.000000 0.507652 0.480446
0.365087 0.568688 0.467170
0.377966 0.559838 0.466377
0.437171 0.564874 0.465309
0.630884 0.616114 0.519310
0.849577 0.614191 0.387793
0.985504 0.553613 0.272465
1.000000 0.543694 0.362646
1.000000 0.546227 0.435676
0.401892 0.664515 0.534234
0.407996 0.658289 0.532464
0.434852 0.653071 0.525261
0.564385 0.684657 0.553155
0.730282 0.719997 0.607385
0.882444 0.720607 0.537346
0.992279 0.654627 0.390814
1.000000 0.602289 0.358556
0.492287 0.751766 0.619226
0.496773 0.749691 0.619562
0.511070 0.739590 0.617487
0.568994 0.756313 0.620172
0.687678 0.774105 0.656703
0.802060 0.796139 0.707240
0.889952 0.801480 0.697261
0.973632 0.755886 0.589654
0.636652 0.822965 0.722591
0.636103 0.821378 0.721309
0.638880 0.816098 0.719295
0.658808 0.817807 0.718105
0.717342 0.825589 0.734035
0.788449 0.834989 0.762783
0.848508 0.845945 0.793027
0.890684 0.848264 0.795407
0.751980 0.861143 0.800198
0.751919 0.860655 0.799832
0.755550 0.859403 0.800870
0.767117 0.858427 0.805692
0.783627 0.862852 0.807523
0.817258 0.866728 0.820340
0.849943 0.871427 0.834409
0.877867 0.876432 0.847837
0.000000 0.271885 0.574548
0.000000 0.203037 0.606928
0.577173 0.000000 0.708431
0.927611 0.000000 0.707393
1.000000 0.259831 0.623133
1.000000 0.541466 0.647730
1.000000 0.653285 0.695857
1.000000 0.663325 0.693477
0.000000 0.351843 0.585351
0.000000 0.303899 0.613428
0.600122 0.215305 0.710780
0.930877 0.152438 0.696376
1.000000 0.406287 0.633967
1.000000 0.599390 0.671839
1.000000 0.648402 0.686030
1.000000 0.660487 0.687098
0.226871 0.544671 0.562463
0.327306 0.552880 0.577478
0.629755 0.570275 0.681941
0.876829 0.598108 0.672511
0.954345 0.652094 0.682826
0.997650 0.641108 0.658839
1.000000 0.655451 0.665675
1.000000 0.668116 0.677028
0.498787 0.706783 0.611627
0.540826 0.706844 0.627070
0.598505 0.678828 0.633936
0.727993 0.707759 0.672969
0.882353 0.623072 0.486030
0.979889 0.613336 0.512902
1.000000 0.628656 0.569482
1.000000 0.651301 0.618769
0.549096 0.740688 0.642267
0.550439 0.734524 0.638911
0.561944 0.711818 0.630091
0.646357 0.731960 0.649805
0.777920 0.765011 0.702724
0.891020 0.743099 0.615473
0.990234 0.665003 0.480964
1.000000 0.658442 0.538140
0.600977 0.785916 0.687953
0.609430 0.786770 0.692103
0.612879 0.776638 0.687404
0.641718 0.780514 0.686183
0.736538 0.796536 0.720699
0.821317 0.814694 0.760159
0.890501 0.815213 0.738582
0.964080 0.772061 0.651514
0.695033 0.833982 0.758083
0.696864 0.833494 0.758633
0.701778 0.830472 0.759091
0.714229 0.827085 0.760494
0.754696 0.835630 0.771023
0.809812 0.844297 0.793790
0.857053 0.854307 0.817563
0.892393 0.856382 0.815244
0.784054 0.867765 0.820890
0.784482 0.867491 0.820951
0.786831 0.866423 0.821469
0.792752 0.864652 0.823453
0.804288 0.866575 0.825284
0.830167 0.870756 0.834653
0.858366 0.875669 0.847257
0.882353 0.880980 0.859464
0.000000 0.339422 0.769100
0.000000 0.289616 0.783627
0.372564 0.209110 0.821927
0.827329 0.000000 0.862547
1.000000 0.161929 0.805325
1.000000 0.445655 0.720089
1.000000 0.646113 0.740627
0.983246 0.749722 0.787076
0.000000 0.403662 0.766751
0.000000 0.368688 0.781369
0.394720 0.303838 0.820462
0.833310 0.242466 0.859342
1.000000 0.326055 0.798306
1.000000 0.521233 0.730343
1.000000 0.679377 0.754452
0.975189 0.764004 0.795254
0.178531 0.592004 0.731106
0.291875 0.592950 0.748592
0.470710 0.540459 0.798184
0.838499 0.571557 0.836881
0.965057 0.605371 0.782834
0.972442 0.695094 0.767971
0.960571 0.762783 0.792905
0.955322 0.795407 0.812039
0.421729 0.751644 0.729000
0.477852 0.754147 0.735317
0.654322 0.767514 0.763119
0.824887 0.791379 0.804959
0.881224 0.793362 0.799802
0.920623 0.778042 0.782223
0.945983 0.776303 0.780026
0.960388 0.781827 0.786557
0.665370 0.804227 0.737362
0.683131 0.804379 0.744930
0.741543 0.805142 0.771481
0.743954 0.784695 0.757321
0.816281 0.805905 0.788571
0.894926 0.755825 0.685298
0.955688 0.734585 0.678126
0.971588 0.757015 0.728450
0.708949 0.816495 0.759274
0.709377 0.815030 0.758480
0.707149 0.806729 0.752255
0.707332 0.790707 0.743099
0.767086 0.807858 0.764370
0.836667 0.830045 0.801663
0.892546 0.824094 0.770108
0.957916 0.780209 0.699123
0.757046 0.847532 0.798093
0.755612 0.846494 0.796750
0.753597 0.843168 0.793606
0.758511 0.838468 0.793179
0.778134 0.841306 0.797055
0.824613 0.850614 0.816922
0.863737 0.860777 0.836881
0.894743 0.860960 0.827634
0.805325 0.872770 0.835416
0.805478 0.872465 0.835294
0.806790 0.871458 0.835294
0.814389 0.870970 0.838804
0.821408 0.869017 0.841093
0.840330 0.874174 0.847044
0.865049 0.879240 0.858152
0.885801 0.884459 0.868650
0.000000 0.403815 0.867063
0.000000 0.377081 0.871214
0.000000 0.318181 0.882078
0.637995 0.287907 0.899229
0.920806 0.296391 0.903655
1.000000 0.426184 0.843656
1.000000 0.592187 0.788266
0.990784 0.729610 0.805173
0.000000 0.447150 0.858183
0.000000 0.425208 0.862058
0.163668 0.369116 0.875547
0.643885 0.352056 0.892821
0.918608 0.370092 0.898039
1.000000 0.477974 0.839109
1.000000 0.622431 0.791897
0.984771 0.740536 0.808560
0.210849 0.607965 0.838376
0.257359 0.598047 0.842527
0.394476 0.553307 0.859586
0.690883 0.568994 0.876768
0.908659 0.609186 0.881773
0.976226 0.664424 0.836088
0.970245 0.739773 0.818906
0.956634 0.792538 0.830533
0.434943 0.735805 0.792081
0.472480 0.736385 0.793393
0.635981 0.756039 0.818387
0.771389 0.772000 0.851926
0.885405 0.795041 0.863462
0.916197 0.807156 0.846830
0.923552 0.826963 0.847776
0.927153 0.842161 0.855009
0.663996 0.825010 0.796536
0.682429 0.825803 0.799893
0.744900 0.830350 0.813565
0.818753 0.842069 0.836545
0.860472 0.847532 0.846738
0.886656 0.841794 0.841581
0.907286 0.842100 0.843168
0.920775 0.846647 0.849058
0.768917 0.848264 0.809293
0.776455 0.848905 0.813077
0.796658 0.849058 0.822324
0.820920 0.848692 0.833555
0.823301 0.841306 0.828367
0.859586 0.855009 0.847532
0.898100 0.835386 0.807828
0.925811 0.833402 0.814725
0.822690 0.867430 0.843656
0.825772 0.867826 0.845396
0.827909 0.866880 0.845792
0.827817 0.863859 0.843809
0.827848 0.858396 0.840696
0.848020 0.864012 0.847837
0.875853 0.873411 0.862394
0.899382 0.870970 0.849851
0.848264 0.883513 0.864317
0.847562 0.883177 0.863767
0.846616 0.882322 0.862699
0.846342 0.881163 0.861723
0.846647 0.878935 0.860472
0.854459 0.879362 0.862669
0.874418 0.884916 0.871824
0.891203 0.890013 0.880461
0.000000 0.456275 0.902647
0.000000 0.442481 0.904631
0.000000 0.391394 0.909575
0.484108 0.380621 0.914824
0.770504 0.372381 0.921080
0.957153 0.433600 0.916320
1.000000 0.553429 0.866911
1.000000 0.671077 0.827817
0.000000 0.485054 0.896513
0.000000 0.473915 0.898741
0.000000 0.421851 0.904723
0.493568 0.413611 0.910338
0.771969 0.411872 0.917235
0.954314 0.462226 0.912718
1.000000 0.563256 0.863249
1.000000 0.667689 0.824277
0.230259 0.608209 0.881987
0.260441 0.601282 0.883604
0.352728 0.568353 0.890135
0.568566 0.561944 0.897734
0.793729 0.591211 0.904295
0.937102 0.632807 0.900633
0.978882 0.697566 0.863523
0.970703 0.758755 0.844419
0.521660 0.743557 0.854002
0.547967 0.744900 0.855375
0.614618 0.743465 0.862333
0.691798 0.733303 0.875456
0.827024 0.766537 0.885252
0.909361 0.786160 0.886320
0.932952 0.805478 0.868345
0.935424 0.826505 0.862486
0.589837 0.811124 0.833310
0.602075 0.810208 0.833127
0.659602 0.810391 0.835203
0.755489 0.819669 0.846921
0.835264 0.833494 0.870756
0.892271 0.844450 0.878050
0.909209 0.851225 0.871702
0.915312 0.862852 0.874784
0.748592 0.857877 0.834348
0.755795 0.858213 0.835996
0.781186 0.859495 0.842252
0.818875 0.863127 0.853269
0.856016 0.870176 0.867216
0.883696 0.878508 0.878996
0.896605 0.877714 0.878355
0.906615 0.880064 0.881346
0.826566 0.877775 0.852995
0.829252 0.877989 0.854337
0.837766 0.878264 0.858335
0.852049 0.879149 0.865446
0.868467 0.881010 0.874296
0.871061 0.878050 0.873625
0.886839 0.885039 0.882139
0.904753 0.876371 0.865965
0.859770 0.890105 0.874449
0.861021 0.890257 0.875120
0.866453 0.891142 0.878264
0.874022 0.892241 0.882536
0.879179 0.892576 0.885222
0.879210 0.890867 0.884154
0.885435 0.892332 0.886137
0.897795 0.896910 0.892638
0.000000 0.501305 0.919860
0.000000 0.492805 0.920745
0.000000 0.448493 0.923796
0.369787 0.433570 0.926085
0.626703 0.424475 0.928588
0.843503 0.429389 0.930938
0.971527 0.516930 0.923247
1.000000 0.629389 0.884855
0.000000 0.522759 0.916564
0.000000 0.515465 0.917479
0.000000 0.476600 0.920775
0.386877 0.457801 0.923522
0.632502 0.452552 0.926207
0.843900 0.462837 0.928649
0.968566 0.538537 0.921233
1.000000 0.640131 0.883604
0.254154 0.612238 0.905486
0.272435 0.607019 0.906310
0.329503 0.582086 0.909545
0.480903 0.564385 0.914061
0.672328 0.574426 0.916594
0.849088 0.601923 0.918639
0.951019 0.654231 0.912474
0.980316 0.721492 0.882902
0.522515 0.731930 0.885313
0.531975 0.730312 0.886198
0.561303 0.720363 0.889525
0.620783 0.705196 0.895811
0.739315 0.720699 0.900114
0.858640 0.753628 0.903532
0.924804 0.777249 0.901366
0.944121 0.805600 0.884703
0.540124 0.791531 0.862547
0.560388 0.792630 0.863737
0.623194 0.795071 0.867430
0.730556 0.808713 0.874601
0.780087 0.803281 0.885344
0.860838 0.826139 0.893248
0.907866 0.840543 0.895567
0.921538 0.854032 0.888273
0.663752 0.852384 0.860746
0.669001 0.851682 0.860655
0.694881 0.849851 0.861082
0.743832 0.848722 0.863218
0.805570 0.852445 0.869780
0.865202 0.866697 0.888273
0.900237 0.877867 0.895598
0.910369 0.881132 0.892912
0.804227 0.884428 0.867857
0.806668 0.884367 0.868345
0.816648 0.884276 0.870512
0.834897 0.884825 0.875029
0.856748 0.886473 0.881285
0.877806 0.890013 0.888792
0.897734 0.894743 0.896910
0.905333 0.896971 0.898283
0.858366 0.895659 0.878050
0.859190 0.895659 0.878386
0.863432 0.895781 0.880369
0.871702 0.896452 0.884550
0.881743 0.897612 0.889830
0.891844 0.899413 0.895537
0.898375 0.900816 0.899413
0.903502 0.903044 0.902251
