lut_library_archive/removed_20260629/抖音热门推荐/抖音热门推荐09.cube
# 版权归凌孟成所有，侵权必究
# Created by Adobe Lightroom plugin Export LUT (1.24.0)
# www.johnrellis.com/lightroom/exportlut.htm
# Preset: INS风格-缇米设计09
# Color profile: C:\Program Files (x86)\Common Files\Adobe\Color\Profiles\Recommended\VideoHD.icc
LUT_3D_SIZE 8
DOMAIN_MIN 0.000000 0.000000 0.000000
DOMAIN_MAX 0.903226 0.903226 0.903226
0.167361 0.167361 0.167361
0.192233 0.164218 0.167239
0.459541 0.082490 0.180728
0.753353 0.000000 0.173342
0.969726 0.000000 0.154726
1.000000 0.154269 0.174014
1.000000 0.222873 0.227787
1.000000 0.277623 0.281804
0.166903 0.192874 0.179416
0.191073 0.192355 0.182101
0.420020 0.203922 0.162905
0.688899 0.201175 0.152682
0.932403 0.210697 0.126345
1.000000 0.226139 0.150423
1.000000 0.250767 0.207065
1.000000 0.288182 0.266087
0.186160 0.285710 0.234775
0.197177 0.285344 0.231540
0.313542 0.311559 0.246708
0.601892 0.379156 0.139376
0.864408 0.399481 0.000000
1.000000 0.386389 0.066163
1.000000 0.371099 0.187442
1.000000 0.370672 0.260319
0.230350 0.416297 0.325719
0.241245 0.409003 0.323491
0.313725 0.438911 0.328832
0.512169 0.507378 0.384436
0.794369 0.572534 0.278386
0.957549 0.529229 0.000000
1.000000 0.493874 0.084169
1.000000 0.465949 0.216220
0.271946 0.524712 0.404181
0.280674 0.518639 0.402960
0.306737 0.536095 0.396368
0.454322 0.582696 0.434333
0.647211 0.641566 0.493477
0.850980 0.676448 0.435981
0.981140 0.625544 0.252995
1.000000 0.562249 0.079377
0.332403 0.639734 0.493141
0.343328 0.642481 0.498116
0.365698 0.642756 0.495155
0.445228 0.672023 0.504601
0.595727 0.706874 0.549798
0.751492 0.746548 0.613458
0.880308 0.765957 0.611658
0.984161 0.717678 0.465126
0.454932 0.752926 0.603998
0.460029 0.752377 0.605402
0.470710 0.743832 0.603815
0.506004 0.757595 0.601953
0.604608 0.774319 0.627985
0.719112 0.794400 0.672969
0.817075 0.814237 0.724147
0.885283 0.824430 0.742306
0.638331 0.832944 0.728206
0.639612 0.832334 0.728359
0.646632 0.830228 0.730220
0.665766 0.830472 0.734798
0.682124 0.832059 0.726741
0.753048 0.841398 0.756558
0.815610 0.851621 0.787594
0.862577 0.860685 0.813626
0.162844 0.170352 0.176547
0.196384 0.163210 0.179416
0.428504 0.120058 0.186954
0.693965 0.128786 0.187106
0.938415 0.130373 0.184878
1.000000 0.181369 0.209415
1.000000 0.233768 0.248722
1.000000 0.282841 0.295018
0.162264 0.194583 0.179416
0.200015 0.196963 0.191714
0.409064 0.215549 0.179294
0.665553 0.227298 0.174533
0.915740 0.232395 0.169986
1.000000 0.241520 0.195010
1.000000 0.262882 0.235355
1.000000 0.294865 0.282719
0.210056 0.299626 0.253056
0.221378 0.298222 0.251621
0.330083 0.324681 0.269413
0.596490 0.375769 0.169924
0.841001 0.389532 0.104341
1.000000 0.381842 0.140810
1.000000 0.367773 0.207004
1.000000 0.368780 0.270512
0.242710 0.408759 0.326299
0.252842 0.401434 0.325322
0.317266 0.430457 0.331853
0.491737 0.485451 0.378180
0.755245 0.542901 0.273869
0.927764 0.509880 0.000000
1.000000 0.484596 0.114412
1.000000 0.460243 0.221744
0.281895 0.524254 0.407477
0.289189 0.517327 0.405402
0.313481 0.529442 0.398352
0.449226 0.571130 0.431373
0.633509 0.626856 0.486305
0.838926 0.664240 0.426673
0.973358 0.617609 0.249821
1.000000 0.558343 0.111574
0.333684 0.632044 0.489143
0.339788 0.628992 0.488991
0.361822 0.627771 0.486946
0.438087 0.659907 0.497322
0.588678 0.698085 0.544121
0.747494 0.742031 0.611292
0.877989 0.761959 0.606470
0.982666 0.713222 0.458869
0.443854 0.744350 0.594965
0.444221 0.740963 0.592889
0.454871 0.731777 0.590723
0.491493 0.746212 0.590326
0.595483 0.767391 0.620050
0.712337 0.788968 0.665766
0.812039 0.808835 0.715541
0.883726 0.819150 0.731899
0.625422 0.829038 0.720119
0.629572 0.829160 0.722042
0.636072 0.826749 0.723384
0.655543 0.826474 0.728237
0.694087 0.835355 0.736355
0.756802 0.842527 0.760586
0.815457 0.851286 0.787930
0.862333 0.860410 0.813809
0.000000 0.248142 0.340124
0.078798 0.174807 0.344732
0.451301 0.014740 0.353918
0.771115 0.000000 0.364111
0.982269 0.162600 0.363165
1.000000 0.284733 0.372473
1.000000 0.343267 0.392370
1.000000 0.385382 0.420111
0.108125 0.275181 0.337041
0.193576 0.225467 0.338384
0.475074 0.187411 0.344213
0.754086 0.203250 0.344213
0.955901 0.250675 0.341619
1.000000 0.309606 0.354253
1.000000 0.348028 0.375189
1.000000 0.384649 0.406104
0.271275 0.380468 0.329900
0.316228 0.382300 0.347875
0.409857 0.395239 0.369787
0.667140 0.398016 0.273350
0.892271 0.408270 0.280797
1.000000 0.405676 0.306645
1.000000 0.408789 0.342962
1.000000 0.422553 0.384161
0.315526 0.475898 0.395117
0.326390 0.469642 0.395331
0.376562 0.480293 0.399390
0.553979 0.541039 0.456703
0.792416 0.564416 0.336004
0.946715 0.516991 0.205478
1.000000 0.499184 0.274022
1.000000 0.486824 0.337438
0.335790 0.560296 0.449348
0.342077 0.554589 0.447913
0.366979 0.553460 0.444526
0.489082 0.601129 0.478737
0.670558 0.660151 0.543572
0.852079 0.678737 0.470375
0.975921 0.619593 0.305394
1.000000 0.565789 0.251804
0.376013 0.651026 0.516136
0.381109 0.648524 0.516197
0.399084 0.636255 0.513634
0.463203 0.668086 0.521935
0.607507 0.706325 0.571191
0.757809 0.750668 0.639643
0.878904 0.767483 0.627955
0.980713 0.717556 0.490730
0.482124 0.756100 0.617517
0.482368 0.753231 0.615686
0.488655 0.743435 0.611810
0.518608 0.749599 0.610895
0.610864 0.770932 0.637201
0.724269 0.793606 0.684810
0.819089 0.815396 0.736904
0.885222 0.826139 0.749966
0.644251 0.832242 0.731167
0.643946 0.831266 0.730404
0.649378 0.828824 0.731319
0.668147 0.826780 0.738094
0.702663 0.836240 0.744686
0.765408 0.844633 0.770657
0.821439 0.853971 0.797696
0.865110 0.863127 0.822171
0.000000 0.302770 0.617731
0.000000 0.191958 0.619318
0.475563 0.000000 0.583429
0.770504 0.000000 0.587091
0.994018 0.000000 0.555779
1.000000 0.367254 0.546380
1.000000 0.512139 0.587488
1.000000 0.539300 0.591150
0.000000 0.362127 0.618921
0.000000 0.296300 0.615595
0.490883 0.188388 0.581018
0.785824 0.000000 0.583673
0.986938 0.223728 0.553887
1.000000 0.435767 0.561669
1.000000 0.511254 0.576898
1.000000 0.538170 0.583703
0.206455 0.553460 0.572107
0.312932 0.549798 0.575189
0.512902 0.460304 0.558679
0.778439 0.461524 0.552667
0.935241 0.512596 0.563134
1.000000 0.517784 0.546868
1.000000 0.540032 0.557122
1.000000 0.556451 0.571557
0.405768 0.598596 0.511650
0.442512 0.600061 0.525292
0.501427 0.576623 0.534691
0.648707 0.627527 0.590997
0.834226 0.568353 0.418708
0.958099 0.551537 0.425849
1.000000 0.550164 0.465797
1.000000 0.558648 0.507958
0.448493 0.649653 0.548760
0.451881 0.642786 0.545617
0.468330 0.618433 0.537743
0.563165 0.654139 0.567071
0.726680 0.712123 0.640314
0.869932 0.699519 0.542168
0.981201 0.620203 0.387640
1.000000 0.596460 0.424353
0.474098 0.701808 0.585931
0.482338 0.702846 0.589624
0.489723 0.688136 0.583490
0.528344 0.699397 0.585565
0.658808 0.736538 0.637690
0.783230 0.774472 0.699672
0.882444 0.780392 0.670161
0.977691 0.724910 0.544152
0.548058 0.776089 0.658045
0.550530 0.775051 0.658320
0.557610 0.768917 0.657313
0.576501 0.762295 0.657069
0.650172 0.784268 0.678737
0.749783 0.804959 0.723384
0.829557 0.825376 0.768399
0.887297 0.834348 0.771847
0.688136 0.841306 0.758206
0.688685 0.840757 0.758114
0.692317 0.838560 0.758389
0.701778 0.834775 0.760555
0.726406 0.838834 0.765652
0.778714 0.848081 0.786740
0.830411 0.858030 0.812619
0.869902 0.867948 0.835966
0.000000 0.357153 0.827329
0.000000 0.296880 0.828092
0.356847 0.188144 0.813169
0.747799 0.000000 0.780880
0.975647 0.000000 0.750759
1.000000 0.250431 0.665522
1.000000 0.496529 0.659174
1.000000 0.643305 0.711208
0.000000 0.436896 0.824155
0.000000 0.392889 0.825132
0.382605 0.292241 0.811765
0.755001 0.097932 0.780026
0.972625 0.087282 0.743801
1.000000 0.345617 0.667750
1.000000 0.539727 0.671778
1.000000 0.665370 0.722469
0.383307 0.676844 0.805905
0.426734 0.661189 0.803555
0.477089 0.544488 0.795560
0.762783 0.443366 0.761074
0.944518 0.454536 0.716304
0.988220 0.558770 0.686458
0.988037 0.659480 0.715328
0.983795 0.717433 0.747707
0.447059 0.758999 0.737148
0.489326 0.755886 0.737514
0.620752 0.745602 0.740841
0.762478 0.705531 0.728939
0.863798 0.711910 0.723781
0.927733 0.693385 0.700984
0.967712 0.690974 0.697841
0.991608 0.697871 0.706661
0.547997 0.735805 0.648707
0.569848 0.736904 0.657679
0.647120 0.740749 0.692073
0.657679 0.713497 0.676265
0.774868 0.760464 0.736263
0.882536 0.702113 0.603021
0.965820 0.663172 0.575006
1.000000 0.672999 0.622461
0.595178 0.755673 0.672999
0.596124 0.753201 0.671778
0.595758 0.739651 0.663142
0.599725 0.714015 0.650080
0.692683 0.751614 0.688685
0.803403 0.794003 0.753109
0.887022 0.786404 0.702235
0.979187 0.718563 0.580774
0.635096 0.800687 0.713649
0.633143 0.798734 0.711482
0.629816 0.792203 0.705684
0.635950 0.781704 0.701839
0.673854 0.788754 0.709712
0.767025 0.811398 0.753689
0.837522 0.832883 0.794339
0.890166 0.837247 0.783230
0.714504 0.846891 0.775662
0.714687 0.846281 0.775357
0.716518 0.844083 0.774716
0.729305 0.842252 0.779568
0.741207 0.837125 0.782040
0.785397 0.849119 0.798398
0.835630 0.860105 0.823697
0.872618 0.870512 0.845548
0.000000 0.431647 0.899077
0.000000 0.403876 0.899626
0.045167 0.332830 0.896239
0.621210 0.247532 0.886748
0.888914 0.000000 0.871397
1.000000 0.232578 0.814023
1.000000 0.425025 0.739834
1.000000 0.606134 0.743160
0.000000 0.494240 0.892149
0.000000 0.470558 0.892332
0.227298 0.398901 0.890410
0.625483 0.315770 0.879484
0.885649 0.210300 0.864164
1.000000 0.302068 0.807095
1.000000 0.463050 0.740444
1.000000 0.622614 0.746761
0.515496 0.706874 0.875181
0.514641 0.693233 0.875242
0.517845 0.626612 0.876005
0.670039 0.538384 0.866087
0.884520 0.472023 0.851408
0.988281 0.522271 0.796689
0.999969 0.620111 0.763272
0.986908 0.707851 0.777829
0.710262 0.830381 0.858915
0.723262 0.830259 0.858701
0.748135 0.815671 0.853666
0.759121 0.759792 0.846067
0.867613 0.716426 0.832425
0.922057 0.733364 0.805203
0.936034 0.767147 0.805386
0.943023 0.792874 0.816678
0.654353 0.820737 0.791470
0.667597 0.819638 0.792355
0.714656 0.816098 0.796475
0.777188 0.812100 0.803952
0.830564 0.806973 0.805570
0.876768 0.797238 0.796841
0.911589 0.795163 0.797147
0.934783 0.799924 0.804562
0.672816 0.807858 0.743496
0.684932 0.808835 0.749172
0.718776 0.808957 0.763821
0.759365 0.807706 0.781613
0.764889 0.795773 0.773648
0.833158 0.826047 0.814267
0.898466 0.790036 0.739376
0.947539 0.774533 0.736355
0.745632 0.834348 0.788113
0.750820 0.834806 0.790829
0.754116 0.832364 0.790738
0.752071 0.825437 0.785306
0.749111 0.812497 0.776272
0.796719 0.827451 0.796414
0.853086 0.848844 0.829770
0.896605 0.845762 0.806821
0.783047 0.860807 0.819211
0.781796 0.860166 0.818204
0.779873 0.858518 0.816068
0.779141 0.856046 0.813931
0.779416 0.851102 0.810758
0.797086 0.851408 0.815396
0.844480 0.864744 0.839475
0.878019 0.876005 0.859617
0.000000 0.497261 0.920623
0.000000 0.484596 0.921233
0.000000 0.431434 0.921660
0.491554 0.394079 0.917876
0.751400 0.290288 0.910674
0.946929 0.267735 0.901640
1.000000 0.380865 0.846952
1.000000 0.515190 0.786679
0.000000 0.542260 0.915404
0.000000 0.532006 0.916075
0.191989 0.476875 0.917174
0.507256 0.434241 0.913542
0.751217 0.332708 0.906340
0.943633 0.303532 0.896941
1.000000 0.394324 0.841489
1.000000 0.512474 0.781857
0.545800 0.712459 0.899931
0.546075 0.704585 0.900267
0.543603 0.664546 0.901732
0.613703 0.608942 0.900969
0.767697 0.516167 0.895750
0.934417 0.493141 0.887358
1.000000 0.559625 0.838102
1.000000 0.643336 0.802518
0.756222 0.835904 0.885130
0.759396 0.833890 0.884520
0.761044 0.820706 0.883360
0.751736 0.780331 0.883268
0.803647 0.724025 0.877928
0.908171 0.700069 0.871519
0.949798 0.726772 0.841337
0.956695 0.761135 0.828946
0.774166 0.863157 0.873442
0.778225 0.862608 0.873228
0.798398 0.862028 0.873564
0.823239 0.857939 0.873228
0.824125 0.822110 0.865324
0.881254 0.797574 0.856870
0.911986 0.805966 0.844419
0.923247 0.824399 0.847562
0.737362 0.854032 0.829068
0.743069 0.853880 0.830014
0.763668 0.853086 0.833555
0.795956 0.852506 0.840024
0.831174 0.852964 0.848417
0.863676 0.853635 0.854582
0.888243 0.850553 0.851896
0.907012 0.852750 0.855467
0.748898 0.852232 0.803464
0.753750 0.852415 0.805661
0.769741 0.852293 0.812497
0.796658 0.852689 0.824735
0.827817 0.854337 0.840177
0.831052 0.846250 0.836698
0.868132 0.864866 0.859495
0.906523 0.843626 0.819608
0.802670 0.871214 0.836362
0.804959 0.871305 0.837491
0.815244 0.872190 0.842832
0.829679 0.872770 0.850065
0.839231 0.871946 0.854093
0.838041 0.867216 0.850584
0.856077 0.871794 0.857694
0.885649 0.883879 0.875639
0.000000 0.547784 0.930571
0.000000 0.540215 0.930938
0.090883 0.497719 0.932341
0.412451 0.469368 0.931334
0.622766 0.417426 0.929076
0.827512 0.296727 0.925200
0.975891 0.346593 0.918639
1.000000 0.457435 0.872251
0.205386 0.582208 0.927062
0.227726 0.575769 0.927428
0.270817 0.537896 0.928954
0.442969 0.502861 0.928557
0.630304 0.449653 0.926665
0.826902 0.334020 0.923095
0.973541 0.372351 0.916533
1.000000 0.472114 0.870298
0.543999 0.709926 0.914122
0.544915 0.704677 0.914458
0.542931 0.677943 0.915984
0.583307 0.640894 0.917479
0.679866 0.587182 0.917082
0.828489 0.482307 0.915435
0.961242 0.506798 0.909239
1.000000 0.580987 0.867582
0.745998 0.826017 0.899260
0.746029 0.823758 0.899413
0.741726 0.811307 0.900023
0.736080 0.782864 0.901549
0.760830 0.745205 0.901732
0.836240 0.674708 0.900999
0.934417 0.677668 0.896696
0.970245 0.718715 0.868162
0.800107 0.869474 0.894072
0.802853 0.869078 0.894041
0.809689 0.865873 0.893462
0.823270 0.859373 0.891966
0.814542 0.831266 0.891783
0.844572 0.796201 0.888762
0.907988 0.785122 0.886351
0.933898 0.804349 0.871672
0.800046 0.881804 0.885832
0.802487 0.881559 0.885863
0.813748 0.881010 0.886320
0.834470 0.880949 0.887755
0.856504 0.880522 0.889647
0.859556 0.861357 0.886503
0.892058 0.848142 0.883116
0.912444 0.852018 0.876646
0.795163 0.882506 0.864530
0.797391 0.882383 0.864927
0.806546 0.881956 0.866667
0.823575 0.881651 0.870329
0.844694 0.881926 0.875486
0.866331 0.883665 0.881956
0.883787 0.877409 0.882048
0.899809 0.880644 0.883635
0.798184 0.881498 0.842954
0.799832 0.881346 0.843565
0.808225 0.881132 0.847074
0.824643 0.881346 0.854429
0.844633 0.882170 0.863890
0.865232 0.884062 0.874479
0.878691 0.885191 0.881498
0.893675 0.892576 0.890745
