lut_library_archive/removed_20260629/抖音热门推荐/抖音热门推荐07.cube
# 版权归凌孟成所有，侵权必究
# Created by Adobe Lightroom plugin Export LUT (1.24.0)
# www.johnrellis.com/lightroom/exportlut.htm
# Preset: INS风格-缇米设计07
# Color profile: C:\Program Files (x86)\Common Files\Adobe\Color\Profiles\Recommended\VideoHD.icc
LUT_3D_SIZE 5
DOMAIN_MIN 0.000000 0.000000 0.000000
DOMAIN_MAX 0.903226 0.903226 0.903226
0.156710 0.128664 0.119570
0.290623 0.135439 0.129671
0.580499 0.097322 0.139651
0.798795 0.228519 0.167971
0.904906 0.394568 0.243259
0.165438 0.213657 0.140566
0.279179 0.219577 0.149569
0.564630 0.244144 0.134981
0.779477 0.316716 0.163027
0.896910 0.441932 0.249180
0.000000 0.434272 0.198337
0.141756 0.410285 0.184115
0.572259 0.488716 0.279606
0.734432 0.505058 0.156588
0.865415 0.547265 0.261204
0.000000 0.614984 0.318151
0.000000 0.602655 0.296788
0.329625 0.574823 0.273289
0.717647 0.661067 0.495003
0.826993 0.675196 0.439582
0.302068 0.757107 0.516960
0.311162 0.754330 0.506615
0.314305 0.735073 0.443488
0.623926 0.740108 0.531487
0.800137 0.769589 0.695216
0.162997 0.150698 0.172335
0.298589 0.132692 0.199069
0.599237 0.091585 0.208530
0.785000 0.243565 0.242466
0.893858 0.387366 0.295598
0.181857 0.244175 0.194888
0.311833 0.253696 0.210636
0.585473 0.266606 0.218692
0.772122 0.324224 0.239292
0.885863 0.430488 0.297215
0.176211 0.475807 0.276463
0.241978 0.455024 0.256352
0.570855 0.492866 0.330632
0.730098 0.503166 0.235569
0.861326 0.546349 0.316136
0.149813 0.633082 0.384710
0.193332 0.622217 0.363012
0.341192 0.581659 0.309941
0.717678 0.665309 0.521630
0.824399 0.675013 0.454963
0.352422 0.759091 0.541680
0.357244 0.756191 0.531121
0.379614 0.744350 0.487495
0.627466 0.743130 0.548363
0.801358 0.773220 0.705135
0.000000 0.219730 0.379675
0.213840 0.185122 0.415076
0.655787 0.121920 0.494850
0.829435 0.287755 0.493202
0.896361 0.409613 0.476783
0.175570 0.343847 0.399054
0.279698 0.319402 0.431495
0.655421 0.301884 0.503807
0.808530 0.376532 0.485328
0.886015 0.450294 0.476844
0.091310 0.560479 0.479255
0.328954 0.565209 0.491127
0.612177 0.566461 0.521111
0.747311 0.547906 0.484077
0.852506 0.562402 0.492164
0.351751 0.689998 0.540642
0.418280 0.681910 0.539910
0.509117 0.646967 0.506615
0.722927 0.685878 0.606500
0.818296 0.673396 0.497780
0.438911 0.768978 0.616266
0.475990 0.765774 0.619165
0.490669 0.754513 0.583368
0.591333 0.739681 0.560601
0.798367 0.773404 0.717647
0.000000 0.359564 0.625849
0.000000 0.311589 0.640040
0.595300 0.263828 0.678309
0.824002 0.373724 0.700618
0.881926 0.528252 0.688380
0.000000 0.464942 0.625788
0.198856 0.431861 0.637964
0.585504 0.372198 0.674586
0.809018 0.447639 0.695888
0.871885 0.553368 0.685420
0.284001 0.602777 0.630762
0.390448 0.602228 0.633082
0.577356 0.592950 0.663661
0.770474 0.604028 0.690639
0.842771 0.628046 0.680293
0.416297 0.726650 0.676570
0.466285 0.725490 0.678523
0.609735 0.724575 0.690517
0.737240 0.719112 0.702419
0.811612 0.696010 0.664210
0.439887 0.798337 0.700221
0.475196 0.795804 0.700679
0.583368 0.785306 0.702083
0.657008 0.758755 0.675898
0.797940 0.780972 0.747189
0.000000 0.532464 0.764065
0.164706 0.506279 0.768063
0.523583 0.443641 0.779995
0.777890 0.473091 0.790249
0.870909 0.577203 0.788785
0.259861 0.577844 0.758816
0.310857 0.560174 0.762539
0.518120 0.496468 0.775784
0.767269 0.515618 0.786770
0.863554 0.600000 0.786831
0.369116 0.666468 0.747677
0.428962 0.663661 0.750088
0.559899 0.642908 0.762234
0.736782 0.625116 0.778195
0.841855 0.671443 0.783719
0.402991 0.741970 0.757076
0.444190 0.740108 0.756832
0.577325 0.734676 0.757534
0.715724 0.728206 0.771145
0.824674 0.739803 0.785916
0.480781 0.809598 0.772030
0.515251 0.808042 0.772427
0.621637 0.803922 0.775296
0.724544 0.802060 0.781918
0.805295 0.801053 0.789761
