lut_library_archive/removed_20260629/抖音热门推荐/抖音热门推荐11.cube
# 版权归凌孟成所有，侵权必究
# Created by Adobe Lightroom plugin Export LUT (1.24.0)
# www.johnrellis.com/lightroom/exportlut.htm
# Preset: INS风格-缇米设计11
# Color profile: C:\Program Files (x86)\Common Files\Adobe\Color\Profiles\Recommended\VideoHD.icc
LUT_3D_SIZE 5
DOMAIN_MIN 0.000000 0.000000 0.000000
DOMAIN_MAX 0.903226 0.903226 0.903226
0.167361 0.167361 0.167361
0.503502 0.016205 0.181735
1.000000 0.000000 0.165225
1.000000 0.255589 0.258854
1.000000 0.361334 0.362341
0.184512 0.303166 0.243931
0.324285 0.322148 0.252293
0.863890 0.402258 0.000000
1.000000 0.386358 0.221561
1.000000 0.415717 0.355505
0.289464 0.569787 0.436866
0.319860 0.568109 0.416968
0.655756 0.649775 0.498726
0.973571 0.628962 0.284794
1.000000 0.546319 0.284459
0.499702 0.774350 0.633906
0.513451 0.766842 0.633783
0.627588 0.786130 0.646662
0.812772 0.809201 0.713954
0.952117 0.785519 0.634699
0.742245 0.860197 0.794278
0.746059 0.859037 0.795468
0.753048 0.856992 0.789548
0.816007 0.864775 0.812436
0.875181 0.873747 0.839933
0.000000 0.229038 0.301122
0.494484 0.000000 0.387854
1.000000 0.190921 0.376684
1.000000 0.369146 0.410071
1.000000 0.447333 0.466499
0.280003 0.412940 0.352697
0.434455 0.418036 0.389197
0.897063 0.419715 0.294011
1.000000 0.428656 0.363622
1.000000 0.472023 0.448219
0.349157 0.592615 0.472786
0.379065 0.580957 0.462593
0.663844 0.652949 0.531609
0.964233 0.618738 0.319432
1.000000 0.564935 0.373632
0.534020 0.779904 0.652277
0.546136 0.772854 0.652674
0.646723 0.789303 0.666712
0.817350 0.812894 0.731991
0.948547 0.790036 0.655360
0.754665 0.862119 0.801999
0.757595 0.860929 0.802731
0.774868 0.861265 0.806180
0.825864 0.868193 0.823667
0.878447 0.877073 0.848569
0.000000 0.305150 0.682490
0.329107 0.175326 0.750729
1.000000 0.000000 0.770962
1.000000 0.551751 0.685969
0.985077 0.748135 0.774441
0.103243 0.529229 0.657862
0.397894 0.470192 0.734585
0.961334 0.508812 0.741817
0.977874 0.705104 0.747189
0.986816 0.742428 0.761013
0.580285 0.764858 0.678523
0.673854 0.765347 0.717556
0.781643 0.766323 0.740566
0.957031 0.672023 0.579706
0.999634 0.710567 0.679408
0.675257 0.812741 0.738735
0.672297 0.805020 0.732540
0.714626 0.804440 0.737484
0.837675 0.832181 0.793973
0.938415 0.805203 0.720150
0.790860 0.869139 0.825528
0.793851 0.868528 0.826627
0.804318 0.865599 0.830228
0.840269 0.872740 0.841978
0.883207 0.881804 0.862486
0.000000 0.413611 0.876005
0.000000 0.339055 0.886625
0.757900 0.290196 0.908690
1.000000 0.452003 0.848936
0.997925 0.710689 0.805753
0.000000 0.558068 0.856260
0.210605 0.509911 0.868772
0.778744 0.521508 0.894316
0.994018 0.622309 0.842649
0.970214 0.765469 0.824186
0.502190 0.776822 0.799496
0.599451 0.779110 0.805081
0.821653 0.811215 0.854368
0.905211 0.826200 0.849210
0.920470 0.850553 0.860288
0.788968 0.857725 0.824002
0.802640 0.857298 0.829923
0.835477 0.856260 0.844724
0.867369 0.863706 0.857694
0.919677 0.843015 0.825376
0.857481 0.886381 0.870787
0.857267 0.885924 0.870359
0.857176 0.884184 0.869078
0.863920 0.883299 0.869688
0.892790 0.891661 0.883513
0.000000 0.501305 0.919860
0.000000 0.463691 0.922728
0.507408 0.428901 0.927306
0.881468 0.447059 0.929625
1.000000 0.629389 0.884855
0.133455 0.585931 0.909300
0.237064 0.561639 0.912291
0.557305 0.532921 0.918547
0.881041 0.577569 0.920745
0.987304 0.704158 0.883391
0.550225 0.766720 0.874998
0.621424 0.773495 0.876707
0.710994 0.757870 0.889067
0.879911 0.799741 0.898863
0.931273 0.832944 0.886229
0.712062 0.867063 0.865019
0.731533 0.865599 0.865660
0.799710 0.864164 0.870512
0.877562 0.877043 0.890929
0.908659 0.885557 0.893919
0.858366 0.895659 0.878050
0.861936 0.895720 0.879667
0.876677 0.896971 0.887114
0.894255 0.900023 0.897002
0.903502 0.903044 0.902251
