lut_library_archive/removed_20260629/抖音热门推荐/抖音热门推荐10.cube
# 版权归凌孟成所有，侵权必究
# Created by Adobe Lightroom plugin Export LUT (1.24.0)
# www.johnrellis.com/lightroom/exportlut.htm
# Preset: INS风格-缇米设计10
# Color profile: C:\Program Files (x86)\Common Files\Adobe\Color\Profiles\Recommended\VideoHD.icc
LUT_3D_SIZE 8
DOMAIN_MIN 0.000000 0.000000 0.000000
DOMAIN_MAX 0.903226 0.903226 0.903226
0.167361 0.167361 0.167361
0.223117 0.163821 0.170901
0.596124 0.000000 0.185702
0.909850 0.000000 0.183169
1.000000 0.185092 0.204105
1.000000 0.299321 0.293431
1.000000 0.375341 0.368170
1.000000 0.436530 0.431556
0.171481 0.211398 0.190829
0.210513 0.211704 0.194308
0.508293 0.247623 0.166140
0.830137 0.263737 0.156558
1.000000 0.287968 0.186221
1.000000 0.330541 0.273289
1.000000 0.382513 0.349859
1.000000 0.437232 0.418647
0.199588 0.336309 0.268437
0.215763 0.337957 0.263859
0.386816 0.384161 0.295720
0.706691 0.456764 0.190005
0.955901 0.470222 0.155276
1.000000 0.460487 0.263981
1.000000 0.472114 0.359899
1.000000 0.497597 0.432136
0.270207 0.499641 0.388647
0.283207 0.490791 0.385229
0.380346 0.531884 0.398108
0.623529 0.617853 0.476722
0.871611 0.659083 0.409735
0.996002 0.595056 0.260655
1.000000 0.569390 0.341009
1.000000 0.566278 0.424262
0.341405 0.632959 0.492103
0.349889 0.625940 0.490303
0.384863 0.645563 0.484718
0.556085 0.690852 0.535149
0.744717 0.739528 0.609247
0.887724 0.751125 0.586694
0.986023 0.695277 0.459632
1.000000 0.637354 0.394141
0.464240 0.744594 0.602716
0.476814 0.746792 0.608759
0.498390 0.747036 0.607660
0.577447 0.767788 0.623529
0.703853 0.789456 0.670344
0.815915 0.812528 0.727871
0.888609 0.820798 0.738369
0.956329 0.787411 0.656764
0.624140 0.819791 0.714382
0.627924 0.819455 0.715908
0.633722 0.814847 0.715663
0.663081 0.822416 0.718715
0.728176 0.830808 0.741115
0.798734 0.841764 0.773678
0.855222 0.853635 0.805844
0.890043 0.857084 0.814725
0.749477 0.859403 0.797787
0.750240 0.859098 0.797971
0.754482 0.857969 0.799405
0.765866 0.858427 0.802823
0.776333 0.860075 0.799924
0.815885 0.865751 0.817685
0.851652 0.872251 0.835904
0.879362 0.878264 0.851194
0.158602 0.177340 0.192050
0.230442 0.156954 0.200900
0.566369 0.011109 0.212253
0.856474 0.169619 0.227909
1.000000 0.246403 0.266941
1.000000 0.325658 0.329473
1.000000 0.389532 0.388739
1.000000 0.446357 0.446082
0.171267 0.219944 0.197787
0.230076 0.225193 0.217044
0.504997 0.259892 0.205600
0.810666 0.287938 0.214603
1.000000 0.316930 0.255253
1.000000 0.356786 0.318914
1.000000 0.401038 0.378149
1.000000 0.448859 0.436042
0.240208 0.357488 0.297093
0.255802 0.356115 0.295262
0.409705 0.402594 0.330175
0.696193 0.452888 0.230564
0.936400 0.465431 0.213230
1.000000 0.462562 0.294316
1.000000 0.472267 0.371130
1.000000 0.499031 0.440040
0.285283 0.487709 0.387579
0.296788 0.477974 0.385626
0.383246 0.519432 0.400427
0.600855 0.593500 0.468635
0.842954 0.633417 0.393744
0.977905 0.579278 0.253971
1.000000 0.561212 0.339178
1.000000 0.561242 0.423255
0.351843 0.629999 0.494240
0.358526 0.621942 0.491371
0.390326 0.635920 0.484962
0.548608 0.678614 0.529595
0.733486 0.727230 0.600031
0.881712 0.741909 0.574914
0.982452 0.688472 0.452216
1.000000 0.634760 0.397345
0.460060 0.737392 0.597192
0.464515 0.734798 0.597162
0.486152 0.733883 0.596704
0.566430 0.758145 0.614130
0.697230 0.783261 0.663966
0.813382 0.809628 0.725704
0.887419 0.818357 0.735073
0.956146 0.784360 0.652369
0.613367 0.815152 0.706966
0.612482 0.813260 0.705379
0.617823 0.808194 0.704555
0.649561 0.816281 0.708827
0.721401 0.827115 0.735225
0.794644 0.838804 0.769131
0.852445 0.850645 0.801083
0.889067 0.854276 0.809781
0.743771 0.857664 0.793973
0.746181 0.857725 0.795193
0.750118 0.856474 0.796414
0.761624 0.856626 0.800046
0.783688 0.861997 0.805966
0.818601 0.866606 0.820554
0.852049 0.872313 0.836698
0.879454 0.878325 0.851804
0.000000 0.221164 0.309911
0.151949 0.169589 0.363287
0.591089 0.000000 0.458198
0.928649 0.000000 0.455695
1.000000 0.384558 0.487831
1.000000 0.470954 0.513756
1.000000 0.524743 0.546227
1.000000 0.566979 0.580865
0.148989 0.270054 0.322576
0.215183 0.248875 0.372107
0.611902 0.230777 0.441016
0.901488 0.319249 0.448951
1.000000 0.410834 0.464851
1.000000 0.475074 0.495827
1.000000 0.519554 0.529870
1.000000 0.561151 0.568414
0.338354 0.472236 0.410193
0.394568 0.474525 0.432898
0.514855 0.497261 0.466835
0.764858 0.488380 0.364538
0.960082 0.508019 0.404303
1.000000 0.523552 0.456550
1.000000 0.548699 0.507897
1.000000 0.580163 0.556878
0.380896 0.564599 0.471473
0.391638 0.556176 0.470466
0.453925 0.571893 0.479591
0.663569 0.649897 0.561639
0.860960 0.653101 0.466194
0.979980 0.597375 0.377142
1.000000 0.599817 0.462409
1.000000 0.614313 0.532006
0.420081 0.661433 0.539788
0.425055 0.655390 0.537774
0.453040 0.654536 0.535241
0.592309 0.701472 0.582391
0.760342 0.751675 0.657832
0.882750 0.755398 0.621027
0.976837 0.698665 0.505669
1.000000 0.659937 0.488075
0.509087 0.749325 0.625116
0.513024 0.747311 0.625391
0.525780 0.737789 0.623438
0.593072 0.762081 0.638392
0.714015 0.787655 0.688197
0.819425 0.814878 0.747890
0.886107 0.823606 0.752773
0.949248 0.793637 0.683955
0.648920 0.821347 0.727810
0.648188 0.819791 0.726528
0.650202 0.814572 0.724208
0.673854 0.818235 0.727169
0.735836 0.829435 0.750088
0.804044 0.842100 0.783352
0.857206 0.855222 0.815000
0.889921 0.859495 0.822080
0.759365 0.860288 0.803738
0.759243 0.859800 0.803372
0.762478 0.858610 0.804288
0.773312 0.857877 0.808896
0.792508 0.863493 0.813779
0.826139 0.868742 0.828763
0.856962 0.874723 0.844205
0.881804 0.880674 0.858091
0.000000 0.234012 0.455146
0.000000 0.192844 0.502464
0.562036 0.000000 0.687678
0.915435 0.000000 0.702327
1.000000 0.327428 0.634241
1.000000 0.578576 0.669306
1.000000 0.684443 0.719783
1.000000 0.703365 0.726619
0.000000 0.291508 0.464088
0.000000 0.267277 0.508507
0.585687 0.245243 0.689631
0.916258 0.233249 0.692470
1.000000 0.448951 0.647028
1.000000 0.628412 0.691005
1.000000 0.682582 0.713100
1.000000 0.702388 0.722499
0.202457 0.448798 0.462898
0.278752 0.463416 0.483650
0.619226 0.566369 0.666163
0.865965 0.605890 0.674372
0.943420 0.668147 0.695186
0.980713 0.674983 0.688533
0.994781 0.697597 0.704402
1.000000 0.714473 0.720027
0.516503 0.699580 0.614496
0.553948 0.700252 0.629114
0.603235 0.674220 0.634363
0.745754 0.728878 0.700221
0.876493 0.662867 0.553857
0.960418 0.663722 0.586267
0.992218 0.685206 0.640131
1.000000 0.708858 0.683772
0.564477 0.736233 0.646967
0.565118 0.730159 0.643458
0.573327 0.708064 0.633997
0.667018 0.741299 0.669978
0.797024 0.787167 0.740291
0.883330 0.776120 0.688258
0.965972 0.718166 0.590997
0.994232 0.721584 0.640009
0.615106 0.782956 0.693294
0.622980 0.783932 0.697292
0.624994 0.774014 0.692195
0.659968 0.782498 0.698756
0.757351 0.806149 0.744625
0.834745 0.829831 0.789944
0.885740 0.834775 0.784207
0.938262 0.809476 0.733120
0.705745 0.832242 0.762722
0.707362 0.831754 0.763210
0.711452 0.828885 0.763424
0.723842 0.826230 0.765530
0.768765 0.838193 0.782650
0.822385 0.850126 0.809598
0.864469 0.862364 0.834928
0.891417 0.866239 0.837675
0.790585 0.866941 0.824063
0.790921 0.866667 0.824063
0.792935 0.865690 0.824491
0.798215 0.864042 0.826200
0.811154 0.866850 0.829831
0.837644 0.872435 0.841459
0.864408 0.878599 0.855375
0.885832 0.884764 0.867979
0.000000 0.279698 0.613306
0.000000 0.247044 0.647395
0.344030 0.193362 0.758480
0.823880 0.123232 0.857939
1.000000 0.277012 0.804746
1.000000 0.502525 0.733425
1.000000 0.677852 0.757626
0.972564 0.766903 0.799069
0.000000 0.320958 0.607568
0.000000 0.300999 0.642420
0.358862 0.272343 0.756069
0.828824 0.309789 0.853574
1.000000 0.390967 0.798581
1.000000 0.566064 0.743587
0.990143 0.705348 0.769314
0.965637 0.778592 0.805753
0.000000 0.432593 0.543450
0.135409 0.453376 0.588128
0.389441 0.464881 0.724605
0.831174 0.596551 0.829740
0.952178 0.629023 0.785672
0.961608 0.712428 0.776638
0.952361 0.774166 0.800870
0.948119 0.805081 0.819699
0.302739 0.665126 0.642390
0.367803 0.674983 0.655482
0.587366 0.718807 0.713832
0.822477 0.791806 0.804227
0.877134 0.796323 0.802152
0.912688 0.788937 0.792142
0.935149 0.792355 0.794980
0.948119 0.800076 0.803464
0.676753 0.799863 0.740139
0.692805 0.800290 0.747219
0.745663 0.802274 0.772213
0.748287 0.784085 0.760006
0.826413 0.818418 0.805295
0.883391 0.784573 0.734829
0.933227 0.773678 0.733211
0.949584 0.791623 0.770169
0.717678 0.813687 0.762325
0.717891 0.812222 0.761501
0.714931 0.804074 0.755123
0.713497 0.788388 0.745510
0.780331 0.813779 0.778073
0.846525 0.841611 0.820829
0.886931 0.841276 0.805539
0.932586 0.816587 0.764950
0.764614 0.845884 0.801297
0.763210 0.844846 0.800015
0.760922 0.841581 0.796811
0.764920 0.837095 0.796078
0.787259 0.842191 0.803616
0.834318 0.855222 0.828153
0.870054 0.867857 0.850156
0.893126 0.870054 0.847257
0.811093 0.871916 0.838163
0.811185 0.871641 0.838041
0.812253 0.870695 0.837949
0.819120 0.870359 0.841184
0.825498 0.868650 0.843290
0.846189 0.875334 0.851926
0.870176 0.881773 0.864561
0.888945 0.887907 0.875669
0.000000 0.336553 0.773465
0.000000 0.312047 0.787747
0.000000 0.258793 0.831022
0.626581 0.277287 0.884703
0.915343 0.377356 0.899260
1.000000 0.494270 0.844877
1.000000 0.637903 0.800046
0.978119 0.752346 0.816190
0.000000 0.363104 0.753353
0.000000 0.344732 0.768063
0.000000 0.298314 0.819547
0.630152 0.336980 0.876860
0.912230 0.437354 0.893156
1.000000 0.536614 0.840726
1.000000 0.662043 0.803098
0.973083 0.760800 0.818692
0.000000 0.466438 0.706386
0.000000 0.463600 0.724849
0.137697 0.437659 0.793118
0.664485 0.532525 0.859495
0.900298 0.643488 0.876463
0.962737 0.691951 0.838621
0.959716 0.757076 0.825528
0.949126 0.803220 0.836576
0.000000 0.516533 0.574731
0.000000 0.518608 0.580041
0.391211 0.612238 0.705623
0.729427 0.730190 0.830961
0.880156 0.800412 0.860685
0.911223 0.811948 0.847868
0.919493 0.831022 0.849973
0.923644 0.845853 0.857542
0.580346 0.790860 0.755306
0.608301 0.794247 0.761929
0.704799 0.808408 0.788388
0.810941 0.834836 0.829221
0.859861 0.848569 0.847807
0.884245 0.845090 0.844755
0.903532 0.847074 0.847776
0.916411 0.852262 0.854154
0.775326 0.845853 0.811093
0.782193 0.846647 0.814664
0.800504 0.847196 0.823301
0.822660 0.847440 0.833890
0.825864 0.841611 0.830259
0.864927 0.861418 0.855680
0.892119 0.848417 0.828611
0.915557 0.848356 0.834165
0.826322 0.866270 0.844999
0.829160 0.866728 0.846647
0.830991 0.865843 0.846952
0.830625 0.862943 0.844938
0.830228 0.857664 0.841764
0.852995 0.866300 0.852842
0.880156 0.878264 0.869932
0.897368 0.877836 0.863096
0.851316 0.882933 0.865721
0.850675 0.882597 0.865171
0.849729 0.881773 0.864164
0.849363 0.880674 0.863188
0.849485 0.878569 0.861936
0.857664 0.879667 0.864927
0.878050 0.886717 0.875883
0.893706 0.892790 0.885374
0.000000 0.380926 0.857725
0.000000 0.364782 0.863218
0.000000 0.306065 0.878508
0.442908 0.319585 0.898802
0.770932 0.402716 0.915740
0.948180 0.508446 0.911376
1.000000 0.611109 0.868193
0.992523 0.708858 0.836851
0.000000 0.399603 0.844785
0.000000 0.386786 0.851469
0.000000 0.327398 0.869871
0.444831 0.347784 0.892638
0.772061 0.437812 0.911498
0.944976 0.531395 0.907652
1.000000 0.617609 0.864683
0.992767 0.705196 0.833463
0.000000 0.483711 0.816556
0.000000 0.476967 0.823239
0.000000 0.443122 0.847501
0.479683 0.470466 0.878264
0.791836 0.599878 0.898070
0.927398 0.673304 0.895811
0.965209 0.726467 0.865202
0.960113 0.776974 0.849912
0.000000 0.569451 0.734585
0.000000 0.575921 0.747677
0.252537 0.592706 0.793759
0.545708 0.622827 0.848936
0.818662 0.755917 0.878782
0.903685 0.797238 0.883574
0.926757 0.813931 0.869230
0.930388 0.832853 0.864866
0.000000 0.664698 0.700862
0.000000 0.662898 0.700862
0.238560 0.663203 0.709560
0.541711 0.709834 0.771054
0.816373 0.814237 0.859464
0.889342 0.846799 0.876616
0.906523 0.853422 0.872129
0.913115 0.864805 0.875761
0.689723 0.838712 0.807584
0.701350 0.839628 0.810513
0.741421 0.843290 0.821256
0.798062 0.851438 0.839628
0.849760 0.864897 0.861723
0.883391 0.878569 0.879026
0.895720 0.878752 0.879332
0.905303 0.881529 0.882628
0.830900 0.876493 0.854368
0.833310 0.876768 0.855619
0.841032 0.877165 0.859342
0.854063 0.878325 0.866056
0.869291 0.880583 0.874510
0.871702 0.877928 0.873991
0.889189 0.887785 0.885496
0.902159 0.881559 0.873594
0.862364 0.889525 0.875486
0.863493 0.889708 0.876127
0.868559 0.890684 0.879118
0.875517 0.891875 0.883177
0.880278 0.892363 0.885740
0.880186 0.890745 0.884672
0.887144 0.893065 0.887724
0.899382 0.898680 0.895293
0.000000 0.417884 0.899046
0.000000 0.407111 0.900999
0.000000 0.351965 0.907042
0.247654 0.348455 0.914855
0.608057 0.384955 0.922759
0.847196 0.500420 0.926268
0.959991 0.589227 0.917937
0.994781 0.681086 0.885405
0.000000 0.432868 0.893675
0.000000 0.423407 0.895811
0.000000 0.375097 0.902800
0.251438 0.367071 0.911650
0.610895 0.409674 0.920165
0.847684 0.529320 0.923735
0.957031 0.606134 0.915984
0.991302 0.689021 0.884276
0.000000 0.496468 0.877104
0.000000 0.489967 0.879454
0.000000 0.459632 0.888029
0.293919 0.448188 0.901701
0.634943 0.515923 0.910796
0.852689 0.645472 0.913634
0.940368 0.699245 0.907774
0.966430 0.751278 0.883635
0.000000 0.585016 0.838102
0.000000 0.583215 0.842252
0.000000 0.573022 0.856352
0.368170 0.564630 0.878721
0.675990 0.648890 0.893278
0.859129 0.765164 0.899901
0.918639 0.794430 0.898558
0.936889 0.817350 0.885191
0.000000 0.609522 0.730922
0.000000 0.614984 0.741543
0.000000 0.630457 0.776852
0.429328 0.677821 0.832273
0.681849 0.726314 0.870573
0.856138 0.820493 0.889281
0.904814 0.846098 0.894011
0.918273 0.858030 0.888487
0.000000 0.772580 0.790738
0.000000 0.770321 0.790036
0.000000 0.763333 0.789609
0.350896 0.754360 0.793362
0.604028 0.766232 0.818051
0.850950 0.852934 0.880735
0.899077 0.879088 0.894926
0.909056 0.882292 0.893034
0.756008 0.874479 0.850645
0.759945 0.874449 0.851408
0.775967 0.874418 0.854765
0.804868 0.875425 0.861784
0.838407 0.878386 0.871458
0.868986 0.884337 0.882811
0.897551 0.894835 0.896788
0.904967 0.897185 0.898405
0.861631 0.894987 0.879210
0.862394 0.894957 0.879545
0.866209 0.895171 0.881376
0.873777 0.895964 0.885252
0.882963 0.897307 0.890257
0.892393 0.899260 0.895750
0.898558 0.900786 0.899504
0.904112 0.903716 0.903075
