lut_library_archive/removed_20260629/抖音热门推荐/抖音热门推荐03.cube
# 版权归凌孟成所有，侵权必究
# Created by Adobe Lightroom plugin Export LUT (1.24.0)
# www.johnrellis.com/lightroom/exportlut.htm
# Preset: INS风格-缇米设计03
# Color profile: C:\Program Files (x86)\Common Files\Adobe\Color\Profiles\Recommended\VideoHD.icc
LUT_3D_SIZE 8
DOMAIN_MIN 0.000000 0.000000 0.000000
DOMAIN_MAX 0.903226 0.903226 0.903226
0.123201 0.104616 0.101534
0.207187 0.102937 0.103944
0.461372 0.041688 0.115511
0.679500 0.017578 0.123445
0.824247 0.240787 0.138552
0.922118 0.410285 0.202304
0.965240 0.513115 0.317723
0.983673 0.598535 0.463081
0.146212 0.144869 0.119783
0.200076 0.158206 0.135042
0.425849 0.165866 0.110964
0.638636 0.166201 0.117586
0.793332 0.264256 0.129458
0.898863 0.394446 0.175021
0.949676 0.497993 0.276921
0.980346 0.585443 0.429511
0.220829 0.281682 0.189120
0.258549 0.261570 0.195071
0.499916 0.429847 0.345068
0.574640 0.314397 0.095369
0.753170 0.378607 0.096315
0.875669 0.468482 0.155795
0.943999 0.555291 0.299687
0.972473 0.630030 0.461982
0.311620 0.441077 0.299199
0.335424 0.424140 0.297765
0.463935 0.479805 0.375525
0.732387 0.706600 0.670497
0.774228 0.576318 0.264439
0.842283 0.548486 0.091218
0.920775 0.613336 0.280583
0.958526 0.667414 0.457038
0.404761 0.569116 0.424872
0.415473 0.557794 0.418982
0.454383 0.510491 0.403265
0.653498 0.670497 0.605921
0.795834 0.783322 0.764950
0.827634 0.714595 0.568109
0.879850 0.651575 0.172580
0.942962 0.700069 0.426001
0.506737 0.669917 0.547936
0.518608 0.670680 0.553033
0.540093 0.645197 0.542412
0.610986 0.663935 0.588098
0.756802 0.762509 0.735836
0.831296 0.824063 0.807126
0.853361 0.797269 0.738033
0.918334 0.759396 0.547967
0.632380 0.755245 0.678157
0.637232 0.754299 0.679042
0.646113 0.745357 0.674372
0.664851 0.727871 0.669032
0.739559 0.766079 0.732753
0.812833 0.817350 0.794308
0.849912 0.844266 0.832395
0.866575 0.833951 0.800809
0.736477 0.828336 0.775143
0.738033 0.827726 0.775235
0.745785 0.825559 0.776394
0.761318 0.821500 0.779812
0.770535 0.808713 0.776333
0.816617 0.830686 0.805844
0.846525 0.847257 0.832303
0.860472 0.857511 0.851682
0.120180 0.112886 0.127687
0.214725 0.099336 0.141817
0.464698 0.000000 0.147036
0.668391 0.129793 0.170474
0.805173 0.250706 0.186831
0.898955 0.377111 0.222873
0.945434 0.482948 0.301732
0.977691 0.570336 0.431922
0.127260 0.169467 0.138491
0.228153 0.176638 0.149813
0.444373 0.186313 0.155093
0.648646 0.201480 0.164889
0.788846 0.282597 0.178988
0.886992 0.387243 0.211826
0.936492 0.482002 0.284367
0.973785 0.564721 0.410407
0.254032 0.316075 0.218936
0.289311 0.297276 0.222202
0.506523 0.438483 0.365850
0.590845 0.331731 0.142641
0.743008 0.373816 0.150607
0.858457 0.448768 0.186252
0.924620 0.525566 0.280034
0.966827 0.602502 0.427131
0.326543 0.452796 0.314488
0.348272 0.436683 0.311986
0.458412 0.468482 0.370642
0.710597 0.681086 0.639887
0.731868 0.534630 0.230625
0.808347 0.513451 0.120516
0.899596 0.576715 0.247044
0.951568 0.641901 0.412543
0.415991 0.575219 0.436072
0.424598 0.563409 0.428717
0.458991 0.515648 0.409400
0.641260 0.656092 0.591333
0.787289 0.772549 0.755520
0.817472 0.700069 0.538506
0.868070 0.630793 0.167910
0.936461 0.688472 0.399664
0.503380 0.665003 0.543603
0.509239 0.659602 0.541100
0.530907 0.634516 0.530266
0.598932 0.647120 0.571069
0.751217 0.755428 0.728695
0.829404 0.822171 0.805234
0.851316 0.792203 0.730739
0.917632 0.749203 0.518761
0.617517 0.749203 0.667048
0.617243 0.746090 0.663691
0.625422 0.736629 0.657465
0.646418 0.718349 0.652033
0.732967 0.757870 0.723842
0.809171 0.814084 0.790738
0.848234 0.842374 0.829892
0.864561 0.830320 0.795499
0.726131 0.824552 0.768765
0.729641 0.824674 0.770108
0.736995 0.822171 0.770871
0.753048 0.817868 0.774289
0.776577 0.812589 0.781308
0.817472 0.831388 0.806821
0.846220 0.846983 0.831968
0.860410 0.857420 0.851591
0.107271 0.143099 0.231449
0.181369 0.127901 0.257816
0.518547 0.000000 0.329290
0.748257 0.106447 0.333745
0.855802 0.285649 0.332830
0.904326 0.439582 0.384405
0.942473 0.524132 0.445075
0.965850 0.607660 0.534691
0.177340 0.217716 0.246067
0.227756 0.204044 0.274327
0.531456 0.200931 0.334722
0.728267 0.232273 0.321996
0.829007 0.357733 0.343450
0.893950 0.444373 0.368078
0.935851 0.520684 0.425422
0.964141 0.601617 0.518547
0.157473 0.431678 0.325719
0.286931 0.438666 0.336889
0.524315 0.443336 0.367803
0.671839 0.420447 0.314153
0.786770 0.447578 0.315404
0.872892 0.492866 0.343236
0.924163 0.552361 0.412879
0.957061 0.624659 0.515404
0.399390 0.562066 0.438300
0.446021 0.555016 0.444984
0.502617 0.499306 0.427741
0.722438 0.694820 0.660365
0.712154 0.506157 0.236484
0.833494 0.546349 0.285008
0.903349 0.600763 0.382177
0.945251 0.660731 0.506554
0.488960 0.631220 0.519005
0.496193 0.622065 0.512779
0.521813 0.583185 0.491066
0.655207 0.668421 0.614557
0.795956 0.784848 0.769802
0.813535 0.693324 0.534600
0.871275 0.644251 0.301488
0.932403 0.695583 0.481239
0.537743 0.694514 0.586389
0.542626 0.690242 0.584161
0.559197 0.667048 0.571466
0.600275 0.640589 0.573083
0.752132 0.755886 0.732143
0.830869 0.824033 0.808408
0.850004 0.788754 0.727504
0.920897 0.744076 0.498024
0.642725 0.760494 0.689204
0.642969 0.757626 0.686549
0.647822 0.747585 0.678798
0.662226 0.729549 0.669642
0.731441 0.755947 0.723354
0.810666 0.815335 0.793149
0.849973 0.844602 0.833463
0.865934 0.832120 0.798367
0.730739 0.827756 0.773465
0.731319 0.826780 0.772885
0.737911 0.824186 0.773098
0.755337 0.820859 0.777310
0.775570 0.812680 0.781613
0.817838 0.831876 0.807797
0.847135 0.847929 0.833738
0.860929 0.858213 0.852964
0.000000 0.193423 0.392004
0.000000 0.173068 0.421241
0.472663 0.132906 0.516350
0.759823 0.197910 0.578515
0.877165 0.361059 0.576379
0.912902 0.449256 0.541314
0.938872 0.533898 0.554070
0.944427 0.637964 0.624872
0.140658 0.277958 0.420966
0.182315 0.257633 0.445258
0.500511 0.242893 0.529961
0.759335 0.307164 0.584283
0.868162 0.412909 0.574212
0.905791 0.472053 0.539422
0.930053 0.553674 0.561761
0.942962 0.640406 0.622095
0.232609 0.439673 0.456580
0.310704 0.447120 0.465339
0.517845 0.463386 0.536309
0.739315 0.512078 0.587854
0.831815 0.522179 0.556786
0.873686 0.565057 0.559930
0.912108 0.616541 0.588556
0.937285 0.667353 0.633417
0.344488 0.660090 0.579370
0.408728 0.661860 0.583673
0.574151 0.651911 0.595026
0.702693 0.659571 0.616480
0.768124 0.591211 0.508598
0.839078 0.598016 0.507866
0.892546 0.634638 0.544793
0.930175 0.682094 0.612116
0.528618 0.716121 0.625177
0.549187 0.711727 0.625757
0.612940 0.693172 0.627649
0.667292 0.677577 0.637629
0.796841 0.783871 0.768246
0.805051 0.659876 0.489540
0.871824 0.672908 0.492226
0.922606 0.710018 0.594629
0.625360 0.741817 0.674800
0.634272 0.741360 0.676936
0.636378 0.727321 0.661769
0.645228 0.692927 0.636835
0.760098 0.764553 0.745968
0.835111 0.828733 0.815000
0.849546 0.782101 0.719966
0.915251 0.749660 0.573083
0.674647 0.783017 0.723293
0.676783 0.781521 0.722652
0.683711 0.773404 0.718318
0.696773 0.756466 0.710536
0.732326 0.756191 0.727749
0.814237 0.818479 0.798276
0.852262 0.847715 0.838560
0.867369 0.832517 0.798947
0.745998 0.835996 0.786099
0.747097 0.835416 0.785916
0.752285 0.833036 0.785519
0.763882 0.828550 0.786099
0.780728 0.820676 0.788113
0.816861 0.831876 0.808286
0.848081 0.849088 0.835996
0.861753 0.859495 0.855192
0.000000 0.272953 0.566674
0.000000 0.253788 0.583978
0.398932 0.238773 0.634485
0.736080 0.271305 0.706416
0.861326 0.432044 0.721065
0.907195 0.536736 0.707210
0.928069 0.586786 0.682277
0.939849 0.651911 0.693416
0.000000 0.342962 0.579400
0.000000 0.327703 0.595666
0.426612 0.306798 0.642664
0.735012 0.354681 0.709590
0.854002 0.475105 0.720699
0.900603 0.556573 0.705867
0.923369 0.598901 0.682521
0.937072 0.658015 0.694301
0.252262 0.492561 0.580072
0.314702 0.497993 0.594141
0.464210 0.480201 0.646418
0.720577 0.530236 0.709377
0.827573 0.580346 0.715450
0.874327 0.607538 0.693538
0.905974 0.632898 0.678462
0.927672 0.673304 0.692409
0.382879 0.629541 0.636774
0.427131 0.630793 0.639704
0.551995 0.641321 0.653437
0.705898 0.673854 0.706233
0.794980 0.690272 0.715297
0.839261 0.677485 0.687282
0.877653 0.689357 0.688838
0.910765 0.709285 0.707301
0.526238 0.754696 0.706355
0.552056 0.755001 0.709010
0.636103 0.755978 0.718196
0.719539 0.739132 0.719783
0.771572 0.745632 0.729305
0.800626 0.695003 0.637720
0.861173 0.700954 0.647211
0.907042 0.722744 0.685634
0.623529 0.772976 0.715511
0.634302 0.771267 0.716182
0.668269 0.762417 0.716335
0.706661 0.744717 0.713039
0.744717 0.746639 0.731807
0.829038 0.821408 0.805997
0.847044 0.746548 0.663996
0.901732 0.755612 0.664698
0.678004 0.807858 0.749569
0.681361 0.806088 0.748989
0.696956 0.800046 0.748775
0.715389 0.787015 0.744472
0.728969 0.758297 0.730953
0.809140 0.814511 0.795651
0.852964 0.848753 0.840665
0.867887 0.826200 0.788357
0.733120 0.841428 0.788998
0.736751 0.840757 0.789456
0.751583 0.838132 0.791531
0.765530 0.835080 0.792691
0.780117 0.827726 0.792386
0.807431 0.826413 0.802335
0.846586 0.848142 0.835264
0.862058 0.860044 0.856352
0.000000 0.380468 0.698512
0.000000 0.364691 0.706752
0.355810 0.332677 0.730068
0.671138 0.381750 0.766964
0.833524 0.485634 0.789639
0.893339 0.582605 0.784604
0.912902 0.663142 0.775479
0.926299 0.694392 0.766140
0.000000 0.421698 0.692317
0.000000 0.407843 0.699214
0.366400 0.371283 0.724483
0.660578 0.414313 0.758968
0.825223 0.503288 0.783566
0.886809 0.591608 0.780362
0.909331 0.664759 0.772152
0.924376 0.694026 0.763455
0.302586 0.552239 0.695766
0.356207 0.552758 0.702388
0.453529 0.526604 0.727047
0.654139 0.544915 0.755917
0.807126 0.602533 0.780880
0.868498 0.657557 0.778683
0.897246 0.693324 0.771878
0.916991 0.711208 0.766049
0.420935 0.642512 0.698116
0.447730 0.642512 0.698238
0.545525 0.655390 0.713375
0.673793 0.674556 0.754879
0.794766 0.710597 0.784482
0.853452 0.726314 0.784604
0.881895 0.731655 0.775051
0.905425 0.742031 0.772610
0.518242 0.736294 0.735470
0.538109 0.736141 0.736324
0.610437 0.736233 0.740444
0.700740 0.740261 0.749477
0.783444 0.761532 0.779416
0.831327 0.762692 0.776516
0.863035 0.752529 0.764309
0.891752 0.762875 0.768551
0.636164 0.806119 0.767636
0.647547 0.807279 0.769589
0.679438 0.808072 0.773007
0.728176 0.808103 0.778408
0.776364 0.794034 0.777890
0.815213 0.802670 0.785855
0.846555 0.763394 0.735836
0.887510 0.780972 0.755062
0.685389 0.833280 0.782254
0.691371 0.833005 0.783108
0.709682 0.830106 0.783993
0.740444 0.824186 0.785336
0.774868 0.813260 0.786007
0.798978 0.807126 0.790097
0.852934 0.847959 0.839139
0.875608 0.816587 0.768246
0.723049 0.852720 0.799588
0.725277 0.852049 0.799496
0.737881 0.849943 0.800412
0.762173 0.846616 0.803433
0.789395 0.840574 0.806577
0.803281 0.829618 0.804013
0.844144 0.846830 0.834195
0.862821 0.861295 0.858610
0.000000 0.479561 0.772213
0.000000 0.469978 0.776761
0.333562 0.422736 0.788724
0.612787 0.456245 0.802976
0.787045 0.520714 0.818204
0.869627 0.601678 0.822599
0.903929 0.670253 0.814572
0.916930 0.715206 0.807004
0.000000 0.500145 0.764767
0.138918 0.493172 0.769711
0.333593 0.443030 0.782864
0.604242 0.471565 0.797024
0.779965 0.529015 0.813413
0.864012 0.601923 0.818479
0.900725 0.665644 0.810513
0.915312 0.709499 0.803220
0.359777 0.590600 0.762325
0.378424 0.586145 0.765194
0.445563 0.562341 0.776150
0.604364 0.560266 0.792660
0.767147 0.603357 0.808621
0.851041 0.658778 0.815579
0.891661 0.699702 0.811337
0.907988 0.736355 0.807614
0.431373 0.665309 0.754238
0.452552 0.665248 0.755917
0.534112 0.670771 0.765652
0.628534 0.664393 0.785977
0.752407 0.693812 0.803830
0.841917 0.720577 0.815610
0.879179 0.744656 0.813504
0.896574 0.766232 0.809567
0.486519 0.729152 0.761898
0.498909 0.727657 0.760830
0.555291 0.725307 0.760281
0.648493 0.726040 0.764736
0.740719 0.738766 0.794461
0.828580 0.765347 0.812314
0.863951 0.780911 0.812131
0.886137 0.789670 0.809751
0.590936 0.788449 0.785550
0.601617 0.788479 0.785977
0.638025 0.788205 0.787167
0.689357 0.789151 0.789639
0.749142 0.791958 0.793332
0.818967 0.809323 0.813748
0.853880 0.812985 0.815122
0.878080 0.810117 0.810819
0.672816 0.840513 0.804379
0.679744 0.840604 0.805142
0.702510 0.839963 0.806729
0.742336 0.839261 0.810300
0.785763 0.839384 0.815763
0.818631 0.832395 0.816861
0.844816 0.835538 0.822263
0.873777 0.819944 0.798886
0.716304 0.863005 0.814542
0.720546 0.862699 0.815030
0.738308 0.861570 0.817319
0.763027 0.859037 0.820157
0.790555 0.855222 0.823453
0.818631 0.849821 0.827481
0.836027 0.841825 0.828519
0.863371 0.861631 0.858915
0.291112 0.567834 0.819425
0.318822 0.562188 0.821317
0.396216 0.527184 0.826596
0.580987 0.532006 0.832853
0.741390 0.566827 0.839078
0.836027 0.626886 0.845853
0.888273 0.684016 0.846159
0.913146 0.724910 0.838743
0.312932 0.578058 0.815518
0.337652 0.573449 0.817502
0.408881 0.544091 0.823331
0.576287 0.541100 0.830167
0.737209 0.574029 0.836759
0.832578 0.631983 0.843900
0.886351 0.684565 0.844388
0.911986 0.724178 0.837339
0.412024 0.630640 0.809262
0.424659 0.627039 0.810758
0.468757 0.608301 0.815915
0.580743 0.595178 0.826108
0.729397 0.622370 0.832486
0.822354 0.668086 0.840024
0.880217 0.704707 0.842710
0.905852 0.740383 0.836851
0.440803 0.688563 0.800137
0.462013 0.689631 0.801602
0.535210 0.691096 0.805844
0.605127 0.675776 0.816342
0.716823 0.685054 0.826200
0.812985 0.712856 0.836545
0.870939 0.739651 0.842008
0.895201 0.770871 0.837827
0.435889 0.732326 0.792782
0.451881 0.732296 0.793179
0.502037 0.729244 0.793454
0.621088 0.730800 0.803311
0.705135 0.728206 0.817716
0.799039 0.747890 0.831113
0.858366 0.776944 0.840635
0.885161 0.799710 0.840238
0.510155 0.778866 0.805356
0.518120 0.777584 0.804837
0.555077 0.773861 0.803616
0.620722 0.769741 0.802976
0.689754 0.768124 0.803250
0.782101 0.787442 0.825834
0.850858 0.814847 0.844694
0.877104 0.822995 0.843900
0.599817 0.834531 0.821958
0.605951 0.834165 0.821927
0.630579 0.832731 0.822019
0.675105 0.831174 0.823239
0.734768 0.829557 0.825711
0.790829 0.828763 0.828672
0.840543 0.835874 0.842771
0.869505 0.841917 0.846983
0.681880 0.865873 0.832883
0.686183 0.865537 0.832975
0.705501 0.864408 0.833890
0.739895 0.862791 0.836301
0.777981 0.861143 0.839872
0.814145 0.860044 0.844724
0.844205 0.858183 0.849577
0.862333 0.858549 0.853819
