lut_library_archive/removed_20260629/抖音热门推荐/抖音热门推荐08.cube
# 版权归凌孟成所有，侵权必究
# Created by Adobe Lightroom plugin Export LUT (1.24.0)
# www.johnrellis.com/lightroom/exportlut.htm
# Preset: INS风格-缇米设计08
# Color profile: C:\Program Files (x86)\Common Files\Adobe\Color\Profiles\Recommended\VideoHD.icc
LUT_3D_SIZE 32
DOMAIN_MIN 0.0 0.0 0.0
DOMAIN_MAX 1.0 1.0 1.0
0.167361 0.167361 0.167361
0.167361 0.167361 0.167361
0.167361 0.167361 0.167361
0.167361 0.167361 0.167361
0.213321 0.162631 0.168521
0.283360 0.154177 0.173190
0.371923 0.130068 0.177707
0.464912 0.074708 0.181186
0.551873 0.000000 0.182406
0.635279 0.000000 0.182101
0.716823 0.000000 0.180423
0.794430 0.000000 0.178012
0.863493 0.000000 0.175418
0.921996 0.000000 0.173831
0.969238 0.000000 0.174014
1.000000 0.095674 0.176028
1.000000 0.140993 0.180026
1.000000 0.179843 0.190738
1.000000 0.206943 0.209049
1.000000 0.231846 0.228489
1.000000 0.253758 0.247807
1.000000 0.273838 0.266331
1.000000 0.291966 0.283726
1.000000 0.308721 0.300175
1.000000 0.324285 0.315923
1.000000 0.339117 0.331090
1.000000 0.353674 0.346227
1.000000 0.368109 0.361486
1.000000 0.382605 0.376806
1.000000 0.397436 0.392462
1.000000 0.412573 0.408515
1.000000 0.428290 0.425147
0.167361 0.167361 0.167361
0.167361 0.167361 0.167361
0.167361 0.167361 0.167361
0.167361 0.167361 0.167361
0.214115 0.162661 0.168673
0.282444 0.154391 0.173190
0.368200 0.131380 0.177462
0.457008 0.095308 0.180514
0.542290 0.023957 0.181613
0.624811 0.000000 0.181369
0.704860 0.000000 0.179721
0.782895 0.000000 0.177279
0.852873 0.000000 0.174807
0.912718 0.000000 0.172976
0.961578 0.013611 0.172732
0.998535 0.107576 0.174563
1.000000 0.146914 0.178164
1.000000 0.181552 0.188205
1.000000 0.207187 0.205570
1.000000 0.230014 0.224430
1.000000 0.251286 0.242771
1.000000 0.270085 0.260899
1.000000 0.287755 0.277867
1.000000 0.303990 0.294041
1.000000 0.319371 0.309575
1.000000 0.333837 0.324865
1.000000 0.348028 0.339849
1.000000 0.362676 0.355291
1.000000 0.377142 0.370794
1.000000 0.392035 0.386542
1.000000 0.407416 0.402899
1.000000 0.423072 0.419593
0.167361 0.167361 0.167361
0.167361 0.167361 0.167361
0.167361 0.167361 0.167361
0.170169 0.167056 0.167361
0.221866 0.161898 0.169100
0.287358 0.155886 0.173159
0.365118 0.148135 0.176150
0.446815 0.136873 0.177981
0.528496 0.125246 0.178561
0.609674 0.110628 0.178225
0.689601 0.097169 0.176455
0.767910 0.085176 0.173892
0.839109 0.087953 0.171115
0.900359 0.103670 0.169131
0.951537 0.124208 0.168765
0.990417 0.149874 0.170169
1.000000 0.174472 0.174044
1.000000 0.200290 0.184939
1.000000 0.220218 0.202182
1.000000 0.239658 0.220859
1.000000 0.257939 0.239567
1.000000 0.275486 0.257542
1.000000 0.291508 0.274479
1.000000 0.306584 0.290745
1.000000 0.320897 0.306157
1.000000 0.334447 0.321263
1.000000 0.348516 0.336675
1.000000 0.362463 0.351995
1.000000 0.376593 0.367468
1.000000 0.391363 0.383551
1.000000 0.406256 0.399908
1.000000 0.421668 0.416510
0.165743 0.175021 0.170230
0.165957 0.175509 0.170504
0.166171 0.177096 0.171145
0.175540 0.177035 0.172549
0.224949 0.183719 0.167697
0.282658 0.186954 0.170352
0.353674 0.188144 0.171908
0.429480 0.187381 0.172885
0.508629 0.185183 0.172946
0.587640 0.182132 0.172000
0.666957 0.179568 0.170169
0.744411 0.178195 0.167330
0.817777 0.179812 0.163821
0.881224 0.185428 0.161440
0.935027 0.192691 0.160678
0.976837 0.204440 0.161929
1.000000 0.218021 0.166354
1.000000 0.232120 0.179629
1.000000 0.244816 0.196841
1.000000 0.258274 0.214755
1.000000 0.271641 0.232914
1.000000 0.285557 0.250919
1.000000 0.299138 0.268101
1.000000 0.312474 0.284886
1.000000 0.325719 0.301152
1.000000 0.339086 0.317388
1.000000 0.352880 0.333684
1.000000 0.366491 0.349737
1.000000 0.380285 0.365850
1.000000 0.394415 0.382055
1.000000 0.408728 0.398291
1.000000 0.423163 0.414527
0.168338 0.205112 0.186252
0.169314 0.204868 0.186404
0.173678 0.203647 0.187442
0.180148 0.202396 0.187228
0.203342 0.204501 0.189487
0.258793 0.218143 0.182376
0.332250 0.224949 0.166781
0.401801 0.229892 0.166506
0.476020 0.233585 0.165866
0.552178 0.236790 0.164096
0.629999 0.238865 0.161654
0.707790 0.241703 0.157961
0.783322 0.245121 0.153841
0.851530 0.249088 0.150027
0.909880 0.254063 0.148257
0.956664 0.260410 0.148867
0.998505 0.265965 0.158053
1.000000 0.272465 0.173678
1.000000 0.279484 0.191379
1.000000 0.287083 0.210178
1.000000 0.296208 0.228702
1.000000 0.305882 0.246860
1.000000 0.316228 0.264469
1.000000 0.326879 0.281590
1.000000 0.338109 0.298436
1.000000 0.350042 0.315099
1.000000 0.361944 0.331640
1.000000 0.374182 0.347814
1.000000 0.386847 0.364019
1.000000 0.399756 0.380163
1.000000 0.412970 0.396277
1.000000 0.426551 0.412451
0.173922 0.232456 0.202152
0.174990 0.232120 0.202335
0.179232 0.230198 0.203006
0.186282 0.227756 0.203677
0.203342 0.231174 0.202670
0.234928 0.235325 0.206058
0.295537 0.252842 0.200046
0.372015 0.265873 0.177432
0.441627 0.270603 0.158267
0.514824 0.278599 0.155398
0.590875 0.285679 0.151705
0.668513 0.292576 0.146609
0.745571 0.299382 0.140291
0.817868 0.305547 0.134463
0.881743 0.309789 0.131991
0.938964 0.312993 0.137484
0.984710 0.315557 0.150301
1.000000 0.317418 0.167971
1.000000 0.319768 0.187015
1.000000 0.323217 0.206729
1.000000 0.328099 0.226230
1.000000 0.334112 0.244907
1.000000 0.364935 0.294621
1.000000 0.373632 0.312169
1.000000 0.382452 0.328862
1.000000 0.391882 0.345037
1.000000 0.401617 0.360876
1.000000 0.411597 0.376074
1.000000 0.422248 0.391241
1.000000 0.433295 0.406378
1.000000 0.444678 0.421485
1.000000 0.456153 0.436255
0.178378 0.265110 0.220951
0.179629 0.264652 0.221134
0.183871 0.262486 0.221439
0.191348 0.259648 0.221683
0.203647 0.264591 0.218296
0.236423 0.270268 0.221897
0.278355 0.277775 0.227054
0.345373 0.298070 0.225284
0.424353 0.315435 0.193942
0.496132 0.323705 0.165805
0.562524 0.327398 0.138491
0.642359 0.339727 0.131289
0.723537 0.350530 0.124300
0.801144 0.358862 0.119112
0.873869 0.365484 0.119936
0.936400 0.369604 0.129793
0.981964 0.369970 0.147372
1.000000 0.368963 0.168734
1.000000 0.368353 0.190982
1.000000 0.368872 0.213260
1.000000 0.371252 0.235386
1.000000 0.375463 0.257511
1.000000 0.381476 0.279301
1.000000 0.388678 0.300114
1.000000 0.396429 0.319615
1.000000 0.404639 0.337591
1.000000 0.412482 0.354009
1.000000 0.420966 0.369848
1.000000 0.429969 0.385321
1.000000 0.439307 0.400458
1.000000 0.449226 0.415473
1.000000 0.459632 0.430335
0.183230 0.289433 0.235813
0.184054 0.289158 0.235874
0.187930 0.287236 0.236149
0.194217 0.285435 0.235721
0.200473 0.290776 0.230686
0.231449 0.297063 0.234745
0.269902 0.305303 0.240269
0.317632 0.315709 0.247990
0.384527 0.337346 0.255558
0.465187 0.357824 0.218235
0.538872 0.368811 0.184787
0.606561 0.374212 0.152132
0.672908 0.378759 0.121828
0.761715 0.395697 0.111849
0.840238 0.406561 0.108858
0.904295 0.411261 0.117067
0.954131 0.411719 0.133761
0.991577 0.409369 0.155612
1.000000 0.406561 0.178897
1.000000 0.404425 0.202304
1.000000 0.403693 0.225315
1.000000 0.404517 0.248264
1.000000 0.406989 0.270726
1.000000 0.411017 0.292302
1.000000 0.416175 0.312535
1.000000 0.421637 0.330968
1.000000 0.427588 0.348241
1.000000 0.433906 0.364416
1.000000 0.441138 0.380133
1.000000 0.449165 0.395727
1.000000 0.457649 0.411017
1.000000 0.466835 0.426184
0.192294 0.319463 0.255955
0.193027 0.319036 0.256016
0.196475 0.317327 0.256291
0.202853 0.314824 0.256352
0.207095 0.320348 0.251469
0.230564 0.327245 0.253086
0.266697 0.335515 0.259037
0.310521 0.346471 0.267063
0.362219 0.359625 0.277226
0.430030 0.382483 0.294652
0.513115 0.405707 0.253666
0.592493 0.421057 0.215518
0.665980 0.429694 0.176394
0.732906 0.433631 0.132998
0.799771 0.438697 0.099306
0.867308 0.446265 0.103365
0.922881 0.448829 0.118685
0.965972 0.447456 0.141268
0.998962 0.444068 0.165835
1.000000 0.440497 0.190829
1.000000 0.437568 0.215305
1.000000 0.435920 0.239475
1.000000 0.435676 0.263066
1.000000 0.436835 0.285374
1.000000 0.439246 0.306188
1.000000 0.442237 0.325444
1.000000 0.446021 0.343328
1.000000 0.450599 0.360021
1.000000 0.456062 0.376379
1.000000 0.462226 0.392187
1.000000 0.469368 0.407904
1.000000 0.477089 0.423285
0.203952 0.350469 0.278111
0.204715 0.349920 0.277928
0.207675 0.348302 0.278019
0.213718 0.344945 0.278202
0.217868 0.349706 0.274754
0.230747 0.356756 0.272129
0.264775 0.364965 0.278141
0.305119 0.375677 0.286107
0.354742 0.390967 0.297795
0.412512 0.409033 0.312047
0.484565 0.435950 0.342382
0.567987 0.460090 0.297520
0.644923 0.473548 0.254459
0.714382 0.479957 0.211612
0.775540 0.480476 0.166690
0.828672 0.476905 0.114992
0.885588 0.479286 0.101167
0.936522 0.481300 0.123964
0.975586 0.479377 0.151064
1.000000 0.475715 0.178408
1.000000 0.471351 0.204440
1.000000 0.467445 0.229496
1.000000 0.464576 0.253208
1.000000 0.462898 0.275212
1.000000 0.462257 0.296239
1.000000 0.462715 0.315770
1.000000 0.464332 0.334478
1.000000 0.466987 0.352178
1.000000 0.470802 0.369360
1.000000 0.475715 0.386389
1.000000 0.481605 0.403021
1.000000 0.488441 0.419318
0.215946 0.381384 0.300298
0.216617 0.381079 0.300267
0.219730 0.379889 0.300542
0.225315 0.377203 0.300816
0.230198 0.380926 0.299107
0.236545 0.389136 0.295384
0.266026 0.398688 0.300389
0.305303 0.410315 0.309056
0.351263 0.424384 0.320012
0.404273 0.440986 0.333288
0.464302 0.459937 0.348913
0.536522 0.487282 0.381689
0.617121 0.510460 0.342748
0.691249 0.522576 0.296513
0.755703 0.526146 0.252262
0.811551 0.524132 0.208865
0.860197 0.518181 0.163424
0.902434 0.509728 0.108675
0.947112 0.509880 0.131106
0.982025 0.507164 0.160983
1.000000 0.502647 0.189822
1.000000 0.497902 0.216526
1.000000 0.493751 0.241886
1.000000 0.490150 0.265721
1.000000 0.487678 0.287938
1.000000 0.486366 0.308629
1.000000 0.486091 0.328130
1.000000 0.487037 0.346777
1.000000 0.489143 0.364752
1.000000 0.492439 0.382391
1.000000 0.496925 0.399695
1.000000 0.502312 0.416571
0.230167 0.418311 0.326818
0.230747 0.418036 0.326879
0.233280 0.416785 0.326879
0.238437 0.414313 0.327001
0.244266 0.415625 0.326055
0.250065 0.423346 0.323247
0.267430 0.432959 0.323217
0.305394 0.443946 0.331579
0.348791 0.457313 0.342046
0.398352 0.473091 0.354681
0.454139 0.490974 0.369665
0.515862 0.510979 0.386999
0.632044 0.579248 0.454108
0.708125 0.598383 0.421424
0.773922 0.603449 0.370520
0.829648 0.599878 0.323095
0.876402 0.590845 0.278660
0.915618 0.578302 0.236149
0.948455 0.563775 0.194430
0.977142 0.550469 0.165988
1.000000 0.545129 0.198550
1.000000 0.539117 0.227726
1.000000 0.533227 0.254063
1.000000 0.528313 0.278599
1.000000 0.524193 0.301061
1.000000 0.521050 0.321691
1.000000 0.518853 0.340734
1.000000 0.517784 0.358587
1.000000 0.517937 0.375982
1.000000 0.519280 0.392828
1.000000 0.521782 0.409308
1.000000 0.525444 0.425574
0.250950 0.471534 0.365423
0.251102 0.471138 0.365240
0.253696 0.469032 0.364599
0.258122 0.465553 0.363836
0.263767 0.463294 0.362432
0.269596 0.469245 0.359289
0.277470 0.478065 0.355108
0.312078 0.488136 0.361669
0.354589 0.500786 0.372015
0.403235 0.516442 0.384924
0.458198 0.535515 0.400946
0.519768 0.557427 0.420111
0.586847 0.581384 0.441962
0.660639 0.610071 0.479072
0.731624 0.629419 0.460914
0.793149 0.634089 0.412238
0.844572 0.629755 0.366491
0.887358 0.619654 0.323430
0.923156 0.606226 0.283360
0.953246 0.591028 0.245426
0.979065 0.574823 0.208011
1.000000 0.563745 0.204135
1.000000 0.557794 0.233799
1.000000 0.552026 0.260594
1.000000 0.546838 0.285161
1.000000 0.542504 0.307805
1.000000 0.539117 0.328862
1.000000 0.536858 0.348486
1.000000 0.535760 0.367193
1.000000 0.535973 0.385504
1.000000 0.537316 0.403235
1.000000 0.540002 0.420691
0.264317 0.503288 0.388769
0.264469 0.502617 0.388342
0.266545 0.500542 0.387671
0.270146 0.496834 0.386572
0.276158 0.491524 0.385077
0.281224 0.496437 0.382300
0.288426 0.504082 0.378820
0.308171 0.513542 0.379065
0.348150 0.524926 0.388434
0.393164 0.539117 0.400244
0.443732 0.556359 0.414984
0.500023 0.576287 0.432563
0.561608 0.598016 0.452583
0.625879 0.620111 0.474464
0.692439 0.644251 0.509606
0.754421 0.660182 0.502220
0.809964 0.662684 0.454108
0.856291 0.657008 0.409491
0.895506 0.646296 0.367987
0.928466 0.632380 0.329503
0.956756 0.616754 0.293339
0.981323 0.600519 0.259159
1.000000 0.583886 0.225956
1.000000 0.575799 0.242283
1.000000 0.570123 0.269474
1.000000 0.564996 0.294285
1.000000 0.560540 0.317205
1.000000 0.557122 0.338537
1.000000 0.554864 0.358892
1.000000 0.553887 0.378485
1.000000 0.554223 0.397559
1.000000 0.555810 0.416205
0.278538 0.535088 0.412482
0.279057 0.534539 0.412207
0.280400 0.532677 0.411505
0.283696 0.529015 0.410193
0.288853 0.523827 0.408576
0.294072 0.524926 0.406165
0.300664 0.531365 0.403143
0.309636 0.540459 0.399390
0.344305 0.550744 0.406439
0.386908 0.563592 0.417456
0.433936 0.579126 0.431006
0.486152 0.597101 0.447089
0.542077 0.616419 0.465278
0.601007 0.635981 0.485481
0.660578 0.654688 0.506706
0.719783 0.674311 0.539269
0.773709 0.687739 0.541955
0.823484 0.688655 0.495491
0.865751 0.682094 0.452033
0.901579 0.670863 0.411780
0.932311 0.656916 0.374640
0.959167 0.641535 0.340124
0.982666 0.625177 0.307591
1.000000 0.608484 0.276432
1.000000 0.592706 0.251713
1.000000 0.587060 0.279118
1.000000 0.582055 0.304417
1.000000 0.577935 0.328252
1.000000 0.574884 0.350805
1.000000 0.573266 0.372717
1.000000 0.573053 0.394110
1.000000 0.574212 0.414954
0.293095 0.565026 0.435187
0.293431 0.564874 0.435218
0.294987 0.563561 0.434852
0.298009 0.560937 0.434089
0.302983 0.556939 0.433112
0.309148 0.555505 0.431769
0.315923 0.562188 0.429908
0.324895 0.571099 0.427527
0.345647 0.581781 0.428901
0.386114 0.593347 0.439155
0.430213 0.606683 0.451179
0.477974 0.621332 0.465034
0.528649 0.636683 0.480629
0.581323 0.652338 0.497780
0.634852 0.667597 0.516045
0.688350 0.682551 0.535668
0.741207 0.698756 0.565606
0.787655 0.710353 0.577966
0.832700 0.710536 0.533806
0.871580 0.703944 0.492348
0.905089 0.693263 0.454200
0.934478 0.679988 0.418921
0.960143 0.665126 0.386023
0.982849 0.649165 0.354803
1.000000 0.632593 0.325048
1.000000 0.615778 0.296178
1.000000 0.603967 0.292332
1.000000 0.599268 0.318395
1.000000 0.595483 0.343023
1.000000 0.592889 0.366339
1.000000 0.591516 0.388891
1.000000 0.591485 0.410590
0.308446 0.594476 0.457954
0.308965 0.594110 0.457832
0.310185 0.593042 0.457618
0.312993 0.590936 0.457008
0.317693 0.587579 0.456367
0.323888 0.583307 0.455573
0.330388 0.589380 0.454108
0.338842 0.597314 0.452186
0.349218 0.607111 0.449653
0.383581 0.617426 0.457069
0.425177 0.628901 0.468055
0.469703 0.641566 0.480812
0.516716 0.654810 0.495033
0.565423 0.668269 0.510643
0.614923 0.681758 0.527581
0.664546 0.694911 0.545464
0.713344 0.707759 0.564538
0.760800 0.721614 0.592248
0.800107 0.731594 0.613275
0.840513 0.731380 0.572686
0.876188 0.725216 0.533867
0.907744 0.714992 0.497353
0.935454 0.702358 0.463569
0.959991 0.687984 0.431922
0.981872 0.672480 0.401862
1.000000 0.656275 0.373358
1.000000 0.639673 0.345800
1.000000 0.622889 0.318944
1.000000 0.615991 0.334325
1.000000 0.612757 0.359808
1.000000 0.610681 0.384192
1.000000 0.609888 0.407691
0.327703 0.626246 0.483345
0.328252 0.626337 0.483558
0.346593 0.647333 0.502159
0.348852 0.645563 0.501732
0.352636 0.642542 0.501061
0.357916 0.638483 0.500114
0.364416 0.640345 0.498726
0.372930 0.646693 0.496925
0.383612 0.654658 0.494881
0.404639 0.663691 0.496254
0.444312 0.672694 0.506493
0.486275 0.682460 0.518242
0.529320 0.692439 0.530999
0.573632 0.702541 0.544945
0.617884 0.712612 0.559686
0.661891 0.722499 0.575311
0.704952 0.732082 0.591394
0.746700 0.741390 0.607996
0.786007 0.751064 0.631159
0.816129 0.757931 0.657404
0.850706 0.756771 0.620691
0.882139 0.750515 0.585107
0.910674 0.740444 0.550164
0.936339 0.727749 0.516808
0.959411 0.713069 0.484688
0.980133 0.697322 0.454108
0.998749 0.680934 0.424964
1.000000 0.664149 0.397070
1.000000 0.647364 0.370642
1.000000 0.632563 0.352697
1.000000 0.629816 0.378973
1.000000 0.628260 0.404120
0.355871 0.662257 0.514366
0.357702 0.663996 0.516106
0.360906 0.665278 0.517815
0.364630 0.665492 0.519097
0.369146 0.664363 0.519768
0.374121 0.661555 0.519585
0.380377 0.660212 0.518700
0.387976 0.665492 0.517113
0.397986 0.672145 0.515343
0.409888 0.680079 0.513359
0.442115 0.687953 0.520378
0.480751 0.696254 0.531029
0.520714 0.704829 0.542596
0.561730 0.713680 0.555352
0.602960 0.722621 0.569055
0.644282 0.731563 0.583520
0.684901 0.740383 0.598566
0.724361 0.748989 0.614343
0.762600 0.757565 0.630915
0.798032 0.766323 0.652552
0.823270 0.772580 0.684382
0.854490 0.772457 0.652735
0.883238 0.767361 0.621180
0.909575 0.758480 0.589685
0.933715 0.746761 0.558221
0.955810 0.733059 0.527428
0.975891 0.718166 0.497963
0.994171 0.702510 0.469978
1.000000 0.686610 0.443671
1.000000 0.670558 0.418860
1.000000 0.654536 0.395270
1.000000 0.645350 0.396918
0.377813 0.685786 0.536004
0.380011 0.687434 0.537774
0.383154 0.688777 0.539605
0.386877 0.689296 0.541131
0.391180 0.688594 0.542016
0.395697 0.686244 0.542046
0.400702 0.682673 0.541436
0.408118 0.686671 0.540215
0.417365 0.692226 0.538811
0.428382 0.698756 0.537255
0.446815 0.706020 0.538231
0.482460 0.712978 0.547936
0.519371 0.720272 0.558556
0.557458 0.727962 0.570336
0.595819 0.735775 0.583001
0.633936 0.743526 0.596185
0.671687 0.751186 0.610010
0.708492 0.758663 0.624353
0.744167 0.766171 0.639551
0.778195 0.773617 0.655421
0.809689 0.781186 0.675105
0.831083 0.786465 0.705318
0.857969 0.787106 0.683131
0.883940 0.782986 0.655238
0.907988 0.775326 0.626947
0.930358 0.764981 0.598566
0.951232 0.752560 0.570184
0.970642 0.738766 0.542443
0.988403 0.724300 0.516320
1.000000 0.709438 0.491737
1.000000 0.693965 0.467659
1.000000 0.678035 0.443977
0.404089 0.709499 0.559442
0.406348 0.710933 0.561059
0.409277 0.712062 0.562737
0.412726 0.712428 0.564111
0.416541 0.711849 0.564965
0.420325 0.709926 0.565057
0.424537 0.706905 0.564569
0.430732 0.707362 0.563836
0.439338 0.712062 0.562829
0.449866 0.717586 0.561822
0.462165 0.724086 0.560815
0.489296 0.730220 0.566827
0.523217 0.736416 0.576562
0.557855 0.742916 0.587274
0.593439 0.749660 0.598871
0.628870 0.756405 0.611139
0.664179 0.763394 0.624445
0.699123 0.770413 0.638544
0.732967 0.777493 0.653559
0.765347 0.784604 0.669337
0.795712 0.791623 0.685725
0.823239 0.798734 0.704646
0.840940 0.803281 0.731685
0.863005 0.804868 0.719509
0.885557 0.802029 0.696773
0.906767 0.796017 0.673274
0.926757 0.787503 0.649439
0.945647 0.777188 0.625727
0.963317 0.765591 0.602777
0.980011 0.752560 0.579248
0.995636 0.738521 0.555840
1.000000 0.723720 0.532494
0.449104 0.741665 0.595087
0.450202 0.742153 0.595819
0.451667 0.742214 0.596277
0.453071 0.741604 0.596460
0.455024 0.740322 0.596277
0.457313 0.738186 0.595697
0.460304 0.735439 0.595087
0.464515 0.732784 0.594446
0.472511 0.736568 0.593744
0.482429 0.741238 0.593378
0.493843 0.746609 0.592981
0.508873 0.752377 0.593805
0.539178 0.757351 0.602625
0.570520 0.762509 0.612268
0.602258 0.767819 0.622522
0.634180 0.773220 0.633570
0.665858 0.778683 0.645258
0.697108 0.784207 0.657618
0.727535 0.789761 0.670710
0.756741 0.795346 0.684413
0.784451 0.800961 0.698512
0.809995 0.806546 0.712947
0.833371 0.812284 0.728359
0.847959 0.815366 0.750851
0.865873 0.816983 0.744656
0.885588 0.815030 0.725582
0.904479 0.810361 0.705806
0.922515 0.803494 0.685573
0.939727 0.794705 0.664820
0.956115 0.784451 0.644068
0.971679 0.772915 0.623102
0.986450 0.760250 0.601770
0.482856 0.762325 0.620325
0.483803 0.762722 0.620905
0.485023 0.762753 0.621393
0.486336 0.762356 0.621637
0.488136 0.761318 0.621576
0.489967 0.759731 0.621241
0.492439 0.757504 0.620844
0.495644 0.754818 0.620325
0.501854 0.755917 0.620020
0.510918 0.759731 0.619806
0.521355 0.764126 0.619806
0.533074 0.769009 0.619898
0.553826 0.773587 0.624445
0.582055 0.777859 0.633234
0.610834 0.782284 0.642817
0.639826 0.786801 0.652979
0.668910 0.791440 0.663935
0.697505 0.796139 0.675410
0.725399 0.800870 0.687495
0.752224 0.805692 0.700099
0.777707 0.810513 0.713100
0.801450 0.815396 0.726131
0.823239 0.820249 0.739071
0.843137 0.825315 0.752163
0.853696 0.825284 0.766567
0.868437 0.827054 0.765133
0.885710 0.825834 0.749172
0.902342 0.822263 0.732570
0.918517 0.816678 0.715297
0.934142 0.809445 0.697597
0.949096 0.800809 0.679713
0.963470 0.790829 0.661341
0.528161 0.785489 0.652247
0.529808 0.786038 0.653285
0.530785 0.786099 0.653681
0.531273 0.785489 0.653468
0.531518 0.784268 0.652766
0.531670 0.782498 0.651728
0.532311 0.780179 0.650538
0.533379 0.777462 0.649226
0.536034 0.775235 0.648127
0.542657 0.777646 0.647181
0.550500 0.780484 0.646326
0.560052 0.783993 0.645899
0.570764 0.787808 0.645655
0.594232 0.790799 0.652369
0.619013 0.793912 0.660090
0.644343 0.797177 0.668452
0.670069 0.800656 0.677607
0.695918 0.804471 0.687709
0.721614 0.808499 0.698695
0.746822 0.812833 0.710536
0.770779 0.817227 0.722713
0.793240 0.821622 0.734768
0.813809 0.825895 0.746456
0.832425 0.829892 0.757382
0.849302 0.833768 0.767697
0.859648 0.835233 0.782681
0.871336 0.836576 0.783932
0.886290 0.835752 0.770382
0.900877 0.833005 0.756374
0.915099 0.828611 0.741970
0.928893 0.822812 0.727230
0.942168 0.815732 0.712215
0.559136 0.799771 0.673701
0.560723 0.800229 0.674617
0.561883 0.800381 0.675196
0.562768 0.800076 0.675349
0.563531 0.799344 0.675196
0.564538 0.798276 0.674983
0.566094 0.796963 0.674678
0.568078 0.795285 0.674525
0.570886 0.793393 0.674495
0.576684 0.794247 0.674647
0.584619 0.796841 0.674769
0.593622 0.799802 0.675105
0.603571 0.802976 0.675563
0.617670 0.805936 0.678065
0.639094 0.808347 0.684901
0.661128 0.810849 0.692317
0.683436 0.813565 0.700343
0.706020 0.816526 0.709224
0.728634 0.819791 0.718837
0.750668 0.823270 0.728908
0.771878 0.826841 0.739284
0.791836 0.830472 0.749630
0.810391 0.834073 0.759792
0.827481 0.837583 0.769497
0.843015 0.840970 0.778775
0.857176 0.844297 0.787594
0.865904 0.845426 0.799557
0.875029 0.846555 0.803037
0.887694 0.846372 0.792386
0.899992 0.844602 0.781521
0.911894 0.841459 0.770382
0.923400 0.837095 0.758907
0.599573 0.815427 0.700496
0.600336 0.815610 0.701015
0.601007 0.815579 0.701228
0.601495 0.815274 0.701259
0.601984 0.814694 0.701076
0.602655 0.813840 0.700862
0.603693 0.812741 0.700618
0.605158 0.811460 0.700435
0.607355 0.809934 0.700435
0.610620 0.808621 0.700679
0.617548 0.810697 0.700923
0.625574 0.813046 0.701534
0.634333 0.815579 0.702235
0.643397 0.818173 0.702876
0.659205 0.820249 0.707332
0.677760 0.822141 0.713527
0.696864 0.824216 0.720333
0.716182 0.826505 0.727687
0.735683 0.829099 0.735775
0.755032 0.831907 0.744411
0.773831 0.834897 0.753414
0.791714 0.837980 0.762387
0.808408 0.841001 0.771115
0.823972 0.843992 0.779629
0.838254 0.846891 0.787747
0.851347 0.849729 0.795468
0.863432 0.852537 0.802945
0.870817 0.853208 0.812284
0.877928 0.854063 0.817014
0.888853 0.854246 0.808438
0.899290 0.853178 0.799802
0.909361 0.850980 0.791012
0.634730 0.827665 0.723629
0.635309 0.827787 0.723995
0.636011 0.827817 0.724300
0.636774 0.827634 0.724544
0.637751 0.827359 0.724788
0.639277 0.826993 0.725277
0.641932 0.826688 0.726253
0.645472 0.826322 0.727657
0.649805 0.825925 0.729427
0.654810 0.825467 0.731472
0.662043 0.826535 0.733730
0.670893 0.829038 0.735958
0.680049 0.831571 0.738186
0.689113 0.834073 0.740230
0.698512 0.836454 0.742336
0.713558 0.838102 0.747860
0.728664 0.839750 0.753536
0.743862 0.841550 0.759518
0.759365 0.843534 0.766018
0.774685 0.845731 0.772885
0.789700 0.848051 0.779965
0.804074 0.850431 0.787106
0.817594 0.852781 0.793973
0.830259 0.855131 0.800687
0.842039 0.857389 0.807126
0.853025 0.859617 0.813291
0.863157 0.861875 0.819303
0.872496 0.864134 0.825071
0.878050 0.864286 0.831296
0.882841 0.864500 0.835813
0.891234 0.864805 0.829282
0.899290 0.864103 0.822690
0.684596 0.842618 0.755886
0.684596 0.842618 0.755917
0.684627 0.842496 0.755856
0.684779 0.842283 0.755764
0.685084 0.841917 0.755703
0.685634 0.841489 0.755673
0.686641 0.840970 0.755856
0.688136 0.840391 0.756222
0.690150 0.839719 0.756741
0.692744 0.838956 0.757534
0.695735 0.838071 0.758480
0.701472 0.839567 0.759457
0.707851 0.841245 0.760555
