lut_library_archive/removed_20260629/抖音热门推荐/抖音热门推荐08.cube
# 版权归凌孟成所有，侵权必究
# Created by Adobe Lightroom plugin Export LUT (1.24.0)
# www.johnrellis.com/lightroom/exportlut.htm
# Preset: INS风格-缇米设计08
# Color profile: C:\Program Files (x86)\Common Files\Adobe\Color\Profiles\Recommended\VideoHD.icc
LUT_3D_SIZE 8
DOMAIN_MIN 0.000000 0.000000 0.000000
DOMAIN_MAX 0.903226 0.903226 0.903226
0.167361 0.167361 0.167361
0.213321 0.162631 0.168521
0.551873 0.000000 0.182406
0.863493 0.000000 0.175418
1.000000 0.140993 0.180026
1.000000 0.253758 0.247807
1.000000 0.324285 0.315923
1.000000 0.382605 0.376806
0.168338 0.205112 0.186252
0.203342 0.204501 0.189487
0.476020 0.233585 0.165866
0.783322 0.245121 0.153841
0.998505 0.265965 0.158053
1.000000 0.296208 0.228702
1.000000 0.338109 0.298436
1.000000 0.386847 0.364019
0.192294 0.319463 0.255955
0.207095 0.320348 0.251469
0.362219 0.359625 0.277226
0.665980 0.429694 0.176394
0.922881 0.448829 0.118685
1.000000 0.437568 0.215305
1.000000 0.439246 0.306188
1.000000 0.456062 0.376379
0.250950 0.471534 0.365423
0.263767 0.463294 0.362432
0.354589 0.500786 0.372015
0.586847 0.581384 0.441962
0.844572 0.629755 0.366491
0.979065 0.574823 0.208011
1.000000 0.546838 0.285161
1.000000 0.535760 0.367193
0.308446 0.594476 0.457954
0.317693 0.587579 0.456367
0.349218 0.607111 0.449653
0.516716 0.654810 0.495033
0.713344 0.707759 0.564538
0.876188 0.725216 0.533867
0.981872 0.672480 0.401862
1.000000 0.615991 0.334325
0.404089 0.709499 0.559442
0.416541 0.711849 0.564965
0.439338 0.712062 0.562829
0.523217 0.736416 0.576562
0.664179 0.763394 0.624445
0.795712 0.791623 0.685725
0.885557 0.802029 0.696773
0.963317 0.765591 0.602777
0.559136 0.799771 0.673701
0.563531 0.799344 0.675196
0.570886 0.793393 0.674495
0.603571 0.802976 0.675563
0.683436 0.813565 0.700343
0.771878 0.826841 0.739284
0.843015 0.840970 0.778775
0.887694 0.846372 0.792386
0.713527 0.851530 0.775113
0.714443 0.851102 0.775326
0.719661 0.849699 0.777005
0.733822 0.850034 0.780941
0.746029 0.851591 0.776303
0.795651 0.858274 0.797971
0.840085 0.865782 0.820279
0.874052 0.872618 0.838956
0.157778 0.175204 0.188724
0.218875 0.159030 0.193393
0.523186 0.051942 0.200839
0.808743 0.147951 0.208652
1.000000 0.205997 0.231601
1.000000 0.276829 0.282444
1.000000 0.335729 0.335271
1.000000 0.389441 0.389441
0.166781 0.211124 0.190799
0.219577 0.215213 0.207767
0.472999 0.245029 0.195682
0.764981 0.267796 0.197208
0.986664 0.288426 0.220432
1.000000 0.317144 0.272313
1.000000 0.353094 0.325170
1.000000 0.395544 0.379706
0.227146 0.339605 0.281773
0.241764 0.338140 0.279911
0.384192 0.377569 0.308354
0.659693 0.427253 0.211887
0.903471 0.442298 0.180941
1.000000 0.437018 0.247013
1.000000 0.437415 0.317449
1.000000 0.455421 0.383185
0.265751 0.462409 0.365667
0.277531 0.453346 0.364172
0.358404 0.490852 0.375372
0.565911 0.558831 0.435645
0.812253 0.602991 0.354467
0.957153 0.557855 0.205936
1.000000 0.537926 0.284611
1.000000 0.529778 0.365850
0.319280 0.593011 0.461036
0.326909 0.585199 0.458534
0.356268 0.598840 0.451209
0.510735 0.643122 0.491127
0.701656 0.694972 0.556451
0.868376 0.715297 0.523003
0.976928 0.665248 0.395117
1.000000 0.612634 0.337499
0.402350 0.702235 0.554742
0.407507 0.699367 0.554650
0.430396 0.698238 0.553185
0.513359 0.725795 0.567895
0.657588 0.756313 0.618524
0.792874 0.788327 0.683742
0.884031 0.799130 0.692775
0.962860 0.761868 0.597192
0.547662 0.793881 0.665553
0.547082 0.791470 0.663783
0.554131 0.784848 0.662470
0.588922 0.795132 0.664698
0.675288 0.808927 0.693385
0.766751 0.823148 0.733547
0.839506 0.837186 0.772702
0.886473 0.842741 0.785763
0.705379 0.849149 0.769802
0.708400 0.849210 0.771328
0.713283 0.847623 0.772671
0.727626 0.847593 0.776913
0.755032 0.853941 0.783627
0.798764 0.859220 0.801297
0.840299 0.865751 0.820981
0.874022 0.872618 0.839445
0.000000 0.278355 0.422827
0.104067 0.168643 0.423529
0.549401 0.000000 0.426246
0.892912 0.000000 0.424445
1.000000 0.301854 0.436225
1.000000 0.401343 0.456611
1.000000 0.457130 0.485359
1.000000 0.499825 0.518395
0.000000 0.330816 0.414313
0.212741 0.258915 0.412177
0.575708 0.204776 0.411902
0.870695 0.260563 0.409064
1.000000 0.349218 0.415656
1.000000 0.413855 0.440101
1.000000 0.456367 0.469795
1.000000 0.496590 0.506249
0.312596 0.446357 0.384863
0.367987 0.448157 0.406592
0.484504 0.466804 0.436255
0.736446 0.461769 0.334874
0.942199 0.476234 0.361395
1.000000 0.482979 0.403571
1.000000 0.499580 0.448951
1.000000 0.524865 0.495064
0.354559 0.538903 0.446296
0.366339 0.530907 0.445716
0.426581 0.544793 0.452583
0.632593 0.618402 0.525994
0.838865 0.624903 0.424292
0.966644 0.572747 0.328985
1.000000 0.567529 0.404913
1.000000 0.572656 0.470375
0.383215 0.629145 0.506889
0.389105 0.622980 0.505119
0.417395 0.621820 0.501823
0.554406 0.670161 0.543725
0.733547 0.723903 0.617792
0.873381 0.729854 0.571038
0.974578 0.672877 0.446784
1.000000 0.631373 0.425116
0.452277 0.717617 0.583703
0.456733 0.715297 0.583917
0.472114 0.704463 0.581567
0.542107 0.731930 0.594415
0.676265 0.762570 0.645380
0.800595 0.794949 0.710201
0.883055 0.805020 0.713466
0.957366 0.770199 0.629755
0.586175 0.802090 0.687861
0.585657 0.800076 0.686366
0.588708 0.793332 0.683406
0.615686 0.797665 0.684932
0.691615 0.811673 0.710445
0.777707 0.826902 0.750576
0.845121 0.842527 0.789639
0.887449 0.848753 0.800351
0.722560 0.851926 0.780362
0.722438 0.851286 0.779843
0.726467 0.849699 0.780850
0.740078 0.848569 0.786374
0.764126 0.855283 0.791867
0.806882 0.861357 0.810330
0.845701 0.868223 0.829374
0.876524 0.875120 0.846525
0.000000 0.322698 0.734218
0.000000 0.206058 0.734188
0.562737 0.000000 0.691035
0.883574 0.000000 0.674067
1.000000 0.207675 0.605127
1.000000 0.498421 0.620020
1.000000 0.622797 0.671046
1.000000 0.645533 0.677424
0.000000 0.431403 0.731289
0.000000 0.353948 0.727382
0.579675 0.218418 0.685634
0.890990 0.132723 0.665736
1.000000 0.362951 0.611902
1.000000 0.558770 0.642512
1.000000 0.622278 0.663722
1.000000 0.645228 0.672755
0.303105 0.656245 0.676814
0.408728 0.652003 0.679347
0.605035 0.548272 0.654994
0.854429 0.557305 0.638575
0.949218 0.618250 0.652735
0.993011 0.623255 0.640955
1.000000 0.645686 0.654749
1.000000 0.662348 0.669947
0.475319 0.675013 0.583734
0.515221 0.675807 0.598779
0.572320 0.649470 0.606409
0.721553 0.702510 0.669947
0.864225 0.635767 0.514031
0.960754 0.628626 0.535607
1.000000 0.642023 0.584466
1.000000 0.661707 0.628443
0.524254 0.712337 0.615900
0.525750 0.705959 0.612482
0.537072 0.682765 0.603418
0.634211 0.716518 0.637568
0.778347 0.766567 0.709651
0.878660 0.752346 0.644495
0.969512 0.687190 0.530541
1.000000 0.683375 0.577325
0.563653 0.759182 0.656580
0.571649 0.760159 0.660517
0.575586 0.748165 0.654871
0.612604 0.757656 0.659449
0.724880 0.785641 0.708797
0.819303 0.813016 0.761532
0.883085 0.817777 0.751156
0.948211 0.784787 0.682124
0.650874 0.815763 0.726925
0.652796 0.815122 0.727382
0.657832 0.811154 0.727199
0.672847 0.807187 0.728756
0.729976 0.821775 0.748714
0.799283 0.836118 0.782162
0.853483 0.850706 0.813870
0.888975 0.856168 0.818357
0.758083 0.859190 0.803037
0.758541 0.858824 0.803037
0.761135 0.857481 0.803464
0.767880 0.855192 0.805478
0.784512 0.858335 0.809598
0.819059 0.864927 0.824186
0.853605 0.872129 0.841764
0.880735 0.879362 0.857603
0.000000 0.393378 0.876219
0.000000 0.336797 0.877134
0.402533 0.246464 0.866484
0.807279 0.000000 0.841886
1.000000 0.101015 0.790921
1.000000 0.407111 0.705623
1.000000 0.612055 0.720211
0.990814 0.725551 0.769070
0.000000 0.497047 0.870298
0.000000 0.457618 0.871336
0.445960 0.367132 0.862638
0.813291 0.224735 0.838926
1.000000 0.293217 0.783810
1.000000 0.482551 0.713588
1.000000 0.646967 0.733700
0.982361 0.741360 0.777890
0.568200 0.749355 0.846281
0.590875 0.738460 0.844541
0.598291 0.644282 0.840696
0.818540 0.542199 0.816953
0.958618 0.570062 0.765133
0.975189 0.662379 0.746883
0.965637 0.738582 0.773953
0.960906 0.776944 0.796414
0.590448 0.811856 0.794614
0.620478 0.808988 0.794797
0.715602 0.799802 0.796445
0.808286 0.770138 0.785641
0.874479 0.774350 0.781643
0.917449 0.762753 0.766934
0.945129 0.763333 0.766781
0.961730 0.770047 0.774594
0.637903 0.784726 0.714504
0.656397 0.785245 0.722377
0.718563 0.787106 0.750973
0.723384 0.766201 0.737453
0.812833 0.803006 0.786648
0.881621 0.761196 0.698482
0.942046 0.741726 0.688106
0.964416 0.758297 0.728817
0.678645 0.797940 0.734890
0.678950 0.796170 0.733883
0.676417 0.786374 0.726589
0.676020 0.767361 0.715480
0.753628 0.795895 0.750820
0.833707 0.827329 0.800229
0.884733 0.824735 0.776638
0.943999 0.789334 0.716609
0.722988 0.832273 0.773098
0.721279 0.830961 0.771481
0.718502 0.826688 0.767361
0.723049 0.820310 0.765652
0.751095 0.825803 0.773648
0.813046 0.841581 0.804593
0.859770 0.856779 0.832486
0.890806 0.859770 0.828702
0.780423 0.864195 0.818143
0.780545 0.863828 0.817960
0.781949 0.862516 0.817777
0.790799 0.861723 0.821653
0.799161 0.858976 0.824063
0.827115 0.867155 0.835080
0.859220 0.874907 0.851560
0.883726 0.882322 0.865904
0.000000 0.481575 0.914916
0.000000 0.459510 0.915465
0.280064 0.405493 0.913329
0.654170 0.342718 0.906096
0.910887 0.275517 0.893828
1.000000 0.396643 0.835111
1.000000 0.558953 0.776150
0.998779 0.702541 0.790280
0.000000 0.558068 0.907347
0.126497 0.538933 0.907744
0.378180 0.482155 0.907012
0.664607 0.410712 0.899657
0.908293 0.349035 0.887724
1.000000 0.447608 0.829984
1.000000 0.589868 0.779049
0.992493 0.714565 0.793729
0.655116 0.769436 0.886229
0.652766 0.759609 0.886412
0.645808 0.711513 0.887572
0.730037 0.637598 0.882231
0.899809 0.584161 0.871946
0.976074 0.635248 0.825315
0.975341 0.713283 0.805051
0.962921 0.772183 0.817136
0.780606 0.855131 0.873747
0.788754 0.855100 0.873594
0.803189 0.845182 0.869718
0.807065 0.807523 0.863493
0.877623 0.777279 0.853452
0.915465 0.788693 0.835294
0.925505 0.810849 0.835843
0.930724 0.828214 0.843900
0.738827 0.845609 0.825864
0.747005 0.844816 0.826474
0.776486 0.842374 0.829282
0.816739 0.839750 0.834318
0.851102 0.836606 0.835630
0.881590 0.831144 0.830716
0.905608 0.831357 0.832334
0.921935 0.835935 0.838529
0.744625 0.835172 0.790951
0.753017 0.835935 0.795102
0.775906 0.836179 0.805539
0.803494 0.835691 0.818143
0.807370 0.827909 0.813138
0.855131 0.850462 0.842832
0.891234 0.831540 0.803952
0.922332 0.828367 0.807950
0.800565 0.856260 0.826810
0.804166 0.856687 0.828794
0.806485 0.855283 0.829007
0.805631 0.851164 0.825956
0.804562 0.843534 0.821012
0.835203 0.854032 0.834989
0.871458 0.868833 0.857115
0.895476 0.867979 0.847013
0.829679 0.875822 0.850797
0.828855 0.875395 0.850126
0.827634 0.874296 0.848783
0.827268 0.872831 0.847532
0.827604 0.869902 0.845792
0.838804 0.870787 0.849424
0.867369 0.879698 0.864286
0.888609 0.887327 0.877012
0.000000 0.555016 0.926116
0.151064 0.546136 0.926543
0.314275 0.507225 0.927092
0.553948 0.479744 0.924163
0.773007 0.399847 0.919280
0.952087 0.411902 0.910704
1.000000 0.524163 0.860899
1.000000 0.639307 0.817563
0.333196 0.607294 0.920287
0.353460 0.600397 0.920775
0.405707 0.559136 0.921996
0.577783 0.523735 0.919646
0.775143 0.439887 0.915251
0.948974 0.440131 0.906767
1.000000 0.534112 0.856779
1.000000 0.636042 0.813687
0.667506 0.770260 0.902708
0.667079 0.764736 0.902983
0.662226 0.736385 0.904295
0.698024 0.694636 0.904265
0.800076 0.619532 0.901854
0.933135 0.609522 0.895018
0.982025 0.670192 0.856229
0.977661 0.733486 0.833860
0.805722 0.857755 0.891173
0.807797 0.856413 0.890715
0.808865 0.847532 0.889708
0.802609 0.820798 0.889250
0.834775 0.783383 0.885008
0.905943 0.767971 0.880369
0.935058 0.786526 0.860410
0.939849 0.809354 0.852964
0.817258 0.875883 0.882872
0.819913 0.875547 0.882719
0.833036 0.875273 0.883085
0.849302 0.872526 0.882902
0.849210 0.847868 0.876707
0.887175 0.831693 0.870726
0.908659 0.838132 0.863218
0.916808 0.851255 0.866270
0.793606 0.868772 0.852171
0.797269 0.868681 0.852873
0.810544 0.868315 0.855436
0.831632 0.868284 0.860075
0.854917 0.869169 0.866178
0.876890 0.870359 0.870970
0.892943 0.869535 0.870298
0.905608 0.872038 0.873594
0.804898 0.868864 0.838102
0.808103 0.869047 0.839628
0.818387 0.869230 0.844327
0.835691 0.870054 0.852750
0.855802 0.872007 0.863340
0.858610 0.867704 0.861967
0.882292 0.880278 0.876982
0.901274 0.870542 0.858518
0.843473 0.883574 0.862943
0.844968 0.883726 0.863737
0.851652 0.884672 0.867460
0.860929 0.885649 0.872557
0.867247 0.885740 0.875608
0.867002 0.883238 0.873930
0.877287 0.886259 0.878202
0.894926 0.893889 0.888914
0.330571 0.605219 0.931182
0.343969 0.599939 0.931456
0.372930 0.568139 0.932799
0.510735 0.548943 0.931914
0.666194 0.509667 0.930358
0.840177 0.420630 0.928191
0.970214 0.491066 0.920439
1.000000 0.598322 0.880827
0.428901 0.643763 0.927062
0.437537 0.639399 0.927306
0.453651 0.611353 0.928710
0.546014 0.585595 0.928527
0.678157 0.543633 0.927489
0.840421 0.454383 0.925841
0.967285 0.512932 0.918334
1.000000 0.609461 0.879393
0.657862 0.764004 0.913176
0.658320 0.760342 0.913420
0.655879 0.741360 0.914672
0.679347 0.715938 0.915801
0.738582 0.675715 0.915984
0.845823 0.595422 0.916045
0.950713 0.629053 0.909758
0.986328 0.693721 0.878202
0.796139 0.849851 0.901183
0.796262 0.848295 0.901274
0.793820 0.839933 0.901610
0.790768 0.821134 0.902495
0.807279 0.797147 0.902281
0.856718 0.752193 0.901518
0.924590 0.757107 0.898344
0.948852 0.785519 0.879606
0.832486 0.880308 0.897642
0.834318 0.880003 0.897612
0.838987 0.877714 0.897154
0.848295 0.873136 0.895995
0.842893 0.854093 0.895598
0.863371 0.831693 0.893065
0.906096 0.826383 0.891630
0.923766 0.840360 0.882933
0.833768 0.889006 0.891783
0.835416 0.888853 0.891814
0.842985 0.888548 0.892210
0.857053 0.888762 0.893462
0.872374 0.888762 0.895048
0.874968 0.876127 0.892851
0.896757 0.868803 0.890990
0.910277 0.872129 0.887510
0.835691 0.890318 0.878843
0.837064 0.890257 0.879118
0.842863 0.890105 0.880369
0.853758 0.890196 0.882994
0.867369 0.890776 0.886687
0.881498 0.892424 0.891325
0.892973 0.889006 0.891875
0.903288 0.891630 0.893462
0.841733 0.890623 0.867643
0.842741 0.890562 0.868040
0.847959 0.890623 0.870390
0.858213 0.891234 0.875364
0.870787 0.892393 0.881773
0.883696 0.894377 0.888914
0.892271 0.895903 0.893828
0.900847 0.900237 0.899168
