lut_library_archive/removed_20260629/抖音热门推荐/抖音热门推荐12.cube
# 版权归凌孟成所有，侵权必究
# Created by Adobe Lightroom plugin Export LUT (1.24.0)
# www.johnrellis.com/lightroom/exportlut.htm
# Preset: INS风格-缇米设计12
# Color profile: C:\Program Files (x86)\Common Files\Adobe\Color\Profiles\Recommended\VideoHD.icc
LUT_3D_SIZE 8
DOMAIN_MIN 0.000000 0.000000 0.000000
DOMAIN_MAX 0.903226 0.903226 0.903226
0.106661 0.126345 0.124056
0.157321 0.129671 0.125795
0.391791 0.108827 0.124727
0.686427 0.000000 0.105287
0.858488 0.000000 0.043519
0.956817 0.216678 0.000000
0.996551 0.302953 0.057923
1.000000 0.358465 0.129152
0.103822 0.172641 0.140780
0.137697 0.155489 0.149203
0.335119 0.161501 0.132631
0.625666 0.094636 0.114748
0.832364 0.115114 0.063874
0.932250 0.235233 0.007141
0.981292 0.308629 0.057862
1.000000 0.363317 0.127352
0.000000 0.519829 0.246525
0.243656 0.507439 0.257176
0.345525 0.333288 0.291508
0.548180 0.264561 0.148562
0.788815 0.308110 0.115511
0.902342 0.358831 0.108278
0.965270 0.404425 0.141817
1.000000 0.432990 0.183810
0.571252 0.766690 0.609277
0.594934 0.765560 0.612146
0.660761 0.720058 0.589746
0.655299 0.630213 0.584131
0.771878 0.537621 0.314244
0.851530 0.475013 0.204593
0.925048 0.496590 0.225650
0.970916 0.508080 0.255131
0.687343 0.823758 0.737606
0.694850 0.823850 0.739437
0.721492 0.816190 0.738735
0.748714 0.782254 0.719936
0.729671 0.721706 0.700649
0.804196 0.654871 0.508446
0.864714 0.553796 0.298222
0.927276 0.571496 0.330968
0.742275 0.850797 0.796139
0.748196 0.852110 0.799588
0.761135 0.852750 0.803250
0.775631 0.838529 0.793088
0.785122 0.811521 0.775753
0.766415 0.770077 0.761563
0.818540 0.727840 0.644495
0.878904 0.657465 0.486854
0.774990 0.865171 0.827878
0.777005 0.865385 0.828641
0.783230 0.865537 0.829892
0.792599 0.862211 0.828061
0.800931 0.849393 0.817441
0.805081 0.828244 0.803464
0.787259 0.796201 0.792691
0.825956 0.766903 0.713222
0.798489 0.873014 0.848966
0.799222 0.873045 0.849058
0.802609 0.873167 0.849790
0.809079 0.873381 0.851194
0.811124 0.867704 0.842802
0.817319 0.857786 0.833890
0.820035 0.841367 0.822324
0.805173 0.817014 0.816526
0.103609 0.134737 0.144961
0.137270 0.136385 0.142000
0.343084 0.132296 0.127565
0.606958 0.057252 0.115694
0.821561 0.074617 0.070100
0.925536 0.214908 0.004150
0.977142 0.291844 0.034363
1.000000 0.347173 0.113161
0.103853 0.169528 0.161013
0.152193 0.165835 0.158938
0.313695 0.170565 0.139162
0.578851 0.148867 0.121523
0.805142 0.162112 0.084016
0.912657 0.244450 0.023651
0.967315 0.306004 0.050538
1.000000 0.355261 0.115969
0.100008 0.474372 0.276463
0.273594 0.470924 0.287327
0.353307 0.337255 0.294835
0.530266 0.269596 0.154055
0.754116 0.293400 0.119722
0.880797 0.343786 0.104036
0.948394 0.385138 0.123049
0.992279 0.418647 0.164431
0.533379 0.737362 0.571618
0.563378 0.738064 0.578607
0.637842 0.695033 0.564233
0.625849 0.595453 0.541405
0.740932 0.502312 0.280522
0.825071 0.442298 0.181064
0.909026 0.472267 0.196963
0.962341 0.491829 0.230289
0.683619 0.818479 0.733822
0.690394 0.818235 0.734829
0.716243 0.810300 0.733242
0.741085 0.773281 0.709957
0.720729 0.709926 0.685695
0.797024 0.642512 0.487709
0.856229 0.541161 0.281285
0.922637 0.562066 0.314794
0.738582 0.847868 0.792752
0.742214 0.848142 0.793942
0.756191 0.849119 0.798337
0.772030 0.835203 0.789273
0.782010 0.808103 0.772396
0.764614 0.767636 0.758724
0.816709 0.724239 0.638453
0.877012 0.652522 0.477150
0.772091 0.863737 0.825589
0.773220 0.863645 0.825528
0.779660 0.863828 0.826902
0.790097 0.860807 0.825895
0.799466 0.848142 0.816129
0.803464 0.826627 0.801999
0.785214 0.793881 0.790311
0.824186 0.762936 0.706844
0.796170 0.872435 0.847379
0.797482 0.872557 0.847898
0.800900 0.872679 0.848600
0.807736 0.872923 0.850187
0.813016 0.868376 0.845274
0.818051 0.858274 0.835416
0.820035 0.841489 0.822965
0.804776 0.816495 0.816007
0.048981 0.157656 0.211734
0.123964 0.157168 0.199161
0.296605 0.159213 0.213382
0.663172 0.009003 0.152255
0.818326 0.172091 0.077699
0.917082 0.276127 0.037568
0.971252 0.338445 0.091890
1.000000 0.377722 0.136568
0.068666 0.194522 0.234714
0.157961 0.193332 0.226566
0.366949 0.177188 0.217350
0.629541 0.171969 0.167727
0.798520 0.216251 0.102937
0.902586 0.294865 0.063386
0.962341 0.347448 0.096956
1.000000 0.385016 0.139528
0.171633 0.413855 0.345190
0.281987 0.417609 0.344213
0.396338 0.362371 0.320928
0.578302 0.312932 0.222568
0.764614 0.332403 0.163149
0.875975 0.371923 0.121096
0.943664 0.408667 0.141299
0.988800 0.434211 0.177981
0.548669 0.719081 0.602899
0.583062 0.723507 0.615961
0.649409 0.697780 0.614252
0.645808 0.614527 0.566461
0.741299 0.511162 0.325963
0.825467 0.456214 0.193423
0.908446 0.486580 0.212314
0.961700 0.502770 0.243687
0.689876 0.810819 0.743191
0.697688 0.811551 0.745968
0.724483 0.809751 0.751675
0.744961 0.775845 0.730648
0.729397 0.719936 0.699123
0.794949 0.648829 0.513512
0.856779 0.549462 0.293614
0.922362 0.566033 0.320806
0.743069 0.844816 0.798184
0.746853 0.845304 0.799710
0.760281 0.846586 0.804257
0.774685 0.834592 0.796811
0.782071 0.807950 0.779507
0.766415 0.769680 0.761685
0.815488 0.724453 0.641627
0.877287 0.653742 0.479500
0.776303 0.863005 0.830167
0.777493 0.862974 0.830259
0.783505 0.863127 0.831479
0.793790 0.861418 0.831754
0.801663 0.848997 0.821836
0.804685 0.828214 0.807950
0.788144 0.797513 0.795010
0.825681 0.764553 0.709163
0.798215 0.872099 0.849790
0.798825 0.872068 0.849790
0.802274 0.872251 0.850584
0.809781 0.872740 0.852842
0.815335 0.869169 0.849302
0.820035 0.859617 0.840085
0.821500 0.843442 0.827848
0.805264 0.816953 0.816495
0.000000 0.193942 0.318914
0.000000 0.192325 0.318090
0.250980 0.246311 0.293950
0.565209 0.206851 0.345922
0.849943 0.115999 0.243961
0.918517 0.291447 0.167300
0.962402 0.343694 0.094942
1.000000 0.384741 0.138705
0.000000 0.236210 0.347906
0.094148 0.234897 0.345617
0.294285 0.284520 0.325994
0.608850 0.233799 0.356207
0.849210 0.262699 0.259525
0.910277 0.321782 0.182803
0.956176 0.361028 0.106111
0.997589 0.397009 0.147616
0.000000 0.371740 0.408545
0.153353 0.371862 0.406836
0.416602 0.398840 0.411505
0.673548 0.390234 0.367193
0.801419 0.397742 0.303502
0.882048 0.416938 0.244022
0.940826 0.434668 0.175845
0.986694 0.449592 0.192813
0.485115 0.672877 0.614343
0.522576 0.670558 0.613245
0.630274 0.686549 0.638392
0.643915 0.601404 0.556451
0.724636 0.492134 0.365484
0.826688 0.497871 0.317662
0.902098 0.500755 0.258213
0.959472 0.507195 0.248600
0.689265 0.795407 0.751400
0.693629 0.796963 0.751339
0.725887 0.803128 0.765377
0.746517 0.775998 0.750698
0.735775 0.725704 0.707881
0.788632 0.649256 0.542748
0.856199 0.567803 0.357000
0.923461 0.570123 0.327733
0.748806 0.840421 0.806607
0.754421 0.841978 0.809873
0.766995 0.843626 0.814420
0.782284 0.837369 0.812833
0.785885 0.812009 0.795285
0.771115 0.775174 0.769162
0.812619 0.726375 0.656886
0.879362 0.653101 0.477974
0.778988 0.860746 0.834745
0.780880 0.860990 0.835477
0.788052 0.861814 0.837919
0.800626 0.863218 0.842252
0.806851 0.852079 0.833097
0.807645 0.831937 0.818601
0.792020 0.802365 0.801419
0.826413 0.766140 0.714290
0.801907 0.871580 0.854337
0.802731 0.871641 0.854551
0.806271 0.871916 0.855497
0.813046 0.872465 0.857450
0.819944 0.871031 0.856870
0.823270 0.862150 0.847807
0.823972 0.846769 0.835752
0.809049 0.821805 0.822843
0.000000 0.250462 0.452857
0.000000 0.251682 0.456092
0.243015 0.294194 0.450721
0.458503 0.341405 0.451423
0.752255 0.349584 0.504784
0.918669 0.251041 0.369696
0.961761 0.398932 0.298802
0.999207 0.402747 0.199130
0.000000 0.287297 0.471595
0.000000 0.288945 0.475410
0.288853 0.331365 0.471962
0.490181 0.373419 0.473457
0.761715 0.372137 0.509087
0.912963 0.317784 0.382757
0.955901 0.416724 0.309331
0.995331 0.415717 0.210849
0.000000 0.392523 0.507774
0.065034 0.405341 0.517327
0.386114 0.430671 0.525963
0.577173 0.475776 0.538201
0.784115 0.434394 0.500633
0.883024 0.470161 0.417578
0.931640 0.469276 0.343236
0.978973 0.456214 0.248203
0.267491 0.595361 0.602106
0.329259 0.593774 0.600000
0.493965 0.590021 0.593530
0.655604 0.589990 0.578302
0.753017 0.568414 0.524254
0.830472 0.552026 0.464973
0.895232 0.540398 0.404364
0.955108 0.517815 0.312139
0.631525 0.761349 0.734615
0.644251 0.761440 0.735500
0.686519 0.761105 0.739284
0.731563 0.761563 0.748989
0.724514 0.703975 0.683864
0.770871 0.607385 0.514702
0.850431 0.592187 0.455055
0.920745 0.577081 0.383703
0.732937 0.820798 0.798764
0.737148 0.821073 0.799832
0.746304 0.825284 0.801389
0.773800 0.831540 0.813840
0.778592 0.805509 0.795956
0.768551 0.770230 0.764370
0.807553 0.714015 0.650813
0.876188 0.634241 0.472786
0.776883 0.853483 0.836423
0.777462 0.853758 0.836240
0.780941 0.855344 0.836393
0.795407 0.858305 0.842130
0.808164 0.854215 0.841550
0.808103 0.833860 0.826322
0.793332 0.803738 0.803861
0.824887 0.762234 0.714839
0.800015 0.868193 0.855924
0.800504 0.868376 0.855894
0.802792 0.869139 0.855985
0.810849 0.870695 0.858762
0.821927 0.872007 0.862638
0.826017 0.865080 0.855863
0.825895 0.850004 0.843442
0.811582 0.825193 0.827665
0.000000 0.331701 0.592187
0.000000 0.333379 0.594812
0.132967 0.350347 0.598779
0.518517 0.501854 0.589410
0.669795 0.471778 0.619013
0.812680 0.503471 0.619440
0.935027 0.419562 0.513725
0.980499 0.474250 0.444129
0.000000 0.352422 0.589868
0.000000 0.353460 0.591577
0.192508 0.369329 0.595697
0.520989 0.506706 0.584710
0.667018 0.481270 0.615137
0.811765 0.504143 0.614038
0.932525 0.424475 0.506981
0.975525 0.486793 0.446967
0.000000 0.448859 0.614862
0.000000 0.449073 0.616632
0.330724 0.463233 0.623621
0.572839 0.566888 0.617121
0.686244 0.556512 0.639887
0.818540 0.544640 0.620203
0.914488 0.513054 0.536095
0.958190 0.542535 0.480476
0.000000 0.553521 0.633692
0.000000 0.549737 0.630060
0.398138 0.566308 0.640497
0.630640 0.636286 0.665797
0.715541 0.646632 0.679530
0.827207 0.611444 0.629633
0.881926 0.617426 0.587488
0.934478 0.590936 0.519493
0.509911 0.710262 0.715084
0.526818 0.709621 0.714321
0.585779 0.707485 0.711635
0.667109 0.706569 0.709834
0.717464 0.677272 0.668818
0.781796 0.659754 0.631220
0.844480 0.643549 0.590600
0.908354 0.620172 0.531273
0.693080 0.804593 0.792386
0.699733 0.805142 0.793545
0.719142 0.804715 0.794583
0.748928 0.806027 0.798825
0.773373 0.802884 0.802090
0.763088 0.758938 0.753384
0.801938 0.675807 0.614099
0.874144 0.658869 0.562707
0.759976 0.845029 0.833188
0.762936 0.845274 0.834012
0.772335 0.845457 0.835966
0.786954 0.847715 0.839811
0.807034 0.854673 0.848875
0.810025 0.838071 0.836881
0.795315 0.805814 0.807553
0.825559 0.755001 0.712947
0.789517 0.864622 0.854612
0.790738 0.864561 0.854826
0.796780 0.864714 0.856474
0.807584 0.865812 0.859953
0.816770 0.869108 0.862730
0.829740 0.869261 0.865873
0.829252 0.855070 0.853727
0.815549 0.830320 0.834623
0.000000 0.409918 0.685054
0.000000 0.412787 0.687434
0.000000 0.421942 0.688319
0.471168 0.500755 0.684627
0.632685 0.604486 0.672541
0.744442 0.570825 0.698329
0.833097 0.590631 0.687922
0.928313 0.526848 0.614649
0.000000 0.418250 0.677760
0.000000 0.421485 0.680720
0.025757 0.430457 0.682582
0.470619 0.502098 0.679011
0.629847 0.602869 0.667750
0.739590 0.569360 0.691890
0.830961 0.583246 0.679866
0.927031 0.517632 0.603754
0.000000 0.480507 0.683833
0.000000 0.481361 0.684962
0.242496 0.488319 0.687526
0.507195 0.543816 0.688502
0.648707 0.632136 0.682002
0.742580 0.609064 0.702296
0.833433 0.609033 0.688380
0.921508 0.558190 0.617884
0.000000 0.540154 0.679988
0.000000 0.544274 0.682002
0.334844 0.567956 0.692714
0.546746 0.599756 0.703609
0.677882 0.676326 0.708553
0.750393 0.664240 0.722438
0.837003 0.645045 0.697963
0.906401 0.618036 0.642115
0.111391 0.657038 0.715755
0.177127 0.653956 0.712947
0.317876 0.644068 0.704341
0.498878 0.636896 0.697444
0.693477 0.703792 0.727138
0.753048 0.703639 0.733852
0.835691 0.676417 0.696101
0.882170 0.681788 0.672724
0.568811 0.766049 0.774838
0.577142 0.765805 0.774685
0.607538 0.764096 0.773312
0.655879 0.760555 0.770291
0.710384 0.753872 0.764004
0.753750 0.734646 0.738735
0.804135 0.719875 0.710506
0.857359 0.704005 0.678981
0.714900 0.831632 0.826841
0.718318 0.831693 0.827115
0.730617 0.831388 0.827481
0.752041 0.831083 0.828672
0.778164 0.830930 0.831174
0.803098 0.834348 0.838407
0.788205 0.794919 0.797391
0.824369 0.720485 0.680232
0.765927 0.859190 0.851102
0.768002 0.859251 0.851499
0.776791 0.859770 0.853422
0.790555 0.860349 0.856321
0.808042 0.861418 0.860655
0.825193 0.866789 0.867491
0.833249 0.861204 0.864805
0.819669 0.835599 0.842100
0.000000 0.488380 0.755184
0.000000 0.490028 0.755886
0.000000 0.493263 0.753872
0.416114 0.523552 0.751308
0.625757 0.625452 0.738155
0.695064 0.654231 0.732601
0.787198 0.632013 0.751186
0.846342 0.648371 0.737758
0.000000 0.491920 0.750454
0.000000 0.493721 0.751339
0.000000 0.498024 0.750668
0.416938 0.526177 0.748379
0.624414 0.625086 0.736416
0.694240 0.655055 0.731167
0.785031 0.632624 0.748989
0.845487 0.646876 0.735500
0.000000 0.523400 0.746395
0.000000 0.524041 0.746914
0.148135 0.526757 0.746883
0.443732 0.554864 0.749020
0.630762 0.636988 0.740688
0.699367 0.669947 0.735775
0.782864 0.651087 0.751858
0.845060 0.657984 0.738643
0.000000 0.560296 0.738338
0.000000 0.564965 0.739895
0.185672 0.573388 0.742947
0.456611 0.590448 0.747524
0.632990 0.651392 0.748196
0.710353 0.697780 0.747402
0.781125 0.683803 0.760678
0.844663 0.680903 0.747311
0.000000 0.602045 0.731197
0.000000 0.599176 0.729641
0.000000 0.590204 0.725154
0.370581 0.620966 0.739651
0.611292 0.659937 0.752621
0.721279 0.727352 0.760006
0.778408 0.718074 0.771572
0.843259 0.707027 0.756405
0.062593 0.722469 0.777584
0.136324 0.720790 0.776303
0.256016 0.714260 0.771389
0.377783 0.700832 0.761563
0.484016 0.673457 0.741939
0.723964 0.742824 0.777676
0.778195 0.755276 0.787564
0.841398 0.733944 0.763424
0.572320 0.804379 0.816678
0.577447 0.803952 0.816373
0.598077 0.802243 0.815152
0.634241 0.799100 0.812924
0.678096 0.793668 0.808682
0.722896 0.783841 0.800381
0.781460 0.778622 0.794797
0.823331 0.768124 0.774319
0.712795 0.850950 0.848508
0.715023 0.850797 0.848569
0.725582 0.850614 0.849302
0.745480 0.850767 0.851255
0.770382 0.850797 0.853178
0.796628 0.851133 0.855619
0.824857 0.857481 0.864591
0.814755 0.830198 0.838804
