lut_library_archive/removed_20260629/抖音热门推荐/抖音热门推荐06.cube
# 版权归凌孟成所有，侵权必究
# Created by Adobe Lightroom plugin Export LUT (1.24.0)
# www.johnrellis.com/lightroom/exportlut.htm
# Preset: INS风格-缇米设计06
# Color profile: C:\Program Files (x86)\Common Files\Adobe\Color\Profiles\Recommended\VideoHD.icc
LUT_3D_SIZE 8
DOMAIN_MIN 0.000000 0.000000 0.000000
DOMAIN_MAX 0.903226 0.903226 0.903226
0.194888 0.137697 0.111269
0.233219 0.140597 0.112703
0.426825 0.137118 0.114900
0.731075 0.032349 0.104494
0.942565 0.199527 0.123049
1.000000 0.392401 0.262089
1.000000 0.535027 0.433753
1.000000 0.658747 0.597314
0.201694 0.167239 0.117830
0.228641 0.173587 0.118959
0.387304 0.192172 0.110536
0.677943 0.192020 0.095827
0.913390 0.258762 0.109041
1.000000 0.394202 0.232670
1.000000 0.523186 0.400427
1.000000 0.648859 0.576043
0.203342 0.272587 0.139620
0.225101 0.261143 0.141085
0.379980 0.333654 0.145815
0.574304 0.335973 0.039155
0.847318 0.403265 0.014252
0.997772 0.483040 0.221927
1.000000 0.585443 0.419776
1.000000 0.687190 0.595941
0.142855 0.441810 0.198764
0.189395 0.426886 0.194736
0.279698 0.395850 0.193881
0.655116 0.606592 0.335973
0.826902 0.589380 0.223819
0.929595 0.572686 0.160281
1.000000 0.643977 0.392676
1.000000 0.721431 0.586084
0.000000 0.611231 0.322881
0.098695 0.599664 0.314641
0.256504 0.553552 0.290074
0.437873 0.596216 0.338872
0.789670 0.757992 0.571374
0.904784 0.744839 0.521111
0.968322 0.688014 0.308721
1.000000 0.754086 0.544732
0.230289 0.740322 0.478462
0.259922 0.739345 0.479805
0.315862 0.715297 0.457130
0.387732 0.661280 0.418189
0.640223 0.753475 0.559747
0.864408 0.847440 0.728908
0.941436 0.851194 0.736751
0.994934 0.832120 0.660639
0.481117 0.842679 0.649195
0.487953 0.841123 0.648463
0.503563 0.830228 0.637415
0.533410 0.807919 0.619226
0.586328 0.788327 0.609522
0.786893 0.857023 0.736873
0.913451 0.904906 0.830442
0.963958 0.912016 0.851011
0.686641 0.919921 0.798215
0.688716 0.919127 0.797726
0.698756 0.916167 0.796841
0.718837 0.910613 0.796780
0.727840 0.893095 0.782101
0.794461 0.902495 0.809140
0.889036 0.929137 0.863035
0.953307 0.947784 0.903166
0.196994 0.146151 0.125185
0.237003 0.140322 0.132784
0.429877 0.119844 0.138888
0.719326 0.118074 0.153231
0.930724 0.239841 0.192172
1.000000 0.395544 0.298711
1.000000 0.526268 0.440101
1.000000 0.647425 0.590631
0.198184 0.178866 0.128634
0.238621 0.183963 0.134493
0.405676 0.201755 0.138766
0.688563 0.212375 0.144625
0.911223 0.288975 0.182101
1.000000 0.411017 0.286320
1.000000 0.526879 0.424323
1.000000 0.642969 0.576715
0.217502 0.303349 0.162234
0.244541 0.292485 0.162203
0.392950 0.346166 0.177584
0.585840 0.346624 0.111482
0.841093 0.406775 0.141329
0.985412 0.481331 0.260502
1.000000 0.572045 0.419623
1.000000 0.674128 0.585687
0.170504 0.462074 0.227115
0.210910 0.448615 0.221775
0.299962 0.397559 0.214755
0.634516 0.586694 0.341070
0.797421 0.563226 0.223606
0.910338 0.554589 0.182925
1.000000 0.624475 0.379461
1.000000 0.705959 0.569207
0.088228 0.623713 0.349493
0.158450 0.611688 0.339666
0.276890 0.564355 0.310216
0.436591 0.586816 0.343725
0.779294 0.747127 0.564965
0.895445 0.733089 0.509514
0.958495 0.674098 0.294743
1.000000 0.746059 0.538781
0.254063 0.740200 0.487282
0.270726 0.735103 0.482063
0.323491 0.711452 0.459602
0.392554 0.658930 0.421118
0.633295 0.745815 0.554833
0.861173 0.844327 0.727962
0.938506 0.847593 0.732967
0.992493 0.826444 0.651362
0.476326 0.838743 0.645838
0.477790 0.835325 0.641291
0.492836 0.823880 0.629206
0.524193 0.801511 0.610956
0.576928 0.779568 0.600397
0.781003 0.852110 0.730800
0.910185 0.901396 0.825895
0.961730 0.908263 0.845212
0.678614 0.917113 0.793393
0.682826 0.916930 0.794278
0.692409 0.913725 0.792782
0.712673 0.908049 0.792447
0.738064 0.897490 0.791379
0.796262 0.903258 0.811856
0.888365 0.928588 0.862974
0.952972 0.947478 0.903197
0.201083 0.181003 0.189334
0.220737 0.163333 0.208103
0.437873 0.121431 0.265324
0.770748 0.000000 0.317021
0.962707 0.295598 0.381750
1.000000 0.520043 0.519615
1.000000 0.622583 0.604700
1.000000 0.707820 0.689784
0.228305 0.233738 0.196506
0.249424 0.228550 0.217105
0.450782 0.197513 0.273472
0.758755 0.205081 0.314580
0.943664 0.382300 0.403754
1.000000 0.522667 0.503197
1.000000 0.618067 0.589624
1.000000 0.703822 0.679774
0.118044 0.385870 0.260014
0.204318 0.397498 0.271031
0.447822 0.404150 0.307042
0.692836 0.428687 0.309850
0.886503 0.488289 0.379095
0.986999 0.561028 0.471290
1.000000 0.640589 0.573938
1.000000 0.718349 0.674220
0.000000 0.570764 0.355016
0.235843 0.567437 0.365209
0.403052 0.523491 0.358068
0.667109 0.628717 0.477577
0.798947 0.578759 0.331212
0.928191 0.605188 0.387335
1.000000 0.673060 0.532952
1.000000 0.742031 0.659205
0.282780 0.692653 0.478645
0.333043 0.686641 0.480446
0.386297 0.647761 0.442267
0.477333 0.609796 0.421637
0.790005 0.765347 0.636164
0.889494 0.742916 0.566644
0.958770 0.696803 0.425971
1.000000 0.767636 0.621576
0.399268 0.772610 0.573907
0.406744 0.768399 0.569146
0.431281 0.747158 0.545739
0.467567 0.699367 0.502037
0.645289 0.748348 0.589441
0.861570 0.847684 0.751736
0.934417 0.849454 0.748928
0.989014 0.828214 0.670161
0.542626 0.853117 0.691768
0.543572 0.850217 0.687861
0.551324 0.839078 0.674434
0.571069 0.817319 0.653071
0.598199 0.778988 0.625635
0.785275 0.853574 0.746029
0.912047 0.904662 0.839017
0.961761 0.911711 0.854948
0.698390 0.921141 0.808560
0.699184 0.920073 0.807340
0.707118 0.916869 0.805173
0.727077 0.912047 0.805295
0.749081 0.901549 0.802304
0.797848 0.903258 0.817197
0.890105 0.929656 0.868498
0.953643 0.948669 0.907774
0.115816 0.255833 0.380560
0.134127 0.234623 0.407416
0.390967 0.179232 0.491035
0.750912 0.000000 0.570306
0.954559 0.286564 0.594049
1.000000 0.509239 0.629572
1.000000 0.654261 0.698146
1.000000 0.763119 0.779171
0.176944 0.332525 0.410712
0.200900 0.316442 0.432685
0.401892 0.253117 0.508476
0.757168 0.218723 0.580407
0.947021 0.369635 0.601190
1.000000 0.546014 0.639551
1.000000 0.670924 0.705287
1.000000 0.766812 0.779385
0.203830 0.472328 0.461707
0.286351 0.479744 0.471412
0.465431 0.487984 0.524926
0.745388 0.469947 0.593194
0.907530 0.563684 0.626978
0.978912 0.660426 0.682918
1.000000 0.737758 0.742672
1.000000 0.781827 0.781430
0.000000 0.676020 0.570794
0.000000 0.678431 0.576501
0.452461 0.689113 0.602045
0.700343 0.678157 0.634516
0.829313 0.663905 0.597040
0.927703 0.697993 0.643702
0.985748 0.741238 0.700435
1.000000 0.788205 0.760952
0.295537 0.777829 0.620417
0.361975 0.773190 0.622431
0.530755 0.756313 0.635615
0.619898 0.706233 0.612085
0.805600 0.791379 0.724178
0.878996 0.753231 0.636469
0.953429 0.752377 0.630854
1.000000 0.803403 0.731533
0.498878 0.824613 0.680293
0.525841 0.824308 0.686244
0.594202 0.812009 0.691890
0.616022 0.776913 0.657923
0.678828 0.763272 0.657832
0.867704 0.858976 0.795743
0.929259 0.854307 0.776577
0.984894 0.828702 0.694240
0.609094 0.876371 0.751492
0.620935 0.874937 0.753414
0.648859 0.867582 0.753017
0.658930 0.850370 0.733577
0.671168 0.818082 0.704189
0.794644 0.858000 0.773556
0.914641 0.909392 0.858122
0.961089 0.914763 0.865873
0.735988 0.931029 0.838743
0.740078 0.930205 0.839139
0.745327 0.927214 0.836240
0.757076 0.921508 0.831998
0.772641 0.911284 0.825711
0.798734 0.901823 0.825132
0.891630 0.930663 0.876555
0.954894 0.950713 0.915465
0.000000 0.383948 0.640497
0.000000 0.366644 0.654322
0.248814 0.298375 0.694728
0.691371 0.218692 0.750423
0.925353 0.330022 0.774075
1.000000 0.507591 0.761868
1.000000 0.654505 0.772183
1.000000 0.755489 0.810422
0.000000 0.455299 0.653742
0.000000 0.440620 0.666224
0.288457 0.363500 0.703670
0.692317 0.307652 0.753292
0.919371 0.395270 0.774563
1.000000 0.544732 0.764370
1.000000 0.672145 0.776303
1.000000 0.764340 0.813870
0.339330 0.598627 0.662898
0.376135 0.599054 0.672206
0.481056 0.581079 0.706477
0.682673 0.523552 0.753475
0.889372 0.562097 0.771237
0.970703 0.643519 0.768399
1.000000 0.726314 0.788754
1.000000 0.792111 0.824094
0.360082 0.706813 0.711940
0.416419 0.708278 0.714473
0.574060 0.717006 0.726009
0.715816 0.728023 0.753048
0.854643 0.724453 0.779599
0.931151 0.761440 0.791043
0.974701 0.801053 0.816587
0.999664 0.839414 0.848173
0.391669 0.821134 0.752743
0.436927 0.821500 0.755673
0.566522 0.822446 0.765988
0.710414 0.819760 0.778836
0.818021 0.812253 0.792905
0.879759 0.789273 0.753719
0.946593 0.812100 0.785611
0.990600 0.839994 0.822019
0.512535 0.867735 0.761837
0.534997 0.865812 0.763058
0.606287 0.856382 0.765133
0.701564 0.839170 0.770138
0.741360 0.799680 0.745968
0.870787 0.866392 0.831296
0.920684 0.849058 0.789670
0.976745 0.848295 0.781277
0.612848 0.902098 0.795590
0.621698 0.900328 0.795499
0.658503 0.893980 0.796994
0.725093 0.882933 0.804654
0.746242 0.858610 0.785122
0.792905 0.853574 0.790555
0.915312 0.912047 0.874937
0.958679 0.912840 0.869718
0.693874 0.941772 0.842832
0.701808 0.940795 0.843992
0.732631 0.937133 0.849058
0.784756 0.932067 0.860929
0.798154 0.922454 0.852995
0.812833 0.907408 0.843717
0.887816 0.928374 0.881102
0.954498 0.951080 0.921386
0.000000 0.531945 0.800198
0.000000 0.521416 0.805478
0.234897 0.457923 0.822843
0.598016 0.434424 0.848173
0.869078 0.419165 0.872251
0.987091 0.551629 0.870237
1.000000 0.667994 0.853483
1.000000 0.763333 0.859739
0.188235 0.572442 0.796048
0.222354 0.562341 0.800229
0.325719 0.509270 0.817594
0.598627 0.472450 0.841825
0.861082 0.454292 0.866667
0.979278 0.571099 0.866087
1.000000 0.677180 0.851652
1.000000 0.767269 0.859007
0.466682 0.688960 0.799466
0.490486 0.688319 0.803006
0.544274 0.670680 0.817746
0.638025 0.617792 0.839353
0.848905 0.597894 0.863798
0.956939 0.663783 0.864286
0.999695 0.732845 0.856565
1.000000 0.798581 0.866514
0.572351 0.771542 0.809598
0.593469 0.772702 0.810086
0.669032 0.780789 0.814664
0.733883 0.777218 0.839170
0.831968 0.752590 0.863645
0.929503 0.773220 0.868070
0.974395 0.807828 0.868589
1.000000 0.843595 0.880827
0.575647 0.831968 0.831418
0.595239 0.832090 0.832212
0.663844 0.833188 0.835874
0.756558 0.837308 0.843198
0.832975 0.842771 0.855711
0.904662 0.840848 0.867674
0.952331 0.857786 0.875731
0.985290 0.877806 0.890562
0.598627 0.891966 0.845487
0.616938 0.892424 0.847501
0.670527 0.891478 0.851377
0.747127 0.890806 0.858671
0.821836 0.886259 0.864469
0.883787 0.883604 0.874357
0.925566 0.869169 0.851316
0.973724 0.887419 0.875731
0.648798 0.932006 0.856901
0.660487 0.931334 0.858061
0.697047 0.927337 0.860075
0.752834 0.919707 0.863096
0.811978 0.907591 0.865751
0.835111 0.879820 0.848173
0.921172 0.920287 0.899901
0.958740 0.912261 0.877989
0.689662 0.957580 0.871702
0.695186 0.956756 0.871855
0.720760 0.953826 0.874022
0.764736 0.948791 0.878843
0.818936 0.940307 0.885679
0.847654 0.927001 0.881346
0.883207 0.925597 0.888487
0.955352 0.953094 0.931304
0.370947 0.653162 0.879484
0.390539 0.649378 0.882689
0.439216 0.618219 0.890501
0.582483 0.582971 0.903593
0.784207 0.573968 0.916167
0.939849 0.597406 0.924651
1.000000 0.684657 0.918700
1.000000 0.760006 0.902281
0.414130 0.669856 0.872374
0.430915 0.667262 0.875944
0.469123 0.638941 0.884031
0.582177 0.596521 0.897124
0.776272 0.584009 0.909941
0.932616 0.597986 0.918700
1.000000 0.677607 0.912657
1.000000 0.750088 0.896300
0.571160 0.751766 0.871672
0.585626 0.751431 0.873320
0.599634 0.732418 0.879484
0.635645 0.686030 0.893187
0.779721 0.672755 0.904906
0.920195 0.674647 0.915648
0.989929 0.734646 0.913085
1.000000 0.791958 0.903288
0.661860 0.817563 0.870359
0.668605 0.816678 0.871122
0.699306 0.814817 0.876036
0.742092 0.805722 0.887907
0.795224 0.778073 0.901976
0.906737 0.773220 0.915099
0.970428 0.805417 0.914916
0.998840 0.836606 0.910185
0.668818 0.851987 0.877195
0.676844 0.851102 0.876371
0.715450 0.851713 0.876646
0.778103 0.856718 0.879820
0.825864 0.854612 0.893462
0.887144 0.838193 0.908904
0.951446 0.850919 0.912200
0.985321 0.874601 0.916014
0.664790 0.894224 0.890776
0.675319 0.894255 0.891295
0.713558 0.893828 0.892851
0.773251 0.893828 0.895995
0.837064 0.895201 0.900450
0.891051 0.900084 0.910399
0.941161 0.900237 0.919646
0.974121 0.912016 0.925841
0.685481 0.936431 0.899992
0.695705 0.936553 0.901061
0.726894 0.935485 0.903044
0.777737 0.934295 0.907256
0.833097 0.933257 0.912688
0.885252 0.932036 0.918547
0.928283 0.929412 0.924681
0.961456 0.922118 0.913207
0.697475 0.971679 0.906432
0.705287 0.971160 0.907103
0.737270 0.969299 0.910399
0.781460 0.965332 0.914183
0.829618 0.959503 0.917998
0.875639 0.951690 0.921447
0.901976 0.936522 0.915801
0.957336 0.956451 0.944244
0.549432 0.741909 0.923583
0.556329 0.739376 0.925078
0.572076 0.720424 0.928588
0.616175 0.683925 0.937682
0.747402 0.679377 0.944610
0.878965 0.672755 0.952575
0.974304 0.710262 0.955352
1.000000 0.773159 0.949920
0.563745 0.750362 0.919982
0.570397 0.748196 0.921538
0.586358 0.731685 0.925658
0.622644 0.694667 0.934600
0.745571 0.686885 0.942016
0.875303 0.679194 0.950256
0.971405 0.710994 0.953216
1.000000 0.771542 0.947967
0.638941 0.794949 0.915282
0.641779 0.792599 0.916381
0.650141 0.779660 0.919890
0.679500 0.756405 0.929595
0.756741 0.735256 0.937865
0.868681 0.724727 0.945830
0.962493 0.745113 0.950378
1.000000 0.794217 0.946624
0.682734 0.835660 0.909911
0.691218 0.836240 0.911131
0.719539 0.835935 0.914427
0.747189 0.826261 0.921996
0.776333 0.798734 0.932586
0.863432 0.791775 0.941314
0.950530 0.799313 0.948150
0.998322 0.832822 0.946746
0.703731 0.867521 0.907073
0.712612 0.868467 0.907591
0.739620 0.869444 0.907469
0.779294 0.870420 0.914305
0.818235 0.864469 0.924285
0.858244 0.845884 0.935576
0.938231 0.845182 0.945800
0.986297 0.871092 0.947784
0.691249 0.896483 0.916472
0.696590 0.895842 0.916045
0.721889 0.894591 0.915404
0.770047 0.894957 0.916106
0.830045 0.898955 0.918944
0.878843 0.902220 0.932860
0.929870 0.897429 0.947875
0.975982 0.908995 0.951080
0.688075 0.936126 0.930388
0.694850 0.935729 0.930388
0.722713 0.934325 0.930663
0.772580 0.933043 0.932219
0.831144 0.932647 0.935180
0.888579 0.935210 0.940307
0.929931 0.937835 0.946960
0.966369 0.936706 0.952605
0.709743 0.969696 0.935698
0.715480 0.969299 0.935821
0.740719 0.967987 0.936950
0.785000 0.966125 0.939727
0.835630 0.963989 0.943420
0.884428 0.962280 0.947936
0.927459 0.961852 0.953368
0.958526 0.959472 0.957427
