lut_library_archive/removed_20260629/抖音热门推荐/抖音热门推荐10.cube
# 版权归凌孟成所有，侵权必究
# Created by Adobe Lightroom plugin Export LUT (1.24.0)
# www.johnrellis.com/lightroom/exportlut.htm
# Preset: INS风格-缇米设计10
# Color profile: C:\Program Files (x86)\Common Files\Adobe\Color\Profiles\Recommended\VideoHD.icc
LUT_3D_SIZE 32
DOMAIN_MIN 0.0 0.0 0.0
DOMAIN_MAX 1.0 1.0 1.0
0.167361 0.167361 0.167361
0.167361 0.167361 0.167361
0.167361 0.167361 0.167361
0.167361 0.167361 0.167361
0.223117 0.163821 0.170901
0.303807 0.153323 0.176669
0.404578 0.119356 0.181247
0.503441 0.040375 0.184451
0.596124 0.000000 0.185702
0.683955 0.000000 0.185519
0.768582 0.000000 0.184421
0.844907 0.000000 0.183291
0.909850 0.000000 0.183169
0.962982 0.000000 0.184817
1.000000 0.102968 0.189120
1.000000 0.149264 0.195743
1.000000 0.185092 0.204105
1.000000 0.220188 0.224796
1.000000 0.248905 0.248142
1.000000 0.275669 0.271336
1.000000 0.299321 0.293431
1.000000 0.321111 0.314122
1.000000 0.340612 0.333349
1.000000 0.358679 0.351232
1.000000 0.375341 0.368170
1.000000 0.391150 0.384253
1.000000 0.406470 0.400153
1.000000 0.421546 0.415869
1.000000 0.436530 0.431556
1.000000 0.451728 0.447486
1.000000 0.467048 0.463539
1.000000 0.482643 0.479896
0.167361 0.167361 0.167361
0.167361 0.167361 0.167361
0.167361 0.167361 0.167361
0.167361 0.167361 0.167361
0.223850 0.163882 0.171054
0.302800 0.153445 0.176547
0.400336 0.121401 0.181033
0.494423 0.085756 0.183597
0.585718 0.000061 0.184787
0.672663 0.000000 0.184695
0.756008 0.000000 0.183444
0.833677 0.000000 0.182284
0.899779 0.000000 0.181888
0.954681 0.030518 0.183200
0.996948 0.114443 0.187137
1.000000 0.154849 0.193545
1.000000 0.188266 0.201846
1.000000 0.220340 0.221500
1.000000 0.247898 0.244114
1.000000 0.272831 0.266575
1.000000 0.295872 0.287846
1.000000 0.316472 0.308232
1.000000 0.335668 0.327031
1.000000 0.353277 0.344640
1.000000 0.369757 0.361395
1.000000 0.385229 0.377600
1.000000 0.400397 0.393469
1.000000 0.415747 0.409552
1.000000 0.430884 0.425452
1.000000 0.446113 0.441474
1.000000 0.461707 0.457862
1.000000 0.477394 0.474342
0.167361 0.167361 0.167361
0.167361 0.167361 0.167361
0.167361 0.167361 0.167361
0.176791 0.166262 0.167330
0.232547 0.163210 0.171756
0.306310 0.159487 0.176181
0.392889 0.151492 0.178683
0.481819 0.140352 0.180301
0.569574 0.129702 0.181033
0.655665 0.117647 0.180789
0.739315 0.109133 0.179599
0.818479 0.105959 0.178164
0.886259 0.116609 0.177432
0.943053 0.135897 0.178531
0.988006 0.158846 0.182345
1.000000 0.184482 0.188602
1.000000 0.208896 0.197421
1.000000 0.234562 0.218357
1.000000 0.257633 0.240574
1.000000 0.279667 0.262791
1.000000 0.300420 0.284276
1.000000 0.320043 0.304570
1.000000 0.337804 0.323430
1.000000 0.354437 0.341070
1.000000 0.370123 0.357885
1.000000 0.384924 0.373999
1.000000 0.400031 0.390143
1.000000 0.414801 0.406043
1.000000 0.429694 0.422065
1.000000 0.444892 0.438361
1.000000 0.460182 0.454780
1.000000 0.475624 0.471260
0.167178 0.178927 0.172610
0.167391 0.179385 0.172885
0.167941 0.180728 0.173861
0.179477 0.180728 0.175509
0.232456 0.190249 0.171054
0.299046 0.194797 0.172274
0.378180 0.196963 0.173434
0.460700 0.197177 0.174350
0.546166 0.196017 0.174472
0.630365 0.194583 0.173648
0.714015 0.193881 0.171939
0.793942 0.194308 0.170047
0.864927 0.198489 0.168917
0.924590 0.206638 0.169467
0.973053 0.216495 0.173098
1.000000 0.230198 0.179416
1.000000 0.244450 0.192264
1.000000 0.261204 0.213321
1.000000 0.277348 0.234897
1.000000 0.293980 0.256443
1.000000 0.310094 0.277256
1.000000 0.326696 0.297581
1.000000 0.342473 0.316686
1.000000 0.357885 0.334966
1.000000 0.372839 0.352605
1.000000 0.387823 0.369909
1.000000 0.402838 0.387091
1.000000 0.417670 0.403906
1.000000 0.432288 0.420386
1.000000 0.447089 0.436988
1.000000 0.461830 0.453254
1.000000 0.476448 0.469337
0.171481 0.211398 0.190829
0.172763 0.211154 0.190982
0.177188 0.209689 0.192050
0.185061 0.208865 0.191592
0.210513 0.211704 0.194308
0.272068 0.227665 0.186679
0.351659 0.236423 0.168856
0.427924 0.242527 0.166751
0.508293 0.247623 0.166140
0.590143 0.252049 0.164340
0.672908 0.255497 0.162051
0.754757 0.259525 0.158938
0.830137 0.263737 0.156558
0.895537 0.268803 0.155978
0.949889 0.274479 0.158724
0.991211 0.281010 0.167910
1.000000 0.287968 0.186221
1.000000 0.297276 0.208164
1.000000 0.307469 0.230076
1.000000 0.318486 0.252079
1.000000 0.330541 0.273289
1.000000 0.343084 0.293614
1.000000 0.356085 0.312993
1.000000 0.369177 0.331701
1.000000 0.382513 0.349859
1.000000 0.396277 0.367712
1.000000 0.409888 0.385107
1.000000 0.423529 0.401984
1.000000 0.437232 0.418647
1.000000 0.451026 0.435096
1.000000 0.464881 0.451301
1.000000 0.478859 0.467323
0.176577 0.241276 0.207797
0.177584 0.241001 0.208103
0.182467 0.238682 0.208682
0.189761 0.236790 0.208469
0.210269 0.241154 0.208438
0.246220 0.246586 0.212589
0.313573 0.266514 0.205966
0.395392 0.280919 0.180575
0.468391 0.285832 0.158236
0.547143 0.295232 0.154299
0.628901 0.303807 0.150149
0.711360 0.312078 0.145174
0.791073 0.319646 0.140047
0.862272 0.325597 0.138277
0.924163 0.329168 0.144839
0.975219 0.332280 0.159762
1.000000 0.335821 0.180514
1.000000 0.339727 0.203830
1.000000 0.344549 0.226963
1.000000 0.350896 0.249729
1.000000 0.358740 0.271427
1.000000 0.367681 0.292271
1.000000 0.404639 0.346288
1.000000 0.415503 0.364965
1.000000 0.426459 0.382574
1.000000 0.437690 0.399481
1.000000 0.448981 0.415900
1.000000 0.460334 0.431403
1.000000 0.471931 0.446754
1.000000 0.483711 0.461921
1.000000 0.495674 0.476936
1.000000 0.507408 0.491249
0.180880 0.276555 0.228153
0.182132 0.276127 0.228214
0.187076 0.273594 0.228611
0.194400 0.271672 0.228000
0.210025 0.277592 0.225284
0.247532 0.284581 0.229923
0.294865 0.293828 0.236454
0.368322 0.316686 0.235447
0.452216 0.334936 0.199802
0.527398 0.343481 0.168215
0.597284 0.346960 0.137514
0.683101 0.360632 0.130526
0.768643 0.372320 0.126131
0.845731 0.380163 0.127108
0.915373 0.386114 0.137179
0.971069 0.389654 0.157778
1.000000 0.390143 0.182742
1.000000 0.390417 0.208591
1.000000 0.391760 0.233860
1.000000 0.394751 0.258671
1.000000 0.399908 0.283085
1.000000 0.407263 0.306950
1.000000 0.416236 0.330358
1.000000 0.426307 0.352483
1.000000 0.436622 0.373114
1.000000 0.447059 0.391943
1.000000 0.456733 0.408881
1.000000 0.466804 0.425177
1.000000 0.477089 0.440772
1.000000 0.487526 0.456001
1.000000 0.498299 0.470954
1.000000 0.509239 0.485573
0.187350 0.304051 0.245518
0.188357 0.303746 0.245762
0.192721 0.301457 0.245914
0.199435 0.300145 0.245212
0.207736 0.306523 0.240391
0.242466 0.314153 0.245670
0.285924 0.324071 0.252811
0.338903 0.336797 0.262547
0.412085 0.361181 0.272374
0.497047 0.381903 0.230991
0.574212 0.392462 0.193515
0.644709 0.397284 0.157259
0.713863 0.401434 0.123262
0.805081 0.418891 0.118837
0.881865 0.429053 0.126192
0.941222 0.432563 0.144717
0.984405 0.432044 0.169619
1.000000 0.429877 0.196170
1.000000 0.427985 0.222416
1.000000 0.427558 0.248203
1.000000 0.429053 0.273259
1.000000 0.432532 0.297765
1.000000 0.437964 0.321874
1.000000 0.444739 0.344671
1.000000 0.452583 0.366003
1.000000 0.460456 0.385382
1.000000 0.468574 0.403235
1.000000 0.476753 0.419715
1.000000 0.485603 0.435798
1.000000 0.494911 0.451453
1.000000 0.504479 0.466621
1.000000 0.514458 0.481544
0.199588 0.336309 0.268437
0.200748 0.335760 0.268406
0.204288 0.333959 0.268620
0.211032 0.331456 0.268528
0.215763 0.337957 0.263859
0.242557 0.346044 0.266392
0.282109 0.355901 0.273716
0.330419 0.368688 0.283513
0.386816 0.384161 0.295720
0.460761 0.410040 0.316503
0.547601 0.433539 0.272343
0.630213 0.448615 0.231601
0.706691 0.456764 0.190005
0.774960 0.459388 0.144717
0.841276 0.462867 0.115023
0.906096 0.469429 0.130770
0.955901 0.470222 0.155276
0.992706 0.467842 0.182956
1.000000 0.464546 0.210483
1.000000 0.461830 0.237522
1.000000 0.460487 0.263981
1.000000 0.460975 0.289555
1.000000 0.463294 0.314580
1.000000 0.467109 0.337957
1.000000 0.472114 0.359899
1.000000 0.477638 0.379950
1.000000 0.483711 0.398352
1.000000 0.490303 0.415503
1.000000 0.497597 0.432136
1.000000 0.505333 0.448096
1.000000 0.513787 0.463630
1.000000 0.522545 0.478737
0.213901 0.369146 0.292576
0.214786 0.368536 0.292515
0.217868 0.366827 0.292393
0.224369 0.363043 0.292515
0.229129 0.368811 0.289189
0.243534 0.376959 0.287236
0.280247 0.386542 0.294469
0.324224 0.398901 0.304051
0.378027 0.416327 0.317723
0.440375 0.436835 0.334356
0.518273 0.467170 0.369055
0.604883 0.491341 0.321813
0.684596 0.504509 0.276707
0.755093 0.509453 0.233066
0.815915 0.507927 0.188846
0.868254 0.502220 0.140841
0.921416 0.502464 0.137545
0.966125 0.502525 0.166690
0.999207 0.499641 0.196933
1.000000 0.495979 0.226322
1.000000 0.492531 0.253910
1.000000 0.490181 0.280156
1.000000 0.489326 0.304906
1.000000 0.489906 0.328069
1.000000 0.491707 0.349981
1.000000 0.494545 0.370214
1.000000 0.498482 0.389532
1.000000 0.503288 0.407721
1.000000 0.509178 0.425238
1.000000 0.515892 0.442329
1.000000 0.523339 0.458839
1.000000 0.531395 0.474952
0.228397 0.401953 0.316838
0.228946 0.401709 0.316777
0.232120 0.400275 0.316960
0.237827 0.397406 0.317113
0.243320 0.401862 0.315679
0.250736 0.411078 0.312291
0.282811 0.421851 0.318578
0.324956 0.434943 0.328740
0.374243 0.450752 0.341375
0.431098 0.469459 0.356756
0.495247 0.490547 0.374823
0.572442 0.521202 0.411780
0.655879 0.544701 0.371984
0.730556 0.555352 0.324865
0.794308 0.556786 0.280705
0.849088 0.552483 0.238437
0.895872 0.544091 0.196445
0.935058 0.532830 0.152438
0.973663 0.530724 0.178683
1.000000 0.527153 0.210239
1.000000 0.522728 0.240024
1.000000 0.518853 0.267948
1.000000 0.516136 0.294224
1.000000 0.514488 0.318883
1.000000 0.514122 0.341894
1.000000 0.515099 0.363317
1.000000 0.517144 0.383459
1.000000 0.520256 0.402533
1.000000 0.524498 0.420783
1.000000 0.529778 0.438575
1.000000 0.535912 0.455787
1.000000 0.542809 0.472358
0.245457 0.441566 0.345830
0.246098 0.441199 0.345892
0.248325 0.439918 0.345708
0.253849 0.437171 0.345769
0.259556 0.438972 0.344976
0.266758 0.447456 0.342657
0.285863 0.458198 0.343359
0.326085 0.470497 0.353155
0.372473 0.485359 0.365148
0.425177 0.502770 0.379706
0.484260 0.522576 0.396796
0.549584 0.544488 0.416480
0.669764 0.616205 0.490822
0.743801 0.633539 0.459419
0.807645 0.636103 0.408972
0.860929 0.629816 0.362432
0.904570 0.617731 0.319707
0.940642 0.602472 0.279911
0.970794 0.585473 0.242527
0.996582 0.570153 0.218967
1.000000 0.564599 0.251896
1.000000 0.559289 0.281346
1.000000 0.554681 0.308385
1.000000 0.551446 0.333501
1.000000 0.549340 0.356542
1.000000 0.548302 0.377661
1.000000 0.548211 0.397070
1.000000 0.549218 0.415137
1.000000 0.551507 0.432776
1.000000 0.554650 0.449592
1.000000 0.558862 0.465827
1.000000 0.563958 0.481758
0.270207 0.499641 0.388647
0.270451 0.499123 0.388403
0.272770 0.496895 0.387823
0.277256 0.493111 0.386816
0.283207 0.490791 0.385229
0.289677 0.497444 0.382452
0.298619 0.507042 0.378607
0.335424 0.517967 0.386481
0.380346 0.531884 0.398108
0.431708 0.548913 0.412787
0.489784 0.569451 0.430762
0.554162 0.592920 0.452308
0.623529 0.617853 0.476722
0.696803 0.646418 0.517967
0.764858 0.664149 0.502098
0.823606 0.666285 0.454353
0.871611 0.659083 0.409735
0.911254 0.646204 0.368139
0.944335 0.630396 0.329870
0.972198 0.613062 0.294469
0.996002 0.595056 0.260655
1.000000 0.582940 0.258762
1.000000 0.577630 0.288579
1.000000 0.572961 0.315862
1.000000 0.569390 0.341009
1.000000 0.566918 0.364019
1.000000 0.565576 0.385473
1.000000 0.565301 0.405371
1.000000 0.566278 0.424262
1.000000 0.568444 0.442542
1.000000 0.571588 0.460060
1.000000 0.575891 0.477241
0.286595 0.534295 0.414801
0.286778 0.533654 0.414343
0.288487 0.531334 0.413550
0.292058 0.527398 0.412177
0.297917 0.521721 0.410498
0.303502 0.527153 0.407904
0.311650 0.535363 0.404700
0.333227 0.545525 0.405707
0.375067 0.557824 0.416358
0.422461 0.573083 0.429633
0.475715 0.591424 0.446143
0.534478 0.612451 0.465736
0.597498 0.634455 0.488075
0.661769 0.656092 0.512474
0.726345 0.679530 0.551110
0.784665 0.693965 0.546227
0.836301 0.693782 0.499458
0.879118 0.685542 0.456001
0.915373 0.672450 0.415778
0.945922 0.656611 0.378729
0.972290 0.639246 0.344213
0.995117 0.621363 0.312200
1.000000 0.603296 0.281773
1.000000 0.595239 0.298405
1.000000 0.590661 0.325902
1.000000 0.587060 0.351019
1.000000 0.584405 0.374212
1.000000 0.582910 0.395880
1.000000 0.582666 0.416297
1.000000 0.583642 0.435859
1.000000 0.585840 0.454780
1.000000 0.589197 0.473121
0.303899 0.569085 0.441321
0.304204 0.568536 0.441077
0.305699 0.566522 0.440223
0.308659 0.562615 0.438758
0.313634 0.557000 0.436835
0.319127 0.558373 0.434424
0.326726 0.565148 0.431617
0.336614 0.574853 0.428290
0.373114 0.585718 0.436408
0.417609 0.599451 0.448707
0.466957 0.615686 0.463722
0.521080 0.633875 0.481758
0.578241 0.652796 0.502037
0.637110 0.671656 0.524376
0.695277 0.689509 0.547784
0.751278 0.708217 0.583001
0.800137 0.719936 0.587976
0.845518 0.718379 0.543542
0.884337 0.709712 0.501457
0.917510 0.696742 0.462409
0.946197 0.681209 0.426459
0.971252 0.664393 0.393164
0.993225 0.646754 0.361913
1.000000 0.628779 0.332311
1.000000 0.611902 0.309209
1.000000 0.607324 0.336706
1.000000 0.603754 0.362219
1.000000 0.601373 0.386145
1.000000 0.600275 0.408881
1.000000 0.600549 0.430640
1.000000 0.602289 0.451759
1.000000 0.605249 0.472236
0.321721 0.601648 0.466682
0.322210 0.601434 0.466804
0.323705 0.600031 0.466346
0.326604 0.597284 0.465461
0.331487 0.593011 0.464393
0.337560 0.591699 0.462959
0.345251 0.598718 0.461341
0.355383 0.607996 0.459449
0.377478 0.619104 0.461616
0.419684 0.630945 0.472908
0.465675 0.644007 0.486427
0.514641 0.658198 0.501793
0.566033 0.672969 0.519066
0.618372 0.687770 0.537957
0.670558 0.702144 0.557946
0.721584 0.716091 0.579156
0.770382 0.730953 0.610132
0.810819 0.740566 0.623835
0.851072 0.738979 0.583490
0.886534 0.730800 0.543877
0.917601 0.718746 0.507103
0.944915 0.704341 0.472877
0.968933 0.688350 0.441108
0.990265 0.671351 0.410986
1.000000 0.653742 0.382208
1.000000 0.635920 0.354589
1.000000 0.624018 0.351049
1.000000 0.620783 0.377234
1.000000 0.618708 0.401801
1.000000 0.617975 0.424994
1.000000 0.618463 0.447181
1.000000 0.620233 0.468482
0.341405 0.632959 0.492103
0.341985 0.632593 0.492012
0.343145 0.631525 0.491676
0.345647 0.629358 0.491096
0.349889 0.625940 0.490303
0.355779 0.621759 0.489357
0.363043 0.627893 0.488197
0.372778 0.635828 0.486641
0.384863 0.645563 0.484718
0.420783 0.655451 0.493233
0.463447 0.666499 0.505394
0.508904 0.678370 0.519493
0.556085 0.690852 0.535149
0.604089 0.703426 0.552270
0.652338 0.715877 0.570611
0.699458 0.727962 0.589715
0.744717 0.739528 0.609247
0.787045 0.751461 0.636805
0.820279 0.759609 0.657954
0.855802 0.758083 0.621790
0.887724 0.751125 0.586694
0.916686 0.740169 0.552178
0.942443 0.726680 0.519554
0.965454 0.711543 0.488838
0.986023 0.695277 0.459632
1.000000 0.678340 0.431830
1.000000 0.660914 0.405097
1.000000 0.643366 0.379126
1.000000 0.637354 0.394141
1.000000 0.635798 0.419287
1.000000 0.635523 0.443366
1.000000 0.636500 0.466224
0.367498 0.665064 0.520165
0.367926 0.665187 0.520348
0.391394 0.685756 0.540734
0.393347 0.684016 0.540307
0.396399 0.681178 0.539513
0.400855 0.677241 0.538506
0.407599 0.679133 0.537346
0.417212 0.685084 0.535973
0.429267 0.692561 0.534752
0.451423 0.700923 0.537285
0.490578 0.709163 0.548486
0.531701 0.718013 0.561273
0.573663 0.727047 0.575128
0.615930 0.736172 0.589715
0.657557 0.744961 0.604913
0.698116 0.753506 0.620569
0.737118 0.761532 0.636500
0.774105 0.769375 0.652888
0.807858 0.777340 0.675196
0.832334 0.782925 0.699855
0.862303 0.781033 0.667842
0.890013 0.774594 0.636469
0.915648 0.764584 0.605280
0.939208 0.751888 0.574456
0.960876 0.736965 0.543542
0.980560 0.720790 0.513634
0.998474 0.703853 0.484901
1.000000 0.686519 0.457496
1.000000 0.669123 0.431556
1.000000 0.653773 0.413336
1.000000 0.652705 0.439094
1.000000 0.652918 0.463569
0.404364 0.700160 0.554070
0.406928 0.701808 0.555932
0.410132 0.703059 0.557794
0.413855 0.703273 0.559197
0.418219 0.702296 0.560021
0.422431 0.699641 0.559838
0.428260 0.698543 0.559045
0.436744 0.703426 0.557946
0.447791 0.709499 0.557000
0.461067 0.716793 0.556146
0.492683 0.723873 0.564111
0.530022 0.731258 0.575616
0.568200 0.738949 0.587823
0.606806 0.746700 0.600946
0.645167 0.754330 0.614832
0.682887 0.761868 0.629175
0.719539 0.769162 0.644068
0.754543 0.776303 0.659480
0.787808 0.783352 0.675532
0.817624 0.790585 0.696040
0.837736 0.795804 0.724666
0.864317 0.795102 0.697810
0.889281 0.790005 0.670405
0.912596 0.781460 0.642725
0.934325 0.770199 0.614618
0.954681 0.756832 0.586419
0.973571 0.741970 0.558251
0.991058 0.726040 0.530724
1.000000 0.709773 0.504692
1.000000 0.693294 0.479957
1.000000 0.676814 0.456641
1.000000 0.667994 0.457313
0.432319 0.722530 0.577569
0.434821 0.724086 0.579492
0.438300 0.725399 0.581445
0.442145 0.725856 0.583124
0.446052 0.725246 0.584100
0.449928 0.723171 0.584131
0.454078 0.719875 0.583581
0.461982 0.723598 0.582849
0.471962 0.728603 0.582300
0.484016 0.734463 0.581781
0.502464 0.740932 0.583948
0.536004 0.747036 0.593988
0.570306 0.753292 0.604913
0.605493 0.759792 0.616724
0.640589 0.766232 0.629236
0.675105 0.772610 0.642237
0.708827 0.778836 0.655787
0.741268 0.784909 0.669703
0.772122 0.791043 0.684352
0.801083 0.797177 0.699428
0.827115 0.803433 0.717556
0.844083 0.807797 0.743343
0.866361 0.808072 0.725368
0.888457 0.804135 0.701839
0.909392 0.796933 0.677302
0.929290 0.787228 0.652247
0.948150 0.775479 0.626825
0.965942 0.762264 0.601587
0.982635 0.748043 0.576898
0.998169 0.733150 0.552728
1.000000 0.717372 0.528679
1.000000 0.701137 0.504753
0.464240 0.744594 0.602716
0.466743 0.745907 0.604486
0.469825 0.746944 0.606256
0.473304 0.747311 0.607752
0.476814 0.746792 0.608759
0.479927 0.745113 0.608820
0.483406 0.742458 0.608484
0.489326 0.742947 0.607965
0.498390 0.747036 0.607660
0.509117 0.751888 0.607446
0.521569 0.757504 0.607416
0.546715 0.762692 0.613794
0.577447 0.767788 0.623529
0.608942 0.773068 0.634058
0.640986 0.778439 0.645472
0.672572 0.783902 0.657435
0.703853 0.789456 0.670344
0.734310 0.795102 0.683894
0.763424 0.800839 0.698207
0.790738 0.806668 0.712978
0.815915 0.812528 0.727871
0.838285 0.818509 0.744228
0.852262 0.822110 0.766018
0.870054 0.823270 0.756527
0.888609 0.820798 0.738369
0.906462 0.815427 0.718959
0.923766 0.807767 0.698451
0.940459 0.798245 0.677485
0.956329 0.787411 0.656764
0.971557 0.775113 0.635248
0.986084 0.761685 0.613458
0.999817 0.747311 0.591363
0.514488 0.772915 0.639399
0.515557 0.773342 0.640131
0.516777 0.773373 0.640650
0.518120 0.772885 0.640833
0.519585 0.771786 0.640681
0.521141 0.770077 0.640223
0.523461 0.767758 0.639643
0.526818 0.765652 0.639155
0.534661 0.768795 0.638941
0.544396 0.772671 0.639094
0.555505 0.777096 0.639521
0.569970 0.781765 0.641199
0.596796 0.785702 0.649805
0.624475 0.789761 0.659174
0.652430 0.793881 0.669123
0.680262 0.798123 0.679683
0.707729 0.802396 0.690822
0.734463 0.806790 0.702510
0.760189 0.811276 0.714656
0.784543 0.815824 0.727047
0.807187 0.820493 0.739498
0.828000 0.825193 0.751858
0.846708 0.829984 0.764706
0.858122 0.832334 0.782071
0.872404 0.833463 0.777157
0.888304 0.831724 0.762112
0.903838 0.827695 0.746212
0.918975 0.821714 0.729519
0.933806 0.813840 0.711696
0.948272 0.804410 0.693080
0.962310 0.793637 0.673915
0.975891 0.781674 0.654047
0.549432 0.790127 0.664118
0.550439 0.790433 0.664698
0.551507 0.790463 0.665156
0.552789 0.790127 0.665431
0.554040 0.789334 0.665461
0.555474 0.788022 0.665187
0.557244 0.786282 0.664851
0.559777 0.784085 0.664515
0.565576 0.785061 0.664546
0.574273 0.788144 0.664881
0.584253 0.791653 0.665553
0.595422 0.795529 0.666499
0.613947 0.799100 0.671321
0.638361 0.802396 0.679805
0.663203 0.805783 0.688869
0.688014 0.809323 0.698451
0.712734 0.812955 0.708705
0.736751 0.816678 0.719234
0.759884 0.820523 0.730037
0.781796 0.824491 0.741054
0.802457 0.828550 0.752193
0.821561 0.832609 0.763119
0.839048 0.836698 0.773831
0.854917 0.840909 0.784512
0.862943 0.840574 0.795041
0.874571 0.841794 0.793668
0.888396 0.840574 0.780972
0.901854 0.837461 0.767605
0.915190 0.832609 0.753445
0.928313 0.826261 0.738582
0.941192 0.818509 0.723049
0.953826 0.809354 0.706477
0.594629 0.808652 0.694545
0.596185 0.809079 0.695521
0.597101 0.809110 0.695949
0.597436 0.808591 0.695766
0.597406 0.807675 0.695155
0.597345 0.806271 0.694240
0.597406 0.804501 0.693172
0.598077 0.802365 0.692134
0.600122 0.800687 0.691279
0.606256 0.802579 0.690883
0.613581 0.804807 0.690669
0.622400 0.807523 0.691005
0.632288 0.810544 0.691585
0.652155 0.812833 0.698054
0.672969 0.815213 0.705257
0.694118 0.817746 0.712978
0.715419 0.820493 0.721309
0.736751 0.823514 0.730312
0.757748 0.826810 0.739895
0.778134 0.830350 0.750027
0.797391 0.834012 0.760220
0.815396 0.837705 0.770260
0.831815 0.841276 0.779843
0.846647 0.844663 0.788785
0.860044 0.847898 0.797147
0.867918 0.848753 0.808103
0.877012 0.849516 0.808621
0.888853 0.848600 0.797635
0.900603 0.846098 0.786160
0.912200 0.842222 0.774197
0.923644 0.837034 0.761746
0.934874 0.830716 0.748714
0.624140 0.819791 0.714382
0.625574 0.820127 0.715236
0.626581 0.820249 0.715785
0.627314 0.820005 0.715969
0.627924 0.819455 0.715908
0.628748 0.818631 0.715724
0.629847 0.817594 0.715572
0.631464 0.816312 0.715541
0.633722 0.814847 0.715663
0.639033 0.815549 0.716121
0.646143 0.817624 0.716762
0.654292 0.819944 0.717678
0.663081 0.822416 0.718715
0.675074 0.824765 0.721523
0.692409 0.826658 0.727596
0.710140 0.828672 0.734096
0.728176 0.830808 0.741115
0.746242 0.833249 0.748623
0.764309 0.835935 0.756741
0.781918 0.838773 0.765133
0.798734 0.841764 0.773678
0.814603 0.844816 0.782162
0.829343 0.847807 0.790402
0.842893 0.850767 0.798337
0.855222 0.853635 0.805844
0.866484 0.856443 0.812985
0.873075 0.856992 0.821469
0.880064 0.857542 0.823606
0.890043 0.857084 0.814725
0.899840 0.855283 0.805509
0.909545 0.852323 0.795895
0.919036 0.848295 0.785885
0.660334 0.831815 0.738277
0.661006 0.831968 0.738674
0.661524 0.831937 0.738918
0.661952 0.831693 0.738949
0.662379 0.831235 0.738857
0.662928 0.830594 0.738705
0.663722 0.829770 0.738582
0.664942 0.828763 0.738521
0.666743 0.827604 0.738643
0.669490 0.826658 0.739010
0.675471 0.828305 0.739620
0.682277 0.830198 0.740505
0.689601 0.832212 0.741543
0.697200 0.834318 0.742458
0.709865 0.835966 0.746456
0.724514 0.837522 0.751705
0.739559 0.839231 0.757412
0.754849 0.841123 0.763607
0.770230 0.843259 0.770260
0.785550 0.845609 0.777340
0.800412 0.848112 0.784665
0.814572 0.850675 0.791989
0.827817 0.853208 0.799130
0.840146 0.855741 0.805966
0.851499 0.858213 0.812528
0.861906 0.860594 0.818784
0.871458 0.863005 0.824826
0.877043 0.863188 0.831327
0.882475 0.863462 0.834348
0.890990 0.863249 0.826993
0.899321 0.861936 0.819364
0.907530 0.859678 0.811521
0.689387 0.841215 0.757595
0.689815 0.841306 0.757900
0.690364 0.841337 0.758145
0.690974 0.841184 0.758358
0.691829 0.840970 0.758602
0.693111 0.840665 0.759030
0.695247 0.840452 0.759945
0.698054 0.840177 0.761135
0.701564 0.839902 0.762661
0.705623 0.839536 0.764431
0.711513 0.840482 0.766445
0.718685 0.842496 0.768460
0.726101 0.844541 0.770504
0.733303 0.846586 0.772366
0.740902 0.848539 0.774319
0.752682 0.849912 0.778866
0.764523 0.851286 0.783536
0.776486 0.852842 0.788449
0.788632 0.854520 0.793729
0.800778 0.856352 0.799344
0.812619 0.858335 0.805112
0.824033 0.860349 0.810880
0.834775 0.862333 0.816464
0.844846 0.864317 0.821897
0.854276 0.866270 0.827085
0.863005 0.868193 0.832090
0.871153 0.870146 0.836912
0.878630 0.872068 0.841581
0.882780 0.871855 0.845823
0.886381 0.871641 0.848722
0.892943 0.871458 0.842832
0.899351 0.870420 0.836820
0.728023 0.852689 0.783200
0.728084 0.852659 0.783230
0.728115 0.852567 0.783200
0.728267 0.852384 0.783139
0.728542 0.852140 0.783108
0.729000 0.851774 0.783108
0.729824 0.851408 0.783291
0.730983 0.850950 0.783597
0.732631 0.850431 0.784115
0.734646 0.849851 0.784787
0.737118 0.849210 0.785641
0.741787 0.850462 0.786557
0.746883 0.851835 0.787594
