lut_library_archive/removed_20260629/抖音热门推荐/抖音热门推荐05.cube
# 版权归凌孟成所有，侵权必究
# Created by Adobe Lightroom plugin Export LUT (1.24.0)
# www.johnrellis.com/lightroom/exportlut.htm
# Preset: INS风格-缇米设计05
# Color profile: C:\Program Files (x86)\Common Files\Adobe\Color\Profiles\Recommended\VideoHD.icc
LUT_3D_SIZE 5
DOMAIN_MIN 0.000000 0.000000 0.000000
DOMAIN_MAX 0.903226 0.903226 0.903226
0.028687 0.035340 0.052186
0.146578 0.072389 0.074220
0.504997 0.000000 0.051331
0.856504 0.160555 0.000000
0.973175 0.405554 0.108125
0.000000 0.151583 0.112093
0.132021 0.153109 0.132052
0.486519 0.189456 0.064057
0.831479 0.283879 0.000000
0.964294 0.460517 0.142885
0.000000 0.546838 0.304814
0.270848 0.528832 0.327581
0.573419 0.555718 0.416876
0.786862 0.552117 0.231724
0.918914 0.577142 0.209506
0.544610 0.767636 0.591424
0.585107 0.764187 0.601984
0.681483 0.754452 0.637903
0.755612 0.756680 0.671351
0.857908 0.761074 0.599725
0.715877 0.874388 0.771328
0.727291 0.873442 0.774685
0.756985 0.862516 0.776577
0.809720 0.864622 0.800992
0.856626 0.871031 0.823117
0.000000 0.079927 0.140719
0.156222 0.055909 0.166873
0.527398 0.000000 0.178714
0.830655 0.205356 0.194095
0.952850 0.402075 0.223728
0.000000 0.177371 0.191287
0.160006 0.196414 0.208530
0.524437 0.222263 0.199466
0.815122 0.304173 0.199588
0.943359 0.447761 0.235386
0.000000 0.548363 0.361303
0.285405 0.540459 0.378668
0.553582 0.539666 0.439338
0.768307 0.531609 0.273075
0.911742 0.580407 0.292790
0.554070 0.768917 0.614649
0.592340 0.766293 0.623377
0.686732 0.756222 0.656855
0.754971 0.757778 0.683955
0.855436 0.758999 0.607050
0.713588 0.875120 0.775174
0.724910 0.873838 0.777890
0.766323 0.871000 0.791836
0.815702 0.870024 0.811582
0.861906 0.876524 0.832761
0.000000 0.149355 0.405005
0.000000 0.128695 0.444831
0.641596 0.000000 0.517113
0.873960 0.299016 0.480720
0.934936 0.511284 0.505364
0.000000 0.297032 0.433600
0.000000 0.279057 0.469184
0.654170 0.268437 0.535515
0.848325 0.420325 0.500145
0.926299 0.543877 0.514305
0.000000 0.584375 0.550500
0.229404 0.590723 0.558282
0.621180 0.612268 0.590997
0.785611 0.601678 0.535149
0.898222 0.623957 0.522850
0.521569 0.776699 0.672206
0.567681 0.771695 0.673091
0.691707 0.766201 0.701167
0.758663 0.767636 0.727077
0.852323 0.748592 0.623072
0.680781 0.875212 0.779232
0.700069 0.875029 0.784726
0.755123 0.873259 0.800168
0.812924 0.869291 0.820066
0.858915 0.874601 0.837797
0.000000 0.297978 0.668818
0.000000 0.266758 0.687495
0.543297 0.256077 0.738796
0.866423 0.391821 0.749142
0.938415 0.571893 0.707790
0.000000 0.424079 0.669734
0.000000 0.398230 0.684565
0.546136 0.376867 0.732143
0.847349 0.473854 0.743526
0.924193 0.601984 0.708705
0.000000 0.603876 0.662531
0.260197 0.606104 0.663478
0.565972 0.618006 0.713954
0.796994 0.648341 0.739315
0.887541 0.695827 0.728634
0.471168 0.770535 0.750027
0.515984 0.769711 0.750454
0.649622 0.774075 0.759762
0.769406 0.785641 0.778286
0.860990 0.762783 0.728054
0.611017 0.886656 0.819120
0.630915 0.885985 0.819394
0.703670 0.884550 0.823362
0.808286 0.880491 0.841764
0.863462 0.880705 0.858518
0.000000 0.486519 0.815885
0.000000 0.464790 0.820798
0.441688 0.440070 0.839200
0.790372 0.511650 0.863127
0.929259 0.617456 0.856229
0.000000 0.542260 0.806851
0.000000 0.526757 0.812131
0.443946 0.488441 0.832059
0.778103 0.549401 0.856962
0.920714 0.638453 0.853574
0.123140 0.655451 0.786313
0.300389 0.655207 0.790494
0.508476 0.639918 0.812436
0.743648 0.656519 0.843931
0.901457 0.711757 0.855283
0.353491 0.760281 0.803830
0.394934 0.757748 0.802090
0.533867 0.753841 0.799893
0.714595 0.766384 0.836088
0.889342 0.802487 0.870451
0.551873 0.873991 0.862608
0.569635 0.873594 0.862669
0.638880 0.875456 0.866423
0.747372 0.879606 0.873808
0.872374 0.891814 0.891844
