lut_library_archive/removed_20260629/抖音热门推荐/抖音热门推荐04.cube
# 版权归凌孟成所有，侵权必究
# Created by Adobe Lightroom plugin Export LUT (1.24.0)
# www.johnrellis.com/lightroom/exportlut.htm
# Preset: INS风格-缇米设计04
# Color profile: C:\Program Files (x86)\Common Files\Adobe\Color\Profiles\Recommended\VideoHD.icc
LUT_3D_SIZE 8
DOMAIN_MIN 0.000000 0.000000 0.000000
DOMAIN_MAX 0.903226 0.903226 0.903226
0.187564 0.151980 0.136934
0.235294 0.155673 0.140047
0.375463 0.165347 0.151522
0.583551 0.153475 0.154421
0.773434 0.215763 0.155245
0.896818 0.369635 0.192355
0.939849 0.485481 0.296605
0.960388 0.577295 0.453864
0.205539 0.177218 0.150454
0.226535 0.183352 0.160525
0.349584 0.197147 0.153628
0.543816 0.199283 0.155276
0.743435 0.243473 0.154696
0.867094 0.359777 0.178225
0.924834 0.470588 0.263828
0.955993 0.564813 0.422583
0.242222 0.240787 0.183719
0.259190 0.229129 0.186831
0.411658 0.359411 0.310063
0.508385 0.304448 0.162844
0.717372 0.366339 0.159030
0.846250 0.452705 0.195071
0.915526 0.541436 0.322271
0.943297 0.619318 0.482673
0.289555 0.355535 0.247257
0.306706 0.340581 0.247013
0.416114 0.394720 0.319310
0.693538 0.679103 0.659785
0.744717 0.576043 0.355627
0.818967 0.554498 0.253788
0.887388 0.611902 0.381537
0.921019 0.667292 0.520592
0.346197 0.491524 0.344488
0.359869 0.477058 0.339849
0.403449 0.420752 0.329564
0.630304 0.620935 0.577935
0.769070 0.761532 0.757595
0.794369 0.712856 0.622156
0.846067 0.660670 0.411902
0.896452 0.705013 0.554894
0.459113 0.612482 0.483131
0.475441 0.612848 0.489601
0.499733 0.583978 0.477729
0.592401 0.605554 0.544884
0.742153 0.735500 0.722042
0.808957 0.807218 0.797116
0.824582 0.786252 0.750576
0.867674 0.760037 0.666041
0.589532 0.725429 0.633539
0.595270 0.724269 0.634821
0.607172 0.712825 0.629816
0.633661 0.687007 0.625483
0.729274 0.734707 0.712337
0.794949 0.794583 0.782315
0.828458 0.826291 0.816556
0.838102 0.819760 0.797086
0.715999 0.802640 0.751278
0.717739 0.801816 0.751431
0.725887 0.799008 0.753048
0.742550 0.793576 0.757534
0.755734 0.776120 0.755276
0.801205 0.807401 0.790707
0.827634 0.826200 0.814694
0.839536 0.837308 0.829435
0.187137 0.158206 0.155337
0.238712 0.154726 0.161654
0.378882 0.152590 0.163577
0.569604 0.160006 0.173800
0.752926 0.208103 0.179904
0.866270 0.328710 0.203098
0.922728 0.447150 0.272282
0.954650 0.545525 0.411322
0.198306 0.189487 0.159548
0.239933 0.192081 0.165713
0.363622 0.201938 0.169986
0.553491 0.205600 0.174197
0.738460 0.246159 0.178836
0.852201 0.345892 0.199832
0.913970 0.448707 0.262181
0.949310 0.541527 0.393744
0.254887 0.262943 0.198032
0.273716 0.250553 0.200046
0.420935 0.369482 0.320592
0.518883 0.311986 0.181338
0.702754 0.353063 0.181033
0.825193 0.427985 0.205570
0.900084 0.507195 0.288670
0.938842 0.587915 0.438880
0.296941 0.367132 0.256931
0.313542 0.352392 0.255863
0.407813 0.383795 0.311711
0.664729 0.646571 0.624598
0.703853 0.529259 0.299840
0.783749 0.517418 0.230747
0.873045 0.573205 0.327337
0.916045 0.638819 0.473182
0.352911 0.500420 0.354437
0.365057 0.485206 0.348241
0.405890 0.427253 0.334081
0.617731 0.604852 0.560021
0.760250 0.751186 0.747646
0.786740 0.698299 0.594720
0.838895 0.641108 0.385321
0.891386 0.693385 0.529259
0.452247 0.607691 0.477180
0.459236 0.601648 0.474372
0.484474 0.572869 0.462165
0.577264 0.587427 0.523613
0.736263 0.729335 0.713802
0.807095 0.805325 0.795346
0.822477 0.781430 0.744961
0.866789 0.751339 0.648768
0.573175 0.718074 0.619867
0.573816 0.713863 0.616052
0.586236 0.700099 0.609644
0.615747 0.671962 0.605676
0.721279 0.727443 0.701869
0.791287 0.790555 0.778744
0.826841 0.824704 0.814817
0.836271 0.816800 0.793027
0.707485 0.797208 0.743984
0.710658 0.797452 0.745510
0.718532 0.794125 0.746700
0.735348 0.788418 0.751217
0.760708 0.781430 0.760586
0.801999 0.808255 0.791531
0.827390 0.825956 0.814420
0.839506 0.837247 0.829374
0.195956 0.176425 0.204288
0.224338 0.170260 0.219089
0.424079 0.142428 0.268620
0.676509 0.000000 0.277165
0.810239 0.161379 0.265202
0.885771 0.358373 0.311772
0.923369 0.479133 0.387030
0.947631 0.575616 0.502556
0.220615 0.211795 0.211734
0.240421 0.204013 0.228794
0.439338 0.193210 0.272282
0.656733 0.161563 0.263584
0.785550 0.260014 0.272801
0.871641 0.374762 0.304387
0.916136 0.478920 0.372808
0.944274 0.571954 0.489631
0.194675 0.352941 0.264317
0.259739 0.359930 0.271366
0.444984 0.372595 0.306676
0.611627 0.365515 0.275181
0.748592 0.401709 0.281987
0.846647 0.458930 0.313451
0.900572 0.528222 0.390875
0.932525 0.605585 0.506950
0.326360 0.488655 0.353887
0.373999 0.480873 0.360754
0.439033 0.415106 0.348852
0.684352 0.664332 0.639216
0.689662 0.505486 0.294102
0.805936 0.544213 0.335515
0.874113 0.595422 0.425879
0.912108 0.656306 0.536675
0.417517 0.574212 0.443580
0.427008 0.563317 0.436286
0.461891 0.513664 0.412696
0.628962 0.618738 0.578637
0.770748 0.763790 0.759915
0.784878 0.693568 0.590784
0.837980 0.654139 0.455055
0.889403 0.700160 0.570520
0.496742 0.641535 0.527031
0.502922 0.636255 0.524651
0.521996 0.609430 0.510491
0.572320 0.579828 0.518456
0.736965 0.729976 0.715511
0.809262 0.807645 0.797574
0.821592 0.778805 0.742458
0.868711 0.748043 0.641382
0.598901 0.731991 0.646174
0.599237 0.728847 0.642969
0.606073 0.716701 0.633997
0.627588 0.690730 0.624811
0.718654 0.725643 0.699489
0.792935 0.792416 0.780606
0.828977 0.826810 0.817166
0.837675 0.818509 0.795315
0.709834 0.802029 0.748959
0.710750 0.800687 0.748348
0.717983 0.797238 0.748928
0.735988 0.792935 0.754269
0.758816 0.781643 0.760128
0.802335 0.808865 0.792142
0.828397 0.826932 0.815579
0.840177 0.837980 0.830259
0.171054 0.203128 0.311650
0.184939 0.190127 0.335790
0.407568 0.159670 0.428534
0.708400 0.023529 0.510307
0.852964 0.232517 0.517632
0.903685 0.340856 0.473030
0.927428 0.459815 0.482643
0.936339 0.584649 0.570153
0.197818 0.247349 0.336553
0.210971 0.232547 0.357977
0.426947 0.210513 0.446113
0.714839 0.203311 0.519066
0.846464 0.299931 0.514183
0.896757 0.372595 0.469093
0.918059 0.485481 0.491981
0.933257 0.591028 0.570703
0.216770 0.364538 0.371496
0.267643 0.370916 0.380407
0.443519 0.384253 0.460426
0.703761 0.431678 0.525719
0.808042 0.444251 0.488197
0.862882 0.498512 0.489631
0.896300 0.569696 0.538476
0.921294 0.636286 0.597681
0.163729 0.610895 0.515373
0.283299 0.612970 0.520317
0.521691 0.600061 0.532555
0.662898 0.620661 0.579736
0.732845 0.567559 0.486183
0.816159 0.577569 0.492622
0.867033 0.617060 0.535332
0.903960 0.669886 0.603998
0.473060 0.672877 0.568109
0.498543 0.667262 0.568780
0.571405 0.644068 0.571374
0.634516 0.627375 0.591485
0.773587 0.763088 0.756008
0.778744 0.666621 0.554711
0.836667 0.678553 0.557885
0.885557 0.710750 0.632166
0.572137 0.711940 0.625818
0.582238 0.711482 0.628504
0.590295 0.690700 0.611261
0.610712 0.640894 0.585138
0.744228 0.737728 0.726833
0.814755 0.812833 0.802335
0.821378 0.774136 0.737331
0.867338 0.753140 0.670741
0.643366 0.752499 0.688136
0.645899 0.751034 0.687373
0.653315 0.743374 0.682094
0.667475 0.726497 0.672938
0.717037 0.725429 0.700038
0.796689 0.796567 0.784604
0.831907 0.829709 0.820493
0.839170 0.819150 0.795926
0.720790 0.813565 0.762966
0.722042 0.812833 0.762814
0.728084 0.809842 0.762509
0.741329 0.804074 0.763638
0.761318 0.793362 0.766812
0.801236 0.808865 0.791867
0.829557 0.828092 0.816983
0.841306 0.839139 0.831693
0.000000 0.248386 0.488014
0.000000 0.232334 0.508995
0.335729 0.208438 0.570642
0.695735 0.154452 0.657099
0.846708 0.319829 0.681209
0.894163 0.462715 0.665949
0.917266 0.522789 0.635248
0.933013 0.597864 0.648493
0.000000 0.292790 0.506126
0.000000 0.279057 0.525566
0.352789 0.252384 0.581903
0.698329 0.248875 0.662745
0.840635 0.377752 0.681117
0.887266 0.487800 0.664088
0.912627 0.536370 0.635462
0.929808 0.605859 0.649500
0.165835 0.418341 0.512810
0.224674 0.423804 0.530022
0.377081 0.401282 0.590967
0.684260 0.454994 0.665949
0.813321 0.516045 0.674922
0.861662 0.546685 0.648768
0.894682 0.574914 0.630304
0.918791 0.626764 0.646784
0.238010 0.579522 0.580041
0.309270 0.580896 0.583429
0.492378 0.589990 0.599481
0.666133 0.624659 0.664118
0.779324 0.645075 0.675532
0.825284 0.629145 0.640650
0.861631 0.648096 0.642084
0.894377 0.681971 0.670558
0.445716 0.729183 0.663905
0.475349 0.729946 0.667170
0.573175 0.731746 0.678645
0.685359 0.711208 0.680415
0.749203 0.726741 0.709621
0.779416 0.682673 0.630488
0.832914 0.691768 0.640803
0.880064 0.713252 0.678431
0.564050 0.747402 0.676143
0.577478 0.745602 0.676905
0.620905 0.736446 0.676905
0.670985 0.716732 0.672877
0.724971 0.719600 0.703151
0.809171 0.805264 0.793454
0.815549 0.746395 0.699336
0.863920 0.755062 0.702480
0.651453 0.777981 0.719265
0.655543 0.775906 0.718624
0.674159 0.769070 0.718410
0.695033 0.755154 0.713558
0.707942 0.727626 0.697719
0.791409 0.791531 0.780179
0.833158 0.830808 0.821683
0.839261 0.814511 0.788602
0.705257 0.820310 0.765743
0.708949 0.819608 0.766262
0.724269 0.816739 0.768734
0.740017 0.813046 0.770413
0.757656 0.803616 0.770718
0.790616 0.802060 0.784268
0.828458 0.827298 0.815976
0.841886 0.839719 0.832425
0.000000 0.324651 0.646540
0.000000 0.308843 0.656184
0.260624 0.271122 0.684871
0.634546 0.281315 0.733974
0.819272 0.391547 0.763485
0.877958 0.518456 0.758511
0.902312 0.612543 0.748379
0.912871 0.658350 0.736629
0.000000 0.357305 0.640620
0.000000 0.343267 0.648554
0.266087 0.301854 0.679225
0.623987 0.317052 0.724880
0.809537 0.416144 0.756466
0.871305 0.528710 0.753689
0.898344 0.614679 0.744472
0.911101 0.657710 0.733516
0.093355 0.488563 0.648371
0.209751 0.488930 0.656519
0.351965 0.454078 0.687098
0.614740 0.472633 0.723598
0.791531 0.541192 0.753994
0.852506 0.604730 0.752255
0.882506 0.655360 0.743496
0.901793 0.680293 0.736355
0.295476 0.595117 0.652399
0.340459 0.594537 0.652674
0.485420 0.605371 0.672084
0.626947 0.625544 0.724147
0.771878 0.675624 0.758236
0.830747 0.697719 0.758083
0.864164 0.702815 0.747005
0.890074 0.712062 0.744594
0.440162 0.704860 0.699977
0.463233 0.705196 0.700984
0.543542 0.707485 0.706020
0.659724 0.713130 0.716762
0.757290 0.732998 0.752682
0.808804 0.732998 0.749538
0.844633 0.722835 0.735042
0.877409 0.731380 0.740475
0.587915 0.778470 0.739681
0.604669 0.779477 0.741970
0.648188 0.779812 0.746029
0.701991 0.780148 0.752377
0.751308 0.764401 0.751827
0.794980 0.783383 0.771481
0.821988 0.751797 0.731106
0.862608 0.766995 0.747158
0.655146 0.810819 0.756710
0.661494 0.810575 0.757748
0.680537 0.807309 0.758846
0.711879 0.800443 0.760586
0.748989 0.786923 0.761746
0.779110 0.780362 0.770169
0.833371 0.830137 0.820096
0.844144 0.807767 0.776333
0.691981 0.832792 0.777584
0.694331 0.832120 0.777462
0.707485 0.829953 0.778500
0.733883 0.826413 0.781888
0.765286 0.819669 0.785458
0.782681 0.806516 0.783536
0.826505 0.826047 0.814328
0.842954 0.840848 0.833829
0.000000 0.412360 0.740352
0.000000 0.400946 0.745785
0.167605 0.345830 0.759640
0.571466 0.364111 0.777951
0.763912 0.440650 0.796933
0.852750 0.539940 0.802914
0.891630 0.622461 0.794003
0.900114 0.685206 0.784482
0.000000 0.432746 0.731960
0.000000 0.424018 0.738003
0.159060 0.364782 0.753292
0.561273 0.381903 0.771267
0.754757 0.452125 0.791379
0.847105 0.540276 0.798123
0.888457 0.615869 0.789395
0.899077 0.678401 0.780026
0.154757 0.537713 0.730861
0.203647 0.531823 0.734340
0.330144 0.499458 0.747524
0.557336 0.492134 0.767086
0.742855 0.543511 0.786313
0.833219 0.606073 0.795377
0.875242 0.664668 0.789639
0.891234 0.706661 0.785580
0.315679 0.619318 0.722469
0.351751 0.618647 0.724575
0.469520 0.622278 0.736507
0.574823 0.613916 0.760494
0.730404 0.649561 0.781430
0.817227 0.691096 0.794400
0.861906 0.714778 0.792355
0.880919 0.734554 0.788540
0.400702 0.694820 0.731930
0.417334 0.692836 0.730709
0.484474 0.690761 0.730068
0.590326 0.694392 0.735164
0.712551 0.710780 0.769680
0.806119 0.735195 0.791409
0.847868 0.749905 0.791470
0.869627 0.760342 0.788815
0.520409 0.762203 0.760220
0.534813 0.761990 0.760708
0.586358 0.760647 0.762234
0.658381 0.759731 0.765286
0.723140 0.762234 0.769894
0.796963 0.783719 0.792844
0.834653 0.789212 0.793973
0.858824 0.786313 0.789548
0.637751 0.820035 0.782345
0.645075 0.820279 0.783200
0.668208 0.819852 0.784939
0.708248 0.819638 0.788754
0.757656 0.819669 0.794217
0.796109 0.811765 0.795315
0.825040 0.818967 0.805966
0.847684 0.807034 0.788663
0.682307 0.843320 0.793088
0.686793 0.842985 0.793545
0.706203 0.841733 0.795773
0.734737 0.838895 0.798428
0.767239 0.834623 0.801480
0.798581 0.828916 0.805142
0.817960 0.820645 0.807462
0.843473 0.841123 0.833829
0.000000 0.510460 0.797635
0.000000 0.502739 0.799924
0.243565 0.455085 0.806210
0.531853 0.455238 0.813809
0.707424 0.501671 0.820706
0.818906 0.568078 0.827085
0.873899 0.642145 0.825559
0.895842 0.695613 0.817350
0.000000 0.523064 0.793149
0.000000 0.516747 0.795529
0.265293 0.476326 0.802518
0.525231 0.467079 0.810758
0.702174 0.510613 0.818235
0.815427 0.573816 0.825254
0.871672 0.642878 0.823972
0.894713 0.694881 0.816068
0.268315 0.583307 0.786465
0.292729 0.578912 0.788205
0.367651 0.555596 0.794247
0.524132 0.536095 0.806363
0.695735 0.565698 0.813901
0.803342 0.617487 0.821103
0.862852 0.671473 0.821592
0.889128 0.710262 0.815610
0.337621 0.644038 0.776791
0.370977 0.644770 0.778531
0.467079 0.645655 0.783719
0.546105 0.627161 0.796109
0.685695 0.637720 0.807156
0.786862 0.680537 0.816098
0.853239 0.710292 0.820188
0.879576 0.739345 0.816312
0.323705 0.699367 0.767971
0.348241 0.699458 0.768429
0.417029 0.695796 0.768795
0.554528 0.700954 0.780331
0.668696 0.697749 0.796811
0.770962 0.720180 0.810391
0.842741 0.745632 0.818723
0.867399 0.773373 0.817380
0.412909 0.754665 0.782986
0.423011 0.753475 0.782315
0.469642 0.749752 0.780850
0.555871 0.744717 0.780209
0.653925 0.740597 0.780636
0.755734 0.757656 0.805478
0.832151 0.791745 0.820615
0.856657 0.802121 0.819425
0.543694 0.812680 0.800900
0.552636 0.812161 0.800870
0.587274 0.810300 0.800931
0.641566 0.808682 0.801968
0.701717 0.808133 0.804105
0.764065 0.807828 0.806546
0.820371 0.815549 0.818235
0.848875 0.821592 0.821622
0.646418 0.846342 0.809689
0.650782 0.846006 0.809751
0.670588 0.844877 0.810513
0.708248 0.842985 0.812558
0.753536 0.840635 0.815488
0.794430 0.838987 0.819547
0.824765 0.837003 0.823667
0.842130 0.838224 0.829282
