lut_library_archive/removed_20260629/抖音热门推荐/抖音热门推荐12.cube
# 版权归凌孟成所有，侵权必究
# Created by Adobe Lightroom plugin Export LUT (1.24.0)
# www.johnrellis.com/lightroom/exportlut.htm
# Preset: INS风格-缇米设计12
# Color profile: C:\Program Files (x86)\Common Files\Adobe\Color\Profiles\Recommended\VideoHD.icc
LUT_3D_SIZE 32
DOMAIN_MIN 0.0 0.0 0.0
DOMAIN_MAX 1.0 1.0 1.0
0.106661 0.126345 0.124056
0.108248 0.126497 0.124025
0.117525 0.126894 0.124361
0.132265 0.127871 0.124758
0.157321 0.129671 0.125795
0.199588 0.130800 0.126680
0.255222 0.130251 0.126925
0.319585 0.124269 0.126467
0.391791 0.108827 0.124727
0.467659 0.064759 0.122011
0.545098 0.000000 0.117952
0.619043 0.000000 0.112703
0.686427 0.000000 0.105287
0.744167 0.000000 0.096986
0.790860 0.000000 0.086427
0.828122 0.000000 0.065797
0.858488 0.000000 0.043519
0.894438 0.013672 0.015167
0.920958 0.135836 0.000000
0.940978 0.182834 0.000000
0.956817 0.216678 0.000000
0.969543 0.244327 0.000000
0.979767 0.266667 0.010315
0.988708 0.285954 0.030549
0.996551 0.302953 0.057923
1.000000 0.317967 0.086397
1.000000 0.332189 0.100923
1.000000 0.345556 0.114900
1.000000 0.358465 0.129152
1.000000 0.371099 0.143343
1.000000 0.383398 0.158267
1.000000 0.395361 0.173526
0.106233 0.127443 0.124483
0.107057 0.127108 0.124514
0.116609 0.128023 0.124758
0.131044 0.129061 0.125154
0.155673 0.130892 0.126192
0.196384 0.132448 0.127077
0.250309 0.131868 0.127474
0.312474 0.126894 0.126864
0.382727 0.113710 0.125277
0.457343 0.085237 0.122744
0.533196 0.000000 0.118715
0.607691 0.000000 0.113527
0.675746 0.000000 0.106874
0.734890 0.000000 0.098634
0.782803 0.000000 0.089052
0.821653 0.000000 0.070008
0.853117 0.000000 0.046540
0.889036 0.000000 0.018769
0.915496 0.129000 0.000000
0.935851 0.175570 0.000000
0.951934 0.210025 0.000000
0.964996 0.237125 0.000000
0.975494 0.259678 0.004028
0.984710 0.279240 0.022400
0.992889 0.296483 0.046571
1.000000 0.311772 0.075196
1.000000 0.326085 0.094789
1.000000 0.339971 0.108980
1.000000 0.353368 0.123598
1.000000 0.366339 0.137972
1.000000 0.379156 0.153017
1.000000 0.391577 0.168734
0.106386 0.134127 0.127260
0.108156 0.133974 0.127260
0.111971 0.131868 0.128817
0.127687 0.133822 0.127993
0.151949 0.136446 0.128908
0.191073 0.138613 0.129488
0.243320 0.138918 0.129152
0.303838 0.135103 0.128145
0.371649 0.125582 0.126650
0.445197 0.105165 0.123751
0.521202 0.038575 0.120211
0.595911 0.000000 0.114839
0.664607 0.000000 0.108186
0.724819 0.000000 0.100191
0.774624 0.000000 0.090761
0.814450 0.000000 0.074464
0.848295 0.000000 0.051087
0.883787 0.044495 0.023346
0.910338 0.136843 0.004761
0.931182 0.179629 0.000000
0.947814 0.212528 0.000000
0.961273 0.239200 0.000000
0.972168 0.261204 0.005310
0.981720 0.279911 0.022217
0.990082 0.296605 0.044862
0.997894 0.311406 0.072877
1.000000 0.325994 0.093355
1.000000 0.339696 0.107424
1.000000 0.353002 0.121767
1.000000 0.366155 0.136721
1.000000 0.378698 0.151797
1.000000 0.391058 0.167300
0.109041 0.145846 0.133120
0.110079 0.145754 0.133364
0.117250 0.144289 0.133944
0.121462 0.140719 0.137057
0.146853 0.145052 0.134249
0.183871 0.147646 0.133120
0.233524 0.149783 0.132204
0.291447 0.148592 0.130678
0.357885 0.142489 0.128786
0.430121 0.129305 0.125978
0.505516 0.105287 0.122042
0.579706 0.034119 0.117281
0.649836 0.000000 0.110719
0.711147 0.000000 0.102663
0.762478 0.000000 0.093629
0.804013 0.000000 0.080446
0.841459 0.000000 0.055879
0.874907 0.108309 0.030823
0.901061 0.153994 0.012696
0.922057 0.188998 0.000397
0.939330 0.217350 0.000000
0.953552 0.242130 0.000000
0.965454 0.263066 0.008545
0.976013 0.281865 0.023651
0.985504 0.298894 0.046082
0.994110 0.314611 0.074220
1.000000 0.329503 0.094972
1.000000 0.343450 0.109255
1.000000 0.356786 0.123781
1.000000 0.369574 0.138491
1.000000 0.381689 0.153262
1.000000 0.393500 0.168429
0.103822 0.172641 0.140780
0.105715 0.172885 0.140963
0.116548 0.172396 0.141360
0.134615 0.163546 0.143679
0.137697 0.155489 0.149203
0.176181 0.161776 0.141939
0.217716 0.161166 0.136782
0.272282 0.163058 0.134737
0.335119 0.161501 0.132631
0.405005 0.154910 0.129732
0.479286 0.141878 0.125795
0.554253 0.121828 0.120943
0.625666 0.094636 0.114748
0.690120 0.044770 0.106905
0.745113 0.026307 0.097749
0.789517 0.068421 0.087434
0.832364 0.115114 0.063874
0.865782 0.151705 0.039643
0.892485 0.183627 0.021790
0.914275 0.211002 0.011383
0.932250 0.235233 0.007141
0.947265 0.256352 0.009766
0.959869 0.275364 0.018585
0.971191 0.292699 0.035737
0.981292 0.308629 0.057862
0.990448 0.323644 0.084840
0.998962 0.337530 0.099367
1.000000 0.350713 0.113558
1.000000 0.363317 0.127352
1.000000 0.375372 0.141726
1.000000 0.386816 0.156008
1.000000 0.397894 0.170687
0.056428 0.223301 0.150973
0.066468 0.223758 0.151034
0.099489 0.223880 0.151644
0.139620 0.214572 0.154391
0.165774 0.194675 0.158816
0.164920 0.178958 0.167727
0.216556 0.186984 0.153750
0.260166 0.180636 0.142397
0.314214 0.179629 0.138094
0.382025 0.178439 0.134859
0.455390 0.172549 0.130648
0.530602 0.162844 0.125765
0.603449 0.150973 0.119509
0.670283 0.141726 0.111910
0.728206 0.140414 0.102571
0.780453 0.152316 0.091737
0.823697 0.173739 0.074678
0.857694 0.197330 0.052064
0.885161 0.220188 0.035523
0.907591 0.241855 0.026154
0.926299 0.261814 0.024170
0.941863 0.279973 0.028931
0.975586 0.335882 0.091310
0.984924 0.348241 0.102693
0.993286 0.359350 0.113954
1.000000 0.370031 0.125978
1.000000 0.379706 0.137758
1.000000 0.388983 0.149264
1.000000 0.398199 0.161532
1.000000 0.407080 0.173892
1.000000 0.415503 0.186221
1.000000 0.423621 0.198703
0.000000 0.322576 0.172152
0.000000 0.323186 0.172396
0.000000 0.324193 0.173281
0.116854 0.320500 0.176516
0.199924 0.288884 0.183322
0.226566 0.251011 0.189639
0.217350 0.223972 0.203403
0.285283 0.231235 0.176272
0.333501 0.218601 0.154757
0.375555 0.203799 0.142580
0.451148 0.203891 0.137697
0.528405 0.201389 0.132052
0.602564 0.197848 0.125063
0.669947 0.196872 0.116701
0.734859 0.204959 0.106081
0.788815 0.220920 0.094789
0.829984 0.238895 0.083986
0.862211 0.256870 0.068879
0.888518 0.274876 0.057557
0.910918 0.292576 0.055604
0.930114 0.309941 0.062776
0.946624 0.326757 0.079561
0.960906 0.342535 0.093477
0.973297 0.357000 0.105867
0.983948 0.369604 0.118746
0.992920 0.380468 0.131136
1.000000 0.389715 0.142763
1.000000 0.398230 0.154055
1.000000 0.406653 0.165591
1.000000 0.414527 0.177646
1.000000 0.422278 0.189303
1.000000 0.429755 0.201358
0.000000 0.420050 0.199954
0.000000 0.419959 0.200992
0.000000 0.421851 0.202029
0.000000 0.425360 0.204959
0.212009 0.395422 0.211521
0.276280 0.352697 0.219211
0.290288 0.305669 0.225345
0.274266 0.272770 0.243168
0.348669 0.278325 0.204532
0.399908 0.261631 0.173281
0.435706 0.237797 0.152132
0.492164 0.229343 0.142397
0.567834 0.231632 0.135622
0.647547 0.238163 0.127169
0.714809 0.248081 0.117494
0.767788 0.260594 0.107698
0.809598 0.274296 0.099336
0.843320 0.288731 0.092714
0.871397 0.303044 0.088869
0.895384 0.317967 0.086915
0.916197 0.332860 0.090028
0.934173 0.347356 0.096529
0.949706 0.361212 0.105989
0.963195 0.373968 0.116823
0.974792 0.385412 0.128756
0.984710 0.394934 0.139864
0.993378 0.403296 0.150851
1.000000 0.410925 0.161837
1.000000 0.418280 0.173190
1.000000 0.425452 0.184512
1.000000 0.432410 0.196170
1.000000 0.439246 0.207919
0.000000 0.519829 0.246525
0.000000 0.520439 0.246921
0.000000 0.521599 0.248814
0.102388 0.524468 0.252384
0.243656 0.507439 0.257176
0.325994 0.468788 0.262058
0.365087 0.421363 0.266636
0.365545 0.368322 0.270756
0.345525 0.333288 0.291508
0.420966 0.335454 0.240909
0.477424 0.319280 0.200900
0.519219 0.294072 0.170626
0.548180 0.264561 0.148562
0.624353 0.273442 0.140841
0.690578 0.284062 0.131930
0.744869 0.295628 0.123232
0.788815 0.308110 0.115511
0.824582 0.320684 0.109865
0.854490 0.333013 0.106233
0.880156 0.345800 0.105562
0.902342 0.358831 0.108278
0.921538 0.371405 0.113466
0.938231 0.383459 0.121279
0.952789 0.394507 0.131319
0.965270 0.404425 0.141817
0.976074 0.412634 0.152255
0.985534 0.419898 0.162661
0.994018 0.426612 0.173068
1.000000 0.432990 0.183810
1.000000 0.439094 0.194644
1.000000 0.445228 0.205783
1.000000 0.451148 0.217105
0.107576 0.605707 0.314855
0.125795 0.605829 0.314885
0.173190 0.605982 0.316564
0.241459 0.607263 0.320958
0.315190 0.601495 0.324529
0.385443 0.572473 0.323400
0.432044 0.534478 0.323247
0.458289 0.492287 0.327153
0.451942 0.441566 0.329900
0.433997 0.409705 0.355047
0.509331 0.410346 0.293736
0.559686 0.390051 0.240879
0.594507 0.359197 0.198337
0.617182 0.323430 0.165927
0.657557 0.309941 0.148592
0.716762 0.323430 0.140322
0.765347 0.337346 0.133272
0.804898 0.350561 0.128237
0.837400 0.362860 0.125460
0.864714 0.374701 0.125185
0.888060 0.385687 0.127047
0.907958 0.395819 0.131197
0.925200 0.405310 0.137636
0.940246 0.414099 0.145266
0.953552 0.421729 0.154238
0.965087 0.428809 0.163638
0.975494 0.435035 0.173251
0.984955 0.441047 0.183169
0.993652 0.446876 0.193698
1.000000 0.452705 0.204501
1.000000 0.458412 0.215915
1.000000 0.463996 0.227573
0.319615 0.669612 0.402136
0.323613 0.669734 0.402594
0.342199 0.670436 0.405402
0.375525 0.671595 0.410773
0.419165 0.673182 0.418738
0.467872 0.656550 0.415991
0.510277 0.633478 0.412604
0.539971 0.603693 0.408972
0.551324 0.565148 0.405005
0.534997 0.515129 0.401312
0.517754 0.485420 0.422797
0.580896 0.481239 0.354986
0.623804 0.458350 0.290288
0.654597 0.426246 0.236515
0.675471 0.388861 0.193271
0.689235 0.348943 0.159792
0.740139 0.362188 0.152041
0.782773 0.376165 0.147494
0.817472 0.388281 0.145144
0.846616 0.399451 0.144747
0.871550 0.409613 0.146212
0.892943 0.418891 0.149874
0.911559 0.427527 0.155489
0.927916 0.435248 0.162570
0.942199 0.442176 0.170809
0.954742 0.448249 0.179477
0.966003 0.453773 0.188602
0.976196 0.458900 0.198032
0.985504 0.464027 0.208133
0.994171 0.469032 0.218814
1.000000 0.474067 0.229679
1.000000 0.478981 0.241154
0.452399 0.717525 0.497749
0.454871 0.717708 0.498238
0.463569 0.718044 0.500053
0.481788 0.718715 0.504448
0.507439 0.719905 0.511162
0.537224 0.712062 0.510704
0.567193 0.696712 0.505333
0.593042 0.676844 0.498817
0.611383 0.651942 0.491127
0.617334 0.620630 0.482673
0.600366 0.577234 0.473579
0.586694 0.553765 0.492500
0.676997 0.591974 0.478279
0.710872 0.566400 0.399573
0.736416 0.533654 0.327947
0.755215 0.495186 0.263859
0.768643 0.452796 0.209781
0.790951 0.434485 0.183993
0.823026 0.444800 0.183719
0.850248 0.453773 0.185245
0.873564 0.461250 0.187991
0.893553 0.467659 0.192538
0.911009 0.472908 0.197757
0.926268 0.477577 0.204105
0.939727 0.481514 0.210849
0.951720 0.484901 0.218235
0.962463 0.487526 0.225223
0.972229 0.490059 0.232395
0.981140 0.492775 0.240513
0.989532 0.495521 0.248875
0.997314 0.498421 0.257694
1.000000 0.501610 0.267277
0.571252 0.766690 0.609277
0.571649 0.766537 0.609155
0.575250 0.766079 0.609186
0.583124 0.765896 0.610346
0.594934 0.765560 0.612146
0.610376 0.762356 0.612146
0.627710 0.751034 0.604944
0.645197 0.736873 0.597284
0.660761 0.720058 0.589746
0.671839 0.699947 0.582147
0.675380 0.676112 0.574578
0.663020 0.644495 0.567163
0.655299 0.630213 0.584131
0.694545 0.620935 0.522118
0.727199 0.600214 0.450965
0.752651 0.571923 0.381140
0.771878 0.537621 0.314244
0.786252 0.499428 0.254185
0.797208 0.459205 0.203159
0.826047 0.467079 0.202548
0.851530 0.475013 0.204593
0.873716 0.481880 0.208408
0.893065 0.487556 0.213138
0.910063 0.492439 0.218997
0.925048 0.496590 0.225650
0.938323 0.499977 0.232364
0.950195 0.502861 0.239506
0.960998 0.505486 0.246983
0.970916 0.508080 0.255131
0.980133 0.510826 0.263706
0.988617 0.513573 0.272709
0.996490 0.516411 0.282017
0.611536 0.785946 0.652552
0.611566 0.785702 0.652155
0.613733 0.785275 0.651789
0.618433 0.784787 0.651972
0.626246 0.784298 0.652766
0.637354 0.783993 0.654688
0.650050 0.776059 0.649409
0.663996 0.765621 0.642939
0.678096 0.753201 0.636652
0.690364 0.738643 0.630396
0.698848 0.721645 0.624506
0.700526 0.701289 0.618006
0.687587 0.672908 0.610529
0.681147 0.661372 0.623896
0.712795 0.651606 0.569512
0.741451 0.631617 0.502586
0.765194 0.604974 0.433753
0.784237 0.573877 0.366339
0.799527 0.539605 0.303441
0.811551 0.503380 0.247501
0.829770 0.488136 0.222446
0.854093 0.495888 0.225925
0.875334 0.502342 0.230503
0.894011 0.507774 0.236332
0.910430 0.512230 0.242557
0.924926 0.515892 0.249393
0.937896 0.518883 0.256382
0.949645 0.521508 0.263737
0.960388 0.523980 0.271611
0.970306 0.526543 0.280217
0.979461 0.529168 0.289311
0.987945 0.531853 0.298650
0.643458 0.801663 0.688197
0.643732 0.801572 0.688136
0.644984 0.801266 0.687739
0.648249 0.800809 0.687648
0.653559 0.800320 0.687861
0.661402 0.799893 0.688960
0.670924 0.796292 0.687221
0.681666 0.788449 0.681910
0.693233 0.779202 0.676509
0.704738 0.768338 0.671351
0.714443 0.755764 0.666133
0.720729 0.740902 0.660639
0.721096 0.723018 0.654047
0.708125 0.697230 0.646418
0.702205 0.686946 0.656153
0.727626 0.676387 0.607294
0.752255 0.657740 0.547387
0.774411 0.633539 0.483436
0.793576 0.605188 0.417395
0.809445 0.574212 0.353948
0.822782 0.541558 0.295537
0.834318 0.508598 0.244297
0.857267 0.515953 0.248692
0.877531 0.521965 0.254154
0.895323 0.526879 0.260319
0.911101 0.530938 0.267033
0.925200 0.534325 0.274113
0.937957 0.537346 0.282048
0.949645 0.540246 0.290471
0.960388 0.543084 0.299596
0.970336 0.545953 0.309148
0.979492 0.548913 0.319432
0.667659 0.813809 0.715602
0.668238 0.813901 0.715785
0.669673 0.813840 0.716030
0.672389 0.813748 0.716487
0.677028 0.813718 0.717464
0.683497 0.813840 0.719112
0.692012 0.813657 0.721187
0.700526 0.808103 0.717647
0.709987 0.801389 0.713863
0.719539 0.793271 0.709499
0.728237 0.783505 0.704494
0.735042 0.771847 0.698634
0.738552 0.757656 0.691554
0.736934 0.740505 0.683101
0.723476 0.715755 0.673518
0.717311 0.705806 0.680323
0.738460 0.694850 0.635370
0.759945 0.677974 0.582452
0.780453 0.656550 0.525597
0.799466 0.631128 0.463935
0.816251 0.603540 0.402899
0.830930 0.574609 0.344823
0.843778 0.544732 0.291295
0.860929 0.535241 0.272770
0.880278 0.541131 0.279271
0.897337 0.545953 0.286564
0.912535 0.549981 0.294163
0.926207 0.553338 0.302190
0.938689 0.556329 0.310704
0.950072 0.559075 0.319585
0.960510 0.561700 0.328771
0.970123 0.564202 0.338354
0.687343 0.823758 0.737606
0.687709 0.823758 0.737728
0.688716 0.823758 0.737911
0.691096 0.823789 0.738430
0.694850 0.823850 0.739437
0.700038 0.824094 0.740932
0.706905 0.824460 0.743160
0.714107 0.821439 0.741970
0.721492 0.816190 0.738735
0.729335 0.809812 0.735012
0.736995 0.802152 0.730709
0.743740 0.793118 0.725765
0.748714 0.782254 0.719936
0.750668 0.769162 0.712886
0.748318 0.753384 0.704494
0.735744 0.731197 0.696071
0.729671 0.721706 0.700649
0.747921 0.711147 0.660090
0.767025 0.696010 0.613336
0.785733 0.677180 0.563439
0.804196 0.654871 0.508446
0.821469 0.630030 0.450874
0.837003 0.604028 0.394568
0.850980 0.576898 0.340764
0.864714 0.553796 0.298222
0.883024 0.559472 0.305669
0.899382 0.564172 0.313725
0.914061 0.568109 0.322240
0.927276 0.571496 0.330968
0.939391 0.574487 0.340154
0.950439 0.577234 0.349615
0.960601 0.579797 0.359289
0.705440 0.832761 0.757412
0.705715 0.832853 0.757595
0.719539 0.838987 0.771420
0.721187 0.839048 0.771847
0.723873 0.839078 0.772519
0.727535 0.839200 0.773465
0.732296 0.839353 0.774777
0.737850 0.838590 0.775326
0.742977 0.834531 0.772519
0.748684 0.829648 0.769345
0.754452 0.823850 0.765713
0.759792 0.816831 0.761318
0.764126 0.808469 0.756100
0.766873 0.798398 0.749813
0.767117 0.786374 0.742458
0.763760 0.772030 0.733852
0.752102 0.752316 0.725948
0.745510 0.742428 0.727077
0.760250 0.731624 0.690333
0.776577 0.717311 0.648402
0.793149 0.700465 0.604944
0.810208 0.680751 0.556970
0.827176 0.658350 0.504387
0.843198 0.634211 0.450080
0.857847 0.608820 0.396033
0.871244 0.582818 0.344305
0.886748 0.578790 0.335943
0.901884 0.582574 0.343572
0.915648 0.585931 0.351781
0.928313 0.589044 0.360845
0.939910 0.591852 0.370001
0.950622 0.594415 0.379614
0.723415 0.841550 0.776577
0.724575 0.842039 0.777646
0.726436 0.842557 0.778958
0.728786 0.843046 0.780301
0.731716 0.843412 0.781582
0.735042 0.843687 0.782712
0.739162 0.843870 0.783871
0.744137 0.844083 0.785214
0.748623 0.841276 0.783413
0.753353 0.837186 0.780606
0.758297 0.832425 0.777401
0.763241 0.826749 0.773770
0.767605 0.819883 0.769314
0.771054 0.811795 0.764187
0.772915 0.802304 0.758236
0.772549 0.791043 0.751308
0.768978 0.777798 0.743526
0.758206 0.760220 0.737209
0.752193 0.751247 0.738216
0.765621 0.741543 0.705287
0.780850 0.728756 0.667659
0.796475 0.714260 0.629877
0.812467 0.697047 0.588006
0.828733 0.677211 0.541558
0.844816 0.655116 0.491218
0.859983 0.631830 0.439796
0.874144 0.607965 0.389563
0.888365 0.593591 0.360662
0.902983 0.597589 0.369177
0.916381 0.601129 0.378546
0.928679 0.604395 0.388128
0.939879 0.607019 0.397498
0.733089 0.846342 0.786740
0.734157 0.846769 0.787686
0.735775 0.847227 0.788846
0.737819 0.847684 0.789975
0.740322 0.848020 0.791165
0.743252 0.848234 0.792111
0.746670 0.848417 0.793057
0.750790 0.848600 0.794186
0.755154 0.847593 0.794217
0.759030 0.844236 0.791684
0.763210 0.840269 0.788937
0.767575 0.835569 0.785763
0.771664 0.830014 0.782040
0.775235 0.823484 0.777737
0.777951 0.815854 0.772854
0.779171 0.806882 0.767178
0.778347 0.796414 0.760769
0.774350 0.783932 0.753628
0.764553 0.768368 0.748531
0.758785 0.760037 0.749172
0.770962 0.751064 0.719356
0.784939 0.739620 0.685786
0.799619 0.726741 0.652003
0.814664 0.711452 0.614984
0.830014 0.693782 0.573968
0.845670 0.673976 0.528862
0.861143 0.652644 0.481056
0.875944 0.630762 0.433509
0.890196 0.608698 0.387396
0.904326 0.612421 0.395972
0.917144 0.615869 0.405463
0.928862 0.618830 0.414893
0.742275 0.850797 0.796139
0.743130 0.851133 0.796872
0.744411 0.851469 0.797757
0.746120 0.851804 0.798703
0.748196 0.852110 0.799588
0.750637 0.852262 0.800412
0.753475 0.852415 0.801175
0.756954 0.852567 0.802090
0.761135 0.852750 0.803250
0.764553 0.850278 0.801480
0.768093 0.846952 0.799039
0.771878 0.843076 0.796262
0.775631 0.838529 0.793088
0.779141 0.833188 0.789487
0.782132 0.826932 0.785367
0.784268 0.819760 0.780758
0.785122 0.811521 0.775753
0.784207 0.802060 0.770199
0.780148 0.790707 0.764370
0.771695 0.777401 0.760647
0.766415 0.770077 0.761563
0.777584 0.762295 0.735439
0.790433 0.752377 0.706203
0.804318 0.741176 0.676631
0.818540 0.727840 0.644495
0.833097 0.712612 0.609461
0.848112 0.695491 0.571099
0.863493 0.676967 0.529808
0.878904 0.657465 0.486854
0.893950 0.637415 0.443549
0.907500 0.632471 0.434424
0.919493 0.635492 0.443580
0.754818 0.856443 0.808469
0.755184 0.856565 0.808743
0.755825 0.856657 0.809049
0.756710 0.856748 0.809354
0.758114 0.856779 0.809720
0.759762 0.856840 0.810086
0.762051 0.856870 0.810575
0.764889 0.856962 0.811246
0.768338 0.857115 0.812131
0.771817 0.856291 0.812070
0.774777 0.853605 0.810025
0.777951 0.850462 0.807675
0.781216 0.846738 0.804959
0.784329 0.842374 0.801816
0.787259 0.837308 0.798276
0.789609 0.831449 0.794339
0.791226 0.824704 0.789975
0.791623 0.817044 0.785183
0.790433 0.808255 0.779995
0.786007 0.797482 0.774533
0.778103 0.785367 0.771084
0.772702 0.778164 0.771450
0.782498 0.770596 0.747127
0.794095 0.761379 0.720638
0.806943 0.751064 0.693660
0.820401 0.738979 0.664454
0.834318 0.725277 0.633173
0.848692 0.710109 0.599481
0.863554 0.693568 0.563104
0.878813 0.675837 0.524376
0.894072 0.657282 0.484230
0.908171 0.645624 0.460212
0.761807 0.859617 0.815335
0.762112 0.859709 0.815549
0.762661 0.859800 0.815793
0.763455 0.859861 0.816068
0.764584 0.859922 0.816373
0.766110 0.859953 0.816739
0.768002 0.860014 0.817136
0.770413 0.860105 0.817716
0.773373 0.860197 0.818448
0.776822 0.860349 0.819394
0.779507 0.858457 0.817929
0.782193 0.855833 0.815885
0.785031 0.852750 0.813504
0.787930 0.849149 0.810819
0.790738 0.845029 0.807858
0.793271 0.840238 0.804532
0.795315 0.834745 0.800839
0.796628 0.828489 0.796841
0.796872 0.821408 0.792538
0.795560 0.813321 0.787808
0.791104 0.803189 0.782986
0.783841 0.792355 0.780056
0.778408 0.785489 0.780270
0.787411 0.778500 0.758022
0.797116 0.768673 0.732204
0.809110 0.759274 0.707637
0.821897 0.748226 0.680995
0.835203 0.735836 0.652644
0.849027 0.722194 0.622553
0.863432 0.707362 0.590387
0.878325 0.691493 0.556207
0.893431 0.674739 0.520287
0.770321 0.863157 0.823362
0.770718 0.863249 0.823667
0.771145 0.863310 0.823880
0.771695 0.863310 0.823972
0.772396 0.863279 0.824002
0.773404 0.863218 0.824063
0.774716 0.863157 0.824125
0.776455 0.863127 0.824308
0.778653 0.863127 0.824674
0.781308 0.863157 0.825132
0.783963 0.862547 0.824918
0.786038 0.860258 0.822873
0.788327 0.857633 0.820645
0.790707 0.854551 0.818051
0.793149 0.850950 0.815152
0.795468 0.846830 0.812009
0.797543 0.842130 0.808560
0.799283 0.836820 0.804959
0.800351 0.830869 0.801175
0.800443 0.824186 0.797147
0.799191 0.816709 0.792935
0.794644 0.807156 0.788571
0.787869 0.797055 0.785916
0.782254 0.790280 0.785977
0.790494 0.783413 0.764767
0.800381 0.775906 0.743435
0.811460 0.767239 0.720912
0.823575 0.757137 0.696559
0.836332 0.745754 0.670619
0.849668 0.733303 0.643336
0.863462 0.720027 0.614862
0.877684 0.706020 0.585138
0.774990 0.865171 0.827878
0.775326 0.865263 0.828122
0.775753 0.865354 0.828336
0.776272 0.865354 0.828489
0.777005 0.865385 0.828641
0.778042 0.865385 0.828824
0.779416 0.865415 0.829068
0.781125 0.865476 0.829435
0.783230 0.865537 0.829892
0.785702 0.865629 0.830472
0.788479 0.865690 0.831113
0.790616 0.864347 0.830014
0.792599 0.862211 0.828061
0.794675 0.859678 0.825864
0.796780 0.856718 0.823301
0.798886 0.853300 0.820493
0.800931 0.849393 0.817441
0.802792 0.844999 0.814206
0.804227 0.840024 0.810788
0.805112 0.834470 0.807218
0.805081 0.828244 0.803464
0.803708 0.821195 0.799435
0.799130 0.812070 0.795315
0.792721 0.802701 0.792813
0.787259 0.796201 0.792691
0.794888 0.790158 0.773953
0.804135 0.783597 0.754971
0.814511 0.775753 0.734676
0.825956 0.766903 0.713222
0.838132 0.756863 0.690333
0.850889 0.745937 0.666438
0.863951 0.734371 0.641901
0.780972 0.867491 0.833433
0.781125 0.867521 0.833555
0.781399 0.867552 0.833677
0.781827 0.867552 0.833738
0.782406 0.867582 0.833860
0.783291 0.867582 0.833982
0.784390 0.867582 0.834134
0.785763 0.867613 0.834379
0.787533 0.867643 0.834714
0.789578 0.867704 0.835142
0.791989 0.867765 0.835630
0.794491 0.867582 0.835874
0.796078 0.865782 0.834104
0.797818 0.863706 0.832090
0.799649 0.861204 0.829801
0.801511 0.858366 0.827237
0.803403 0.855100 0.824491
0.805234 0.851377 0.821530
0.806943 0.847227 0.818479
0.808255 0.842588 0.815305
0.808988 0.837369 0.811917
0.808865 0.831510 0.808377
0.807492 0.824857 0.804532
0.802884 0.816098 0.800626
0.796780 0.807309 0.798184
0.791409 0.800870 0.797726
0.798550 0.795773 0.781582
0.807187 0.789670 0.764065
0.816861 0.782589 0.745632
0.827726 0.774838 0.726650
0.839200 0.766171 0.706691
0.851164 0.756863 0.686183
0.785580 0.869291 0.837766
0.785733 0.869291 0.837858
0.786007 0.869322 0.837949
0.786435 0.869352 0.838071
0.787015 0.869383 0.838254
0.787930 0.869444 0.838499
0.789212 0.869535 0.838895
0.790829 0.869627 0.839445
0.792752 0.869780 0.840085
0.794919 0.869932 0.840818
0.797391 0.870115 0.841611
0.799985 0.870268 0.842435
0.802152 0.869627 0.842130
0.803708 0.868040 0.840604
0.805356 0.866178 0.838834
0.806912 0.863951 0.836667
0.808530 0.861387 0.834287
0.810178 0.858457 0.831693
0.811826 0.855100 0.829007
0.813260 0.851377 0.826169
0.814359 0.847196 0.823178
0.815000 0.842435 0.820005
0.814755 0.837064 0.816587
0.813413 0.830961 0.812985
0.808988 0.822843 0.809323
0.803250 0.814633 0.806882
0.798032 0.808560 0.806455
0.804623 0.804379 0.792874
0.812528 0.798886 0.777279
0.821317 0.792660 0.761105
0.831266 0.786160 0.745052
0.841703 0.779019 0.728542
0.793637 0.871611 0.844724
0.793668 0.871641 0.844724
0.793790 0.871611 0.844724
0.794003 0.871611 0.844755
0.794400 0.871611 0.844785
0.794980 0.871611 0.844846
0.795834 0.871641 0.844999
0.796902 0.871672 0.845212
0.798215 0.871733 0.845487
0.799771 0.871763 0.845853
0.801572 0.871824 0.846220
0.803555 0.871885 0.846677
0.805692 0.871946 0.847105
