lut_library_archive/removed_20260629/50个风景lut/50个风景lut15.cube
# 版权归凌孟成所有，侵权必究
TITLE "Jungle LUT #15"
#LUT size
LUT_3D_SIZE 9
#LUT data points
0.000000 0.000000 0.000000
0.078431 0.000000 0.003922
0.180392 0.000000 0.000000
0.305882 0.000000 0.000000
0.466667 0.000000 0.000000
0.631373 0.000000 0.000000
0.800000 0.003922 0.000000
0.941176 0.003922 0.000000
0.996078 0.000000 0.000000
0.000000 0.082353 0.007843
0.066667 0.086275 0.000000
0.188235 0.094118 0.000000
0.305882 0.105882 0.000000
0.466667 0.113725 0.000000
0.635294 0.117647 0.000000
0.800000 0.113725 0.000000
0.937255 0.090196 0.000000
0.996078 0.066667 0.003922
0.000000 0.203922 0.000000
0.062745 0.196078 0.000000
0.180392 0.196078 0.000000
0.317647 0.219608 0.000000
0.474510 0.239216 0.000000
0.647059 0.250980 0.000000
0.807843 0.254902 0.003922
0.941176 0.247059 0.000000
1.000000 0.231373 0.003922
0.000000 0.345098 0.000000
0.043137 0.341176 0.000000
0.211765 0.345098 0.003922
0.337255 0.349020 0.000000
0.498039 0.368627 0.000000
0.658824 0.384314 0.000000
0.803922 0.392157 0.000000
0.937255 0.384314 0.000000
1.000000 0.372549 0.003922
0.000000 0.513725 0.000000
0.000000 0.513725 0.000000
0.219608 0.513725 0.000000
0.372549 0.513725 0.000000
0.513725 0.513725 0.000000
0.670588 0.525490 0.003922
0.811765 0.521569 0.000000
0.949020 0.521569 0.015686
1.000000 0.505882 0.000000
0.000000 0.674510 0.000000
0.000000 0.674510 0.000000
0.227451 0.674510 0.000000
0.388235 0.670588 0.003922
0.537255 0.666667 0.003922
0.678431 0.670588 0.003922
0.815686 0.666667 0.000000
0.945098 0.654902 0.000000
1.000000 0.639216 0.000000
0.000000 0.803922 0.003922
0.003922 0.807843 0.000000
0.203922 0.803922 0.003922
0.380392 0.803922 0.000000
0.521569 0.800000 0.000000
0.670588 0.800000 0.003922
0.815686 0.792157 0.007843
0.937255 0.784314 0.003922
1.000000 0.768627 0.000000
0.000000 0.913725 0.000000
0.003922 0.913725 0.000000
0.156863 0.921569 0.003922
0.352941 0.917647 0.000000
0.509804 0.913725 0.000000
0.647059 0.913725 0.000000
0.792157 0.905882 0.000000
0.929412 0.901961 0.000000
0.996078 0.890196 0.000000
0.003922 1.000000 0.000000
0.000000 1.000000 0.000000
0.086275 1.000000 0.000000
0.321569 1.000000 0.000000
0.482353 0.996078 0.000000
0.639216 1.000000 0.000000
0.796078 1.000000 0.000000
0.933333 1.000000 0.000000
0.996078 0.996078 0.000000
0.003922 0.000000 0.070588
0.074510 0.003922 0.066667
0.176471 0.000000 0.078431
0.305882 0.000000 0.062745
0.474510 0.000000 0.047059
0.647059 0.000000 0.023529
0.803922 0.000000 0.003922
0.945098 0.000000 0.000000
0.996078 0.000000 0.007843
0.003922 0.082353 0.074510
0.070588 0.090196 0.062745
0.184314 0.090196 0.058824
0.317647 0.086275 0.054902
0.474510 0.086275 0.027451
0.643137 0.078431 0.003922
0.807843 0.058824 0.000000
0.941176 0.023529 0.003922
0.996078 0.000000 0.007843
0.000000 0.200000 0.050980
0.054902 0.203922 0.050980
0.188235 0.207843 0.047059
0.321569 0.211765 0.023529
0.482353 0.227451 0.000000
0.658824 0.235294 0.000000
0.807843 0.235294 0.000000
0.949020 0.227451 0.000000
0.988235 0.211765 0.000000
0.000000 0.341176 0.000000
0.000000 0.349020 0.000000
0.196078 0.345098 0.003922
0.345098 0.345098 0.000000
0.505882 0.368627 0.000000
0.670588 0.380392 0.000000
0.823529 0.384314 0.000000
0.949020 0.380392 0.000000
0.996078 0.360784 0.000000
0.000000 0.513725 0.000000
0.000000 0.513725 0.000000
0.215686 0.509804 0.003922
0.376471 0.513725 0.003922
0.521569 0.521569 0.011765
0.674510 0.517647 0.003922
0.823529 0.521569 0.003922
0.949020 0.517647 0.000000
0.996078 0.509804 0.000000
0.000000 0.666667 0.003922
0.011765 0.666667 0.007843
0.203922 0.666667 0.000000
0.384314 0.670588 0.003922
0.537255 0.666667 0.003922
0.678431 0.670588 0.000000
0.815686 0.666667 0.003922
0.945098 0.654902 0.000000
0.992157 0.631373 0.007843
0.003922 0.800000 0.000000
0.011765 0.807843 0.003922
0.180392 0.803922 0.003922
0.364706 0.803922 0.000000
0.521569 0.800000 0.000000
0.666667 0.796078 0.000000
0.815686 0.796078 0.000000
0.937255 0.784314 0.000000
0.996078 0.760784 0.000000
0.007843 0.913725 0.011765
0.000000 0.925490 0.000000
0.152941 0.913725 0.000000
0.341176 0.913725 0.000000
0.498039 0.913725 0.003922
0.647059 0.909804 0.007843
0.792157 0.905882 0.000000
0.929412 0.901961 0.000000
0.996078 0.886275 0.007843
0.007843 0.992157 0.000000
0.007843 1.000000 0.000000
0.074510 0.996078 0.000000
0.325490 0.996078 0.000000
0.482353 0.996078 0.000000
0.635294 1.000000 0.000000
0.792157 1.000000 0.000000
0.937255 0.996078 0.003922
1.000000 1.000000 0.003922
0.003922 0.000000 0.172549
0.070588 0.000000 0.164706
0.188235 0.003922 0.176471
0.317647 0.000000 0.184314
0.482353 0.003922 0.196078
0.658824 0.003922 0.176471
0.811765 0.000000 0.149020
0.952941 0.003922 0.129412
1.000000 0.003922 0.117647
0.000000 0.086275 0.188235
0.074510 0.082353 0.172549
0.180392 0.082353 0.168627
0.317647 0.062745 0.180392
0.486275 0.003922 0.176471
0.658824 0.000000 0.160784
0.811765 0.000000 0.149020
0.956863 0.000000 0.129412
0.996078 0.000000 0.109804
0.000000 0.192157 0.168627
0.023529 0.203922 0.164706
0.184314 0.207843 0.168627
0.337255 0.203922 0.168627
0.494118 0.203922 0.160784
0.674510 0.196078 0.145098
0.819608 0.188235 0.125490
0.956863 0.180392 0.113725
0.996078 0.164706 0.082353
0.000000 0.352941 0.152941
0.003922 0.349020 0.145098
0.176471 0.349020 0.141176
0.345098 0.356863 0.133333
0.501961 0.360784 0.117647
0.670588 0.364706 0.121569
0.823529 0.364706 0.094118
0.952941 0.356863 0.078431
1.000000 0.345098 0.047059
0.000000 0.517647 0.078431
0.000000 0.513725 0.086275
0.164706 0.513725 0.082353
0.364706 0.513725 0.070588
0.533333 0.513725 0.054902
0.674510 0.521569 0.023529
0.823529 0.513725 0.011765
0.952941 0.505882 0.000000
0.996078 0.490196 0.000000
0.011765 0.674510 0.003922
0.000000 0.674510 0.000000
0.156863 0.674510 0.003922
0.364706 0.674510 0.003922
0.537255 0.670588 0.000000
0.682353 0.666667 0.000000
0.823529 0.654902 0.000000
0.952941 0.650980 0.007843
1.000000 0.631373 0.000000
0.003922 0.796078 0.003922
0.003922 0.800000 0.000000
0.133333 0.800000 0.003922
0.356863 0.792157 0.000000
0.509804 0.796078 0.000000
0.666667 0.796078 0.000000
0.811765 0.800000 0.003922
0.941176 0.788235 0.000000
0.996078 0.760784 0.000000
0.000000 0.913725 0.000000
0.000000 0.917647 0.000000
0.094118 0.913725 0.000000
0.333333 0.917647 0.000000
0.494118 0.917647 0.000000
0.643137 0.909804 0.000000
0.788235 0.901961 0.000000
0.929412 0.905882 0.000000
1.000000 0.886275 0.000000
0.000000 0.996078 0.000000
0.007843 0.992157 0.000000
0.000000 1.000000 0.000000
0.301961 1.000000 0.000000
0.466667 1.000000 0.000000
0.627451 1.000000 0.003922
0.792157 1.000000 0.000000
0.937255 1.000000 0.000000
1.000000 1.000000 0.000000
0.003922 0.000000 0.313725
0.086275 0.000000 0.309804
0.203922 0.000000 0.309804
0.337255 0.000000 0.313725
0.486275 0.000000 0.337255
0.658824 0.000000 0.333333
0.823529 0.003922 0.333333
0.964706 0.000000 0.305882
1.000000 0.000000 0.290196
0.000000 0.078431 0.317647
0.050980 0.074510 0.309804
0.192157 0.066667 0.313725
0.325490 0.039216 0.309804
0.490196 0.000000 0.329412
0.662745 0.000000 0.333333
0.823529 0.000000 0.325490
0.968627 0.000000 0.298039
0.996078 0.003922 0.290196
0.000000 0.211765 0.321569
0.000000 0.207843 0.317647
0.180392 0.200000 0.317647
0.349020 0.188235 0.313725
0.513725 0.176471 0.321569
0.678431 0.141176 0.313725
0.831373 0.113725 0.301961
0.960784 0.101961 0.298039
1.000000 0.074510 0.278431
0.000000 0.349020 0.325490
0.000000 0.352941 0.321569
0.149020 0.356863 0.325490
0.352941 0.341176 0.305882
0.517647 0.349020 0.313725
0.678431 0.349020 0.305882
0.827451 0.341176 0.294118
0.956863 0.333333 0.282353
1.000000 0.325490 0.278431
0.000000 0.517647 0.313725
0.000000 0.517647 0.294118
0.047059 0.521569 0.290196
0.345098 0.517647 0.286275
0.529412 0.509804 0.282353
0.690196 0.517647 0.282353
0.831373 0.509804 0.290196
0.960784 0.494118 0.274510
0.996078 0.478431 0.258824
0.000000 0.678431 0.258824
0.000000 0.674510 0.266667
0.023529 0.678431 0.266667
0.341176 0.674510 0.266667
0.529412 0.674510 0.262745
0.682353 0.670588 0.258824
0.827451 0.658824 0.247059
0.952941 0.647059 0.262745
1.000000 0.623529 0.262745
0.003922 0.800000 0.239216
0.000000 0.811765 0.243137
0.011765 0.796078 0.235294
0.329412 0.807843 0.239216
0.509804 0.803922 0.239216
0.666667 0.800000 0.227451
0.815686 0.796078 0.231373
0.941176 0.780392 0.223529
1.000000 0.756863 0.227451
0.000000 0.917647 0.223529
0.011765 0.913725 0.215686
0.000000 0.917647 0.223529
0.313725 0.917647 0.227451
0.482353 0.917647 0.211765
0.635294 0.909804 0.211765
0.788235 0.909804 0.207843
0.933333 0.905882 0.203922
1.000000 0.890196 0.200000
0.000000 0.996078 0.196078
0.000000 1.000000 0.200000
0.000000 1.000000 0.196078
0.298039 1.000000 0.196078
0.462745 1.000000 0.184314
0.627451 1.000000 0.184314
0.784314 0.996078 0.164706
0.933333 1.000000 0.145098
0.996078 1.000000 0.117647
0.000000 0.003922 0.478431
0.070588 0.000000 0.470588
0.227451 0.000000 0.474510
0.364706 0.000000 0.482353
0.505882 0.000000 0.482353
0.670588 0.000000 0.490196
0.823529 0.000000 0.490196
0.964706 0.003922 0.478431
1.000000 0.003922 0.458824
0.007843 0.058824 0.466667
0.015686 0.058824 0.478431
0.207843 0.035294 0.470588
0.368627 0.000000 0.486275
0.505882 0.003922 0.478431
0.674510 0.003922 0.490196
0.823529 0.003922 0.482353
0.964706 0.003922 0.470588
1.000000 0.000000 0.458824
0.007843 0.203922 0.490196
0.000000 0.188235 0.486275
0.164706 0.188235 0.478431
0.352941 0.180392 0.482353
0.521569 0.152941 0.490196
0.686275 0.125490 0.486275
0.835294 0.090196 0.482353
0.960784 0.070588 0.462745
1.000000 0.078431 0.458824
0.003922 0.349020 0.494118
0.003922 0.356863 0.482353
0.098039 0.341176 0.486275
0.329412 0.337255 0.486275
0.521569 0.337255 0.478431
0.686275 0.333333 0.470588
0.831373 0.333333 0.470588
0.956863 0.333333 0.462745
1.000000 0.337255 0.458824
0.000000 0.513725 0.482353
0.003922 0.517647 0.478431
0.003922 0.521569 0.466667
0.337255 0.517647 0.478431
0.533333 0.517647 0.474510
0.678431 0.509804 0.474510
0.831373 0.505882 0.474510
0.952941 0.494118 0.458824
0.996078 0.486275 0.462745
0.007843 0.674510 0.466667
0.000000 0.674510 0.470588
0.000000 0.674510 0.462745
0.321569 0.674510 0.462745
0.513725 0.674510 0.454902
0.690196 0.670588 0.454902
0.823529 0.654902 0.450980
0.945098 0.647059 0.454902
1.000000 0.631373 0.458824
0.000000 0.807843 0.447059
0.000000 0.807843 0.447059
0.011765 0.800000 0.454902
0.313725 0.800000 0.447059
0.505882 0.807843 0.431373
0.662745 0.800000 0.447059
0.815686 0.796078 0.439216
0.941176 0.780392 0.435294
1.000000 0.760784 0.443137
0.000000 0.917647 0.435294
0.000000 0.913725 0.439216
0.031373 0.913725 0.435294
0.325490 0.917647 0.443137
0.482353 0.909804 0.439216
0.643137 0.909804 0.435294
0.784314 0.909804 0.427451
0.925490 0.901961 0.423529
0.996078 0.894118 0.419608
0.000000 1.000000 0.431373
0.000000 1.000000 0.419608
0.058824 1.000000 0.423529
0.301961 1.000000 0.427451
0.474510 1.000000 0.423529
0.627451 1.000000 0.419608
0.780392 1.000000 0.415686
0.929412 1.000000 0.407843
0.996078 1.000000 0.400000
0.000000 0.000000 0.639216
0.058824 0.000000 0.631373
0.243137 0.000000 0.647059
0.384314 0.000000 0.639216
0.529412 0.000000 0.643137
0.674510 0.000000 0.643137
0.823529 0.000000 0.639216
0.956863 0.003922 0.623529
1.000000 0.003922 0.603922
0.003922 0.043137 0.635294
0.007843 0.023529 0.647059
0.215686 0.000000 0.639216
0.380392 0.003922 0.639216
0.525490 0.000000 0.631373
0.682353 0.000000 0.647059
0.827451 0.000000 0.639216
0.956863 0.003922 0.631373
1.000000 0.003922 0.607843
0.000000 0.184314 0.639216
0.000000 0.188235 0.643137
0.160784 0.168627 0.650980
0.360784 0.160784 0.635294
0.533333 0.137255 0.654902
0.694118 0.090196 0.647059
0.831373 0.047059 0.635294
0.956863 0.031373 0.627451
1.000000 0.066667 0.615686
0.003922 0.345098 0.647059
0.000000 0.341176 0.643137
0.000000 0.325490 0.631373
0.337255 0.333333 0.639216
0.529412 0.325490 0.647059
0.682353 0.317647 0.635294
0.827451 0.325490 0.635294
0.956863 0.333333 0.623529
1.000000 0.341176 0.611765
0.000000 0.513725 0.650980
0.003922 0.513725 0.647059
0.007843 0.509804 0.654902
0.329412 0.509804 0.650980
0.521569 0.505882 0.643137
0.682353 0.509804 0.647059
0.823529 0.505882 0.631373
0.941176 0.513725 0.627451
1.000000 0.517647 0.619608
0.003922 0.682353 0.647059
0.000000 0.678431 0.639216
0.007843 0.678431 0.643137
0.321569 0.674510 0.635294
0.521569 0.666667 0.635294
0.686275 0.658824 0.627451
0.807843 0.662745 0.631373
0.933333 0.658824 0.631373
1.000000 0.647059 0.627451
0.003922 0.807843 0.623529
0.003922 0.800000 0.619608
0.050980 0.807843 0.623529
0.337255 0.803922 0.615686
0.521569 0.800000 0.627451
0.666667 0.796078 0.619608
0.807843 0.796078 0.619608
0.937255 0.784314 0.615686
1.000000 0.768627 0.619608
0.003922 0.913725 0.615686
0.003922 0.913725 0.607843
0.227451 0.905882 0.615686
0.380392 0.913725 0.615686
0.509804 0.909804 0.619608
0.658824 0.909804 0.611765
0.780392 0.905882 0.603922
0.925490 0.901961 0.603922
1.000000 0.890196 0.611765
0.152941 0.996078 0.619608
0.211765 1.000000 0.631373
0.298039 1.000000 0.615686
0.380392 0.996078 0.615686
0.505882 1.000000 0.607843
0.647059 1.000000 0.600000
0.796078 1.000000 0.603922
0.929412 1.000000 0.600000
1.000000 0.996078 0.600000
0.000000 0.000000 0.776471
0.003922 0.000000 0.784314
0.235294 0.000000 0.784314
0.384314 0.000000 0.780392
0.537255 0.000000 0.792157
0.666667 0.003922 0.784314
0.815686 0.000000 0.780392
0.964706 0.000000 0.772549
1.000000 0.000000 0.760784
0.000000 0.000000 0.776471
0.007843 0.000000 0.772549
0.207843 0.003922 0.784314
0.376471 0.000000 0.784314
0.525490 0.000000 0.784314
0.674510 0.000000 0.784314
0.819608 0.000000 0.780392
0.952941 0.000000 0.760784
1.000000 0.000000 0.772549
0.000000 0.176471 0.784314
0.000000 0.172549 0.780392
0.141176 0.164706 0.784314
0.360784 0.145098 0.788235
0.509804 0.121569 0.788235
0.674510 0.074510 0.784314
0.819608 0.007843 0.776471
0.964706 0.003922 0.764706
0.992157 0.031373 0.749020
0.003922 0.325490 0.788235
0.000000 0.333333 0.788235
0.000000 0.325490 0.780392
0.321569 0.317647 0.776471
0.509804 0.313725 0.796078
0.670588 0.313725 0.788235
0.831373 0.305882 0.788235
0.956863 0.321569 0.768627
0.996078 0.333333 0.752941
0.011765 0.494118 0.788235
0.000000 0.501961 0.780392
0.003922 0.494118 0.776471
0.313725 0.494118 0.780392
0.501961 0.494118 0.780392
0.666667 0.498039 0.780392
0.827451 0.490196 0.776471
0.945098 0.505882 0.764706
1.000000 0.509804 0.768627
0.003922 0.654902 0.788235
0.011765 0.654902 0.784314
0.000000 0.658824 0.780392
0.329412 0.662745 0.784314
0.509804 0.654902 0.768627
0.674510 0.662745 0.784314
0.815686 0.654902 0.772549
0.925490 0.658824 0.756863
0.996078 0.662745 0.745098
0.003922 0.807843 0.780392
0.011765 0.803922 0.772549
0.035294 0.807843 0.768627
0.345098 0.803922 0.772549
0.521569 0.800000 0.776471
0.670588 0.800000 0.764706
0.803922 0.792157 0.772549
0.909804 0.792157 0.760784
1.000000 0.784314 0.788235
0.003922 0.913725 0.756863
0.007843 0.909804 0.749020
0.235294 0.909804 0.745098
0.396078 0.905882 0.752941
0.549020 0.909804 0.764706
0.674510 0.909804 0.776471
0.796078 0.905882 0.756863
0.917647 0.901961 0.752941
1.000000 0.890196 0.756863
0.176471 1.000000 0.756863
0.223529 0.996078 0.745098
0.325490 1.000000 0.741176
0.435294 1.000000 0.756863
0.564706 1.000000 0.764706
0.662745 1.000000 0.760784
0.792157 0.996078 0.745098
0.921569 1.000000 0.749020
1.000000 1.000000 0.749020
0.011765 0.000000 0.905882
0.000000 0.007843 0.898039
0.219608 0.003922 0.898039
0.376471 0.000000 0.905882
0.513725 0.000000 0.909804
0.658824 0.000000 0.901961
0.796078 0.000000 0.898039
0.945098 0.000000 0.905882
0.996078 0.000000 0.894118
0.000000 0.000000 0.905882
0.000000 0.000000 0.909804
0.180392 0.000000 0.909804
0.372549 0.000000 0.901961
0.501961 0.003922 0.909804
0.654902 0.000000 0.901961
0.800000 0.003922 0.909804
0.945098 0.000000 0.905882
1.000000 0.000000 0.898039
0.007843 0.152941 0.898039
0.003922 0.164706 0.901961
0.133333 0.152941 0.898039
0.345098 0.137255 0.905882
0.498039 0.117647 0.905882
0.654902 0.086275 0.905882
0.800000 0.027451 0.898039
0.945098 0.000000 0.905882
1.000000 0.000000 0.898039
0.000000 0.317647 0.909804
0.000000 0.321569 0.909804
0.000000 0.321569 0.894118
0.313725 0.313725 0.901961
0.494118 0.313725 0.901961
0.647059 0.309804 0.909804
0.803922 0.309804 0.909804
0.949020 0.301961 0.905882
1.000000 0.321569 0.886275
0.003922 0.482353 0.901961
0.000000 0.482353 0.917647
0.011765 0.482353 0.894118
0.313725 0.486275 0.905882
0.498039 0.486275 0.905882
0.650980 0.490196 0.905882
0.800000 0.494118 0.901961
0.941176 0.490196 0.901961
1.000000 0.505882 0.878431
0.000000 0.639216 0.898039
0.000000 0.639216 0.894118
0.019608 0.643137 0.898039
0.333333 0.643137 0.901961
0.501961 0.650980 0.898039
0.666667 0.647059 0.905882
0.800000 0.650980 0.890196
0.933333 0.650980 0.898039
0.992157 0.662745 0.874510
0.007843 0.776471 0.894118
0.011765 0.780392 0.898039
0.149020 0.784314 0.898039
0.360784 0.788235 0.909804
0.525490 0.788235 0.890196
0.670588 0.788235 0.898039
0.800000 0.788235 0.894118
0.929412 0.788235 0.890196
0.996078 0.792157 0.878431
0.011765 0.921569 0.898039
0.000000 0.909804 0.886275
0.231373 0.917647 0.898039
0.384314 0.913725 0.886275
0.537255 0.909804 0.886275
0.670588 0.905882 0.898039
0.792157 0.905882 0.886275
0.905882 0.901961 0.882353
0.992157 0.913725 0.886275
0.203922 1.000000 0.862745
0.247059 1.000000 0.870588
0.337255 1.000000 0.870588
0.458824 0.996078 0.862745
0.568627 1.000000 0.878431
0.690196 1.000000 0.874510
0.811765 1.000000 0.890196
0.921569 1.000000 0.894118
1.000000 1.000000 0.890196
0.000000 0.000000 0.996078
0.003922 0.000000 0.996078
0.200000 0.000000 1.000000
0.356863 0.000000 1.000000
0.498039 0.000000 1.000000
0.647059 0.000000 0.996078
0.772549 0.000000 1.000000
0.913725 0.003922 1.000000
0.992157 0.003922 0.996078
0.000000 0.000000 0.996078
0.000000 0.007843 1.000000
0.180392 0.000000 1.000000
0.345098 0.003922 1.000000
0.498039 0.000000 1.000000
0.635294 0.000000 0.996078
0.772549 0.000000 1.000000
0.913725 0.003922 1.000000
1.000000 0.003922 1.000000
0.000000 0.156863 0.992157
0.003922 0.156863 1.000000
0.121569 0.145098 0.992157
0.333333 0.129412 1.000000
0.482353 0.121569 1.000000
0.631373 0.090196 1.000000
0.772549 0.054902 0.996078
0.917647 0.007843 0.996078
0.992157 0.000000 1.000000
0.007843 0.321569 1.000000
0.011765 0.313725 0.996078
0.035294 0.313725 1.000000
0.305882 0.309804 1.000000
0.478431 0.309804 1.000000
0.623529 0.309804 0.996078
0.772549 0.309804 1.000000
0.913725 0.309804 1.000000
1.000000 0.309804 1.000000
0.000000 0.466667 1.000000
0.015686 0.466667 0.992157
0.066667 0.474510 0.988235
0.309804 0.478431 0.992157
0.478431 0.478431 0.996078
0.623529 0.486275 0.996078
0.772549 0.486275 1.000000
0.917647 0.486275 1.000000
0.996078 0.490196 0.988235
0.000000 0.619608 1.000000
0.000000 0.623529 1.000000
0.105882 0.631373 1.000000
0.341176 0.631373 1.000000
0.505882 0.639216 0.992157
0.639216 0.647059 0.988235
0.780392 0.643137 1.000000
0.905882 0.643137 1.000000
1.000000 0.650980 1.000000
0.000000 0.756863 1.000000
0.000000 0.764706 1.000000
0.180392 0.756863 1.000000
0.360784 0.768627 1.000000
0.513725 0.772549 1.000000
0.658824 0.772549 1.000000
0.784314 0.780392 1.000000
0.909804 0.780392 1.000000
1.000000 0.776471 1.000000
0.011765 0.894118 0.996078
0.027451 0.894118 0.988235
0.239216 0.894118 0.996078
0.396078 0.894118 0.992157
0.537255 0.898039 0.996078
0.674510 0.898039 1.000000
0.788235 0.898039 0.992157
0.898039 0.901961 0.988235
1.000000 0.913725 1.000000
0.082353 1.000000 0.996078
0.168627 0.996078 1.000000
0.301961 0.996078 0.996078
0.423529 0.992157 0.996078
0.549020 0.996078 0.996078
0.686275 1.000000 0.996078
0.807843 1.000000 0.988235
0.929412 1.000000 1.000000
1.000000 1.000000 1.000000
