lut_library_archive/removed_20260629/50个风景lut/50个风景lut25.cube
# 版权归凌孟成所有，侵权必究
TITLE "Jungle LUT #25"
#LUT size
LUT_3D_SIZE 9
#LUT data points
0.000000 0.000000 0.000000
0.101961 0.000000 0.003922
0.239216 0.011765 0.000000
0.356863 0.050980 0.000000
0.470588 0.086275 0.000000
0.592157 0.125490 0.000000
0.749020 0.172549 0.003922
0.890196 0.215686 0.003922
0.996078 0.254902 0.003922
0.003922 0.117647 0.000000
0.133333 0.113725 0.000000
0.247059 0.113725 0.003922
0.360784 0.133333 0.000000
0.474510 0.145098 0.000000
0.596078 0.172549 0.000000
0.741176 0.211765 0.003922
0.890196 0.243137 0.000000
1.000000 0.278431 0.007843
0.003922 0.239216 0.000000
0.141176 0.243137 0.003922
0.262745 0.247059 0.007843
0.372549 0.231373 0.000000
0.482353 0.243137 0.000000
0.607843 0.258824 0.000000
0.756863 0.286275 0.007843
0.905882 0.313725 0.003922
1.000000 0.337255 0.000000
0.000000 0.364706 0.000000
0.105882 0.368627 0.003922
0.250980 0.364706 0.003922
0.384314 0.356863 0.003922
0.501961 0.345098 0.003922
0.631373 0.360784 0.003922
0.764706 0.380392 0.000000
0.909804 0.403922 0.003922
1.000000 0.427451 0.000000
0.000000 0.498039 0.000000
0.109804 0.498039 0.003922
0.247059 0.490196 0.000000
0.388235 0.490196 0.000000
0.525490 0.486275 0.003922
0.647059 0.474510 0.000000
0.792157 0.498039 0.007843
0.921569 0.509804 0.007843
1.000000 0.521569 0.000000
0.003922 0.647059 0.003922
0.078431 0.654902 0.003922
0.231373 0.650980 0.000000
0.400000 0.647059 0.000000
0.545098 0.643137 0.003922
0.690196 0.643137 0.000000
0.811765 0.615686 0.003922
0.941176 0.627451 0.003922
0.992157 0.631373 0.000000
0.003922 0.788235 0.000000
0.000000 0.796078 0.000000
0.223529 0.788235 0.007843
0.388235 0.788235 0.003922
0.537255 0.788235 0.000000
0.690196 0.784314 0.007843
0.831373 0.776471 0.003922
0.937255 0.737255 0.000000
1.000000 0.733333 0.007843
0.003922 0.917647 0.011765
0.000000 0.929412 0.007843
0.180392 0.917647 0.000000
0.349020 0.921569 0.000000
0.517647 0.917647 0.003922
0.666667 0.909804 0.000000
0.819608 0.905882 0.000000
0.960784 0.905882 0.000000
1.000000 0.854902 0.000000
0.000000 0.996078 0.000000
0.000000 1.000000 0.000000
0.058824 0.996078 0.000000
0.305882 1.000000 0.000000
0.486275 1.000000 0.003922
0.643137 1.000000 0.000000
0.819608 1.000000 0.000000
0.972549 1.000000 0.003922
1.000000 1.000000 0.000000
0.000000 0.000000 0.101961
0.129412 0.000000 0.105882
0.250980 0.000000 0.101961
0.368627 0.047059 0.101961
0.466667 0.109804 0.098039
0.588235 0.141176 0.098039
0.733333 0.176471 0.082353
0.890196 0.219608 0.082353
0.996078 0.262745 0.070588
0.000000 0.121569 0.101961
0.129412 0.117647 0.098039
0.243137 0.125490 0.094118
0.360784 0.129412 0.098039
0.474510 0.152941 0.098039
0.596078 0.180392 0.086275
0.737255 0.211765 0.074510
0.890196 0.247059 0.066667
1.000000 0.286275 0.070588
0.000000 0.247059 0.082353
0.109804 0.247059 0.078431
0.258824 0.247059 0.078431
0.368627 0.231373 0.074510
0.482353 0.243137 0.070588
0.611765 0.258824 0.070588
0.752941 0.282353 0.054902
0.894118 0.313725 0.031373
1.000000 0.341176 0.015686
0.000000 0.360784 0.047059
0.101961 0.368627 0.043137
0.250980 0.364706 0.043137
0.388235 0.356863 0.039216
0.498039 0.345098 0.035294
0.623529 0.364706 0.019608
0.776471 0.384314 0.000000
0.905882 0.407843 0.003922
1.000000 0.423529 0.000000
0.003922 0.490196 0.000000
0.094118 0.494118 0.000000
0.235294 0.490196 0.000000
0.380392 0.494118 0.000000
0.521569 0.490196 0.003922
0.647059 0.474510 0.000000
0.788235 0.494118 0.000000
0.921569 0.513725 0.000000
0.992157 0.521569 0.003922
0.000000 0.639216 0.007843
0.047059 0.647059 0.000000
0.223529 0.647059 0.000000
0.384314 0.647059 0.000000
0.541176 0.647059 0.000000
0.690196 0.639216 0.000000
0.807843 0.611765 0.000000
0.937255 0.623529 0.000000
1.000000 0.627451 0.000000
0.000000 0.780392 0.000000
0.007843 0.784314 0.000000
0.203922 0.784314 0.000000
0.368627 0.788235 0.000000
0.533333 0.784314 0.000000
0.686275 0.780392 0.003922
0.835294 0.784314 0.000000
0.945098 0.737255 0.000000
0.992157 0.745098 0.003922
0.000000 0.913725 0.000000
0.000000 0.921569 0.000000
0.156863 0.917647 0.000000
0.341176 0.921569 0.003922
0.505882 0.909804 0.000000
0.662745 0.913725 0.000000
0.815686 0.909804 0.000000
0.964706 0.898039 0.003922
1.000000 0.854902 0.000000
0.011765 1.000000 0.015686
0.007843 0.996078 0.003922
0.011765 0.996078 0.000000
0.301961 1.000000 0.000000
0.482353 0.996078 0.000000
0.647059 1.000000 0.000000
0.819608 1.000000 0.000000
0.972549 1.000000 0.000000
0.996078 0.996078 0.000000
0.000000 0.007843 0.227451
0.129412 0.000000 0.231373
0.258824 0.003922 0.223529
0.380392 0.000000 0.227451
0.494118 0.000000 0.196078
0.596078 0.074510 0.196078
0.741176 0.196078 0.231373
0.878431 0.231373 0.215686
0.988235 0.270588 0.219608
0.000000 0.113725 0.223529
0.121569 0.109804 0.223529
0.262745 0.101961 0.235294
0.372549 0.113725 0.223529
0.482353 0.133333 0.203922
0.592157 0.203922 0.215686
0.745098 0.231373 0.223529
0.894118 0.258824 0.219608
1.000000 0.290196 0.215686
0.003922 0.243137 0.223529
0.113725 0.250980 0.235294
0.243137 0.239216 0.223529
0.364706 0.250980 0.219608
0.482353 0.258824 0.223529
0.603922 0.278431 0.223529
0.749020 0.294118 0.211765
0.898039 0.325490 0.203922
1.000000 0.341176 0.211765
0.003922 0.364706 0.211765
0.101961 0.360784 0.211765
0.243137 0.364706 0.203922
0.380392 0.360784 0.203922
0.490196 0.352941 0.203922
0.627451 0.364706 0.192157
0.768627 0.384314 0.192157
0.905882 0.411765 0.192157
0.996078 0.423529 0.184314
0.000000 0.494118 0.184314
0.086275 0.486275 0.188235
0.231373 0.490196 0.192157
0.368627 0.490196 0.176471
0.521569 0.486275 0.184314
0.647059 0.478431 0.168627
0.796078 0.498039 0.172549
0.921569 0.509804 0.152941
0.996078 0.521569 0.141176
0.000000 0.654902 0.156863
0.000000 0.654902 0.141176
0.211765 0.647059 0.133333
0.368627 0.647059 0.129412
0.541176 0.647059 0.133333
0.678431 0.643137 0.105882
0.807843 0.619608 0.133333
0.933333 0.627451 0.094118
1.000000 0.623529 0.050980
0.007843 0.788235 0.023529
0.007843 0.784314 0.027451
0.160784 0.784314 0.023529
0.349020 0.780392 0.007843
0.517647 0.776471 0.000000
0.682353 0.776471 0.000000
0.831373 0.788235 0.000000
0.949020 0.741176 0.000000
0.992157 0.733333 0.011765
0.000000 0.929412 0.003922
0.000000 0.913725 0.000000
0.066667 0.917647 0.003922
0.321569 0.917647 0.000000
0.494118 0.917647 0.000000
0.650980 0.913725 0.011765
0.811765 0.905882 0.000000
0.960784 0.905882 0.007843
1.000000 0.854902 0.000000
0.007843 0.996078 0.003922
0.000000 1.000000 0.000000
0.000000 0.996078 0.000000
0.262745 1.000000 0.000000
0.454902 1.000000 0.003922
0.635294 1.000000 0.000000
0.819608 1.000000 0.000000
0.964706 1.000000 0.003922
1.000000 1.000000 0.003922
0.011765 0.000000 0.356863
0.129412 0.000000 0.345098
0.243137 0.000000 0.345098
0.376471 0.000000 0.352941
0.501961 0.000000 0.349020
0.623529 0.003922 0.345098
0.756863 0.003922 0.309804
0.925490 0.000000 0.301961
1.000000 0.223529 0.321569
0.003922 0.101961 0.352941
0.121569 0.105882 0.345098
0.239216 0.098039 0.341176
0.368627 0.090196 0.349020
0.490196 0.098039 0.349020
0.615686 0.105882 0.325490
0.764706 0.098039 0.313725
0.905882 0.152941 0.317647
0.996078 0.294118 0.341176
0.000000 0.235294 0.345098
0.101961 0.235294 0.345098
0.247059 0.227451 0.345098
0.380392 0.227451 0.349020
0.490196 0.239216 0.345098
0.619608 0.239216 0.313725
0.764706 0.258824 0.337255
0.894118 0.325490 0.345098
0.992157 0.349020 0.345098
0.003922 0.356863 0.349020
0.105882 0.368627 0.341176
0.243137 0.364706 0.341176
0.368627 0.352941 0.341176
0.478431 0.364706 0.341176
0.611765 0.376471 0.337255
0.772549 0.388235 0.337255
0.909804 0.407843 0.333333
1.000000 0.427451 0.329412
0.000000 0.498039 0.329412
0.003922 0.494118 0.337255
0.211765 0.498039 0.329412
0.356863 0.494118 0.325490
0.517647 0.490196 0.325490
0.650980 0.490196 0.321569
0.796078 0.494118 0.321569
0.917647 0.513725 0.305882
0.992157 0.517647 0.301961
0.000000 0.654902 0.309804
0.003922 0.647059 0.298039
0.125490 0.650980 0.309804
0.341176 0.650980 0.294118
0.513725 0.650980 0.290196
0.682353 0.647059 0.290196
0.803922 0.619608 0.274510
0.937255 0.623529 0.282353
1.000000 0.627451 0.266667
0.011765 0.784314 0.258824
0.000000 0.796078 0.262745
0.000000 0.792157 0.250980
0.313725 0.792157 0.262745
0.490196 0.788235 0.250980
0.662745 0.784314 0.243137
0.827451 0.780392 0.247059
0.956863 0.741176 0.243137
0.996078 0.745098 0.231373
0.000000 0.921569 0.211765
0.003922 0.917647 0.211765
0.000000 0.913725 0.207843
0.278431 0.925490 0.207843
0.466667 0.913725 0.192157
0.643137 0.909804 0.192157
0.796078 0.909804 0.164706
0.964706 0.905882 0.164706
1.000000 0.858824 0.176471
0.003922 1.000000 0.105882
0.000000 0.996078 0.101961
0.007843 0.992157 0.094118
0.200000 1.000000 0.101961
0.423529 1.000000 0.066667
0.615686 1.000000 0.039216
0.800000 0.996078 0.000000
0.960784 1.000000 0.000000
1.000000 1.000000 0.003922
0.003922 0.000000 0.478431
0.121569 0.007843 0.478431
0.235294 0.000000 0.478431
0.372549 0.000000 0.470588
0.494118 0.003922 0.474510
0.627451 0.000000 0.486275
0.784314 0.000000 0.490196
0.921569 0.003922 0.486275
1.000000 0.000000 0.443137
0.011765 0.090196 0.470588
0.117647 0.101961 0.482353
0.243137 0.098039 0.474510
0.364706 0.090196 0.478431
0.509804 0.074510 0.486275
0.619608 0.031373 0.474510
0.784314 0.000000 0.490196
0.929412 0.000000 0.478431
1.000000 0.003922 0.435294
0.000000 0.227451 0.478431
0.098039 0.231373 0.482353
0.227451 0.231373 0.482353
0.384314 0.223529 0.490196
0.498039 0.219608 0.478431
0.639216 0.207843 0.486275
0.784314 0.188235 0.482353
0.933333 0.184314 0.458824
1.000000 0.196078 0.427451
0.003922 0.356863 0.490196
0.047059 0.364706 0.482353
0.215686 0.352941 0.470588
0.356863 0.352941 0.478431
0.501961 0.337255 0.482353
0.643137 0.341176 0.474510
0.792157 0.341176 0.462745
0.917647 0.356863 0.443137
1.000000 0.439216 0.478431
0.000000 0.498039 0.478431
0.003922 0.498039 0.482353
0.184314 0.501961 0.482353
0.333333 0.501961 0.474510
0.498039 0.486275 0.466667
0.639216 0.494118 0.470588
0.792157 0.509804 0.470588
0.921569 0.517647 0.462745
0.992157 0.533333 0.466667
0.011765 0.654902 0.478431
0.003922 0.647059 0.470588
0.011765 0.647059 0.454902
0.290196 0.650980 0.450980
0.474510 0.647059 0.439216
0.674510 0.647059 0.435294
0.815686 0.627451 0.447059
0.933333 0.635294 0.450980
1.000000 0.631373 0.443137
0.007843 0.792157 0.447059
0.003922 0.796078 0.439216
0.000000 0.800000 0.435294
0.223529 0.792157 0.419608
0.458824 0.792157 0.435294
0.650980 0.788235 0.419608
0.815686 0.780392 0.415686
0.945098 0.749020 0.415686
0.996078 0.741176 0.411765
0.000000 0.921569 0.388235
0.003922 0.917647 0.396078
0.000000 0.917647 0.403922
0.188235 0.921569 0.407843
0.431373 0.913725 0.388235
0.615686 0.921569 0.384314
0.788235 0.905882 0.380392
0.952941 0.898039 0.376471
0.996078 0.862745 0.372549
0.000000 1.000000 0.364706
0.003922 0.996078 0.364706
0.000000 1.000000 0.364706
0.098039 1.000000 0.360784
0.400000 0.996078 0.356863
0.584314 0.996078 0.349020
0.780392 0.996078 0.345098
0.952941 1.000000 0.333333
1.000000 0.996078 0.305882
0.000000 0.000000 0.627451
0.129412 0.003922 0.635294
0.262745 0.000000 0.627451
0.384314 0.000000 0.635294
0.525490 0.000000 0.639216
0.639216 0.007843 0.619608
0.776471 0.003922 0.631373
0.929412 0.003922 0.639216
1.000000 0.003922 0.623529
0.000000 0.082353 0.631373
0.113725 0.086275 0.635294
0.247059 0.074510 0.619608
0.376471 0.054902 0.627451
0.513725 0.023529 0.627451
0.654902 0.000000 0.627451
0.792157 0.000000 0.635294
0.921569 0.007843 0.639216
1.000000 0.003922 0.603922
0.000000 0.227451 0.627451
0.043137 0.219608 0.623529
0.227451 0.215686 0.635294
0.372549 0.211765 0.627451
0.513725 0.203922 0.631373
0.650980 0.184314 0.639216
0.792157 0.149020 0.639216
0.945098 0.098039 0.627451
0.992157 0.098039 0.603922
0.000000 0.352941 0.631373
0.000000 0.360784 0.631373
0.160784 0.341176 0.635294
0.349020 0.345098 0.619608
0.505882 0.333333 0.643137
0.650980 0.317647 0.635294
0.807843 0.301961 0.627451
0.941176 0.301961 0.619608
1.000000 0.317647 0.603922
0.003922 0.498039 0.635294
0.000000 0.498039 0.635294
0.082353 0.494118 0.647059
0.309804 0.486275 0.639216
0.482353 0.474510 0.631373
0.654902 0.470588 0.635294
0.807843 0.470588 0.623529
0.941176 0.482353 0.615686
1.000000 0.509804 0.596078
0.000000 0.650980 0.627451
0.000000 0.650980 0.627451
0.007843 0.650980 0.639216
0.262745 0.650980 0.631373
0.466667 0.650980 0.627451
0.647059 0.635294 0.615686
0.784314 0.647059 0.623529
0.913725 0.650980 0.619608
1.000000 0.662745 0.627451
0.007843 0.784314 0.611765
0.000000 0.788235 0.611765
0.007843 0.784314 0.611765
0.200000 0.796078 0.611765
0.450980 0.796078 0.607843
0.631373 0.784314 0.607843
0.807843 0.780392 0.600000
0.933333 0.764706 0.600000
1.000000 0.756863 0.607843
0.003922 0.921569 0.611765
0.000000 0.929412 0.584314
0.000000 0.921569 0.588235
0.211765 0.917647 0.600000
0.435294 0.921569 0.584314
0.603922 0.913725 0.588235
0.780392 0.913725 0.576471
0.952941 0.905882 0.584314
1.000000 0.878431 0.564706
0.003922 0.992157 0.580392
0.003922 0.996078 0.568627
0.000000 0.996078 0.572549
0.184314 0.996078 0.572549
0.415686 1.000000 0.568627
0.592157 1.000000 0.564706
0.768627 0.996078 0.556863
0.949020 1.000000 0.545098
0.996078 1.000000 0.541176
0.000000 0.000000 0.776471
0.113725 0.003922 0.780392
0.250980 0.000000 0.784314
0.396078 0.000000 0.772549
0.525490 0.000000 0.784314
0.658824 0.000000 0.768627
0.792157 0.000000 0.768627
0.929412 0.000000 0.776471
0.996078 0.003922 0.772549
0.000000 0.070588 0.776471
0.082353 0.066667 0.784314
0.239216 0.047059 0.780392
0.392157 0.019608 0.772549
0.525490 0.000000 0.784314
0.662745 0.000000 0.780392
0.792157 0.000000 0.776471
0.937255 0.000000 0.780392
0.992157 0.007843 0.776471
0.000000 0.211765 0.776471
0.000000 0.215686 0.784314
0.219608 0.207843 0.792157
0.372549 0.200000 0.776471
0.513725 0.180392 0.780392
0.666667 0.156863 0.776471
0.796078 0.117647 0.784314
0.941176 0.039216 0.780392
0.992157 0.003922 0.760784
0.000000 0.341176 0.796078
0.000000 0.341176 0.784314
0.125490 0.333333 0.780392
0.333333 0.333333 0.780392
0.498039 0.321569 0.780392
0.658824 0.305882 0.788235
0.803922 0.286275 0.784314
0.949020 0.274510 0.784314
0.996078 0.266667 0.764706
0.000000 0.482353 0.776471
0.011765 0.474510 0.788235
0.000000 0.482353 0.780392
0.270588 0.470588 0.780392
0.470588 0.454902 0.784314
0.643137 0.454902 0.784314
0.803922 0.454902 0.784314
0.949020 0.450980 0.772549
1.000000 0.458824 0.764706
0.003922 0.635294 0.776471
0.003922 0.635294 0.784314
0.003922 0.635294 0.776471
0.227451 0.631373 0.788235
0.450980 0.627451 0.780392
0.643137 0.627451 0.772549
0.800000 0.623529 0.776471
0.925490 0.631373 0.760784
1.000000 0.639216 0.745098
0.000000 0.800000 0.772549
0.000000 0.800000 0.780392
0.007843 0.792157 0.780392
0.188235 0.792157 0.780392
0.447059 0.792157 0.788235
0.631373 0.792157 0.776471
0.780392 0.780392 0.772549
0.913725 0.792157 0.780392
1.000000 0.800000 0.776471
0.000000 0.917647 0.749020
0.003922 0.921569 0.760784
0.000000 0.917647 0.749020
0.207843 0.913725 0.756863
0.454902 0.917647 0.752941
0.627451 0.909804 0.752941
0.768627 0.909804 0.752941
0.933333 0.901961 0.756863
1.000000 0.894118 0.749020
0.003922 1.000000 0.721569
0.000000 1.000000 0.733333
0.007843 0.996078 0.733333
0.274510 1.000000 0.733333
0.470588 1.000000 0.745098
0.623529 1.000000 0.741176
0.768627 1.000000 0.741176
0.933333 1.000000 0.733333
0.996078 1.000000 0.733333
0.000000 0.007843 0.905882
0.098039 0.000000 0.909804
0.258824 0.000000 0.917647
0.380392 0.000000 0.905882
0.517647 0.003922 0.905882
0.650980 0.000000 0.909804
0.796078 0.000000 0.909804
0.933333 0.003922 0.913725
1.000000 0.000000 0.913725
0.000000 0.047059 0.913725
0.058824 0.039216 0.917647
0.239216 0.023529 0.917647
0.384314 0.000000 0.913725
0.521569 0.007843 0.909804
0.658824 0.000000 0.909804
0.792157 0.003922 0.909804
0.933333 0.003922 0.905882
1.000000 0.000000 0.917647
0.000000 0.200000 0.894118
0.000000 0.200000 0.909804
0.200000 0.200000 0.913725
0.360784 0.188235 0.905882
0.521569 0.172549 0.917647
0.647059 0.149020 0.905882
0.788235 0.101961 0.913725
0.937255 0.007843 0.909804
0.996078 0.003922 0.917647
0.007843 0.325490 0.909804
0.000000 0.325490 0.929412
0.101961 0.317647 0.913725
0.325490 0.325490 0.913725
0.486275 0.309804 0.909804
0.635294 0.301961 0.917647
0.792157 0.282353 0.917647
0.929412 0.258824 0.921569
1.000000 0.243137 0.913725
0.000000 0.470588 0.921569
0.007843 0.466667 0.917647
0.000000 0.458824 0.909804
0.254902 0.450980 0.925490
0.462745 0.447059 0.917647
0.623529 0.447059 0.921569
0.776471 0.443137 0.917647
0.937255 0.435294 0.917647
1.000000 0.439216 0.894118
0.007843 0.615686 0.905882
0.011765 0.619608 0.917647
0.000000 0.615686 0.913725
0.223529 0.611765 0.913725
0.439216 0.607843 0.905882
0.627451 0.619608 0.913725
0.776471 0.619608 0.905882
0.929412 0.611765 0.913725
0.996078 0.615686 0.898039
0.007843 0.768627 0.909804
0.007843 0.764706 0.917647
0.000000 0.764706 0.905882
0.215686 0.768627 0.909804
0.447059 0.768627 0.921569
0.627451 0.768627 0.909804
0.780392 0.776471 0.909804
0.917647 0.772549 0.909804
0.996078 0.780392 0.901961
0.003922 0.913725 0.898039
0.007843 0.917647 0.901961
0.007843 0.917647 0.894118
0.215686 0.909804 0.909804
0.450980 0.917647 0.901961
0.623529 0.917647 0.905882
0.776471 0.909804 0.905882
0.909804 0.905882 0.898039
0.996078 0.921569 0.905882
0.000000 0.996078 0.886275
0.003922 1.000000 0.878431
0.000000 0.996078 0.882353
0.286275 1.000000 0.870588
0.486275 0.996078 0.878431
0.650980 1.000000 0.882353
0.803922 1.000000 0.894118
0.913725 1.000000 0.901961
1.000000 1.000000 0.905882
0.000000 0.000000 0.996078
0.070588 0.003922 1.000000
0.239216 0.000000 0.996078
0.372549 0.000000 0.988235
0.505882 0.000000 0.992157
0.639216 0.000000 1.000000
0.776471 0.000000 1.000000
0.909804 0.003922 1.000000
0.992157 0.000000 1.000000
0.000000 0.031373 1.000000
0.023529 0.015686 1.000000
0.235294 0.000000 0.996078
0.372549 0.000000 1.000000
0.517647 0.000000 1.000000
0.639216 0.000000 1.000000
0.768627 0.003922 1.000000
0.909804 0.000000 0.996078
0.996078 0.000000 1.000000
0.015686 0.192157 1.000000
0.000000 0.200000 0.996078
0.184314 0.192157 1.000000
0.352941 0.180392 1.000000
0.494118 0.160784 1.000000
0.635294 0.145098 1.000000
0.772549 0.094118 1.000000
0.898039 0.011765 1.000000
0.992157 0.003922 0.988235
0.003922 0.317647 1.000000
0.011765 0.313725 1.000000
0.094118 0.313725 1.000000
0.321569 0.313725 0.992157
0.478431 0.309804 1.000000
0.619608 0.294118 1.000000
0.760784 0.274510 0.996078
0.905882 0.250980 1.000000
0.992157 0.235294 1.000000
0.000000 0.447059 0.996078
0.000000 0.443137 1.000000
0.000000 0.435294 0.996078
0.254902 0.443137 1.000000
0.447059 0.439216 1.000000
0.607843 0.439216 1.000000
0.756863 0.427451 1.000000
0.898039 0.431373 1.000000
0.996078 0.427451 0.996078
0.007843 0.580392 1.000000
0.003922 0.592157 1.000000
0.003922 0.592157 1.000000
0.227451 0.600000 1.000000
0.447059 0.600000 0.996078
0.607843 0.607843 1.000000
0.752941 0.603922 0.992157
0.890196 0.607843 1.000000
1.000000 0.603922 1.000000
0.003922 0.745098 1.000000
0.007843 0.737255 1.000000
0.007843 0.737255 1.000000
0.239216 0.745098 1.000000
0.470588 0.749020 1.000000
0.623529 0.756863 1.000000
0.760784 0.760784 0.996078
0.890196 0.768627 1.000000
1.000000 0.764706 1.000000
0.003922 0.886275 1.000000
0.000000 0.882353 1.000000
0.000000 0.878431 1.000000
0.266667 0.878431 1.000000
0.470588 0.890196 1.000000
0.631373 0.886275 0.996078
0.772549 0.898039 0.996078
0.901961 0.901961 0.996078
1.000000 0.905882 1.000000
0.000000 1.000000 0.988235
0.000000 1.000000 1.000000
0.000000 1.000000 1.000000
0.294118 1.000000 0.988235
0.490196 1.000000 1.000000
0.654902 1.000000 0.996078
0.811765 1.000000 0.992157
0.945098 1.000000 1.000000
1.000000 0.992157 0.996078
