lut_library_archive/removed_20260629/50个风景lut/50个风景lut31.cube
# 版权归凌孟成所有，侵权必究
TITLE "Jungle LUT #31"
#LUT size
LUT_3D_SIZE 25
#LUT data points
0.054902 0.058824 0.039216
0.058824 0.062745 0.039216
0.082353 0.062745 0.047059
0.125490 0.054902 0.047059
0.176471 0.043137 0.047059
0.215686 0.035294 0.047059
0.254902 0.035294 0.054902
0.301961 0.031373 0.058824
0.325490 0.043137 0.058824
0.364706 0.050980 0.062745
0.403922 0.070588 0.062745
0.439216 0.082353 0.062745
0.474510 0.094118 0.070588
0.509804 0.105882 0.078431
0.541176 0.125490 0.082353
0.576471 0.129412 0.090196
0.615686 0.149020 0.094118
0.658824 0.156863 0.113725
0.694118 0.168627 0.125490
0.733333 0.188235 0.137255
0.784314 0.200000 0.137255
0.827451 0.211765 0.145098
0.882353 0.227451 0.156863
0.929412 0.247059 0.180392
0.972549 0.262745 0.196078
0.054902 0.058824 0.039216
0.066667 0.062745 0.043137
0.090196 0.062745 0.039216
0.137255 0.062745 0.047059
0.180392 0.066667 0.050980
0.219608 0.054902 0.058824
0.254902 0.066667 0.058824
0.298039 0.070588 0.058824
0.329412 0.074510 0.058824
0.372549 0.086275 0.058824
0.407843 0.094118 0.058824
0.443137 0.105882 0.062745
0.462745 0.113725 0.066667
0.501961 0.125490 0.078431
0.541176 0.133333 0.090196
0.576471 0.149020 0.098039
0.615686 0.152941 0.105882
0.650980 0.168627 0.109804
0.701961 0.184314 0.133333
0.741176 0.196078 0.137255
0.788235 0.211765 0.145098
0.831373 0.227451 0.156863
0.878431 0.235294 0.160784
0.929412 0.254902 0.184314
0.964706 0.266667 0.196078
0.023529 0.105882 0.031373
0.047059 0.098039 0.031373
0.105882 0.101961 0.031373
0.133333 0.098039 0.039216
0.172549 0.098039 0.043137
0.211765 0.098039 0.043137
0.250980 0.098039 0.047059
0.294118 0.105882 0.050980
0.333333 0.109804 0.050980
0.372549 0.113725 0.050980
0.403922 0.117647 0.050980
0.435294 0.125490 0.058824
0.478431 0.137255 0.070588
0.513725 0.137255 0.074510
0.537255 0.156863 0.082353
0.576471 0.164706 0.098039
0.611765 0.168627 0.098039
0.647059 0.184314 0.113725
0.701961 0.200000 0.125490
0.733333 0.207843 0.133333
0.788235 0.223529 0.149020
0.835294 0.231373 0.160784
0.882353 0.247059 0.164706
0.921569 0.270588 0.184314
0.972549 0.282353 0.200000
0.003922 0.141176 0.023529
0.047059 0.137255 0.019608
0.098039 0.141176 0.023529
0.137255 0.141176 0.019608
0.180392 0.137255 0.019608
0.215686 0.137255 0.039216
0.258824 0.141176 0.047059
0.286275 0.141176 0.039216
0.325490 0.137255 0.047059
0.368627 0.149020 0.058824
0.407843 0.152941 0.066667
0.435294 0.152941 0.058824
0.474510 0.160784 0.070588
0.501961 0.168627 0.086275
0.537255 0.176471 0.094118
0.576471 0.184314 0.094118
0.611765 0.196078 0.101961
0.654902 0.207843 0.113725
0.698039 0.219608 0.129412
0.737255 0.227451 0.133333
0.780392 0.243137 0.141176
0.827451 0.250980 0.152941
0.874510 0.266667 0.164706
0.933333 0.278431 0.176471
0.964706 0.286275 0.192157
0.015686 0.180392 0.000000
0.047059 0.188235 0.007843
0.094118 0.176471 0.007843
0.133333 0.184314 0.003922
0.184314 0.180392 0.000000
0.215686 0.180392 0.011765
0.250980 0.176471 0.011765
0.294118 0.176471 0.027451
0.329412 0.180392 0.039216
0.364706 0.184314 0.054902
0.400000 0.184314 0.062745
0.435294 0.188235 0.066667
0.466667 0.196078 0.074510
0.505882 0.196078 0.078431
0.541176 0.200000 0.090196
0.580392 0.211765 0.101961
0.615686 0.219608 0.109804
0.647059 0.227451 0.117647
0.694118 0.243137 0.133333
0.737255 0.254902 0.141176
0.780392 0.262745 0.145098
0.831373 0.270588 0.164706
0.874510 0.282353 0.168627
0.925490 0.294118 0.180392
0.972549 0.309804 0.196078
0.015686 0.223529 0.003922
0.054902 0.223529 0.003922
0.094118 0.223529 0.000000
0.137255 0.219608 0.000000
0.180392 0.215686 0.000000
0.223529 0.219608 0.000000
0.262745 0.219608 0.007843
0.301961 0.219608 0.011765
0.337255 0.215686 0.031373
0.368627 0.215686 0.047059
0.400000 0.223529 0.062745
0.435294 0.223529 0.082353
0.470588 0.223529 0.086275
0.501961 0.227451 0.094118
0.541176 0.235294 0.094118
0.580392 0.243137 0.105882
0.619608 0.247059 0.121569
0.658824 0.254902 0.129412
0.698039 0.266667 0.129412
0.741176 0.278431 0.141176
0.792157 0.290196 0.152941
0.831373 0.298039 0.164706
0.882353 0.309804 0.176471
0.929412 0.321569 0.180392
0.988235 0.329412 0.188235
0.015686 0.270588 0.003922
0.062745 0.254902 0.000000
0.101961 0.266667 0.007843
0.133333 0.258824 0.003922
0.168627 0.258824 0.000000
0.223529 0.266667 0.007843
0.250980 0.262745 0.000000
0.298039 0.258824 0.000000
0.337255 0.254902 0.007843
0.372549 0.250980 0.027451
0.400000 0.254902 0.050980
0.439216 0.254902 0.074510
0.466667 0.258824 0.086275
0.501961 0.262745 0.090196
0.537255 0.266667 0.098039
0.576471 0.274510 0.109804
0.611765 0.278431 0.117647
0.654902 0.290196 0.129412
0.698039 0.301961 0.137255
0.741176 0.301961 0.145098
0.792157 0.317647 0.152941
0.835294 0.321569 0.168627
0.878431 0.333333 0.172549
0.925490 0.341176 0.176471
0.976471 0.360784 0.200000
0.027451 0.294118 0.007843
0.062745 0.298039 0.007843
0.098039 0.298039 0.000000
0.141176 0.298039 0.011765
0.176471 0.294118 0.003922
0.211765 0.290196 0.003922
0.250980 0.294118 0.000000
0.294118 0.294118 0.003922
0.341176 0.294118 0.003922
0.368627 0.290196 0.003922
0.400000 0.286275 0.019608
0.431373 0.290196 0.047059
0.458824 0.294118 0.074510
0.494118 0.290196 0.094118
0.529412 0.301961 0.117647
0.572549 0.305882 0.121569
0.611765 0.313725 0.121569
0.650980 0.321569 0.137255
0.698039 0.329412 0.149020
0.737255 0.337255 0.149020
0.784314 0.345098 0.156863
0.831373 0.352941 0.168627
0.886275 0.364706 0.172549
0.933333 0.376471 0.196078
0.972549 0.388235 0.200000
0.039216 0.329412 0.000000
0.066667 0.333333 0.000000
0.098039 0.333333 0.000000
0.133333 0.329412 0.000000
0.184314 0.333333 0.007843
0.203922 0.329412 0.000000
0.250980 0.337255 0.003922
0.298039 0.337255 0.000000
0.333333 0.329412 0.003922
0.368627 0.329412 0.000000
0.396078 0.325490 0.000000
0.427451 0.321569 0.011765
0.470588 0.325490 0.050980
0.501961 0.325490 0.078431
0.533333 0.329412 0.101961
0.572549 0.333333 0.121569
0.607843 0.345098 0.137255
0.647059 0.352941 0.145098
0.690196 0.356863 0.145098
0.737255 0.364706 0.152941
0.788235 0.376471 0.160784
0.827451 0.388235 0.168627
0.882353 0.392157 0.180392
0.921569 0.400000 0.192157
0.968627 0.415686 0.203922
0.035294 0.360784 0.000000
0.070588 0.364706 0.000000
0.101961 0.364706 0.000000
0.145098 0.360784 0.000000
0.176471 0.356863 0.000000
0.211765 0.364706 0.000000
0.250980 0.364706 0.000000
0.286275 0.368627 0.000000
0.329412 0.364706 0.000000
0.364706 0.360784 0.000000
0.400000 0.356863 0.000000
0.439216 0.356863 0.007843
0.462745 0.356863 0.007843
0.501961 0.356863 0.043137
0.529412 0.356863 0.078431
0.564706 0.364706 0.109804
0.603922 0.368627 0.125490
0.647059 0.380392 0.141176
0.686275 0.392157 0.145098
0.733333 0.400000 0.149020
0.792157 0.407843 0.168627
0.839216 0.415686 0.180392
0.878431 0.423529 0.184314
0.921569 0.431373 0.188235
0.972549 0.447059 0.207843
0.050980 0.396078 0.000000
0.078431 0.392157 0.000000
0.105882 0.400000 0.003922
0.137255 0.403922 0.007843
0.172549 0.400000 0.007843
0.211765 0.392157 0.003922
0.247059 0.396078 0.000000
0.282353 0.403922 0.000000
0.325490 0.396078 0.003922
0.364706 0.396078 0.007843
0.403922 0.396078 0.000000
0.431373 0.396078 0.000000
0.466667 0.392157 0.000000
0.501961 0.392157 0.011765
0.533333 0.388235 0.043137
0.580392 0.396078 0.082353
0.607843 0.403922 0.105882
0.650980 0.419608 0.129412
0.698039 0.423529 0.149020
0.741176 0.431373 0.168627
0.788235 0.439216 0.172549
0.835294 0.447059 0.180392
0.878431 0.458824 0.184314
0.921569 0.474510 0.192157
0.968627 0.478431 0.219608
0.050980 0.435294 0.000000
0.082353 0.423529 0.003922
0.117647 0.427451 0.000000
0.137255 0.423529 0.000000
0.180392 0.427451 0.000000
0.200000 0.427451 0.000000
0.250980 0.431373 0.003922
0.278431 0.427451 0.000000
0.313725 0.427451 0.000000
0.352941 0.431373 0.000000
0.388235 0.423529 0.000000
0.431373 0.427451 0.003922
0.466667 0.423529 0.000000
0.501961 0.419608 0.000000
0.545098 0.419608 0.000000
0.564706 0.427451 0.035294
0.611765 0.431373 0.058824
0.654902 0.443137 0.098039
0.698039 0.454902 0.129412
0.741176 0.462745 0.156863
0.784314 0.474510 0.172549
0.831373 0.482353 0.176471
0.874510 0.494118 0.188235
0.921569 0.509804 0.192157
0.972549 0.509804 0.219608
0.062745 0.470588 0.000000
0.082353 0.466667 0.000000
0.113725 0.454902 0.000000
0.137255 0.462745 0.000000
0.168627 0.462745 0.000000
0.207843 0.462745 0.000000
0.243137 0.458824 0.000000
0.274510 0.458824 0.000000
0.313725 0.462745 0.000000
0.345098 0.458824 0.000000
0.380392 0.454902 0.000000
0.419608 0.462745 0.000000
0.462745 0.458824 0.003922
0.501961 0.458824 0.007843
0.537255 0.454902 0.000000
0.576471 0.462745 0.000000
0.611765 0.466667 0.007843
0.647059 0.474510 0.054902
0.698039 0.478431 0.098039
0.737255 0.490196 0.117647
0.792157 0.505882 0.145098
0.835294 0.517647 0.168627
0.878431 0.525490 0.188235
0.921569 0.537255 0.211765
0.976471 0.545098 0.219608
0.082353 0.498039 0.003922
0.082353 0.498039 0.003922
0.113725 0.490196 0.000000
0.141176 0.494118 0.000000
0.176471 0.498039 0.000000
0.211765 0.494118 0.000000
0.243137 0.498039 0.003922
0.274510 0.494118 0.000000
0.301961 0.494118 0.000000
0.345098 0.498039 0.000000
0.384314 0.498039 0.003922
0.427451 0.490196 0.003922
0.466667 0.490196 0.011765
0.494118 0.498039 0.000000
0.529412 0.498039 0.000000
0.568627 0.494118 0.000000
0.607843 0.501961 0.000000
0.654902 0.505882 0.007843
0.694118 0.513725 0.035294
0.741176 0.521569 0.078431
0.784314 0.533333 0.109804
0.835294 0.549020 0.149020
0.886275 0.556863 0.172549
0.921569 0.568627 0.200000
0.968627 0.580392 0.215686
0.070588 0.529412 0.007843
0.101961 0.533333 0.003922
0.113725 0.529412 0.000000
0.149020 0.533333 0.000000
0.172549 0.533333 0.000000
0.211765 0.533333 0.000000
0.247059 0.529412 0.000000
0.278431 0.525490 0.003922
0.309804 0.529412 0.000000
0.349020 0.537255 0.007843
0.392157 0.533333 0.007843
0.431373 0.533333 0.003922
0.466667 0.529412 0.000000
0.501961 0.533333 0.003922
0.537255 0.529412 0.000000
0.568627 0.533333 0.000000
0.611765 0.533333 0.003922
0.654902 0.541176 0.007843
0.698039 0.545098 0.000000
0.745098 0.556863 0.000000
0.792157 0.568627 0.062745
0.843137 0.576471 0.094118
0.882353 0.588235 0.129412
0.937255 0.596078 0.176471
0.972549 0.600000 0.200000
0.078431 0.580392 0.003922
0.098039 0.576471 0.000000
0.125490 0.576471 0.000000
0.149020 0.580392 0.000000
0.172549 0.572549 0.000000
0.207843 0.576471 0.000000
0.247059 0.576471 0.000000
0.282353 0.576471 0.007843
0.313725 0.580392 0.000000
0.352941 0.580392 0.003922
0.388235 0.576471 0.003922
0.427451 0.576471 0.000000
0.466667 0.576471 0.000000
0.505882 0.576471 0.000000
0.545098 0.576471 0.000000
0.580392 0.576471 0.011765
0.623529 0.580392 0.000000
0.662745 0.584314 0.003922
0.701961 0.584314 0.003922
0.745098 0.588235 0.000000
0.796078 0.603922 0.000000
0.847059 0.611765 0.031373
0.890196 0.619608 0.082353
0.937255 0.623529 0.141176
0.976471 0.639216 0.164706
0.078431 0.615686 0.000000
0.086275 0.615686 0.000000
0.125490 0.615686 0.000000
0.133333 0.619608 0.000000
0.172549 0.619608 0.003922
0.211765 0.623529 0.007843
0.247059 0.615686 0.000000
0.282353 0.615686 0.003922
0.321569 0.615686 0.007843
0.356863 0.619608 0.003922
0.396078 0.619608 0.003922
0.435294 0.619608 0.000000
0.466667 0.623529 0.000000
0.505882 0.623529 0.000000
0.541176 0.619608 0.000000
0.584314 0.623529 0.000000
0.623529 0.623529 0.003922
0.658824 0.619608 0.000000
0.701961 0.623529 0.000000
0.752941 0.627451 0.000000
0.800000 0.635294 0.000000
0.847059 0.647059 0.000000
0.894118 0.654902 0.003922
0.925490 0.662745 0.070588
0.984314 0.666667 0.113725
0.058824 0.658824 0.000000
0.086275 0.654902 0.007843
0.113725 0.666667 0.003922
0.133333 0.666667 0.000000
0.168627 0.662745 0.000000
0.207843 0.662745 0.000000
0.247059 0.658824 0.003922
0.282353 0.662745 0.000000
0.321569 0.662745 0.007843
0.356863 0.658824 0.000000
0.396078 0.658824 0.000000
0.439216 0.662745 0.007843
0.474510 0.658824 0.000000
0.513725 0.658824 0.000000
0.552941 0.666667 0.007843
0.588235 0.662745 0.000000
0.631373 0.670588 0.000000
0.670588 0.666667 0.000000
0.709804 0.658824 0.000000
0.752941 0.666667 0.000000
0.803922 0.670588 0.003922
0.843137 0.670588 0.007843
0.886275 0.690196 0.003922
0.937255 0.690196 0.000000
0.988235 0.705882 0.031373
0.027451 0.705882 0.000000
0.066667 0.705882 0.003922
0.094118 0.709804 0.000000
0.125490 0.709804 0.000000
0.164706 0.709804 0.000000
0.200000 0.705882 0.000000
0.243137 0.709804 0.003922
0.282353 0.709804 0.000000
0.321569 0.709804 0.007843
0.368627 0.709804 0.007843
0.400000 0.713725 0.000000
0.435294 0.705882 0.000000
0.474510 0.713725 0.003922
0.517647 0.713725 0.000000
0.556863 0.709804 0.007843
0.592157 0.705882 0.000000
0.635294 0.705882 0.000000
0.674510 0.705882 0.000000
0.717647 0.709804 0.000000
0.752941 0.713725 0.000000
0.792157 0.713725 0.000000
0.843137 0.717647 0.007843
0.878431 0.721569 0.000000
0.929412 0.737255 0.000000
0.976471 0.737255 0.000000
0.000000 0.756863 0.000000
0.039216 0.749020 0.000000
0.082353 0.749020 0.007843
0.113725 0.749020 0.000000
0.152941 0.749020 0.000000
0.196078 0.756863 0.000000
0.239216 0.760784 0.003922
0.278431 0.760784 0.000000
0.317647 0.760784 0.000000
0.356863 0.760784 0.000000
0.400000 0.760784 0.000000
0.439216 0.756863 0.000000
0.470588 0.756863 0.000000
0.513725 0.760784 0.000000
0.552941 0.752941 0.003922
0.596078 0.756863 0.000000
0.639216 0.756863 0.000000
0.678431 0.756863 0.000000
0.717647 0.756863 0.000000
0.760784 0.760784 0.000000
0.803922 0.752941 0.000000
0.847059 0.756863 0.003922
0.890196 0.772549 0.011765
0.933333 0.768627 0.000000
0.984314 0.780392 0.007843
0.000000 0.803922 0.003922
0.015686 0.800000 0.000000
0.047059 0.803922 0.000000
0.098039 0.803922 0.000000
0.145098 0.807843 0.003922
0.192157 0.807843 0.003922
0.231373 0.807843 0.003922
0.270588 0.807843 0.000000
0.321569 0.803922 0.003922
0.360784 0.803922 0.003922
0.403922 0.807843 0.003922
0.439216 0.803922 0.000000
0.482353 0.803922 0.000000
0.525490 0.807843 0.000000
0.564706 0.807843 0.000000
0.600000 0.811765 0.000000
0.643137 0.807843 0.000000
0.682353 0.807843 0.000000
0.721569 0.807843 0.000000
0.772549 0.811765 0.000000
0.815686 0.807843 0.000000
0.854902 0.803922 0.007843
0.894118 0.807843 0.000000
0.941176 0.815686 0.003922
0.980392 0.815686 0.000000
0.003922 0.847059 0.000000
0.007843 0.847059 0.015686
0.003922 0.843137 0.003922
0.074510 0.854902 0.003922
0.129412 0.854902 0.000000
0.176471 0.847059 0.000000
0.215686 0.850980 0.000000
0.270588 0.854902 0.000000
0.317647 0.854902 0.000000
0.360784 0.850980 0.000000
0.400000 0.850980 0.000000
0.443137 0.847059 0.000000
0.482353 0.850980 0.000000
0.525490 0.854902 0.000000
0.560784 0.858824 0.000000
0.611765 0.850980 0.000000
0.650980 0.850980 0.000000
0.694118 0.854902 0.000000
0.733333 0.854902 0.000000
0.776471 0.854902 0.000000
0.819608 0.858824 0.000000
0.866667 0.854902 0.000000
0.909804 0.858824 0.003922
0.941176 0.862745 0.003922
0.992157 0.862745 0.003922
0.003922 0.898039 0.000000
0.000000 0.898039 0.000000
0.003922 0.901961 0.000000
0.007843 0.894118 0.007843
0.101961 0.905882 0.000000
0.152941 0.901961 0.011765
0.215686 0.901961 0.000000
0.258824 0.898039 0.000000
0.305882 0.898039 0.000000
0.345098 0.898039 0.000000
0.396078 0.901961 0.000000
0.439216 0.905882 0.003922
0.474510 0.901961 0.000000
0.517647 0.905882 0.000000
0.572549 0.898039 0.000000
0.611765 0.898039 0.000000
0.654902 0.901961 0.003922
0.694118 0.901961 0.000000
0.733333 0.901961 0.000000
0.780392 0.905882 0.000000
0.819608 0.901961 0.003922
0.858824 0.905882 0.003922
0.909804 0.898039 0.000000
0.956863 0.909804 0.000000
0.996078 0.909804 0.000000
0.007843 0.941176 0.007843
0.000000 0.949020 0.000000
0.000000 0.952941 0.000000
0.000000 0.949020 0.000000
0.058824 0.945098 0.003922
0.141176 0.945098 0.000000
0.188235 0.945098 0.000000
0.239216 0.949020 0.000000
0.294118 0.945098 0.003922
0.345098 0.945098 0.003922
0.396078 0.949020 0.000000
0.435294 0.949020 0.000000
0.478431 0.952941 0.007843
0.533333 0.945098 0.000000
0.568627 0.949020 0.007843
0.603922 0.949020 0.000000
0.654902 0.949020 0.000000
0.701961 0.952941 0.000000
0.741176 0.949020 0.000000
0.780392 0.952941 0.000000
0.819608 0.952941 0.000000
0.870588 0.945098 0.003922
0.921569 0.952941 0.000000
0.964706 0.945098 0.000000
1.000000 0.952941 0.003922
0.003922 0.996078 0.000000
0.000000 0.996078 0.000000
0.000000 0.992157 0.003922
0.000000 0.996078 0.000000
0.003922 0.996078 0.000000
0.090196 0.992157 0.007843
0.180392 0.988235 0.007843
0.243137 0.988235 0.007843
0.286275 0.996078 0.003922
0.329412 1.000000 0.003922
0.384314 1.000000 0.007843
0.435294 0.992157 0.003922
0.478431 1.000000 0.000000
0.517647 1.000000 0.003922
0.560784 0.996078 0.000000
0.607843 1.000000 0.000000
0.654902 0.996078 0.000000
0.701961 1.000000 0.000000
0.741176 1.000000 0.000000
0.780392 1.000000 0.000000
0.831373 1.000000 0.000000
0.878431 1.000000 0.003922
0.913725 1.000000 0.000000
0.960784 1.000000 0.000000
0.992157 1.000000 0.000000
0.062745 0.066667 0.047059
0.058824 0.062745 0.043137
0.078431 0.058824 0.043137
0.129412 0.050980 0.054902
0.180392 0.039216 0.054902
0.219608 0.039216 0.050980
0.254902 0.043137 0.050980
0.305882 0.050980 0.066667
0.333333 0.066667 0.062745
0.368627 0.070588 0.070588
0.411765 0.082353 0.074510
0.443137 0.094118 0.086275
0.482353 0.098039 0.094118
0.505882 0.109804 0.094118
0.537255 0.129412 0.101961
0.576471 0.145098 0.109804
0.615686 0.149020 0.125490
0.658824 0.160784 0.133333
0.701961 0.176471 0.133333
0.749020 0.192157 0.145098
0.788235 0.203922 0.149020
0.835294 0.215686 0.164706
0.878431 0.231373 0.176471
0.929412 0.250980 0.188235
0.976471 0.258824 0.196078
0.058824 0.058824 0.050980
0.058824 0.062745 0.039216
0.101961 0.066667 0.047059
0.137255 0.062745 0.047059
0.184314 0.066667 0.058824
0.211765 0.074510 0.066667
0.250980 0.074510 0.054902
0.294118 0.086275 0.062745
0.333333 0.086275 0.066667
0.372549 0.098039 0.070588
0.407843 0.105882 0.082353
0.435294 0.109804 0.086275
0.462745 0.121569 0.086275
0.501961 0.141176 0.098039
0.537255 0.145098 0.105882
0.576471 0.160784 0.109804
0.611765 0.164706 0.121569
0.654902 0.176471 0.133333
0.694118 0.188235 0.137255
0.741176 0.203922 0.149020
0.784314 0.215686 0.156863
0.835294 0.231373 0.160784
0.878431 0.243137 0.164706
0.925490 0.254902 0.184314
0.976471 0.266667 0.192157
0.019608 0.101961 0.043137
0.062745 0.105882 0.050980
0.098039 0.101961 0.039216
0.137255 0.098039 0.050980
0.176471 0.098039 0.054902
0.219608 0.101961 0.054902
0.254902 0.113725 0.058824
0.294118 0.113725 0.062745
0.337255 0.117647 0.066667
0.372549 0.121569 0.074510
0.407843 0.125490 0.078431
0.439216 0.133333 0.082353
0.470588 0.145098 0.090196
0.513725 0.152941 0.094118
0.537255 0.160784 0.098039
0.572549 0.168627 0.113725
0.615686 0.176471 0.129412
0.650980 0.192157 0.125490
0.694118 0.203922 0.133333
0.737255 0.219608 0.141176
0.788235 0.227451 0.156863
0.831373 0.239216 0.164706
0.878431 0.258824 0.184314
0.917647 0.258824 0.176471
0.972549 0.282353 0.200000
0.023529 0.133333 0.035294
0.054902 0.141176 0.043137
0.105882 0.145098 0.039216
0.152941 0.137255 0.031373
0.184314 0.145098 0.039216
0.219608 0.137255 0.054902
0.250980 0.137255 0.066667
0.286275 0.141176 0.066667
0.325490 0.149020 0.066667
0.368627 0.152941 0.070588
0.400000 0.160784 0.078431
0.431373 0.164706 0.082353
0.466667 0.164706 0.086275
0.501961 0.180392 0.094118
0.537255 0.180392 0.105882
0.572549 0.188235 0.105882
0.611765 0.200000 0.117647
0.650980 0.207843 0.137255
0.694118 0.219608 0.152941
0.745098 0.231373 0.152941
0.784314 0.243137 0.160784
0.831373 0.254902 0.156863
0.874510 0.262745 0.172549
0.921569 0.278431 0.200000
0.964706 0.294118 0.184314
0.015686 0.180392 0.035294
0.054902 0.180392 0.019608
0.098039 0.184314 0.031373
0.137255 0.176471 0.031373
0.188235 0.180392 0.031373
0.223529 0.184314 0.043137
0.258824 0.184314 0.054902
0.290196 0.188235 0.058824
0.325490 0.180392 0.066667
0.364706 0.188235 0.074510
0.392157 0.192157 0.078431
0.427451 0.196078 0.078431
0.474510 0.200000 0.098039
0.505882 0.203922 0.101961
0.541176 0.211765 0.101961
0.572549 0.223529 0.113725
0.603922 0.227451 0.129412
0.643137 0.235294 0.137255
0.690196 0.243137 0.141176
0.729412 0.254902 0.149020
0.780392 0.266667 0.156863
0.827451 0.274510 0.168627
0.878431 0.294118 0.176471
0.925490 0.294118 0.180392
0.968627 0.317647 0.200000
0.027451 0.219608 0.031373
0.058824 0.223529 0.027451
0.098039 0.223529 0.027451
0.149020 0.227451 0.027451
0.188235 0.215686 0.015686
0.227451 0.219608 0.027451
0.262745 0.223529 0.031373
0.305882 0.219608 0.035294
0.333333 0.219608 0.062745
0.364706 0.215686 0.070588
0.392157 0.219608 0.082353
0.431373 0.223529 0.090196
0.466667 0.231373 0.098039
0.498039 0.239216 0.105882
0.533333 0.243137 0.113725
0.572549 0.247059 0.121569
0.615686 0.250980 0.129412
0.650980 0.254902 0.137255
0.694118 0.266667 0.145098
0.733333 0.278431 0.156863
0.784314 0.290196 0.164706
0.835294 0.301961 0.176471
0.882353 0.309804 0.180392
0.929412 0.325490 0.192157
0.976471 0.333333 0.188235
0.027451 0.254902 0.023529
0.066667 0.262745 0.015686
0.101961 0.266667 0.015686
0.141176 0.266667 0.019608
0.176471 0.262745 0.019608
0.215686 0.254902 0.015686
0.266667 0.266667 0.015686
0.298039 0.258824 0.011765
0.333333 0.258824 0.023529
0.372549 0.254902 0.050980
0.400000 0.258824 0.070588
0.431373 0.254902 0.094118
0.462745 0.258824 0.105882
0.498039 0.266667 0.117647
0.537255 0.270588 0.117647
0.572549 0.278431 0.125490
0.611765 0.282353 0.133333
0.654902 0.294118 0.149020
0.698039 0.298039 0.149020
0.741176 0.301961 0.152941
0.780392 0.313725 0.164706
0.831373 0.325490 0.172549
0.882353 0.337255 0.192157
0.933333 0.349020 0.200000
0.976471 0.352941 0.200000
0.035294 0.301961 0.015686
0.050980 0.298039 0.011765
0.101961 0.298039 0.007843
0.141176 0.301961 0.003922
0.168627 0.298039 0.011765
0.227451 0.301961 0.000000
0.254902 0.298039 0.000000
0.301961 0.294118 0.003922
0.341176 0.294118 0.011765
0.380392 0.290196 0.027451
0.407843 0.282353 0.043137
0.431373 0.286275 0.074510
0.462745 0.290196 0.105882
0.498039 0.298039 0.129412
0.529412 0.301961 0.125490
0.568627 0.305882 0.129412
0.615686 0.313725 0.141176
0.650980 0.321569 0.149020
0.694118 0.333333 0.156863
0.737255 0.337255 0.156863
0.784314 0.345098 0.164706
0.835294 0.356863 0.172549
0.882353 0.356863 0.172549
0.921569 0.380392 0.200000
0.964706 0.384314 0.203922
0.035294 0.329412 0.003922
0.066667 0.341176 0.003922
0.101961 0.329412 0.000000
0.133333 0.337255 0.003922
0.180392 0.337255 0.000000
0.203922 0.329412 0.000000
0.247059 0.333333 0.000000
0.294118 0.333333 0.000000
0.337255 0.325490 0.007843
0.372549 0.325490 0.003922
0.403922 0.321569 0.003922
0.435294 0.321569 0.031373
0.470588 0.313725 0.070588
0.494118 0.329412 0.109804
0.529412 0.329412 0.121569
0.564706 0.341176 0.141176
0.603922 0.345098 0.141176
0.639216 0.352941 0.152941
0.694118 0.356863 0.156863
0.741176 0.364706 0.164706
0.792157 0.372549 0.160784
0.827451 0.384314 0.180392
0.870588 0.392157 0.176471
0.921569 0.400000 0.192157
0.964706 0.411765 0.203922
0.050980 0.360784 0.000000
0.078431 0.364706 0.007843
0.105882 0.368627 0.003922
0.133333 0.364706 0.000000
0.180392 0.360784 0.003922
0.207843 0.368627 0.000000
0.235294 0.368627 0.000000
0.270588 0.364706 0.000000
0.325490 0.360784 0.000000
0.364706 0.360784 0.000000
0.400000 0.356863 0.000000
0.435294 0.360784 0.000000
0.462745 0.352941 0.027451
0.501961 0.352941 0.066667
0.533333 0.356863 0.101961
0.568627 0.364706 0.129412
0.607843 0.372549 0.145098
0.643137 0.384314 0.149020
0.690196 0.392157 0.156863
0.741176 0.403922 0.164706
0.792157 0.407843 0.168627
0.843137 0.419608 0.184314
0.878431 0.423529 0.192157
0.929412 0.435294 0.207843
0.972549 0.443137 0.223529
0.054902 0.400000 0.007843
0.082353 0.396078 0.007843
0.105882 0.400000 0.003922
0.137255 0.403922 0.007843
0.172549 0.400000 0.000000
0.211765 0.400000 0.000000
0.247059 0.396078 0.000000
0.286275 0.396078 0.000000
0.313725 0.392157 0.003922
0.352941 0.392157 0.003922
