lut_library_archive/removed_20260629/50个风景lut/50个风景lut12.cube
# 版权归凌孟成所有，侵权必究
TITLE "Jungle LUT #12"
#LUT size
LUT_3D_SIZE 25
#LUT data points
0.000000 0.000000 0.000000
0.015686 0.000000 0.000000
0.074510 0.000000 0.007843
0.117647 0.000000 0.000000
0.164706 0.000000 0.003922
0.203922 0.003922 0.000000
0.250980 0.000000 0.000000
0.298039 0.000000 0.000000
0.337255 0.000000 0.003922
0.376471 0.000000 0.003922
0.427451 0.003922 0.003922
0.470588 0.000000 0.003922
0.517647 0.003922 0.003922
0.556863 0.003922 0.000000
0.607843 0.003922 0.003922
0.650980 0.003922 0.000000
0.694118 0.000000 0.000000
0.745098 0.000000 0.000000
0.788235 0.000000 0.000000
0.827451 0.000000 0.000000
0.878431 0.000000 0.000000
0.917647 0.003922 0.000000
0.964706 0.003922 0.000000
0.996078 0.000000 0.000000
0.996078 0.003922 0.000000
0.003922 0.023529 0.000000
0.023529 0.027451 0.000000
0.066667 0.035294 0.000000
0.125490 0.027451 0.007843
0.156863 0.019608 0.003922
0.200000 0.031373 0.000000
0.250980 0.027451 0.000000
0.294118 0.023529 0.003922
0.337255 0.019608 0.003922
0.388235 0.023529 0.003922
0.427451 0.023529 0.003922
0.470588 0.019608 0.000000
0.517647 0.019608 0.000000
0.564706 0.019608 0.000000
0.603922 0.011765 0.000000
0.654902 0.007843 0.000000
0.698039 0.003922 0.003922
0.745098 0.000000 0.000000
0.784314 0.003922 0.000000
0.831373 0.003922 0.000000
0.878431 0.000000 0.000000
0.921569 0.007843 0.000000
0.964706 0.003922 0.003922
0.996078 0.000000 0.007843
0.996078 0.000000 0.000000
0.000000 0.078431 0.000000
0.023529 0.074510 0.003922
0.070588 0.074510 0.003922
0.117647 0.074510 0.000000
0.156863 0.074510 0.000000
0.211765 0.074510 0.000000
0.239216 0.070588 0.000000
0.290196 0.074510 0.000000
0.337255 0.074510 0.000000
0.380392 0.074510 0.000000
0.427451 0.070588 0.000000
0.470588 0.074510 0.003922
0.513725 0.070588 0.000000
0.556863 0.066667 0.000000
0.603922 0.066667 0.000000
0.647059 0.062745 0.000000
0.694118 0.062745 0.000000
0.741176 0.054902 0.000000
0.788235 0.054902 0.003922
0.827451 0.047059 0.000000
0.878431 0.039216 0.000000
0.917647 0.039216 0.000000
0.952941 0.031373 0.000000
1.000000 0.019608 0.000000
1.000000 0.011765 0.000000
0.000000 0.113725 0.000000
0.019608 0.125490 0.000000
0.062745 0.117647 0.000000
0.117647 0.117647 0.007843
0.168627 0.113725 0.000000
0.203922 0.121569 0.000000
0.254902 0.125490 0.003922
0.294118 0.117647 0.000000
0.337255 0.113725 0.000000
0.384314 0.125490 0.000000
0.431373 0.121569 0.003922
0.466667 0.117647 0.000000
0.513725 0.117647 0.000000
0.560784 0.117647 0.000000
0.607843 0.117647 0.000000
0.650980 0.117647 0.000000
0.694118 0.109804 0.000000
0.741176 0.109804 0.000000
0.780392 0.109804 0.000000
0.823529 0.105882 0.003922
0.870588 0.105882 0.000000
0.913725 0.101961 0.007843
0.949020 0.098039 0.000000
1.000000 0.094118 0.000000
1.000000 0.094118 0.000000
0.003922 0.152941 0.000000
0.035294 0.160784 0.000000
0.070588 0.156863 0.003922
0.117647 0.160784 0.000000
0.156863 0.160784 0.003922
0.207843 0.160784 0.003922
0.247059 0.164706 0.000000
0.290196 0.160784 0.000000
0.345098 0.156863 0.000000
0.388235 0.164706 0.003922
0.431373 0.160784 0.000000
0.470588 0.160784 0.000000
0.521569 0.164706 0.000000
0.560784 0.164706 0.000000
0.603922 0.160784 0.000000
0.650980 0.164706 0.000000
0.698039 0.160784 0.003922
0.737255 0.160784 0.000000
0.780392 0.156863 0.000000
0.823529 0.152941 0.003922
0.870588 0.152941 0.000000
0.913725 0.149020 0.000000
0.952941 0.149020 0.000000
1.000000 0.145098 0.000000
1.000000 0.145098 0.000000
0.015686 0.203922 0.007843
0.023529 0.207843 0.003922
0.078431 0.211765 0.011765
0.121569 0.211765 0.000000
0.164706 0.203922 0.000000
0.211765 0.211765 0.000000
0.254902 0.219608 0.003922
0.301961 0.211765 0.007843
0.341176 0.211765 0.000000
0.388235 0.211765 0.000000
0.435294 0.211765 0.000000
0.474510 0.211765 0.000000
0.525490 0.211765 0.003922
0.568627 0.211765 0.003922
0.615686 0.215686 0.000000
0.662745 0.211765 0.000000
0.705882 0.207843 0.000000
0.749020 0.207843 0.000000
0.788235 0.207843 0.000000
0.835294 0.203922 0.000000
0.878431 0.200000 0.000000
0.917647 0.200000 0.000000
0.968627 0.200000 0.003922
1.000000 0.200000 0.000000
0.996078 0.200000 0.003922
0.007843 0.250980 0.000000
0.015686 0.247059 0.000000
0.074510 0.254902 0.003922
0.113725 0.254902 0.003922
0.176471 0.258824 0.003922
0.211765 0.250980 0.003922
0.258824 0.254902 0.003922
0.298039 0.254902 0.003922
0.345098 0.250980 0.000000
0.388235 0.250980 0.000000
0.431373 0.254902 0.000000
0.478431 0.250980 0.000000
0.517647 0.250980 0.003922
0.568627 0.258824 0.000000
0.611765 0.254902 0.007843
0.658824 0.254902 0.000000
0.701961 0.250980 0.003922
0.749020 0.250980 0.003922
0.788235 0.250980 0.000000
0.839216 0.254902 0.003922
0.878431 0.254902 0.000000
0.921569 0.250980 0.007843
0.968627 0.247059 0.003922
1.000000 0.243137 0.000000
1.000000 0.243137 0.003922
0.011765 0.294118 0.000000
0.007843 0.298039 0.000000
0.070588 0.298039 0.000000
0.117647 0.301961 0.000000
0.172549 0.298039 0.000000
0.203922 0.298039 0.000000
0.254902 0.298039 0.000000
0.294118 0.298039 0.000000
0.349020 0.298039 0.000000
0.392157 0.301961 0.000000
0.439216 0.298039 0.000000
0.482353 0.301961 0.000000
0.525490 0.301961 0.000000
0.564706 0.301961 0.000000
0.619608 0.298039 0.000000
0.662745 0.298039 0.003922
0.713725 0.298039 0.003922
0.752941 0.298039 0.003922
0.796078 0.298039 0.000000
0.835294 0.298039 0.000000
0.878431 0.294118 0.000000
0.917647 0.294118 0.003922
0.952941 0.290196 0.000000
1.000000 0.290196 0.000000
0.996078 0.294118 0.003922
0.000000 0.345098 0.007843
0.003922 0.337255 0.003922
0.066667 0.341176 0.003922
0.109804 0.345098 0.003922
0.168627 0.349020 0.003922
0.211765 0.337255 0.000000
0.258824 0.349020 0.003922
0.305882 0.345098 0.003922
0.345098 0.345098 0.007843
0.392157 0.349020 0.000000
0.431373 0.349020 0.000000
0.482353 0.341176 0.003922
0.525490 0.341176 0.000000
0.568627 0.345098 0.000000
0.607843 0.345098 0.000000
0.658824 0.349020 0.000000
0.701961 0.345098 0.000000
0.749020 0.341176 0.000000
0.788235 0.341176 0.000000
0.831373 0.341176 0.000000
0.874510 0.337255 0.000000
0.913725 0.337255 0.000000
0.960784 0.333333 0.000000
1.000000 0.329412 0.007843
0.996078 0.329412 0.003922
0.000000 0.396078 0.007843
0.000000 0.392157 0.000000
0.043137 0.388235 0.000000
0.109804 0.384314 0.000000
0.164706 0.384314 0.000000
0.211765 0.392157 0.003922
0.254902 0.392157 0.000000
0.298039 0.396078 0.000000
0.345098 0.392157 0.000000
0.388235 0.388235 0.003922
0.439216 0.392157 0.007843
0.474510 0.388235 0.000000
0.525490 0.392157 0.000000
0.564706 0.396078 0.000000
0.607843 0.392157 0.000000
0.654902 0.388235 0.000000
0.698039 0.388235 0.000000
0.737255 0.388235 0.000000
0.784314 0.384314 0.000000
0.831373 0.384314 0.000000
0.874510 0.384314 0.000000
0.921569 0.380392 0.003922
0.960784 0.380392 0.003922
1.000000 0.376471 0.000000
1.000000 0.376471 0.000000
0.000000 0.447059 0.003922
0.000000 0.443137 0.000000
0.039216 0.447059 0.003922
0.101961 0.447059 0.003922
0.156863 0.443137 0.000000
0.211765 0.439216 0.000000
0.258824 0.443137 0.000000
0.313725 0.447059 0.003922
0.356863 0.447059 0.000000
0.396078 0.443137 0.003922
0.447059 0.439216 0.000000
0.486275 0.443137 0.000000
0.533333 0.443137 0.003922
0.580392 0.439216 0.000000
0.623529 0.439216 0.000000
0.666667 0.443137 0.000000
0.709804 0.435294 0.000000
0.752941 0.439216 0.003922
0.792157 0.431373 0.000000
0.835294 0.431373 0.000000
0.878431 0.435294 0.003922
0.921569 0.427451 0.003922
0.960784 0.427451 0.000000
1.000000 0.427451 0.007843
1.000000 0.423529 0.007843
0.000000 0.482353 0.003922
0.003922 0.490196 0.003922
0.015686 0.478431 0.007843
0.101961 0.490196 0.000000
0.149020 0.486275 0.000000
0.211765 0.494118 0.000000
0.258824 0.486275 0.003922
0.305882 0.486275 0.000000
0.352941 0.486275 0.003922
0.400000 0.486275 0.000000
0.443137 0.482353 0.000000
0.490196 0.482353 0.000000
0.529412 0.486275 0.000000
0.580392 0.486275 0.000000
0.623529 0.482353 0.000000
0.662745 0.486275 0.000000
0.709804 0.482353 0.000000
0.752941 0.478431 0.000000
0.792157 0.478431 0.000000
0.831373 0.470588 0.000000
0.878431 0.470588 0.000000
0.921569 0.474510 0.000000
0.964706 0.470588 0.000000
0.992157 0.478431 0.000000
0.996078 0.470588 0.000000
0.000000 0.533333 0.007843
0.003922 0.525490 0.011765
0.003922 0.537255 0.000000
0.086275 0.529412 0.003922
0.149020 0.529412 0.007843
0.211765 0.533333 0.007843
0.254902 0.529412 0.000000
0.305882 0.533333 0.000000
0.352941 0.533333 0.003922
0.400000 0.533333 0.000000
0.443137 0.529412 0.000000
0.486275 0.533333 0.000000
0.529412 0.533333 0.000000
0.576471 0.529412 0.000000
0.619608 0.533333 0.000000
0.662745 0.529412 0.003922
0.709804 0.529412 0.000000
0.752941 0.525490 0.000000
0.796078 0.521569 0.003922
0.831373 0.517647 0.000000
0.882353 0.517647 0.003922
0.921569 0.517647 0.011765
0.956863 0.517647 0.000000
0.996078 0.517647 0.000000
1.000000 0.513725 0.000000
0.003922 0.568627 0.000000
0.000000 0.580392 0.007843
0.000000 0.576471 0.000000
0.086275 0.576471 0.011765
0.133333 0.580392 0.000000
0.200000 0.572549 0.000000
0.247059 0.576471 0.000000
0.301961 0.576471 0.000000
0.345098 0.572549 0.000000
0.396078 0.576471 0.000000
0.439216 0.572549 0.000000
0.486275 0.572549 0.003922
0.533333 0.572549 0.000000
0.576471 0.568627 0.000000
0.615686 0.568627 0.003922
0.666667 0.568627 0.003922
0.709804 0.564706 0.003922
0.749020 0.568627 0.000000
0.792157 0.564706 0.000000
0.831373 0.564706 0.000000
0.878431 0.560784 0.000000
0.913725 0.556863 0.000000
0.956863 0.560784 0.003922
0.992157 0.549020 0.000000
1.000000 0.556863 0.007843
0.011765 0.607843 0.000000
0.000000 0.623529 0.003922
0.003922 0.619608 0.000000
0.062745 0.615686 0.000000
0.133333 0.619608 0.000000
0.192157 0.623529 0.000000
0.247059 0.623529 0.000000
0.290196 0.619608 0.000000
0.337255 0.615686 0.000000
0.384314 0.619608 0.000000
0.435294 0.615686 0.000000
0.482353 0.615686 0.000000
0.525490 0.619608 0.000000
0.572549 0.615686 0.003922
0.615686 0.615686 0.000000
0.658824 0.619608 0.003922
0.701961 0.611765 0.000000
0.745098 0.611765 0.000000
0.788235 0.607843 0.000000
0.835294 0.603922 0.000000
0.874510 0.603922 0.003922
0.917647 0.600000 0.000000
0.956863 0.600000 0.007843
1.000000 0.596078 0.003922
1.000000 0.596078 0.003922
0.000000 0.670588 0.000000
0.000000 0.674510 0.000000
0.011765 0.674510 0.003922
0.047059 0.670588 0.000000
0.117647 0.674510 0.000000
0.192157 0.666667 0.007843
0.247059 0.670588 0.000000
0.294118 0.678431 0.000000
0.345098 0.674510 0.000000
0.388235 0.670588 0.003922
0.439216 0.674510 0.000000
0.482353 0.670588 0.000000
0.525490 0.666667 0.000000
0.576471 0.666667 0.000000
0.619608 0.666667 0.000000
0.658824 0.666667 0.000000
0.709804 0.662745 0.000000
0.749020 0.658824 0.000000
0.792157 0.658824 0.000000
0.839216 0.654902 0.000000
0.882353 0.650980 0.000000
0.917647 0.650980 0.000000
0.956863 0.647059 0.000000
1.000000 0.643137 0.003922
0.996078 0.647059 0.003922
0.007843 0.709804 0.000000
0.000000 0.705882 0.000000
0.003922 0.713725 0.000000
0.023529 0.709804 0.000000
0.105882 0.713725 0.000000
0.184314 0.705882 0.000000
0.231373 0.721569 0.000000
0.286275 0.713725 0.003922
0.329412 0.713725 0.003922
0.384314 0.709804 0.003922
0.431373 0.709804 0.003922
0.478431 0.709804 0.003922
0.521569 0.709804 0.003922
0.572549 0.701961 0.000000
0.623529 0.705882 0.000000
0.662745 0.705882 0.000000
0.701961 0.705882 0.000000
0.745098 0.701961 0.000000
0.788235 0.698039 0.000000
0.835294 0.698039 0.000000
0.874510 0.698039 0.000000
0.917647 0.694118 0.000000
0.964706 0.694118 0.000000
0.996078 0.682353 0.000000
1.000000 0.682353 0.000000
0.007843 0.745098 0.000000
0.003922 0.749020 0.011765
0.000000 0.749020 0.000000
0.000000 0.756863 0.000000
0.101961 0.749020 0.000000
0.172549 0.749020 0.000000
0.219608 0.749020 0.000000
0.274510 0.749020 0.000000
0.333333 0.749020 0.003922
0.376471 0.749020 0.000000
0.427451 0.749020 0.003922
0.470588 0.749020 0.003922
0.525490 0.745098 0.003922
0.568627 0.745098 0.003922
0.619608 0.745098 0.003922
0.662745 0.745098 0.003922
0.705882 0.741176 0.000000
0.745098 0.741176 0.000000
0.796078 0.745098 0.000000
0.835294 0.741176 0.003922
0.878431 0.741176 0.003922
0.913725 0.737255 0.000000
0.964706 0.729412 0.007843
0.996078 0.729412 0.003922
1.000000 0.733333 0.000000
0.011765 0.792157 0.011765
0.003922 0.784314 0.003922
0.000000 0.788235 0.000000
0.003922 0.788235 0.000000
0.086275 0.792157 0.003922
0.156863 0.792157 0.007843
0.211765 0.792157 0.000000
0.270588 0.788235 0.003922
0.325490 0.788235 0.003922
0.384314 0.792157 0.003922
0.423529 0.792157 0.000000
0.466667 0.788235 0.003922
0.509804 0.788235 0.000000
0.564706 0.788235 0.000000
0.611765 0.784314 0.003922
0.658824 0.784314 0.003922
0.698039 0.784314 0.003922
0.741176 0.784314 0.000000
0.788235 0.780392 0.000000
0.827451 0.780392 0.000000
0.870588 0.780392 0.000000
0.921569 0.772549 0.007843
0.956863 0.768627 0.000000
0.996078 0.768627 0.000000
0.992157 0.772549 0.000000
0.007843 0.831373 0.000000
0.003922 0.819608 0.000000
0.000000 0.835294 0.003922
0.000000 0.835294 0.000000
0.078431 0.827451 0.003922
0.141176 0.831373 0.000000
0.219608 0.831373 0.003922
0.270588 0.831373 0.000000
0.321569 0.831373 0.000000
0.364706 0.827451 0.000000
0.415686 0.831373 0.000000
0.462745 0.827451 0.000000
0.513725 0.827451 0.000000
0.552941 0.827451 0.003922
0.596078 0.827451 0.000000
0.647059 0.827451 0.003922
0.690196 0.823529 0.000000
0.733333 0.819608 0.000000
0.784314 0.823529 0.000000
0.823529 0.823529 0.000000
0.866667 0.819608 0.000000
0.917647 0.823529 0.000000
0.952941 0.819608 0.000000
0.996078 0.815686 0.000000
0.996078 0.815686 0.000000
0.003922 0.874510 0.000000
0.003922 0.878431 0.003922
0.000000 0.874510 0.000000
0.003922 0.874510 0.000000
0.062745 0.878431 0.000000
0.149020 0.878431 0.003922
0.207843 0.874510 0.000000
0.262745 0.882353 0.000000
0.321569 0.870588 0.000000
0.372549 0.874510 0.000000
0.419608 0.874510 0.000000
0.462745 0.870588 0.000000
0.513725 0.874510 0.007843
0.552941 0.874510 0.003922
0.596078 0.870588 0.000000
0.643137 0.870588 0.000000
0.690196 0.862745 0.000000
0.733333 0.866667 0.000000
0.780392 0.866667 0.000000
0.823529 0.870588 0.000000
0.866667 0.866667 0.003922
0.913725 0.862745 0.000000
0.952941 0.866667 0.000000
0.992157 0.862745 0.003922
0.992157 0.858824 0.000000
0.000000 0.905882 0.000000
0.000000 0.913725 0.000000
0.003922 0.909804 0.007843
0.000000 0.917647 0.000000
0.031373 0.909804 0.015686
0.121569 0.909804 0.003922
0.200000 0.909804 0.003922
0.254902 0.913725 0.000000
0.301961 0.913725 0.000000
0.356863 0.913725 0.000000
0.403922 0.909804 0.000000
0.454902 0.909804 0.003922
0.505882 0.909804 0.003922
0.549020 0.909804 0.000000
0.600000 0.909804 0.003922
0.643137 0.905882 0.003922
0.682353 0.909804 0.000000
0.725490 0.905882 0.000000
0.776471 0.905882 0.000000
0.819608 0.905882 0.000000
0.858824 0.905882 0.003922
0.909804 0.905882 0.000000
0.949020 0.898039 0.000000
0.996078 0.901961 0.000000
0.988235 0.901961 0.000000
0.007843 0.952941 0.000000
0.000000 0.941176 0.003922
0.000000 0.949020 0.007843
0.003922 0.945098 0.000000
0.011765 0.949020 0.000000
0.109804 0.956863 0.011765
0.192157 0.949020 0.000000
0.243137 0.952941 0.000000
0.298039 0.949020 0.000000
0.349020 0.949020 0.003922
0.400000 0.952941 0.003922
0.443137 0.949020 0.000000
0.498039 0.949020 0.003922
0.541176 0.945098 0.000000
0.580392 0.945098 0.000000
0.627451 0.945098 0.000000
0.674510 0.945098 0.000000
0.717647 0.945098 0.000000
0.768627 0.945098 0.000000
0.807843 0.945098 0.000000
0.850980 0.945098 0.000000
0.898039 0.941176 0.000000
0.941176 0.937255 0.000000
0.984314 0.941176 0.000000
0.992157 0.941176 0.003922
0.000000 0.984314 0.000000
0.000000 0.988235 0.000000
0.003922 0.988235 0.000000
0.000000 0.980392 0.000000
0.011765 0.984314 0.000000
0.101961 0.984314 0.000000
0.160784 0.988235 0.000000
0.231373 0.984314 0.000000
0.294118 0.984314 0.007843
0.352941 0.988235 0.003922
0.396078 0.984314 0.003922
0.450980 0.984314 0.011765
0.494118 0.984314 0.003922
0.529412 0.988235 0.000000
0.572549 0.984314 0.000000
0.623529 0.984314 0.000000
0.666667 0.984314 0.000000
0.709804 0.980392 0.000000
0.756863 0.980392 0.000000
0.803922 0.980392 0.000000
0.839216 0.976471 0.000000
0.890196 0.968627 0.000000
0.925490 0.984314 0.000000
0.972549 0.976471 0.000000
1.000000 0.972549 0.007843
0.000000 1.000000 0.000000
0.003922 0.992157 0.000000
0.000000 0.996078 0.000000
0.007843 1.000000 0.000000
0.000000 0.996078 0.000000
0.070588 1.000000 0.003922
0.149020 1.000000 0.000000
0.223529 1.000000 0.000000
0.282353 0.996078 0.003922
0.341176 1.000000 0.007843
0.388235 0.996078 0.000000
0.439216 0.992157 0.000000
0.486275 1.000000 0.003922
0.529412 1.000000 0.000000
0.576471 0.996078 0.000000
0.619608 1.000000 0.000000
0.662745 0.996078 0.000000
0.713725 1.000000 0.000000
0.756863 0.996078 0.000000
0.800000 1.000000 0.000000
0.835294 1.000000 0.000000
0.878431 1.000000 0.000000
0.921569 1.000000 0.000000
0.976471 1.000000 0.003922
0.992157 0.996078 0.007843
0.003922 0.000000 0.019608
0.023529 0.000000 0.023529
0.078431 0.000000 0.023529
0.117647 0.003922 0.023529
0.152941 0.000000 0.019608
0.203922 0.000000 0.019608
0.254902 0.000000 0.023529
0.294118 0.000000 0.019608
0.337255 0.000000 0.003922
0.384314 0.000000 0.003922
0.431373 0.000000 0.003922
0.470588 0.000000 0.003922
0.525490 0.000000 0.003922
0.564706 0.000000 0.000000
0.611765 0.000000 0.003922
0.654902 0.000000 0.000000
0.694118 0.000000 0.000000
0.741176 0.000000 0.003922
0.788235 0.000000 0.000000
0.827451 0.000000 0.000000
0.878431 0.000000 0.003922
0.917647 0.000000 0.003922
0.960784 0.000000 0.000000
0.996078 0.000000 0.007843
0.996078 0.000000 0.007843
0.007843 0.027451 0.011765
0.039216 0.015686 0.015686
0.082353 0.031373 0.007843
0.125490 0.023529 0.019608
0.145098 0.031373 0.007843
0.203922 0.031373 0.019608
0.258824 0.023529 0.023529
0.298039 0.019608 0.011765
0.337255 0.019608 0.007843
0.392157 0.019608 0.011765
0.427451 0.015686 0.003922
0.474510 0.011765 0.003922
0.517647 0.011765 0.000000
0.560784 0.007843 0.000000
0.607843 0.007843 0.000000
0.654902 0.007843 0.003922
0.694118 0.000000 0.000000
0.745098 0.000000 0.000000
0.784314 0.003922 0.000000
0.827451 0.000000 0.000000
0.870588 0.003922 0.000000
0.917647 0.003922 0.000000
0.956863 0.000000 0.000000
0.996078 0.000000 0.000000
1.000000 0.007843 0.007843
0.000000 0.074510 0.007843
0.023529 0.078431 0.019608
0.082353 0.074510 0.015686
0.117647 0.070588 0.007843
0.160784 0.070588 0.011765
0.211765 0.070588 0.015686
0.243137 0.074510 0.007843
0.294118 0.078431 0.007843
0.341176 0.074510 0.000000
0.384314 0.066667 0.000000
0.431373 0.066667 0.000000
0.470588 0.066667 0.000000
0.517647 0.066667 0.000000
0.560784 0.062745 0.000000
0.603922 0.058824 0.000000
0.650980 0.054902 0.003922
0.698039 0.050980 0.003922
0.741176 0.043137 0.000000
0.784314 0.039216 0.000000
0.831373 0.039216 0.007843
0.878431 0.031373 0.003922
0.925490 0.027451 0.007843
0.968627 0.015686 0.000000
0.992157 0.007843 0.003922
0.996078 0.003922 0.000000
0.003922 0.113725 0.015686
0.019608 0.125490 0.000000
0.078431 0.117647 0.011765
0.109804 0.121569 0.015686
0.160784 0.125490 0.011765
0.203922 0.121569 0.015686
0.250980 0.117647 0.007843
0.298039 0.121569 0.007843
0.341176 0.117647 0.003922
0.380392 0.121569 0.000000
0.423529 0.113725 0.000000
0.470588 0.113725 0.000000
0.509804 0.113725 0.000000
0.560784 0.117647 0.000000
0.600000 0.109804 0.000000
0.654902 0.109804 0.000000
0.694118 0.109804 0.000000
0.741176 0.101961 0.000000
0.780392 0.101961 0.003922
0.831373 0.105882 0.003922
0.870588 0.098039 0.000000
0.913725 0.090196 0.003922
0.941176 0.090196 0.000000
0.992157 0.082353 0.000000
0.992157 0.082353 0.000000
0.003922 0.164706 0.000000
0.023529 0.160784 0.003922
0.074510 0.160784 0.007843
0.117647 0.160784 0.003922
0.160784 0.164706 0.007843
0.211765 0.164706 0.007843
0.258824 0.160784 0.000000
0.298039 0.160784 0.000000
0.337255 0.160784 0.000000
0.376471 0.168627 0.000000
0.419608 0.168627 0.000000
0.466667 0.164706 0.000000
0.513725 0.164706 0.000000
0.560784 0.160784 0.003922
0.603922 0.160784 0.000000
0.647059 0.164706 0.000000
0.690196 0.160784 0.003922
0.737255 0.160784 0.000000
0.780392 0.156863 0.000000
0.823529 0.156863 0.000000
0.874510 0.149020 0.000000
0.921569 0.145098 0.007843
0.960784 0.145098 0.003922
1.000000 0.137255 0.003922
1.000000 0.141176 0.000000
0.003922 0.211765 0.000000
0.019608 0.211765 0.000000
0.078431 0.211765 0.003922
0.121569 0.211765 0.000000
0.160784 0.211765 0.000000
0.211765 0.215686 0.000000
0.258824 0.215686 0.003922
0.305882 0.207843 0.000000
0.341176 0.211765 0.003922
0.388235 0.207843 0.003922
0.431373 0.207843 0.000000
0.470588 0.207843 0.000000
0.521569 0.207843 0.000000
0.564706 0.207843 0.000000
0.611765 0.207843 0.000000
0.662745 0.211765 0.000000
0.701961 0.203922 0.000000
0.741176 0.203922 0.000000
0.788235 0.203922 0.003922
0.831373 0.200000 0.000000
0.874510 0.203922 0.000000
0.917647 0.200000 0.000000
0.956863 0.200000 0.000000
0.992157 0.196078 0.000000
1.000000 0.192157 0.000000
0.000000 0.247059 0.007843
0.003922 0.258824 0.000000
0.066667 0.258824 0.003922
0.113725 0.258824 0.000000
0.168627 0.254902 0.003922
0.207843 0.258824 0.000000
0.258824 0.254902 0.000000
0.298039 0.254902 0.003922
0.345098 0.250980 0.000000
0.392157 0.254902 0.003922
0.427451 0.250980 0.000000
0.478431 0.250980 0.000000
0.521569 0.254902 0.000000
0.568627 0.250980 0.000000
0.611765 0.254902 0.000000
0.662745 0.258824 0.000000
0.705882 0.254902 0.000000
0.749020 0.254902 0.000000
0.788235 0.250980 0.000000
0.835294 0.250980 0.000000
0.874510 0.250980 0.000000
0.917647 0.247059 0.000000
0.956863 0.247059 0.000000
1.000000 0.239216 0.000000
0.996078 0.235294 0.003922
0.000000 0.301961 0.003922
0.007843 0.298039 0.003922
0.054902 0.294118 0.000000
0.117647 0.298039 0.003922
0.164706 0.298039 0.000000
0.207843 0.301961 0.000000
0.250980 0.298039 0.000000
0.298039 0.298039 0.007843
0.352941 0.301961 0.003922
0.388235 0.298039 0.000000
0.439216 0.298039 0.000000
0.478431 0.298039 0.000000
0.525490 0.301961 0.000000
0.572549 0.301961 0.000000
0.619608 0.298039 0.000000
0.658824 0.298039 0.003922
0.701961 0.298039 0.000000
0.749020 0.294118 0.000000
0.784314 0.294118 0.000000
0.831373 0.294118 0.000000
0.874510 0.290196 0.000000
0.913725 0.290196 0.000000
0.952941 0.290196 0.003922
1.000000 0.286275 0.000000
1.000000 0.290196 0.003922
0.003922 0.337255 0.003922
0.000000 0.349020 0.003922
0.054902 0.345098 0.000000
0.113725 0.341176 0.000000
0.156863 0.345098 0.000000
0.211765 0.337255 0.000000
0.250980 0.341176 0.000000
0.301961 0.341176 0.000000
0.345098 0.345098 0.000000
0.384314 0.349020 0.000000
0.431373 0.349020 0.000000
0.478431 0.345098 0.000000
0.525490 0.349020 0.000000
0.568627 0.345098 0.000000
0.607843 0.345098 0.000000
0.658824 0.337255 0.000000
0.701961 0.345098 0.000000
0.749020 0.341176 0.000000
0.792157 0.337255 0.003922
0.835294 0.337255 0.003922
0.874510 0.337255 0.000000
0.909804 0.333333 0.000000
0.956863 0.341176 0.000000
1.000000 0.329412 0.000000
1.000000 0.329412 0.000000
0.000000 0.392157 0.000000
0.000000 0.396078 0.000000
0.035294 0.392157 0.000000
0.105882 0.388235 0.000000
0.164706 0.392157 0.000000
0.203922 0.392157 0.000000
0.254902 0.392157 0.000000
0.294118 0.392157 0.000000
0.345098 0.392157 0.000000
0.388235 0.392157 0.000000
0.439216 0.392157 0.000000
0.482353 0.388235 0.003922
0.525490 0.384314 0.000000
0.564706 0.388235 0.000000
0.611765 0.384314 0.000000
0.658824 0.384314 0.000000
0.705882 0.384314 0.000000
0.745098 0.384314 0.000000
0.792157 0.384314 0.000000
0.835294 0.380392 0.000000
0.874510 0.384314 0.000000
0.921569 0.380392 0.000000
0.952941 0.384314 0.003922
1.000000 0.380392 0.000000
0.996078 0.376471 0.000000
0.003922 0.443137 0.003922
0.000000 0.443137 0.000000
0.035294 0.443137 0.000000
0.101961 0.443137 0.000000
0.164706 0.439216 0.000000
0.207843 0.443137 0.000000
0.254902 0.447059 0.000000
0.309804 0.443137 0.000000
0.352941 0.439216 0.003922
0.400000 0.439216 0.000000
