lut_library_archive/removed_20260629/50个风景lut/50个风景lut36.cube
# 版权归凌孟成所有，侵权必究
TITLE "Jungle LUT #36"
#LUT size
LUT_3D_SIZE 5
#LUT data points
0.000000 0.000000 0.007843
0.243137 0.003922 0.000000
0.494118 0.000000 0.003922
0.741176 0.000000 0.039216
1.000000 0.000000 0.086275
0.062745 0.211765 0.027451
0.270588 0.215686 0.039216
0.494118 0.215686 0.047059
0.749020 0.223529 0.086275
0.992157 0.227451 0.109804
0.086275 0.478431 0.133333
0.266667 0.478431 0.133333
0.501961 0.478431 0.141176
0.749020 0.490196 0.152941
0.992157 0.498039 0.164706
0.007843 0.749020 0.184314
0.223529 0.749020 0.196078
0.498039 0.752941 0.188235
0.752941 0.749020 0.192157
0.996078 0.749020 0.196078
0.000000 1.000000 0.215686
0.192157 1.000000 0.227451
0.482353 1.000000 0.215686
0.737255 0.996078 0.227451
0.996078 1.000000 0.247059
0.003922 0.000000 0.313725
0.231373 0.003922 0.305882
0.490196 0.003922 0.317647
0.741176 0.003922 0.313725
0.996078 0.000000 0.325490
0.000000 0.215686 0.321569
0.247059 0.207843 0.313725
0.486275 0.211765 0.321569
0.741176 0.207843 0.325490
0.996078 0.203922 0.321569
0.000000 0.486275 0.321569
0.227451 0.482353 0.325490
0.494118 0.478431 0.333333
0.749020 0.482353 0.329412
1.000000 0.482353 0.329412
0.000000 0.749020 0.325490
0.184314 0.749020 0.333333
0.486275 0.752941 0.325490
0.756863 0.752941 0.337255
0.988235 0.749020 0.329412
0.000000 0.992157 0.321569
0.156863 1.000000 0.329412
0.470588 0.996078 0.317647
0.741176 1.000000 0.333333
0.992157 1.000000 0.337255
0.003922 0.000000 0.537255
0.215686 0.003922 0.541176
0.482353 0.003922 0.549020
0.741176 0.003922 0.549020
0.996078 0.003922 0.541176
0.000000 0.203922 0.541176
0.223529 0.200000 0.545098
0.486275 0.192157 0.552941
0.749020 0.188235 0.549020
1.000000 0.172549 0.545098
0.000000 0.482353 0.545098
0.203922 0.482353 0.545098
0.482353 0.478431 0.541176
0.749020 0.482353 0.549020
1.000000 0.474510 0.533333
0.003922 0.749020 0.537255
0.098039 0.749020 0.529412
0.466667 0.752941 0.533333
0.749020 0.752941 0.525490
1.000000 0.749020 0.529412
0.011765 0.996078 0.509804
0.109804 0.992157 0.513725
0.466667 1.000000 0.505882
0.741176 1.000000 0.513725
1.000000 1.000000 0.513725
0.105882 0.000000 0.749020
0.278431 0.000000 0.756863
0.505882 0.000000 0.749020
0.756863 0.003922 0.752941
1.000000 0.007843 0.741176
0.031373 0.188235 0.764706
0.247059 0.188235 0.749020
0.501961 0.180392 0.756863
0.760784 0.156863 0.752941
1.000000 0.145098 0.749020
0.000000 0.470588 0.749020
0.196078 0.470588 0.752941
0.486275 0.462745 0.745098
0.760784 0.462745 0.752941
1.000000 0.462745 0.749020
0.007843 0.752941 0.745098
0.145098 0.749020 0.749020
0.482353 0.749020 0.749020
0.752941 0.749020 0.741176
1.000000 0.752941 0.733333
0.007843 0.996078 0.733333
0.172549 1.000000 0.729412
0.482353 1.000000 0.733333
0.752941 1.000000 0.725490
0.996078 1.000000 0.737255
0.086275 0.000000 0.992157
0.266667 0.003922 1.000000
0.509804 0.000000 1.000000
0.752941 0.000000 0.996078
1.000000 0.003922 1.000000
0.003922 0.176471 1.000000
0.250980 0.180392 1.000000
0.501961 0.164706 1.000000
0.752941 0.152941 1.000000
1.000000 0.133333 0.992157
0.015686 0.458824 1.000000
0.172549 0.454902 0.996078
0.478431 0.450980 1.000000
0.745098 0.454902 1.000000
1.000000 0.450980 1.000000
0.011765 0.733333 1.000000
0.133333 0.733333 1.000000
0.466667 0.737255 1.000000
0.741176 0.737255 1.000000
0.996078 0.741176 1.000000
0.003922 1.000000 0.992157
0.172549 1.000000 1.000000
0.482353 0.996078 0.996078
0.749020 1.000000 0.996078
1.000000 1.000000 1.000000
