lut_library_archive/removed_20260629/50个风景lut/50个风景lut12.cube
# 版权归凌孟成所有，侵权必究
TITLE "Jungle LUT #12"
#LUT size
LUT_3D_SIZE 9
#LUT data points
0.000000 0.000000 0.000000
0.117647 0.000000 0.000000
0.250980 0.000000 0.000000
0.376471 0.000000 0.003922
0.517647 0.003922 0.003922
0.650980 0.003922 0.000000
0.788235 0.000000 0.000000
0.917647 0.003922 0.000000
0.996078 0.003922 0.000000
0.000000 0.113725 0.000000
0.117647 0.117647 0.007843
0.254902 0.125490 0.003922
0.384314 0.125490 0.000000
0.513725 0.117647 0.000000
0.650980 0.117647 0.000000
0.780392 0.109804 0.000000
0.913725 0.101961 0.007843
1.000000 0.094118 0.000000
0.007843 0.250980 0.000000
0.113725 0.254902 0.003922
0.258824 0.254902 0.003922
0.388235 0.250980 0.000000
0.517647 0.250980 0.003922
0.658824 0.254902 0.000000
0.788235 0.250980 0.000000
0.921569 0.250980 0.007843
1.000000 0.243137 0.003922
0.000000 0.396078 0.007843
0.109804 0.384314 0.000000
0.254902 0.392157 0.000000
0.388235 0.388235 0.003922
0.525490 0.392157 0.000000
0.654902 0.388235 0.000000
0.784314 0.384314 0.000000
0.921569 0.380392 0.003922
1.000000 0.376471 0.000000
0.000000 0.533333 0.007843
0.086275 0.529412 0.003922
0.254902 0.529412 0.000000
0.400000 0.533333 0.000000
0.529412 0.533333 0.000000
0.662745 0.529412 0.003922
0.796078 0.521569 0.003922
0.921569 0.517647 0.011765
1.000000 0.513725 0.000000
0.000000 0.670588 0.000000
0.047059 0.670588 0.000000
0.247059 0.670588 0.000000
0.388235 0.670588 0.003922
0.525490 0.666667 0.000000
0.658824 0.666667 0.000000
0.792157 0.658824 0.000000
0.917647 0.650980 0.000000
0.996078 0.647059 0.003922
0.011765 0.792157 0.011765
0.003922 0.788235 0.000000
0.211765 0.792157 0.000000
0.384314 0.792157 0.003922
0.509804 0.788235 0.000000
0.658824 0.784314 0.003922
0.788235 0.780392 0.000000
0.921569 0.772549 0.007843
0.992157 0.772549 0.000000
0.000000 0.905882 0.000000
0.000000 0.917647 0.000000
0.200000 0.909804 0.003922
0.356863 0.913725 0.000000
0.505882 0.909804 0.003922
0.643137 0.905882 0.003922
0.776471 0.905882 0.000000
0.909804 0.905882 0.000000
0.988235 0.901961 0.000000
0.000000 1.000000 0.000000
0.007843 1.000000 0.000000
0.149020 1.000000 0.000000
0.341176 1.000000 0.007843
0.486275 1.000000 0.003922
0.619608 1.000000 0.000000
0.756863 0.996078 0.000000
0.878431 1.000000 0.000000
0.992157 0.996078 0.007843
0.007843 0.000000 0.090196
0.117647 0.003922 0.082353
0.258824 0.003922 0.090196
0.384314 0.003922 0.082353
0.517647 0.000000 0.062745
0.658824 0.000000 0.058824
0.788235 0.003922 0.023529
0.917647 0.000000 0.003922
1.000000 0.003922 0.003922
0.007843 0.117647 0.070588
0.129412 0.117647 0.082353
0.258824 0.113725 0.074510
0.392157 0.109804 0.070588
0.521569 0.105882 0.054902
0.654902 0.094118 0.031373
0.792157 0.082353 0.007843
0.925490 0.078431 0.000000
1.000000 0.062745 0.011765
0.000000 0.250980 0.054902
0.109804 0.262745 0.047059
0.262745 0.254902 0.031373
0.392157 0.247059 0.035294
0.521569 0.250980 0.027451
0.658824 0.247059 0.000000
0.792157 0.247059 0.000000
0.917647 0.235294 0.000000
1.000000 0.235294 0.000000
0.000000 0.388235 0.000000
0.090196 0.388235 0.003922
0.243137 0.384314 0.000000
0.384314 0.392157 0.003922
0.529412 0.392157 0.000000
0.658824 0.384314 0.000000
0.792157 0.384314 0.000000
0.921569 0.380392 0.000000
1.000000 0.372549 0.000000
0.000000 0.533333 0.007843
0.058824 0.529412 0.003922
0.243137 0.533333 0.000000
0.396078 0.529412 0.000000
0.533333 0.525490 0.000000
0.666667 0.521569 0.003922
0.792157 0.517647 0.000000
0.917647 0.513725 0.000000
1.000000 0.509804 0.000000
0.000000 0.666667 0.003922
0.000000 0.666667 0.003922
0.247059 0.666667 0.007843
0.380392 0.662745 0.000000
0.521569 0.662745 0.000000
0.666667 0.654902 0.007843
0.792157 0.658824 0.000000
0.917647 0.647059 0.000000
1.000000 0.639216 0.000000
0.000000 0.788235 0.000000
0.000000 0.784314 0.000000
0.207843 0.788235 0.003922
0.368627 0.784314 0.003922
0.517647 0.784314 0.003922
0.643137 0.788235 0.000000
0.780392 0.784314 0.000000
0.917647 0.776471 0.000000
1.000000 0.776471 0.000000
0.000000 0.905882 0.003922
0.000000 0.905882 0.000000
0.176471 0.921569 0.000000
0.349020 0.905882 0.000000
0.494118 0.909804 0.000000
0.639216 0.905882 0.000000
0.772549 0.901961 0.000000
0.905882 0.901961 0.000000
0.992157 0.898039 0.000000
0.003922 0.992157 0.000000
0.007843 0.996078 0.003922
0.125490 1.000000 0.000000
0.325490 0.996078 0.000000
0.478431 1.000000 0.000000
0.611765 1.000000 0.000000
0.752941 1.000000 0.003922
0.882353 1.000000 0.003922
0.992157 1.000000 0.000000
0.031373 0.000000 0.203922
0.141176 0.000000 0.207843
0.262745 0.000000 0.211765
0.392157 0.000000 0.211765
0.529412 0.003922 0.211765
0.662745 0.003922 0.203922
0.796078 0.000000 0.196078
0.921569 0.000000 0.188235
0.992157 0.003922 0.172549
0.000000 0.105882 0.211765
0.121569 0.105882 0.203922
0.270588 0.101961 0.207843
0.400000 0.101961 0.219608
0.533333 0.082353 0.211765
0.658824 0.066667 0.196078
0.788235 0.035294 0.188235
0.921569 0.011765 0.176471
1.000000 0.003922 0.168627
0.000000 0.250980 0.215686
0.109804 0.254902 0.215686
0.262745 0.254902 0.207843
0.392157 0.247059 0.207843
0.529412 0.247059 0.207843
0.666667 0.243137 0.203922
0.792157 0.231373 0.176471
0.925490 0.231373 0.172549
1.000000 0.215686 0.168627
0.000000 0.392157 0.188235
0.031373 0.396078 0.184314
0.239216 0.396078 0.188235
0.388235 0.388235 0.176471
0.525490 0.384314 0.188235
0.662745 0.380392 0.192157
0.796078 0.380392 0.184314
0.917647 0.372549 0.180392
1.000000 0.368627 0.164706
0.003922 0.533333 0.164706
0.003922 0.533333 0.164706
0.219608 0.529412 0.160784
0.384314 0.529412 0.156863
0.529412 0.525490 0.160784
0.658824 0.517647 0.149020
0.792157 0.509804 0.172549
0.921569 0.513725 0.180392
1.000000 0.498039 0.160784
0.007843 0.666667 0.152941
0.000000 0.670588 0.152941
0.207843 0.666667 0.149020
0.368627 0.662745 0.149020
0.525490 0.662745 0.152941
0.658824 0.658824 0.133333
0.796078 0.650980 0.129412
0.921569 0.643137 0.149020
0.996078 0.639216 0.152941
0.000000 0.792157 0.141176
0.000000 0.788235 0.125490
0.172549 0.784314 0.141176
0.349020 0.784314 0.137255
0.498039 0.784314 0.129412
0.643137 0.780392 0.137255
0.788235 0.780392 0.141176
0.913725 0.784314 0.145098
0.996078 0.768627 0.145098
0.000000 0.909804 0.156863
0.003922 0.913725 0.160784
0.133333 0.909804 0.160784
0.329412 0.913725 0.160784
0.482353 0.909804 0.160784
0.631373 0.901961 0.152941
0.764706 0.901961 0.156863
0.901961 0.905882 0.160784
0.992157 0.890196 0.172549
0.000000 0.992157 0.192157
0.000000 1.000000 0.184314
0.023529 1.000000 0.176471
0.309804 0.992157 0.196078
0.466667 0.996078 0.188235
0.603922 1.000000 0.200000
0.745098 0.996078 0.203922
0.874510 1.000000 0.219608
0.992157 1.000000 0.227451
0.000000 0.000000 0.392157
0.109804 0.000000 0.392157
0.254902 0.000000 0.400000
0.384314 0.000000 0.396078
0.525490 0.000000 0.400000
0.666667 0.000000 0.396078
0.788235 0.000000 0.384314
0.917647 0.003922 0.392157
1.000000 0.000000 0.368627
0.000000 0.094118 0.396078
0.078431 0.090196 0.400000
0.235294 0.082353 0.396078
0.388235 0.066667 0.396078
0.521569 0.050980 0.400000
0.662745 0.031373 0.400000
0.788235 0.003922 0.392157
0.925490 0.003922 0.384314
0.996078 0.000000 0.364706
0.007843 0.239216 0.403922
0.000000 0.243137 0.396078
0.239216 0.231373 0.415686
0.392157 0.231373 0.403922
0.529412 0.235294 0.396078
0.654902 0.231373 0.392157
0.788235 0.223529 0.392157
0.925490 0.215686 0.384314
0.980392 0.203922 0.372549
0.000000 0.392157 0.407843
0.000000 0.392157 0.415686
0.203922 0.396078 0.411765
0.380392 0.380392 0.411765
0.517647 0.380392 0.403922
0.654902 0.380392 0.392157
0.788235 0.376471 0.396078
0.921569 0.368627 0.403922
1.000000 0.356863 0.384314
0.000000 0.537255 0.403922
0.007843 0.525490 0.403922
0.156863 0.529412 0.396078
0.356863 0.529412 0.392157
0.521569 0.525490 0.392157
0.658824 0.521569 0.396078
0.788235 0.513725 0.411765
0.913725 0.505882 0.400000
1.000000 0.494118 0.400000
0.000000 0.670588 0.403922
0.000000 0.670588 0.403922
0.098039 0.674510 0.400000
0.333333 0.670588 0.392157
0.505882 0.666667 0.392157
0.658824 0.662745 0.388235
0.788235 0.654902 0.376471
0.913725 0.639216 0.396078
1.000000 0.635294 0.396078
0.003922 0.788235 0.392157
0.003922 0.788235 0.400000
0.000000 0.788235 0.380392
0.301961 0.792157 0.392157
0.482353 0.788235 0.380392
0.635294 0.784314 0.380392
0.776471 0.784314 0.388235
0.913725 0.780392 0.392157
0.996078 0.768627 0.388235
0.007843 0.901961 0.396078
0.000000 0.905882 0.396078
0.003922 0.909804 0.400000
0.298039 0.909804 0.407843
0.470588 0.901961 0.403922
0.607843 0.901961 0.396078
0.760784 0.905882 0.400000
0.898039 0.901961 0.403922
0.992157 0.901961 0.396078
0.000000 1.000000 0.411765
0.000000 0.996078 0.400000
0.011765 0.996078 0.403922
0.258824 0.996078 0.411765
0.439216 1.000000 0.403922
0.584314 1.000000 0.411765
0.729412 1.000000 0.407843
0.866667 1.000000 0.415686
0.992157 1.000000 0.427451
0.000000 0.003922 0.600000
0.000000 0.007843 0.600000
0.184314 0.000000 0.603922
0.356863 0.000000 0.607843
0.505882 0.000000 0.603922
0.647059 0.000000 0.603922
0.788235 0.003922 0.596078
0.905882 0.003922 0.600000
0.988235 0.011765 0.584314
0.000000 0.082353 0.600000
0.003922 0.082353 0.611765
0.180392 0.078431 0.607843
0.345098 0.054902 0.607843
0.501961 0.003922 0.611765
0.647059 0.000000 0.603922
0.780392 0.000000 0.600000
0.905882 0.003922 0.600000
0.996078 0.000000 0.596078
0.007843 0.227451 0.607843
0.000000 0.223529 0.603922
0.137255 0.223529 0.619608
0.345098 0.219608 0.623529
0.501961 0.207843 0.603922
0.654902 0.203922 0.607843
0.780392 0.207843 0.603922
0.909804 0.196078 0.592157
1.000000 0.192157 0.588235
0.000000 0.376471 0.615686
0.000000 0.376471 0.611765
0.054902 0.372549 0.627451
0.325490 0.368627 0.627451
0.501961 0.360784 0.611765
0.643137 0.368627 0.603922
0.780392 0.368627 0.600000
0.905882 0.364706 0.600000
1.000000 0.356863 0.596078
0.000000 0.529412 0.623529
0.007843 0.529412 0.635294
0.003922 0.525490 0.631373
0.305882 0.525490 0.623529
0.478431 0.517647 0.615686
0.627451 0.517647 0.615686
0.764706 0.513725 0.607843
0.901961 0.513725 0.603922
1.000000 0.501961 0.607843
0.007843 0.670588 0.627451
0.000000 0.670588 0.623529
0.000000 0.662745 0.611765
0.274510 0.666667 0.623529
0.474510 0.662745 0.607843
0.635294 0.658824 0.603922
0.776471 0.650980 0.603922
0.894118 0.647059 0.611765
1.000000 0.639216 0.607843
0.000000 0.792157 0.603922
0.000000 0.792157 0.603922
0.007843 0.788235 0.596078
0.239216 0.788235 0.584314
0.454902 0.780392 0.592157
0.611765 0.784314 0.592157
0.768627 0.784314 0.588235
0.898039 0.772549 0.588235
1.000000 0.764706 0.584314
0.000000 0.913725 0.580392
0.000000 0.913725 0.588235
0.000000 0.913725 0.588235
0.211765 0.921569 0.592157
0.427451 0.909804 0.592157
0.588235 0.909804 0.580392
0.741176 0.905882 0.584314
0.886275 0.898039 0.588235
1.000000 0.894118 0.584314
0.003922 1.000000 0.584314
0.000000 1.000000 0.584314
0.003922 1.000000 0.576471
0.172549 1.000000 0.580392
0.407843 1.000000 0.588235
0.572549 0.996078 0.588235
0.721569 1.000000 0.584314
0.858824 0.996078 0.588235
0.992157 0.996078 0.588235
0.000000 0.000000 0.760784
0.000000 0.003922 0.760784
0.086275 0.000000 0.764706
0.321569 0.000000 0.768627
0.482353 0.000000 0.768627
0.627451 0.000000 0.776471
0.768627 0.000000 0.768627
0.898039 0.000000 0.768627
1.000000 0.000000 0.752941
0.003922 0.070588 0.768627
0.003922 0.062745 0.764706
0.050980 0.054902 0.760784
0.321569 0.019608 0.772549
0.470588 0.000000 0.764706
0.635294 0.000000 0.772549
0.772549 0.000000 0.768627
0.894118 0.007843 0.752941
1.000000 0.003922 0.756863
0.000000 0.211765 0.776471
0.000000 0.219608 0.772549
0.000000 0.215686 0.768627
0.294118 0.211765 0.764706
0.466667 0.200000 0.776471
0.627451 0.184314 0.780392
0.772549 0.172549 0.768627
0.901961 0.176471 0.756863
0.996078 0.168627 0.752941
0.003922 0.360784 0.768627
0.003922 0.360784 0.776471
0.000000 0.349020 0.776471
0.262745 0.356863 0.780392
0.462745 0.349020 0.772549
0.627451 0.345098 0.768627
0.772549 0.345098 0.772549
0.905882 0.352941 0.760784
1.000000 0.345098 0.749020
0.003922 0.509804 0.772549
0.003922 0.509804 0.772549
0.000000 0.505882 0.768627
0.239216 0.509804 0.772549
0.447059 0.505882 0.776471
0.623529 0.501961 0.776471
0.768627 0.509804 0.768627
0.901961 0.509804 0.764706
1.000000 0.498039 0.760784
0.000000 0.662745 0.784314
0.000000 0.658824 0.772549
0.000000 0.662745 0.772549
0.223529 0.658824 0.776471
0.435294 0.658824 0.772549
0.603922 0.647059 0.764706
0.752941 0.647059 0.772549
0.886275 0.647059 0.768627
1.000000 0.647059 0.756863
0.003922 0.792157 0.760784
0.000000 0.788235 0.756863
0.003922 0.788235 0.768627
0.172549 0.788235 0.752941
0.423529 0.788235 0.756863
0.600000 0.784314 0.752941
0.752941 0.780392 0.752941
0.886275 0.772549 0.749020
0.996078 0.768627 0.764706
0.003922 0.905882 0.745098
0.000000 0.909804 0.737255
0.007843 0.909804 0.749020
0.152941 0.905882 0.741176
0.403922 0.905882 0.737255
0.580392 0.901961 0.745098
0.737255 0.905882 0.737255
0.874510 0.901961 0.737255
1.000000 0.890196 0.737255
0.000000 1.000000 0.721569
0.000000 0.996078 0.741176
0.000000 0.996078 0.741176
0.145098 0.992157 0.729412
0.392157 1.000000 0.733333
0.564706 1.000000 0.733333
0.717647 0.996078 0.729412
0.858824 0.996078 0.737255
0.980392 1.000000 0.733333
0.000000 0.003922 0.886275
0.003922 0.000000 0.886275
0.019608 0.000000 0.878431
0.294118 0.000000 0.878431
0.458824 0.003922 0.878431
0.611765 0.000000 0.882353
0.756863 0.000000 0.882353
0.901961 0.000000 0.882353
0.996078 0.000000 0.886275
0.000000 0.050980 0.882353
0.003922 0.047059 0.882353
0.000000 0.035294 0.882353
0.294118 0.000000 0.890196
0.458824 0.003922 0.886275
0.615686 0.003922 0.886275
0.752941 0.000000 0.882353
0.894118 0.007843 0.878431
1.000000 0.000000 0.878431
0.000000 0.207843 0.882353
0.000000 0.207843 0.890196
0.000000 0.203922 0.878431
0.270588 0.196078 0.890196
0.450980 0.188235 0.886275
0.603922 0.168627 0.882353
0.764706 0.160784 0.890196
0.898039 0.133333 0.878431
1.000000 0.137255 0.866667
0.003922 0.345098 0.890196
0.000000 0.341176 0.886275
0.000000 0.341176 0.894118
0.239216 0.341176 0.886275
0.435294 0.341176 0.878431
0.611765 0.333333 0.890196
0.760784 0.325490 0.886275
0.905882 0.329412 0.890196
0.996078 0.329412 0.878431
0.003922 0.494118 0.878431
0.007843 0.490196 0.886275
0.007843 0.494118 0.878431
0.203922 0.486275 0.886275
0.427451 0.478431 0.878431
0.596078 0.486275 0.886275
0.760784 0.478431 0.878431
0.901961 0.478431 0.874510
1.000000 0.494118 0.866667
0.007843 0.639216 0.890196
0.000000 0.639216 0.886275
0.011765 0.635294 0.882353
0.180392 0.639216 0.890196
0.415686 0.631373 0.882353
0.596078 0.635294 0.874510
0.756863 0.639216 0.890196
0.894118 0.639216 0.874510
0.988235 0.639216 0.866667
0.000000 0.792157 0.878431
0.000000 0.780392 0.870588
0.000000 0.788235 0.874510
0.168627 0.784314 0.890196
0.411765 0.780392 0.878431
0.596078 0.784314 0.874510
0.749020 0.780392 0.870588
0.882353 0.780392 0.878431
1.000000 0.768627 0.878431
0.011765 0.909804 0.866667
0.003922 0.909804 0.866667
0.003922 0.901961 0.858824
0.149020 0.898039 0.858824
0.407843 0.913725 0.866667
0.588235 0.909804 0.854902
0.741176 0.905882 0.866667
0.886275 0.898039 0.854902
1.000000 0.894118 0.858824
0.000000 1.000000 0.850980
0.007843 0.992157 0.850980
0.007843 1.000000 0.847059
0.172549 0.996078 0.839216
0.407843 0.996078 0.847059
0.580392 0.996078 0.847059
0.725490 1.000000 0.847059
0.854902 0.996078 0.847059
0.980392 0.996078 0.850980
0.003922 0.003922 0.976471
0.003922 0.003922 0.976471
0.098039 0.000000 0.976471
0.301961 0.003922 0.968627
0.466667 0.003922 0.972549
0.607843 0.003922 0.960784
0.749020 0.003922 0.968627
0.886275 0.000000 0.976471
1.000000 0.003922 0.968627
0.003922 0.027451 0.976471
0.007843 0.015686 0.968627
0.058824 0.003922 0.964706
0.305882 0.000000 0.972549
0.466667 0.000000 0.964706
0.619608 0.000000 0.968627
0.749020 0.000000 0.964706
0.882353 0.007843 0.960784
0.996078 0.000000 0.964706
0.007843 0.196078 0.972549
0.000000 0.203922 0.976471
0.000000 0.196078 0.960784
0.282353 0.188235 0.972549
0.462745 0.176471 0.972549
0.611765 0.176471 0.972549
0.752941 0.152941 0.964706
0.894118 0.125490 0.964706
1.000000 0.090196 0.968627
0.000000 0.337255 0.964706
0.000000 0.341176 0.976471
0.003922 0.329412 0.964706
0.258824 0.333333 0.976471
0.443137 0.329412 0.980392
0.600000 0.321569 0.972549
0.756863 0.321569 0.976471
0.894118 0.309804 0.976471
1.000000 0.305882 0.972549
0.007843 0.482353 0.964706
0.000000 0.474510 0.964706
0.000000 0.478431 0.964706
0.219608 0.474510 0.968627
0.439216 0.474510 0.980392
0.592157 0.470588 0.976471
0.749020 0.466667 0.968627
0.898039 0.462745 0.972549
1.000000 0.466667 0.968627
0.000000 0.627451 0.960784
0.000000 0.623529 0.972549
0.003922 0.619608 0.968627
0.207843 0.611765 0.972549
0.423529 0.619608 0.968627
0.592157 0.619608 0.964706
0.749020 0.623529 0.960784
0.898039 0.623529 0.968627
1.000000 0.619608 0.952941
0.003922 0.760784 0.960784
0.007843 0.760784 0.952941
0.007843 0.756863 0.960784
0.215686 0.760784 0.960784
0.427451 0.764706 0.964706
0.596078 0.764706 0.960784
0.741176 0.764706 0.952941
0.882353 0.768627 0.949020
1.000000 0.772549 0.952941
0.000000 0.905882 0.945098
0.000000 0.901961 0.960784
0.000000 0.898039 0.956863
0.219608 0.898039 0.960784
0.427451 0.894118 0.949020
0.603922 0.901961 0.952941
0.745098 0.901961 0.941176
0.878431 0.901961 0.949020
1.000000 0.894118 0.952941
0.000000 1.000000 0.941176
0.003922 0.992157 0.933333
0.011765 1.000000 0.941176
0.243137 0.996078 0.933333
0.443137 1.000000 0.937255
0.596078 0.996078 0.933333
0.752941 0.996078 0.937255
0.878431 1.000000 0.941176
0.992157 1.000000 0.945098
0.003922 0.000000 0.996078
0.000000 0.003922 0.996078
0.180392 0.000000 1.000000
0.349020 0.000000 1.000000
0.482353 0.000000 1.000000
0.627451 0.000000 1.000000
0.749020 0.000000 0.996078
0.882353 0.000000 1.000000
1.000000 0.000000 1.000000
0.000000 0.019608 0.996078
0.003922 0.000000 0.996078
0.180392 0.000000 1.000000
0.349020 0.000000 0.996078
0.482353 0.000000 0.996078
0.615686 0.000000 1.000000
0.749020 0.000000 0.996078
0.886275 0.003922 1.000000
1.000000 0.000000 1.000000
0.003922 0.192157 1.000000
0.000000 0.188235 0.984314
0.145098 0.188235 0.988235
0.321569 0.184314 1.000000
0.474510 0.176471 1.000000
0.615686 0.164706 1.000000
0.749020 0.149020 1.000000
0.882353 0.125490 1.000000
0.992157 0.098039 0.996078
0.000000 0.325490 1.000000
0.000000 0.325490 1.000000
0.062745 0.329412 0.992157
0.298039 0.321569 0.996078
0.458824 0.325490 1.000000
0.607843 0.317647 0.996078
0.745098 0.313725 1.000000
0.890196 0.305882 1.000000
1.000000 0.298039 1.000000
0.003922 0.466667 1.000000
0.007843 0.454902 1.000000
0.007843 0.458824 0.996078
0.274510 0.458824 1.000000
0.447059 0.458824 1.000000
0.600000 0.454902 1.000000
0.741176 0.458824 1.000000
0.882353 0.458824 1.000000
1.000000 0.450980 1.000000
0.000000 0.607843 1.000000
0.000000 0.600000 1.000000
0.000000 0.600000 1.000000
0.258824 0.600000 1.000000
0.447059 0.600000 1.000000
0.596078 0.603922 1.000000
0.741176 0.603922 0.996078
0.882353 0.607843 0.996078
0.996078 0.603922 0.988235
0.000000 0.741176 1.000000
0.000000 0.741176 0.996078
0.000000 0.745098 1.000000
0.274510 0.741176 1.000000
0.447059 0.741176 0.988235
0.607843 0.745098 0.996078
0.749020 0.749020 1.000000
0.886275 0.752941 1.000000
1.000000 0.749020 1.000000
0.003922 0.874510 0.996078
0.000000 0.882353 0.992157
0.000000 0.874510 1.000000
0.286275 0.874510 1.000000
0.447059 0.882353 1.000000
0.619608 0.882353 0.996078
0.749020 0.878431 1.000000
0.890196 0.886275 1.000000
0.996078 0.882353 1.000000
0.000000 1.000000 0.988235
0.000000 0.996078 0.996078
0.090196 0.996078 0.996078
0.321569 1.000000 1.000000
0.486275 1.000000 1.000000
0.635294 1.000000 1.000000
0.772549 1.000000 1.000000
0.905882 1.000000 1.000000
1.000000 1.000000 1.000000
