lut_library_archive/removed_20260629/50个风景lut/50个风景lut19.cube
# 版权归凌孟成所有，侵权必究
TITLE "Jungle LUT #19"
#LUT size
LUT_3D_SIZE 9
#LUT data points
0.000000 0.003922 0.000000
0.050980 0.003922 0.003922
0.149020 0.000000 0.000000
0.239216 0.000000 0.000000
0.356863 0.000000 0.000000
0.482353 0.007843 0.011765
0.643137 0.000000 0.000000
0.811765 0.000000 0.000000
0.968627 0.000000 0.000000
0.007843 0.062745 0.011765
0.054902 0.058824 0.000000
0.137255 0.062745 0.007843
0.243137 0.062745 0.003922
0.352941 0.066667 0.011765
0.486275 0.066667 0.003922
0.639216 0.054902 0.000000
0.800000 0.019608 0.000000
0.952941 0.007843 0.011765
0.000000 0.152941 0.003922
0.054902 0.152941 0.000000
0.160784 0.152941 0.003922
0.235294 0.156863 0.011765
0.360784 0.168627 0.039216
0.494118 0.184314 0.015686
0.650980 0.196078 0.003922
0.815686 0.200000 0.000000
0.980392 0.200000 0.000000
0.007843 0.262745 0.000000
0.031373 0.262745 0.000000
0.168627 0.258824 0.000000
0.270588 0.274510 0.007843
0.384314 0.274510 0.000000
0.490196 0.290196 0.043137
0.643137 0.313725 0.039216
0.807843 0.325490 0.019608
0.968627 0.341176 0.003922
0.000000 0.403922 0.000000
0.000000 0.407843 0.000000
0.164706 0.407843 0.003922
0.298039 0.407843 0.003922
0.403922 0.407843 0.000000
0.537255 0.415686 0.000000
0.674510 0.435294 0.000000
0.819608 0.454902 0.082353
0.968627 0.478431 0.094118
0.007843 0.576471 0.000000
0.000000 0.576471 0.000000
0.133333 0.572549 0.000000
0.305882 0.568627 0.011765
0.439216 0.572549 0.000000
0.576471 0.568627 0.000000
0.713725 0.580392 0.003922
0.843137 0.588235 0.000000
0.988235 0.607843 0.105882
0.007843 0.717647 0.000000
0.000000 0.717647 0.007843
0.039216 0.721569 0.000000
0.294118 0.717647 0.003922
0.447059 0.721569 0.000000
0.584314 0.717647 0.000000
0.717647 0.717647 0.000000
0.858824 0.725490 0.000000
0.992157 0.725490 0.000000
0.000000 0.862745 0.000000
0.007843 0.874510 0.011765
0.000000 0.874510 0.007843
0.270588 0.874510 0.003922
0.450980 0.874510 0.000000
0.596078 0.870588 0.000000
0.737255 0.874510 0.000000
0.882353 0.874510 0.003922
1.000000 0.874510 0.000000
0.000000 1.000000 0.003922
0.003922 0.996078 0.000000
0.003922 0.992157 0.000000
0.231373 0.996078 0.000000
0.427451 0.996078 0.000000
0.580392 1.000000 0.000000
0.737255 1.000000 0.000000
0.874510 1.000000 0.003922
1.000000 1.000000 0.000000
0.000000 0.000000 0.078431
0.058824 0.003922 0.070588
0.149020 0.003922 0.082353
0.247059 0.000000 0.082353
0.364706 0.000000 0.074510
0.505882 0.000000 0.078431
0.647059 0.003922 0.070588
0.811765 0.003922 0.054902
0.972549 0.003922 0.054902
0.000000 0.058824 0.070588
0.058824 0.054902 0.074510
0.141176 0.050980 0.082353
0.247059 0.039216 0.078431
0.360784 0.035294 0.082353
0.494118 0.007843 0.078431
0.650980 0.000000 0.074510
0.803922 0.003922 0.062745
0.964706 0.000000 0.062745
0.000000 0.152941 0.078431
0.039216 0.145098 0.070588
0.156863 0.156863 0.062745
0.243137 0.152941 0.094118
0.360784 0.160784 0.086275
0.498039 0.164706 0.086275
0.647059 0.168627 0.078431
0.807843 0.168627 0.070588
0.968627 0.172549 0.074510
0.000000 0.258824 0.062745
0.000000 0.262745 0.054902
0.164706 0.258824 0.054902
0.262745 0.262745 0.050980
0.380392 0.270588 0.086275
0.494118 0.286275 0.113725
0.654902 0.301961 0.105882
0.811765 0.317647 0.098039
0.964706 0.329412 0.098039
0.000000 0.400000 0.000000
0.003922 0.403922 0.003922
0.145098 0.396078 0.007843
0.278431 0.407843 0.000000
0.415686 0.400000 0.007843
0.533333 0.411765 0.000000
0.666667 0.427451 0.082353
0.815686 0.454902 0.137255
0.968627 0.474510 0.145098
0.000000 0.564706 0.003922
0.000000 0.560784 0.003922
0.082353 0.564706 0.000000
0.290196 0.560784 0.003922
0.435294 0.568627 0.000000
0.568627 0.564706 0.000000
0.709804 0.564706 0.007843
0.843137 0.584314 0.003922
0.980392 0.603922 0.164706
0.000000 0.705882 0.000000
0.000000 0.721569 0.000000
0.003922 0.713725 0.000000
0.266667 0.713725 0.000000
0.439216 0.717647 0.000000
0.580392 0.717647 0.003922
0.721569 0.713725 0.000000
0.858824 0.725490 0.007843
1.000000 0.733333 0.000000
0.007843 0.870588 0.000000
0.007843 0.878431 0.003922
0.003922 0.874510 0.000000
0.258824 0.870588 0.000000
0.435294 0.874510 0.003922
0.596078 0.870588 0.000000
0.733333 0.866667 0.000000
0.878431 0.870588 0.000000
1.000000 0.870588 0.011765
0.000000 1.000000 0.000000
0.000000 1.000000 0.000000
0.003922 0.992157 0.007843
0.223529 1.000000 0.007843
0.423529 1.000000 0.003922
0.580392 1.000000 0.000000
0.725490 1.000000 0.000000
0.874510 1.000000 0.007843
1.000000 1.000000 0.000000
0.000000 0.000000 0.180392
0.054902 0.003922 0.176471
0.152941 0.000000 0.176471
0.258824 0.000000 0.180392
0.368627 0.000000 0.211765
0.509804 0.003922 0.196078
0.666667 0.000000 0.203922
0.831373 0.003922 0.188235
0.992157 0.000000 0.180392
0.000000 0.050980 0.188235
0.050980 0.047059 0.180392
0.160784 0.043137 0.192157
0.247059 0.027451 0.180392
0.380392 0.003922 0.200000
0.509804 0.000000 0.203922
0.662745 0.000000 0.184314
0.839216 0.000000 0.180392
0.984314 0.000000 0.168627
0.000000 0.149020 0.188235
0.015686 0.149020 0.192157
0.152941 0.145098 0.196078
0.254902 0.149020 0.184314
0.392157 0.133333 0.180392
0.529412 0.109804 0.188235
0.666667 0.086275 0.188235
0.823529 0.054902 0.180392
0.984314 0.039216 0.176471
0.000000 0.258824 0.188235
0.000000 0.258824 0.188235
0.117647 0.262745 0.184314
0.266667 0.266667 0.172549
0.376471 0.270588 0.203922
0.505882 0.274510 0.203922
0.670588 0.286275 0.196078
0.827451 0.290196 0.196078
0.976471 0.298039 0.203922
0.000000 0.403922 0.176471
0.000000 0.403922 0.156863
0.054902 0.407843 0.168627
0.258824 0.400000 0.149020
0.403922 0.403922 0.160784
0.533333 0.407843 0.176471
0.670588 0.427451 0.227451
0.827451 0.447059 0.231373
0.968627 0.458824 0.231373
0.007843 0.560784 0.141176
0.000000 0.572549 0.133333
0.003922 0.568627 0.125490
0.254902 0.564706 0.133333
0.431373 0.564706 0.121569
0.572549 0.560784 0.117647
0.705882 0.564706 0.117647
0.839216 0.580392 0.203922
0.980392 0.600000 0.290196
0.000000 0.713725 0.015686
0.000000 0.713725 0.027451
0.000000 0.725490 0.023529
0.223529 0.713725 0.007843
0.419608 0.709804 0.000000
0.576471 0.713725 0.000000
0.721569 0.721569 0.000000
0.878431 0.721569 0.003922
1.000000 0.725490 0.176471
0.003922 0.874510 0.000000
0.000000 0.870588 0.003922
0.003922 0.866667 0.000000
0.207843 0.870588 0.011765
0.419608 0.866667 0.003922
0.576471 0.870588 0.000000
0.725490 0.862745 0.007843
0.878431 0.870588 0.000000
0.996078 0.870588 0.000000
0.000000 1.000000 0.000000
0.007843 0.996078 0.011765
0.000000 1.000000 0.000000
0.164706 0.996078 0.003922
0.403922 1.000000 0.000000
0.576471 0.996078 0.000000
0.725490 1.000000 0.000000
0.870588 1.000000 0.003922
1.000000 1.000000 0.000000
0.007843 0.003922 0.317647
0.062745 0.000000 0.309804
0.176471 0.003922 0.313725
0.278431 0.000000 0.305882
0.384314 0.000000 0.317647
0.513725 0.007843 0.341176
0.670588 0.000000 0.345098
0.831373 0.003922 0.352941
0.996078 0.000000 0.341176
0.003922 0.043137 0.313725
0.035294 0.035294 0.317647
0.152941 0.023529 0.301961
0.282353 0.000000 0.321569
0.380392 0.000000 0.305882
0.517647 0.003922 0.325490
0.666667 0.000000 0.345098
0.827451 0.000000 0.341176
0.992157 0.000000 0.333333
0.000000 0.149020 0.317647
0.007843 0.137255 0.313725
0.145098 0.137255 0.333333
0.278431 0.129412 0.321569
0.400000 0.113725 0.329412
0.537255 0.090196 0.333333
0.678431 0.007843 0.337255
0.850980 0.000000 0.333333
0.996078 0.000000 0.313725
0.000000 0.266667 0.317647
0.003922 0.270588 0.321569
0.082353 0.270588 0.325490
0.258824 0.250980 0.333333
0.403922 0.254902 0.321569
0.533333 0.239216 0.317647
0.701961 0.223529 0.321569
0.850980 0.219608 0.321569
1.000000 0.223529 0.321569
0.000000 0.403922 0.337255
0.000000 0.400000 0.337255
0.003922 0.400000 0.329412
0.231373 0.403922 0.313725
0.407843 0.400000 0.309804
0.545098 0.403922 0.341176
0.686275 0.419608 0.345098
0.839216 0.427451 0.345098
0.996078 0.447059 0.364706
0.000000 0.568627 0.329412
0.011765 0.564706 0.329412
0.000000 0.572549 0.325490
0.180392 0.568627 0.313725
0.407843 0.568627 0.309804
0.572549 0.560784 0.290196
0.713725 0.564706 0.309804
0.843137 0.584314 0.380392
0.976471 0.611765 0.411765
0.003922 0.717647 0.274510
0.000000 0.721569 0.282353
0.000000 0.721569 0.274510
0.109804 0.721569 0.270588
0.396078 0.721569 0.258824
0.568627 0.721569 0.262745
0.721569 0.717647 0.254902
0.878431 0.721569 0.278431
0.988235 0.729412 0.360784
0.003922 0.870588 0.243137
0.003922 0.870588 0.243137
0.000000 0.874510 0.250980
0.070588 0.878431 0.243137
0.376471 0.874510 0.227451
0.564706 0.874510 0.219608
0.725490 0.870588 0.215686
0.878431 0.874510 0.223529
0.992157 0.870588 0.211765
0.000000 0.996078 0.172549
0.003922 1.000000 0.176471
0.011765 0.996078 0.168627
0.007843 0.992157 0.160784
0.376471 1.000000 0.160784
0.556863 1.000000 0.160784
0.721569 0.996078 0.160784
0.862745 1.000000 0.145098
1.000000 1.000000 0.145098
0.000000 0.000000 0.470588
0.062745 0.000000 0.462745
0.196078 0.000000 0.462745
0.305882 0.000000 0.462745
0.419608 0.007843 0.474510
0.541176 0.000000 0.474510
0.682353 0.000000 0.490196
0.831373 0.000000 0.501961
1.000000 0.000000 0.509804
0.000000 0.011765 0.462745
0.000000 0.007843 0.458824
0.172549 0.000000 0.474510
0.301961 0.000000 0.462745
0.427451 0.003922 0.474510
0.541176 0.000000 0.474510
0.674510 0.003922 0.482353
0.843137 0.003922 0.490196
0.992157 0.007843 0.490196
0.000000 0.137255 0.482353
0.000000 0.137255 0.474510
0.125490 0.121569 0.486275
0.274510 0.113725 0.474510
0.411765 0.078431 0.482353
0.545098 0.023529 0.474510
0.686275 0.000000 0.490196
0.847059 0.000000 0.490196
0.996078 0.000000 0.486275
0.000000 0.274510 0.474510
0.000000 0.274510 0.478431
0.000000 0.250980 0.470588
0.239216 0.247059 0.478431
0.407843 0.227451 0.478431
0.556863 0.227451 0.478431
0.701961 0.203922 0.482353
0.850980 0.168627 0.486275
1.000000 0.094118 0.470588
0.000000 0.407843 0.490196
0.000000 0.415686 0.486275
0.003922 0.403922 0.482353
0.200000 0.400000 0.482353
0.396078 0.388235 0.478431
0.556863 0.384314 0.482353
0.713725 0.384314 0.478431
0.854902 0.388235 0.474510
1.000000 0.392157 0.478431
0.003922 0.568627 0.498039
0.003922 0.568627 0.498039
0.000000 0.564706 0.494118
0.125490 0.568627 0.498039
0.376471 0.564706 0.478431
0.564706 0.560784 0.482353
0.709804 0.564706 0.494118
0.847059 0.592157 0.521569
0.988235 0.603922 0.529412
0.000000 0.721569 0.470588
0.000000 0.729412 0.482353
0.000000 0.725490 0.462745
0.000000 0.725490 0.450980
0.360784 0.725490 0.447059
0.556863 0.717647 0.450980
0.725490 0.713725 0.443137
0.870588 0.721569 0.474510
1.000000 0.741176 0.545098
0.003922 0.874510 0.431373
0.000000 0.878431 0.427451
0.000000 0.874510 0.439216
0.000000 0.878431 0.431373
0.352941 0.870588 0.431373
0.552941 0.878431 0.431373
0.721569 0.870588 0.427451
0.878431 0.870588 0.427451
1.000000 0.866667 0.443137
0.000000 1.000000 0.400000
0.000000 1.000000 0.403922
0.003922 1.000000 0.403922
0.000000 0.996078 0.400000
0.360784 0.996078 0.388235
0.545098 1.000000 0.400000
0.713725 1.000000 0.403922
0.866667 1.000000 0.407843
1.000000 0.996078 0.392157
0.007843 0.000000 0.631373
0.039216 0.000000 0.631373
0.196078 0.000000 0.623529
0.321569 0.000000 0.635294
0.443137 0.003922 0.639216
0.564706 0.000000 0.623529
0.698039 0.003922 0.631373
0.831373 0.000000 0.643137
0.988235 0.003922 0.658824
0.000000 0.000000 0.627451
0.000000 0.000000 0.623529
0.168627 0.003922 0.639216
0.305882 0.000000 0.639216
0.431373 0.003922 0.615686
0.556863 0.003922 0.627451
0.694118 0.003922 0.635294
0.850980 0.003922 0.650980
0.996078 0.000000 0.658824
0.000000 0.113725 0.639216
0.003922 0.109804 0.631373
0.090196 0.098039 0.631373
0.270588 0.082353 0.623529
0.427451 0.019608 0.635294
0.556863 0.000000 0.635294
0.694118 0.003922 0.635294
0.850980 0.003922 0.650980
0.988235 0.007843 0.635294
0.000000 0.250980 0.635294
0.000000 0.243137 0.627451
0.003922 0.227451 0.631373
0.235294 0.223529 0.635294
0.407843 0.211765 0.647059
0.549020 0.196078 0.639216
0.709804 0.168627 0.643137
0.858824 0.125490 0.647059
0.992157 0.027451 0.635294
0.011765 0.396078 0.635294
0.000000 0.400000 0.639216
0.003922 0.396078 0.639216
0.133333 0.388235 0.647059
0.384314 0.372549 0.650980
0.552941 0.368627 0.650980
0.721569 0.360784 0.647059
0.870588 0.356863 0.639216
0.992157 0.337255 0.611765
0.003922 0.560784 0.654902
0.000000 0.556863 0.643137
0.000000 0.556863 0.650980
0.019608 0.552941 0.647059
0.360784 0.541176 0.635294
0.545098 0.549020 0.635294
0.721569 0.545098 0.635294
0.874510 0.556863 0.631373
0.992157 0.564706 0.639216
0.000000 0.713725 0.647059
0.000000 0.721569 0.643137
0.003922 0.717647 0.650980
0.000000 0.717647 0.631373
0.317647 0.717647 0.623529
0.549020 0.721569 0.631373
0.717647 0.713725 0.627451
0.854902 0.729412 0.670588
0.976471 0.752941 0.678431
0.000000 0.882353 0.631373
0.000000 0.882353 0.623529
0.003922 0.874510 0.619608
0.000000 0.870588 0.607843
0.298039 0.878431 0.603922
0.549020 0.870588 0.611765
0.713725 0.874510 0.607843
0.874510 0.870588 0.607843
0.992157 0.866667 0.635294
0.003922 0.992157 0.580392
0.003922 1.000000 0.576471
0.003922 0.996078 0.572549
0.000000 1.000000 0.576471
0.360784 0.996078 0.588235
0.549020 1.000000 0.588235
0.717647 1.000000 0.592157
0.862745 1.000000 0.592157
0.996078 1.000000 0.592157
0.003922 0.000000 0.768627
0.007843 0.000000 0.780392
0.188235 0.000000 0.776471
0.321569 0.000000 0.776471
0.450980 0.003922 0.784314
0.576471 0.003922 0.784314
0.705882 0.003922 0.780392
0.831373 0.000000 0.788235
0.996078 0.007843 0.803922
0.000000 0.000000 0.776471
0.000000 0.003922 0.772549
0.160784 0.003922 0.776471
0.309804 0.003922 0.784314
0.447059 0.000000 0.788235
0.580392 0.000000 0.784314
0.698039 0.000000 0.776471
0.831373 0.000000 0.788235
0.992157 0.000000 0.803922
0.003922 0.086275 0.772549
0.011765 0.086275 0.784314
0.058824 0.058824 0.772549
0.294118 0.019608 0.788235
0.423529 0.000000 0.784314
0.564706 0.000000 0.788235
0.698039 0.000000 0.776471
0.847059 0.000000 0.788235
1.000000 0.000000 0.807843
0.000000 0.231373 0.788235
0.000000 0.223529 0.788235
0.000000 0.219608 0.788235
0.203922 0.211765 0.788235
0.396078 0.200000 0.792157
0.552941 0.180392 0.792157
0.701961 0.141176 0.796078
0.858824 0.074510 0.803922
1.000000 0.000000 0.807843
0.000000 0.388235 0.784314
0.000000 0.388235 0.792157
0.000000 0.376471 0.784314
0.003922 0.364706 0.792157
0.360784 0.364706 0.788235
0.545098 0.349020 0.800000
0.701961 0.337255 0.788235
0.866667 0.329412 0.792157
1.000000 0.309804 0.796078
0.007843 0.541176 0.800000
0.007843 0.545098 0.788235
0.003922 0.541176 0.792157
0.000000 0.537255 0.780392
0.325490 0.537255 0.788235
0.529412 0.525490 0.788235
0.709804 0.525490 0.800000
0.878431 0.525490 0.800000
1.000000 0.521569 0.776471
0.003922 0.694118 0.784314
0.000000 0.701961 0.784314
0.000000 0.701961 0.792157
0.000000 0.694118 0.796078
0.329412 0.701961 0.788235
0.537255 0.701961 0.796078
0.717647 0.705882 0.788235
0.874510 0.713725 0.776471
1.000000 0.725490 0.768627
0.007843 0.870588 0.792157
0.007843 0.870588 0.792157
0.000000 0.874510 0.800000
0.000000 0.878431 0.807843
0.266667 0.874510 0.792157
0.513725 0.878431 0.772549
0.717647 0.866667 0.768627
0.862745 0.874510 0.768627
0.996078 0.874510 0.803922
0.000000 1.000000 0.764706
0.003922 0.996078 0.764706
0.000000 0.992157 0.760784
0.003922 1.000000 0.756863
0.294118 1.000000 0.745098
0.537255 1.000000 0.756863
0.733333 1.000000 0.760784
0.866667 1.000000 0.760784
1.000000 0.996078 0.756863
0.003922 0.000000 0.913725
0.000000 0.000000 0.925490
0.184314 0.003922 0.917647
0.313725 0.003922 0.917647
0.443137 0.000000 0.917647
0.580392 0.000000 0.917647
0.705882 0.003922 0.921569
0.831373 0.000000 0.921569
0.964706 0.003922 0.925490
0.000000 0.003922 0.917647
0.000000 0.000000 0.909804
0.125490 0.000000 0.921569
0.305882 0.000000 0.933333
0.443137 0.003922 0.913725
0.580392 0.000000 0.917647
0.698039 0.000000 0.925490
0.823529 0.003922 0.921569
0.976471 0.000000 0.933333
0.007843 0.039216 0.913725
0.003922 0.039216 0.929412
0.000000 0.011765 0.917647
0.266667 0.000000 0.921569
0.419608 0.000000 0.925490
0.560784 0.003922 0.921569
0.701961 0.003922 0.921569
0.839216 0.000000 0.925490
0.976471 0.000000 0.933333
0.000000 0.203922 0.917647
0.000000 0.211765 0.909804
0.000000 0.203922 0.925490
0.192157 0.196078 0.933333
0.384314 0.184314 0.929412
0.545098 0.152941 0.921569
0.686275 0.117647 0.921569
0.819608 0.043137 0.925490
0.976471 0.000000 0.933333
0.003922 0.368627 0.921569
0.000000 0.368627 0.925490
0.011765 0.356863 0.929412
0.007843 0.352941 0.925490
0.341176 0.345098 0.933333
0.529412 0.337255 0.937255
0.682353 0.325490 0.933333
0.843137 0.317647 0.933333
0.992157 0.301961 0.933333
0.003922 0.533333 0.925490
0.011765 0.533333 0.929412
0.000000 0.529412 0.929412
0.000000 0.525490 0.917647
0.321569 0.525490 0.921569
0.521569 0.513725 0.933333
0.694118 0.517647 0.929412
0.850980 0.517647 0.925490
0.992157 0.509804 0.933333
0.000000 0.682353 0.921569
0.000000 0.682353 0.921569
0.000000 0.678431 0.929412
0.000000 0.690196 0.925490
0.337255 0.682353 0.921569
0.537255 0.694118 0.925490
0.698039 0.701961 0.925490
0.866667 0.698039 0.917647
0.996078 0.701961 0.925490
0.007843 0.835294 0.933333
0.003922 0.835294 0.917647
0.003922 0.835294 0.917647
0.007843 0.831373 0.917647
0.352941 0.839216 0.917647
0.545098 0.847059 0.917647
0.713725 0.850980 0.925490
0.874510 0.866667 0.917647
0.996078 0.878431 0.909804
0.007843 0.996078 0.929412
0.007843 1.000000 0.933333
0.011765 1.000000 0.941176
0.003922 1.000000 0.929412
0.313725 1.000000 0.917647
0.537255 1.000000 0.917647
0.725490 1.000000 0.898039
0.886275 1.000000 0.913725
1.000000 0.996078 0.909804
0.000000 0.000000 0.996078
0.003922 0.000000 0.996078
0.137255 0.000000 1.000000
0.298039 0.000000 1.000000
0.431373 0.000000 1.000000
0.564706 0.003922 1.000000
0.690196 0.000000 0.992157
0.823529 0.007843 0.996078
0.968627 0.000000 1.000000
0.000000 0.003922 0.988235
0.000000 0.000000 0.996078
0.105882 0.000000 1.000000
0.286275 0.000000 1.000000
0.419608 0.000000 0.996078
0.556863 0.000000 0.996078
0.686275 0.000000 1.000000
0.831373 0.003922 1.000000
0.972549 0.007843 1.000000
0.003922 0.003922 1.000000
0.000000 0.003922 0.988235
0.003922 0.003922 1.000000
0.235294 0.000000 0.996078
0.415686 0.000000 1.000000
0.549020 0.000000 1.000000
0.682353 0.003922 1.000000
0.827451 0.000000 1.000000
0.980392 0.000000 1.000000
0.003922 0.200000 1.000000
0.007843 0.188235 1.000000
0.000000 0.192157 0.996078
0.164706 0.180392 1.000000
0.376471 0.160784 1.000000
0.533333 0.137255 1.000000
0.678431 0.101961 1.000000
0.823529 0.007843 1.000000
0.976471 0.003922 1.000000
0.000000 0.349020 1.000000
0.000000 0.345098 0.996078
0.000000 0.341176 0.992157
0.003922 0.333333 0.992157
0.325490 0.333333 1.000000
0.505882 0.325490 0.996078
0.670588 0.317647 1.000000
0.831373 0.309804 1.000000
0.988235 0.282353 1.000000
0.000000 0.529412 1.000000
0.007843 0.525490 0.992157
0.007843 0.525490 1.000000
0.074510 0.521569 1.000000
0.305882 0.498039 1.000000
0.509804 0.498039 1.000000
0.670588 0.505882 1.000000
0.839216 0.505882 1.000000
1.000000 0.509804 0.988235
0.003922 0.670588 1.000000
0.003922 0.670588 0.996078
0.007843 0.674510 1.000000
0.133333 0.674510 1.000000
0.388235 0.682353 1.000000
0.552941 0.690196 1.000000
0.686275 0.678431 1.000000
0.854902 0.686275 0.996078
0.996078 0.686275 1.000000
0.007843 0.823529 1.000000
0.019608 0.815686 1.000000
0.000000 0.823529 1.000000
0.192157 0.827451 1.000000
0.411765 0.835294 1.000000
0.588235 0.843137 1.000000
0.741176 0.858824 1.000000
0.890196 0.870588 1.000000
0.996078 0.874510 0.996078
0.011765 0.937255 1.000000
0.000000 0.945098 1.000000
0.129412 0.949020 1.000000
0.325490 0.949020 1.000000
0.501961 0.956863 1.000000
0.658824 0.960784 1.000000
0.815686 0.972549 1.000000
0.949020 0.984314 1.000000
1.000000 1.000000 0.992157
