lut_library_archive/removed_20260629/50个风景lut/50个风景lut14.cube
# 版权归凌孟成所有，侵权必究
TITLE "Jungle LUT #14"
#LUT size
LUT_3D_SIZE 5
#LUT data points
0.000000 0.003922 0.000000
0.247059 0.000000 0.000000
0.537255 0.000000 0.000000
0.823529 0.003922 0.000000
0.996078 0.003922 0.000000
0.007843 0.250980 0.003922
0.254902 0.250980 0.000000
0.545098 0.250980 0.000000
0.823529 0.254902 0.000000
1.000000 0.243137 0.000000
0.000000 0.549020 0.000000
0.250980 0.552941 0.000000
0.552941 0.549020 0.000000
0.827451 0.545098 0.003922
1.000000 0.541176 0.000000
0.000000 0.827451 0.000000
0.243137 0.831373 0.000000
0.549020 0.823529 0.000000
0.823529 0.823529 0.000000
0.996078 0.823529 0.000000
0.000000 1.000000 0.000000
0.235294 1.000000 0.003922
0.517647 1.000000 0.000000
0.780392 1.000000 0.000000
0.992157 1.000000 0.011765
0.000000 0.000000 0.231373
0.254902 0.000000 0.227451
0.541176 0.000000 0.231373
0.827451 0.003922 0.227451
1.000000 0.000000 0.215686
0.003922 0.247059 0.235294
0.266667 0.254902 0.235294
0.552941 0.247059 0.231373
0.823529 0.239216 0.215686
1.000000 0.231373 0.207843
0.000000 0.549020 0.207843
0.243137 0.549020 0.203922
0.552941 0.545098 0.203922
0.827451 0.537255 0.200000
0.996078 0.537255 0.192157
0.007843 0.823529 0.184314
0.227451 0.823529 0.176471
0.537255 0.819608 0.176471
0.827451 0.823529 0.172549
0.988235 0.811765 0.164706
0.000000 1.000000 0.184314
0.223529 0.996078 0.188235
0.517647 1.000000 0.200000
0.772549 1.000000 0.215686
1.000000 0.996078 0.254902
0.000000 0.003922 0.525490
0.258824 0.000000 0.533333
0.549020 0.000000 0.545098
0.831373 0.000000 0.541176
1.000000 0.000000 0.533333
0.007843 0.239216 0.545098
0.247059 0.243137 0.541176
0.556863 0.231373 0.545098
0.831373 0.227451 0.533333
1.000000 0.227451 0.517647
0.003922 0.541176 0.541176
0.227451 0.549020 0.533333
0.545098 0.545098 0.537255
0.827451 0.537255 0.533333
1.000000 0.529412 0.533333
0.003922 0.823529 0.525490
0.188235 0.823529 0.517647
0.537255 0.827451 0.525490
0.819608 0.823529 0.517647
1.000000 0.815686 0.517647
0.003922 1.000000 0.509804
0.254902 1.000000 0.513725
0.521569 1.000000 0.509804
0.776471 1.000000 0.529412
0.996078 1.000000 0.533333
0.000000 0.000000 0.823529
0.250980 0.000000 0.823529
0.541176 0.000000 0.819608
0.819608 0.000000 0.815686
0.996078 0.000000 0.811765
0.003922 0.219608 0.815686
0.243137 0.223529 0.827451
0.537255 0.219608 0.823529
0.819608 0.203922 0.819608
1.000000 0.203922 0.811765
0.007843 0.525490 0.807843
0.188235 0.533333 0.815686
0.529412 0.529412 0.819608
0.827451 0.529412 0.823529
1.000000 0.529412 0.819608
0.007843 0.819608 0.819608
0.172549 0.811765 0.823529
0.517647 0.823529 0.823529
0.819608 0.819608 0.819608
1.000000 0.819608 0.819608
0.160784 0.992157 0.800000
0.325490 1.000000 0.792157
0.584314 1.000000 0.807843
0.819608 1.000000 0.819608
1.000000 1.000000 0.827451
0.000000 0.000000 0.996078
0.243137 0.003922 0.996078
0.521569 0.000000 1.000000
0.788235 0.000000 0.996078
1.000000 0.000000 1.000000
0.000000 0.219608 0.996078
0.231373 0.227451 1.000000
0.521569 0.223529 1.000000
0.788235 0.223529 1.000000
1.000000 0.227451 0.996078
0.003922 0.509804 1.000000
0.235294 0.513725 1.000000
0.521569 0.513725 0.996078
0.788235 0.521569 1.000000
0.996078 0.521569 0.996078
0.160784 0.776471 1.000000
0.317647 0.780392 1.000000
0.568627 0.792157 1.000000
0.807843 0.807843 1.000000
1.000000 0.819608 1.000000
0.392157 1.000000 1.000000
0.482353 0.996078 1.000000
0.670588 1.000000 1.000000
0.905882 1.000000 1.000000
1.000000 1.000000 1.000000
