lut_library_archive/removed_20260629/50个风景lut/50个风景lut40.cube
# 版权归凌孟成所有，侵权必究
TITLE "Jungle LUT #40"
#LUT size
LUT_3D_SIZE 25
#LUT data points
0.047059 0.050980 0.058824
0.066667 0.050980 0.054902
0.094118 0.047059 0.054902
0.125490 0.047059 0.050980
0.164706 0.039216 0.050980
0.207843 0.043137 0.050980
0.243137 0.047059 0.050980
0.274510 0.047059 0.043137
0.301961 0.043137 0.043137
0.341176 0.043137 0.043137
0.384314 0.050980 0.043137
0.427451 0.054902 0.039216
0.470588 0.058824 0.043137
0.521569 0.062745 0.035294
0.568627 0.066667 0.031373
0.611765 0.070588 0.031373
0.666667 0.070588 0.027451
0.713725 0.070588 0.027451
0.760784 0.074510 0.015686
0.807843 0.074510 0.007843
0.854902 0.078431 0.003922
0.898039 0.082353 0.003922
0.949020 0.086275 0.000000
0.996078 0.086275 0.000000
0.996078 0.090196 0.000000
0.043137 0.066667 0.050980
0.066667 0.070588 0.047059
0.098039 0.078431 0.054902
0.129412 0.078431 0.054902
0.176471 0.070588 0.043137
0.207843 0.070588 0.054902
0.247059 0.074510 0.039216
0.266667 0.078431 0.039216
0.309804 0.078431 0.047059
0.345098 0.078431 0.043137
0.388235 0.082353 0.043137
0.431373 0.086275 0.047059
0.466667 0.082353 0.039216
0.513725 0.086275 0.035294
0.568627 0.090196 0.039216
0.619608 0.098039 0.039216
0.662745 0.098039 0.027451
0.709804 0.098039 0.019608
0.760784 0.101961 0.019608
0.811765 0.105882 0.015686
0.854902 0.113725 0.007843
0.901961 0.109804 0.000000
0.941176 0.109804 0.000000
0.996078 0.105882 0.007843
1.000000 0.105882 0.000000
0.039216 0.101961 0.050980
0.070588 0.101961 0.043137
0.094118 0.105882 0.039216
0.133333 0.105882 0.043137
0.168627 0.098039 0.043137
0.200000 0.098039 0.039216
0.231373 0.101961 0.035294
0.270588 0.101961 0.039216
0.309804 0.101961 0.039216
0.352941 0.105882 0.039216
0.388235 0.101961 0.035294
0.431373 0.105882 0.035294
0.474510 0.109804 0.039216
0.517647 0.117647 0.039216
0.564706 0.113725 0.031373
0.615686 0.121569 0.035294
0.658824 0.121569 0.019608
0.709804 0.125490 0.015686
0.760784 0.129412 0.019608
0.803922 0.129412 0.011765
0.854902 0.133333 0.000000
0.898039 0.129412 0.000000
0.949020 0.133333 0.000000
0.996078 0.141176 0.000000
1.000000 0.137255 0.003922
0.039216 0.141176 0.035294
0.062745 0.133333 0.039216
0.098039 0.129412 0.039216
0.137255 0.137255 0.027451
0.168627 0.125490 0.039216
0.200000 0.137255 0.035294
0.243137 0.141176 0.043137
0.278431 0.137255 0.043137
0.309804 0.137255 0.039216
0.349020 0.137255 0.043137
0.392157 0.141176 0.043137
0.431373 0.141176 0.043137
0.470588 0.141176 0.039216
0.521569 0.149020 0.039216
0.568627 0.149020 0.039216
0.619608 0.152941 0.027451
0.666667 0.156863 0.023529
0.713725 0.160784 0.019608
0.764706 0.160784 0.019608
0.803922 0.156863 0.007843
0.847059 0.160784 0.007843
0.901961 0.164706 0.000000
0.945098 0.172549 0.007843
0.992157 0.168627 0.000000
0.996078 0.172549 0.000000
0.043137 0.164706 0.031373
0.070588 0.168627 0.043137
0.105882 0.164706 0.035294
0.133333 0.168627 0.047059
0.164706 0.168627 0.043137
0.207843 0.172549 0.043137
0.239216 0.164706 0.035294
0.270588 0.168627 0.039216
0.313725 0.172549 0.047059
0.349020 0.172549 0.043137
0.388235 0.176471 0.043137
0.423529 0.172549 0.035294
0.478431 0.184314 0.039216
0.517647 0.184314 0.035294
0.568627 0.184314 0.031373
0.615686 0.188235 0.027451
0.662745 0.188235 0.019608
0.709804 0.192157 0.011765
0.756863 0.192157 0.007843
0.807843 0.196078 0.003922
0.854902 0.200000 0.000000
0.898039 0.203922 0.000000
0.941176 0.203922 0.000000
0.992157 0.203922 0.000000
0.992157 0.203922 0.000000
0.047059 0.207843 0.043137
0.066667 0.203922 0.039216
0.101961 0.207843 0.047059
0.133333 0.203922 0.039216
0.172549 0.203922 0.043137
0.203922 0.207843 0.043137
0.239216 0.211765 0.039216
0.278431 0.203922 0.039216
0.317647 0.211765 0.043137
0.345098 0.211765 0.035294
0.388235 0.215686 0.039216
0.427451 0.215686 0.035294
0.478431 0.219608 0.031373
0.521569 0.223529 0.031373
0.568627 0.227451 0.027451
0.623529 0.231373 0.035294
0.666667 0.235294 0.003922
0.709804 0.231373 0.000000
0.760784 0.235294 0.003922
0.807843 0.235294 0.000000
0.858824 0.243137 0.003922
0.905882 0.239216 0.000000
0.952941 0.243137 0.000000
1.000000 0.239216 0.000000
1.000000 0.239216 0.000000
0.054902 0.243137 0.039216
0.074510 0.243137 0.035294
0.098039 0.243137 0.039216
0.129412 0.239216 0.039216
0.168627 0.239216 0.043137
0.192157 0.243137 0.035294
0.227451 0.243137 0.043137
0.270588 0.243137 0.039216
0.313725 0.247059 0.043137
0.352941 0.247059 0.039216
0.392157 0.247059 0.035294
0.435294 0.250980 0.039216
0.474510 0.254902 0.031373
0.525490 0.254902 0.023529
0.572549 0.266667 0.031373
0.623529 0.266667 0.011765
0.662745 0.266667 0.007843
0.713725 0.270588 0.003922
0.760784 0.274510 0.000000
0.815686 0.274510 0.000000
0.862745 0.282353 0.007843
0.913725 0.278431 0.000000
0.952941 0.278431 0.003922
0.992157 0.278431 0.000000
1.000000 0.282353 0.000000
0.039216 0.282353 0.035294
0.086275 0.282353 0.043137
0.105882 0.278431 0.031373
0.141176 0.282353 0.039216
0.168627 0.278431 0.039216
0.203922 0.282353 0.035294
0.243137 0.282353 0.035294
0.282353 0.282353 0.039216
0.321569 0.286275 0.031373
0.356863 0.286275 0.027451
0.396078 0.290196 0.027451
0.439216 0.294118 0.027451
0.478431 0.294118 0.019608
0.521569 0.298039 0.019608
0.572549 0.301961 0.007843
0.627451 0.305882 0.015686
0.670588 0.305882 0.003922
0.713725 0.309804 0.000000
0.764706 0.313725 0.000000
0.811765 0.313725 0.003922
0.858824 0.317647 0.000000
0.898039 0.317647 0.000000
0.952941 0.317647 0.000000
0.996078 0.321569 0.007843
1.000000 0.325490 0.000000
0.054902 0.313725 0.031373
0.086275 0.321569 0.031373
0.109804 0.317647 0.035294
0.125490 0.325490 0.023529
0.176471 0.325490 0.031373
0.203922 0.321569 0.031373
0.243137 0.321569 0.035294
0.282353 0.321569 0.035294
0.321569 0.325490 0.027451
0.360784 0.325490 0.023529
0.396078 0.329412 0.015686
0.443137 0.333333 0.015686
0.482353 0.333333 0.015686
0.529412 0.341176 0.007843
0.580392 0.345098 0.007843
0.627451 0.349020 0.003922
0.670588 0.352941 0.003922
0.721569 0.352941 0.007843
0.764706 0.352941 0.000000
0.811765 0.352941 0.000000
0.854902 0.360784 0.000000
0.909804 0.356863 0.003922
0.960784 0.352941 0.000000
0.996078 0.356863 0.007843
0.996078 0.360784 0.000000
0.054902 0.360784 0.031373
0.074510 0.360784 0.011765
0.101961 0.368627 0.027451
0.133333 0.360784 0.019608
0.168627 0.364706 0.015686
0.211765 0.368627 0.019608
0.247059 0.364706 0.011765
0.286275 0.364706 0.015686
0.325490 0.364706 0.015686
0.364706 0.364706 0.011765
0.407843 0.364706 0.011765
0.450980 0.368627 0.011765
0.490196 0.380392 0.000000
0.537255 0.380392 0.000000
0.580392 0.384314 0.003922
0.631373 0.388235 0.003922
0.670588 0.388235 0.003922
0.717647 0.388235 0.000000
0.768627 0.396078 0.000000
0.815686 0.396078 0.000000
0.858824 0.396078 0.003922
0.905882 0.400000 0.003922
0.960784 0.400000 0.007843
1.000000 0.400000 0.003922
1.000000 0.400000 0.000000
0.054902 0.419608 0.003922
0.078431 0.411765 0.003922
0.113725 0.415686 0.007843
0.145098 0.415686 0.000000
0.180392 0.407843 0.003922
0.207843 0.407843 0.000000
0.250980 0.411765 0.000000
0.301961 0.415686 0.000000
0.341176 0.415686 0.003922
0.380392 0.415686 0.003922
0.419608 0.415686 0.000000
0.458824 0.415686 0.000000
0.505882 0.423529 0.003922
0.552941 0.427451 0.003922
0.596078 0.423529 0.000000
0.643137 0.431373 0.003922
0.682353 0.439216 0.003922
0.725490 0.439216 0.000000
0.772549 0.435294 0.000000
0.819608 0.439216 0.000000
0.862745 0.443137 0.000000
0.905882 0.439216 0.000000
0.956863 0.443137 0.000000
1.000000 0.447059 0.003922
1.000000 0.447059 0.000000
0.050980 0.462745 0.000000
0.074510 0.454902 0.000000
0.105882 0.454902 0.000000
0.141176 0.458824 0.000000
0.180392 0.454902 0.007843
0.211765 0.458824 0.000000
0.250980 0.458824 0.000000
0.290196 0.458824 0.000000
0.333333 0.462745 0.003922
0.380392 0.462745 0.000000
0.419608 0.462745 0.000000
0.462745 0.466667 0.000000
0.501961 0.466667 0.000000
0.549020 0.470588 0.000000
0.596078 0.474510 0.000000
0.639216 0.474510 0.003922
0.690196 0.474510 0.007843
0.733333 0.474510 0.000000
0.776471 0.478431 0.000000
0.827451 0.482353 0.000000
0.874510 0.482353 0.003922
0.921569 0.486275 0.003922
0.960784 0.486275 0.003922
0.996078 0.490196 0.000000
0.992157 0.486275 0.000000
0.054902 0.505882 0.007843
0.078431 0.494118 0.000000
0.109804 0.509804 0.007843
0.145098 0.505882 0.007843
0.172549 0.505882 0.000000
0.223529 0.509804 0.000000
0.262745 0.505882 0.000000
0.305882 0.513725 0.003922
0.349020 0.509804 0.000000
0.380392 0.509804 0.000000
0.427451 0.509804 0.003922
0.466667 0.509804 0.007843
0.509804 0.513725 0.003922
0.552941 0.509804 0.007843
0.596078 0.517647 0.003922
0.647059 0.517647 0.003922
0.694118 0.521569 0.000000
0.733333 0.521569 0.000000
0.784314 0.521569 0.003922
0.823529 0.521569 0.003922
0.870588 0.525490 0.000000
0.909804 0.525490 0.000000
0.952941 0.529412 0.003922
1.000000 0.529412 0.007843
0.988235 0.525490 0.000000
0.039216 0.556863 0.000000
0.066667 0.552941 0.003922
0.113725 0.556863 0.000000
0.141176 0.549020 0.003922
0.180392 0.564706 0.000000
0.219608 0.549020 0.000000
0.262745 0.552941 0.000000
0.301961 0.556863 0.000000
0.341176 0.552941 0.003922
0.388235 0.556863 0.003922
0.427451 0.556863 0.003922
0.470588 0.552941 0.000000
0.509804 0.552941 0.000000
0.560784 0.556863 0.000000
0.600000 0.556863 0.000000
0.647059 0.560784 0.000000
0.690196 0.564706 0.000000
0.741176 0.564706 0.000000
0.780392 0.564706 0.000000
0.827451 0.568627 0.000000
0.870588 0.564706 0.000000
0.909804 0.572549 0.000000
0.960784 0.568627 0.000000
0.996078 0.560784 0.000000
1.000000 0.568627 0.007843
0.035294 0.596078 0.000000
0.070588 0.600000 0.000000
0.105882 0.603922 0.000000
0.149020 0.600000 0.000000
0.188235 0.603922 0.007843
0.223529 0.600000 0.003922
0.262745 0.600000 0.000000
0.305882 0.600000 0.000000
0.345098 0.600000 0.003922
0.388235 0.596078 0.000000
0.443137 0.603922 0.000000
0.486275 0.607843 0.000000
0.521569 0.603922 0.003922
0.560784 0.603922 0.000000
0.607843 0.607843 0.000000
0.647059 0.607843 0.000000
0.698039 0.607843 0.000000
0.737255 0.607843 0.000000
0.780392 0.603922 0.000000
0.823529 0.607843 0.003922
0.870588 0.611765 0.000000
0.917647 0.607843 0.000000
0.956863 0.607843 0.000000
0.996078 0.607843 0.000000
0.996078 0.607843 0.000000
0.039216 0.650980 0.007843
0.070588 0.650980 0.007843
0.109804 0.650980 0.003922
0.149020 0.650980 0.011765
0.188235 0.650980 0.007843
0.227451 0.650980 0.000000
0.266667 0.654902 0.000000
0.313725 0.654902 0.003922
0.356863 0.650980 0.003922
0.396078 0.650980 0.000000
0.435294 0.650980 0.000000
0.474510 0.654902 0.000000
0.525490 0.654902 0.000000
0.572549 0.654902 0.000000
0.611765 0.658824 0.000000
0.658824 0.654902 0.000000
0.705882 0.654902 0.003922
0.752941 0.654902 0.007843
0.796078 0.650980 0.000000
0.839216 0.654902 0.003922
0.878431 0.654902 0.000000
0.917647 0.654902 0.000000
0.960784 0.654902 0.000000
0.996078 0.647059 0.000000
0.992157 0.662745 0.003922
0.043137 0.686275 0.000000
0.066667 0.682353 0.011765
0.105882 0.690196 0.015686
0.141176 0.701961 0.000000
0.176471 0.698039 0.000000
0.223529 0.694118 0.000000
0.270588 0.698039 0.000000
0.317647 0.698039 0.000000
0.356863 0.698039 0.003922
0.403922 0.694118 0.000000
0.443137 0.698039 0.000000
0.490196 0.698039 0.007843
0.537255 0.694118 0.003922
0.584314 0.698039 0.000000
0.623529 0.698039 0.003922
0.662745 0.698039 0.003922
0.701961 0.698039 0.000000
0.749020 0.698039 0.003922
0.788235 0.698039 0.000000
0.835294 0.698039 0.000000
0.878431 0.701961 0.000000
0.921569 0.698039 0.000000
0.960784 0.698039 0.003922
0.996078 0.694118 0.000000
0.996078 0.698039 0.015686
0.027451 0.737255 0.000000
0.074510 0.749020 0.003922
0.098039 0.741176 0.007843
0.141176 0.745098 0.007843
0.196078 0.741176 0.000000
0.227451 0.741176 0.000000
0.274510 0.741176 0.003922
0.313725 0.741176 0.007843
0.360784 0.737255 0.000000
0.403922 0.741176 0.000000
0.447059 0.737255 0.003922
0.490196 0.745098 0.007843
0.537255 0.741176 0.000000
0.580392 0.741176 0.000000
0.623529 0.745098 0.003922
0.666667 0.741176 0.003922
0.709804 0.745098 0.000000
0.756863 0.745098 0.003922
0.800000 0.741176 0.000000
0.839216 0.741176 0.003922
0.886275 0.741176 0.000000
0.925490 0.737255 0.000000
0.968627 0.737255 0.000000
1.000000 0.737255 0.000000
1.000000 0.733333 0.011765
0.031373 0.784314 0.003922
0.074510 0.788235 0.007843
0.109804 0.788235 0.000000
0.168627 0.788235 0.000000
0.180392 0.784314 0.000000
0.231373 0.792157 0.000000
0.274510 0.788235 0.000000
0.313725 0.788235 0.000000
0.352941 0.788235 0.000000
0.403922 0.788235 0.000000
0.450980 0.792157 0.000000
0.494118 0.784314 0.000000
0.533333 0.784314 0.000000
0.576471 0.780392 0.000000
0.619608 0.788235 0.000000
0.666667 0.788235 0.003922
0.705882 0.788235 0.000000
0.752941 0.784314 0.003922
0.796078 0.784314 0.003922
0.839216 0.788235 0.003922
0.882353 0.780392 0.000000
0.921569 0.780392 0.003922
0.964706 0.780392 0.000000
1.000000 0.772549 0.000000
1.000000 0.772549 0.000000
0.043137 0.831373 0.007843
0.070588 0.831373 0.007843
0.105882 0.827451 0.000000
0.152941 0.827451 0.000000
0.200000 0.827451 0.003922
0.239216 0.827451 0.000000
0.278431 0.827451 0.000000
0.321569 0.831373 0.000000
0.364706 0.827451 0.003922
0.407843 0.831373 0.007843
0.454902 0.831373 0.000000
0.490196 0.827451 0.000000
0.541176 0.831373 0.003922
0.580392 0.827451 0.000000
0.619608 0.827451 0.000000
0.666667 0.823529 0.000000
0.709804 0.827451 0.003922
0.752941 0.823529 0.000000
0.796078 0.831373 0.003922
0.847059 0.831373 0.003922
0.890196 0.827451 0.000000
0.929412 0.827451 0.000000
0.964706 0.827451 0.000000
1.000000 0.819608 0.000000
1.000000 0.819608 0.000000
0.062745 0.878431 0.000000
0.090196 0.882353 0.003922
0.121569 0.882353 0.000000
0.160784 0.878431 0.000000
0.207843 0.874510 0.000000
0.243137 0.878431 0.000000
0.282353 0.878431 0.000000
0.321569 0.878431 0.000000
0.372549 0.874510 0.000000
0.411765 0.870588 0.003922
0.454902 0.878431 0.003922
0.494118 0.878431 0.003922
0.537255 0.874510 0.000000
0.576471 0.874510 0.000000
0.623529 0.878431 0.000000
0.666667 0.870588 0.000000
0.713725 0.870588 0.003922
0.756863 0.874510 0.003922
0.803922 0.874510 0.000000
0.847059 0.870588 0.000000
0.890196 0.874510 0.000000
0.933333 0.870588 0.007843
0.972549 0.870588 0.003922
1.000000 0.862745 0.000000
1.000000 0.858824 0.000000
0.070588 0.905882 0.000000
0.101961 0.925490 0.000000
0.125490 0.917647 0.000000
0.160784 0.913725 0.000000
0.203922 0.917647 0.000000
0.247059 0.921569 0.011765
0.290196 0.905882 0.000000
0.329412 0.913725 0.000000
0.368627 0.913725 0.000000
0.415686 0.917647 0.003922
0.454902 0.917647 0.000000
0.494118 0.917647 0.003922
0.537255 0.913725 0.003922
0.588235 0.917647 0.000000
0.631373 0.921569 0.007843
0.670588 0.913725 0.000000
0.709804 0.913725 0.000000
0.756863 0.913725 0.000000
0.803922 0.913725 0.000000
0.843137 0.913725 0.000000
0.890196 0.913725 0.003922
0.937255 0.913725 0.000000
0.980392 0.917647 0.003922
0.996078 0.909804 0.000000
1.000000 0.905882 0.000000
0.098039 0.956863 0.000000
0.125490 0.952941 0.000000
0.149020 0.960784 0.000000
0.180392 0.952941 0.000000
0.207843 0.956863 0.000000
0.254902 0.956863 0.007843
0.294118 0.956863 0.003922
0.333333 0.956863 0.007843
0.368627 0.952941 0.000000
0.411765 0.960784 0.000000
0.454902 0.956863 0.000000
0.494118 0.956863 0.000000
0.541176 0.956863 0.000000
0.588235 0.956863 0.000000
0.619608 0.952941 0.000000
0.662745 0.952941 0.000000
0.713725 0.952941 0.000000
0.760784 0.952941 0.003922
0.803922 0.952941 0.000000
0.843137 0.952941 0.003922
0.894118 0.952941 0.007843
0.933333 0.945098 0.000000
0.972549 0.952941 0.003922
1.000000 0.945098 0.000000
1.000000 0.945098 0.007843
0.129412 0.996078 0.000000
0.145098 0.996078 0.000000
0.168627 0.996078 0.000000
0.188235 1.000000 0.003922
0.243137 0.992157 0.000000
0.262745 0.996078 0.003922
0.301961 0.992157 0.007843
0.337255 0.988235 0.000000
0.376471 0.992157 0.000000
0.419608 0.996078 0.000000
0.462745 0.992157 0.003922
0.501961 0.992157 0.003922
0.549020 0.988235 0.000000
0.588235 0.992157 0.000000
0.631373 0.996078 0.000000
0.674510 0.992157 0.000000
0.717647 0.988235 0.000000
0.764706 0.988235 0.000000
0.803922 0.988235 0.000000
0.850980 0.988235 0.000000
0.894118 0.984314 0.000000
0.949020 0.984314 0.007843
0.980392 0.980392 0.007843
0.996078 0.984314 0.000000
1.000000 0.984314 0.007843
0.168627 0.996078 0.000000
0.200000 0.992157 0.011765
0.203922 1.000000 0.000000
0.231373 0.996078 0.007843
0.247059 1.000000 0.003922
0.282353 1.000000 0.000000
0.321569 1.000000 0.000000
0.349020 0.996078 0.000000
0.388235 1.000000 0.000000
0.431373 1.000000 0.000000
0.470588 1.000000 0.000000
0.509804 1.000000 0.000000
0.560784 1.000000 0.003922
0.596078 1.000000 0.000000
0.643137 1.000000 0.000000
0.686275 1.000000 0.000000
0.737255 1.000000 0.007843
0.780392 1.000000 0.031373
0.827451 0.996078 0.054902
0.878431 0.996078 0.074510
0.925490 1.000000 0.101961
0.956863 1.000000 0.121569
0.984314 1.000000 0.141176
1.000000 0.996078 0.160784
1.000000 1.000000 0.168627
0.050980 0.054902 0.062745
0.074510 0.054902 0.070588
0.094118 0.050980 0.066667
0.125490 0.043137 0.062745
0.168627 0.039216 0.066667
0.203922 0.043137 0.066667
0.239216 0.047059 0.062745
0.270588 0.050980 0.070588
0.301961 0.058824 0.062745
0.337255 0.054902 0.062745
0.392157 0.062745 0.062745
0.431373 0.062745 0.062745
0.470588 0.062745 0.058824
0.517647 0.066667 0.062745
0.568627 0.066667 0.054902
0.607843 0.074510 0.058824
0.662745 0.078431 0.054902
0.705882 0.078431 0.054902
0.752941 0.074510 0.043137
0.800000 0.078431 0.039216
0.854902 0.078431 0.035294
0.894118 0.078431 0.031373
0.949020 0.082353 0.027451
0.988235 0.082353 0.023529
0.996078 0.086275 0.007843
0.039216 0.074510 0.062745
0.058824 0.066667 0.062745
0.094118 0.074510 0.062745
0.129412 0.074510 0.070588
0.164706 0.070588 0.062745
0.196078 0.074510 0.062745
0.247059 0.074510 0.070588
0.274510 0.078431 0.074510
0.309804 0.074510 0.066667
0.352941 0.082353 0.070588
0.388235 0.082353 0.066667
0.427451 0.086275 0.066667
0.470588 0.090196 0.062745
0.513725 0.098039 0.054902
0.560784 0.098039 0.058824
0.615686 0.098039 0.058824
0.662745 0.098039 0.062745
0.705882 0.098039 0.050980
0.756863 0.101961 0.047059
0.803922 0.101961 0.043137
0.854902 0.105882 0.035294
0.898039 0.105882 0.035294
0.945098 0.105882 0.035294
0.996078 0.109804 0.015686
1.000000 0.109804 0.015686
0.027451 0.105882 0.062745
0.074510 0.101961 0.074510
0.101961 0.101961 0.054902
0.137255 0.101961 0.082353
0.176471 0.101961 0.074510
0.196078 0.105882 0.074510
0.239216 0.113725 0.066667
0.274510 0.105882 0.070588
0.313725 0.109804 0.066667
0.352941 0.109804 0.066667
0.392157 0.109804 0.070588
0.423529 0.109804 0.066667
0.474510 0.113725 0.070588
0.517647 0.117647 0.070588
0.572549 0.117647 0.058824
0.615686 0.117647 0.058824
0.666667 0.125490 0.047059
0.705882 0.125490 0.047059
0.760784 0.125490 0.043137
0.803922 0.129412 0.043137
0.847059 0.129412 0.035294
0.898039 0.129412 0.035294
0.945098 0.137255 0.015686
0.992157 0.133333 0.015686
0.996078 0.133333 0.007843
0.031373 0.137255 0.070588
0.070588 0.137255 0.066667
0.105882 0.141176 0.074510
0.141176 0.137255 0.050980
0.168627 0.133333 0.066667
0.203922 0.137255 0.066667
0.239216 0.133333 0.066667
0.274510 0.137255 0.062745
0.313725 0.137255 0.062745
0.352941 0.137255 0.058824
0.384314 0.137255 0.066667
0.427451 0.145098 0.066667
0.474510 0.141176 0.062745
0.521569 0.149020 0.062745
0.564706 0.149020 0.062745
0.611765 0.152941 0.054902
0.662745 0.152941 0.050980
0.709804 0.156863 0.050980
0.752941 0.156863 0.043137
0.807843 0.160784 0.043137
0.850980 0.160784 0.039216
0.898039 0.160784 0.015686
0.952941 0.164706 0.023529
0.988235 0.160784 0.007843
1.000000 0.160784 0.007843
0.050980 0.168627 0.066667
0.074510 0.172549 0.058824
0.090196 0.168627 0.054902
0.133333 0.172549 0.066667
0.168627 0.168627 0.066667
0.207843 0.168627 0.070588
0.250980 0.172549 0.074510
0.278431 0.168627 0.074510
0.309804 0.168627 0.066667
0.352941 0.172549 0.078431
0.392157 0.176471 0.066667
0.431373 0.172549 0.070588
0.474510 0.180392 0.066667
0.517647 0.176471 0.066667
0.572549 0.184314 0.062745
0.615686 0.188235 0.066667
0.658824 0.188235 0.054902
0.705882 0.192157 0.043137
0.756863 0.196078 0.031373
0.800000 0.196078 0.031373
0.850980 0.200000 0.019608
0.898039 0.200000 0.019608
0.949020 0.196078 0.011765
0.992157 0.196078 0.000000
0.996078 0.200000 0.000000
0.047059 0.203922 0.062745
0.070588 0.203922 0.066667
0.101961 0.203922 0.066667
0.133333 0.200000 0.066667
0.176471 0.203922 0.074510
0.207843 0.207843 0.074510
0.239216 0.207843 0.066667
0.282353 0.207843 0.078431
0.309804 0.207843 0.070588
0.349020 0.207843 0.066667
0.392157 0.211765 0.070588
0.431373 0.215686 0.062745
0.482353 0.215686 0.062745
0.529412 0.219608 0.062745
0.580392 0.223529 0.050980
0.623529 0.227451 0.054902
0.666667 0.227451 0.047059
0.709804 0.227451 0.035294
0.764706 0.231373 0.035294
0.807843 0.231373 0.027451
0.854902 0.235294 0.019608
0.905882 0.239216 0.015686
0.949020 0.239216 0.000000
1.000000 0.239216 0.000000
1.000000 0.239216 0.000000
0.054902 0.239216 0.066667
0.082353 0.243137 0.078431
0.105882 0.247059 0.066667
0.133333 0.239216 0.062745
0.172549 0.239216 0.066667
0.200000 0.243137 0.074510
0.235294 0.247059 0.062745
0.278431 0.247059 0.066667
0.313725 0.243137 0.062745
0.356863 0.247059 0.062745
0.396078 0.247059 0.062745
0.439216 0.250980 0.062745
0.478431 0.254902 0.054902
0.521569 0.258824 0.050980
0.576471 0.262745 0.054902
0.623529 0.270588 0.043137
0.666667 0.266667 0.039216
0.717647 0.270588 0.035294
0.764706 0.274510 0.023529
0.807843 0.270588 0.019608
0.858824 0.274510 0.007843
0.909804 0.270588 0.000000
0.952941 0.278431 0.003922
0.992157 0.278431 0.000000
0.996078 0.282353 0.000000
0.050980 0.282353 0.062745
0.078431 0.274510 0.066667
0.098039 0.286275 0.058824
0.133333 0.278431 0.066667
0.164706 0.278431 0.058824
0.207843 0.282353 0.062745
0.239216 0.282353 0.062745
0.278431 0.278431 0.066667
0.317647 0.282353 0.058824
0.360784 0.286275 0.058824
0.400000 0.286275 0.058824
0.443137 0.290196 0.058824
0.486275 0.298039 0.054902
0.529412 0.301961 0.054902
0.572549 0.301961 0.039216
0.619608 0.301961 0.043137
0.670588 0.309804 0.031373
0.713725 0.305882 0.019608
0.764706 0.309804 0.015686
0.803922 0.317647 0.011765
0.850980 0.313725 0.000000
0.898039 0.317647 0.003922
0.949020 0.309804 0.007843
0.992157 0.317647 0.003922
0.996078 0.313725 0.003922
0.050980 0.321569 0.058824
0.086275 0.317647 0.066667
0.105882 0.321569 0.058824
0.129412 0.321569 0.054902
0.172549 0.325490 0.062745
0.200000 0.321569 0.054902
0.239216 0.321569 0.058824
0.282353 0.325490 0.058824
0.321569 0.325490 0.050980
0.360784 0.329412 0.047059
0.396078 0.333333 0.039216
0.447059 0.337255 0.047059
0.486275 0.337255 0.043137
0.533333 0.341176 0.039216
0.580392 0.341176 0.035294
0.627451 0.345098 0.023529
0.670588 0.349020 0.019608
0.717647 0.349020 0.007843
0.764706 0.352941 0.003922
0.811765 0.352941 0.000000
0.862745 0.356863 0.000000
0.901961 0.356863 0.003922
0.945098 0.352941 0.011765
1.000000 0.356863 0.003922
0.988235 0.360784 0.000000
0.062745 0.364706 0.058824
0.074510 0.364706 0.054902
0.105882 0.372549 0.039216
0.137255 0.360784 0.050980
0.164706 0.368627 0.039216
0.203922 0.368627 0.047059
0.243137 0.368627 0.043137
0.278431 0.364706 0.039216
0.317647 0.364706 0.043137
0.360784 0.368627 0.043137
0.400000 0.368627 0.035294
0.447059 0.376471 0.047059
0.494118 0.380392 0.019608
0.533333 0.380392 0.023529
0.580392 0.380392 0.015686
0.631373 0.384314 0.019608
0.670588 0.384314 0.011765
0.717647 0.388235 0.003922
0.764706 0.392157 0.000000
0.815686 0.396078 0.000000
0.866667 0.400000 0.007843
0.905882 0.400000 0.003922
0.949020 0.400000 0.000000
0.992157 0.403922 0.000000
0.992157 0.403922 0.000000
0.047059 0.415686 0.039216
0.074510 0.407843 0.035294
0.109804 0.411765 0.035294
0.149020 0.411765 0.031373
0.180392 0.415686 0.031373
0.211765 0.415686 0.023529
0.250980 0.415686 0.023529
0.294118 0.419608 0.023529
0.333333 0.411765 0.023529
0.368627 0.415686 0.023529
