lut_library_archive/removed_20260629/50个风景lut/50个风景lut39.cube
# 版权归凌孟成所有，侵权必究
TITLE "Jungle LUT #39"
#LUT size
LUT_3D_SIZE 9
#LUT data points
0.003922 0.000000 0.000000
0.109804 0.000000 0.000000
0.231373 0.003922 0.000000
0.352941 0.000000 0.000000
0.486275 0.000000 0.007843
0.615686 0.000000 0.015686
0.768627 0.003922 0.035294
0.898039 0.007843 0.047059
1.000000 0.054902 0.082353
0.000000 0.101961 0.003922
0.105882 0.105882 0.000000
0.219608 0.109804 0.015686
0.341176 0.117647 0.011765
0.490196 0.121569 0.023529
0.623529 0.129412 0.031373
0.764706 0.137255 0.050980
0.901961 0.141176 0.062745
0.992157 0.164706 0.105882
0.000000 0.239216 0.000000
0.101961 0.235294 0.000000
0.219608 0.235294 0.000000
0.360784 0.239216 0.019608
0.490196 0.250980 0.070588
0.623529 0.262745 0.086275
0.768627 0.274510 0.086275
0.901961 0.282353 0.098039
1.000000 0.282353 0.133333
0.000000 0.364706 0.000000
0.078431 0.368627 0.000000
0.231373 0.372549 0.000000
0.356863 0.372549 0.000000
0.490196 0.380392 0.000000
0.635294 0.392157 0.105882
0.772549 0.407843 0.137255
0.901961 0.419608 0.156863
1.000000 0.427451 0.184314
0.000000 0.501961 0.000000
0.027451 0.501961 0.000000
0.223529 0.505882 0.011765
0.360784 0.505882 0.000000
0.498039 0.509804 0.003922
0.627451 0.509804 0.000000
0.776471 0.525490 0.101961
0.913725 0.545098 0.203922
0.996078 0.560784 0.250980
0.000000 0.643137 0.000000
0.003922 0.647059 0.003922
0.192157 0.650980 0.000000
0.352941 0.647059 0.007843
0.498039 0.643137 0.000000
0.639216 0.647059 0.007843
0.772549 0.650980 0.000000
0.901961 0.658824 0.082353
1.000000 0.674510 0.235294
0.000000 0.776471 0.000000
0.003922 0.776471 0.007843
0.164706 0.776471 0.000000
0.345098 0.784314 0.007843
0.498039 0.772549 0.000000
0.631373 0.772549 0.000000
0.760784 0.776471 0.000000
0.898039 0.772549 0.003922
1.000000 0.776471 0.074510
0.000000 0.894118 0.000000
0.000000 0.905882 0.003922
0.133333 0.905882 0.003922
0.329412 0.905882 0.003922
0.478431 0.905882 0.000000
0.619608 0.905882 0.000000
0.756863 0.901961 0.000000
0.886275 0.898039 0.007843
0.996078 0.901961 0.000000
0.007843 1.000000 0.000000
0.007843 0.996078 0.003922
0.101961 1.000000 0.000000
0.309804 0.996078 0.000000
0.470588 1.000000 0.007843
0.603922 1.000000 0.000000
0.741176 0.996078 0.000000
0.870588 1.000000 0.003922
0.992157 0.996078 0.000000
0.000000 0.003922 0.125490
0.109804 0.000000 0.113725
0.223529 0.003922 0.117647
0.356863 0.000000 0.121569
0.486275 0.000000 0.113725
0.623529 0.000000 0.121569
0.764706 0.000000 0.133333
0.901961 0.003922 0.141176
1.000000 0.015686 0.156863
0.000000 0.109804 0.113725
0.109804 0.109804 0.117647
0.227451 0.109804 0.109804
0.364706 0.101961 0.129412
0.490196 0.113725 0.121569
0.627451 0.109804 0.129412
0.768627 0.117647 0.133333
0.901961 0.125490 0.152941
1.000000 0.152941 0.172549
0.003922 0.235294 0.109804
0.086275 0.243137 0.109804
0.231373 0.235294 0.109804
0.356863 0.239216 0.137255
0.490196 0.254902 0.160784
0.627451 0.258824 0.149020
0.764706 0.266667 0.160784
0.901961 0.270588 0.168627
0.996078 0.286275 0.188235
0.007843 0.368627 0.105882
0.054902 0.364706 0.098039
0.227451 0.368627 0.094118
0.364706 0.364706 0.090196
0.494118 0.372549 0.121569
0.635294 0.396078 0.184314
0.776471 0.411765 0.207843
0.913725 0.415686 0.207843
1.000000 0.423529 0.219608
0.000000 0.509804 0.070588
0.000000 0.505882 0.074510
0.203922 0.509804 0.070588
0.360784 0.501961 0.070588
0.498039 0.505882 0.070588
0.627451 0.505882 0.082353
0.780392 0.533333 0.176471
0.913725 0.556863 0.243137
1.000000 0.560784 0.286275
0.000000 0.643137 0.015686
0.003922 0.643137 0.011765
0.184314 0.647059 0.011765
0.352941 0.647059 0.007843
0.498039 0.643137 0.000000
0.635294 0.643137 0.003922
0.768627 0.639216 0.000000
0.905882 0.658824 0.160784
1.000000 0.678431 0.286275
0.000000 0.776471 0.000000
0.003922 0.776471 0.007843
0.156863 0.776471 0.000000
0.341176 0.776471 0.000000
0.490196 0.776471 0.003922
0.627451 0.776471 0.000000
0.768627 0.784314 0.000000
0.913725 0.772549 0.003922
1.000000 0.784314 0.168627
0.000000 0.905882 0.000000
0.000000 0.905882 0.011765
0.133333 0.905882 0.000000
0.321569 0.905882 0.000000
0.474510 0.901961 0.000000
0.615686 0.901961 0.000000
0.756863 0.901961 0.000000
0.886275 0.898039 0.000000
1.000000 0.890196 0.003922
0.007843 0.996078 0.003922
0.000000 1.000000 0.000000
0.105882 1.000000 0.000000
0.305882 1.000000 0.000000
0.474510 0.996078 0.000000
0.607843 0.996078 0.003922
0.737255 1.000000 0.000000
0.870588 1.000000 0.000000
0.996078 1.000000 0.000000
0.003922 0.000000 0.243137
0.117647 0.007843 0.239216
0.239216 0.003922 0.239216
0.360784 0.003922 0.243137
0.494118 0.003922 0.239216
0.627451 0.000000 0.258824
0.768627 0.003922 0.243137
0.901961 0.003922 0.243137
0.996078 0.003922 0.235294
0.003922 0.098039 0.239216
0.098039 0.094118 0.250980
0.235294 0.094118 0.243137
0.368627 0.094118 0.247059
0.494118 0.082353 0.239216
0.627451 0.058824 0.243137
0.756863 0.039216 0.231373
0.905882 0.066667 0.239216
0.992157 0.101961 0.250980
0.000000 0.235294 0.243137
0.066667 0.239216 0.235294
0.235294 0.227451 0.239216
0.352941 0.235294 0.235294
0.490196 0.239216 0.243137
0.631373 0.247059 0.243137
0.764706 0.247059 0.258824
0.905882 0.258824 0.254902
1.000000 0.266667 0.270588
0.007843 0.360784 0.250980
0.011765 0.368627 0.231373
0.215686 0.372549 0.231373
0.364706 0.364706 0.223529
0.494118 0.380392 0.262745
0.631373 0.392157 0.278431
0.772549 0.407843 0.278431
0.905882 0.411765 0.282353
1.000000 0.419608 0.301961
0.007843 0.501961 0.215686
0.000000 0.505882 0.211765
0.196078 0.509804 0.223529
0.349020 0.505882 0.219608
0.494118 0.509804 0.219608
0.635294 0.505882 0.227451
0.772549 0.533333 0.290196
0.905882 0.556863 0.329412
1.000000 0.560784 0.333333
0.007843 0.643137 0.203922
0.000000 0.643137 0.200000
0.168627 0.647059 0.203922
0.341176 0.647059 0.200000
0.494118 0.647059 0.196078
0.631373 0.643137 0.192157
0.780392 0.639216 0.200000
0.905882 0.662745 0.278431
0.996078 0.690196 0.376471
0.000000 0.772549 0.164706
0.000000 0.776471 0.176471
0.121569 0.772549 0.168627
0.329412 0.780392 0.164706
0.470588 0.784314 0.160784
0.623529 0.780392 0.160784
0.764706 0.780392 0.156863
0.909804 0.776471 0.152941
0.996078 0.780392 0.286275
0.007843 0.905882 0.133333
0.003922 0.901961 0.129412
0.101961 0.898039 0.129412
0.313725 0.909804 0.129412
0.474510 0.909804 0.125490
0.615686 0.901961 0.105882
0.749020 0.898039 0.109804
0.890196 0.901961 0.098039
1.000000 0.894118 0.090196
0.000000 1.000000 0.082353
0.000000 1.000000 0.066667
0.074510 1.000000 0.066667
0.321569 0.996078 0.078431
0.474510 1.000000 0.070588
0.603922 0.996078 0.054902
0.741176 1.000000 0.066667
0.870588 1.000000 0.074510
0.992157 1.000000 0.082353
0.000000 0.007843 0.349020
0.133333 0.003922 0.360784
0.239216 0.000000 0.364706
0.372549 0.000000 0.360784
0.494118 0.000000 0.360784
0.635294 0.000000 0.364706
0.764706 0.003922 0.360784
0.905882 0.000000 0.356863
0.988235 0.007843 0.356863
0.000000 0.098039 0.356863
0.109804 0.086275 0.360784
0.243137 0.086275 0.360784
0.376471 0.074510 0.356863
0.498039 0.062745 0.364706
0.627451 0.043137 0.364706
0.768627 0.007843 0.364706
0.898039 0.000000 0.364706
1.000000 0.000000 0.356863
0.003922 0.235294 0.360784
0.066667 0.231373 0.372549
0.231373 0.227451 0.360784
0.368627 0.223529 0.364706
0.501961 0.219608 0.364706
0.627451 0.219608 0.356863
0.772549 0.211765 0.360784
0.905882 0.200000 0.349020
1.000000 0.207843 0.364706
0.000000 0.368627 0.352941
0.011765 0.372549 0.360784
0.219608 0.368627 0.368627
0.364706 0.364706 0.356863
0.490196 0.368627 0.356863
0.635294 0.368627 0.364706
0.776471 0.380392 0.364706
0.905882 0.392157 0.376471
1.000000 0.400000 0.376471
0.000000 0.509804 0.368627
0.000000 0.505882 0.352941
0.188235 0.509804 0.352941
0.345098 0.505882 0.349020
0.501961 0.505882 0.349020
0.643137 0.517647 0.368627
0.776471 0.541176 0.407843
0.901961 0.549020 0.407843
1.000000 0.560784 0.427451
0.003922 0.647059 0.341176
0.000000 0.643137 0.337255
0.121569 0.647059 0.337255
0.329412 0.647059 0.337255
0.494118 0.647059 0.329412
0.635294 0.650980 0.321569
0.776471 0.647059 0.337255
0.905882 0.674510 0.423529
1.000000 0.705882 0.490196
0.000000 0.780392 0.313725
0.007843 0.776471 0.313725
0.086275 0.776471 0.317647
0.321569 0.784314 0.313725
0.482353 0.776471 0.313725
0.623529 0.776471 0.309804
0.772549 0.776471 0.309804
0.905882 0.776471 0.325490
1.000000 0.792157 0.407843
0.000000 0.905882 0.301961
0.000000 0.901961 0.301961
0.062745 0.905882 0.294118
0.313725 0.905882 0.298039
0.474510 0.901961 0.294118
0.611765 0.901961 0.286275
0.749020 0.905882 0.286275
0.898039 0.901961 0.290196
0.996078 0.901961 0.274510
0.007843 1.000000 0.290196
0.000000 1.000000 0.286275
0.082353 1.000000 0.266667
0.309804 0.996078 0.278431
0.466667 1.000000 0.270588
0.607843 1.000000 0.278431
0.741176 1.000000 0.274510
0.870588 1.000000 0.282353
0.996078 1.000000 0.286275
0.054902 0.000000 0.474510
0.141176 0.000000 0.482353
0.254902 0.000000 0.478431
0.384314 0.000000 0.482353
0.505882 0.003922 0.486275
0.635294 0.003922 0.482353
0.772549 0.000000 0.482353
0.901961 0.003922 0.478431
1.000000 0.000000 0.486275
0.011765 0.086275 0.494118
0.125490 0.082353 0.490196
0.258824 0.074510 0.482353
0.372549 0.070588 0.494118
0.513725 0.031373 0.486275
0.635294 0.003922 0.478431
0.772549 0.000000 0.486275
0.905882 0.003922 0.490196
0.996078 0.000000 0.486275
0.000000 0.227451 0.494118
0.070588 0.223529 0.486275
0.231373 0.219608 0.490196
0.372549 0.219608 0.482353
0.513725 0.211765 0.494118
0.643137 0.203922 0.494118
0.776471 0.200000 0.482353
0.909804 0.192157 0.482353
1.000000 0.168627 0.478431
0.000000 0.364706 0.494118
0.000000 0.364706 0.486275
0.203922 0.356863 0.486275
0.356863 0.360784 0.482353
0.509804 0.349020 0.482353
0.647059 0.356863 0.494118
0.776471 0.360784 0.478431
0.905882 0.352941 0.478431
1.000000 0.345098 0.474510
0.003922 0.501961 0.498039
0.003922 0.505882 0.486275
0.188235 0.505882 0.486275
0.345098 0.505882 0.482353
0.498039 0.501961 0.482353
0.639216 0.501961 0.478431
0.776471 0.513725 0.490196
0.905882 0.525490 0.490196
1.000000 0.541176 0.505882
0.007843 0.643137 0.478431
0.003922 0.647059 0.482353
0.121569 0.650980 0.470588
0.325490 0.650980 0.478431
0.490196 0.643137 0.470588
0.635294 0.639216 0.466667
0.780392 0.654902 0.501961
0.901961 0.690196 0.556863
1.000000 0.701961 0.576471
0.003922 0.784314 0.466667
0.007843 0.780392 0.458824
0.019608 0.776471 0.450980
0.305882 0.784314 0.458824
0.474510 0.784314 0.454902
0.631373 0.780392 0.454902
0.764706 0.776471 0.458824
0.905882 0.780392 0.478431
0.992157 0.803922 0.560784
0.000000 0.909804 0.447059
0.003922 0.905882 0.450980
0.082353 0.909804 0.439216
0.321569 0.905882 0.447059
0.474510 0.901961 0.443137
0.619608 0.905882 0.443137
0.752941 0.898039 0.443137
0.894118 0.898039 0.439216
1.000000 0.894118 0.443137
0.000000 1.000000 0.427451
0.003922 1.000000 0.439216
0.129412 0.992157 0.435294
0.317647 0.996078 0.439216
0.478431 1.000000 0.431373
0.611765 1.000000 0.431373
0.752941 1.000000 0.439216
0.874510 1.000000 0.439216
1.000000 0.996078 0.431373
0.078431 0.000000 0.615686
0.156863 0.003922 0.603922
0.262745 0.000000 0.615686
0.392157 0.000000 0.619608
0.521569 0.000000 0.611765
0.647059 0.000000 0.615686
0.780392 0.000000 0.623529
0.905882 0.000000 0.611765
0.984314 0.003922 0.607843
0.031373 0.066667 0.611765
0.149020 0.066667 0.619608
0.250980 0.058824 0.619608
0.380392 0.047059 0.615686
0.505882 0.007843 0.615686
0.650980 0.003922 0.619608
0.780392 0.000000 0.623529
0.913725 0.000000 0.623529
1.000000 0.000000 0.619608
0.007843 0.215686 0.615686
0.082353 0.219608 0.611765
0.235294 0.215686 0.615686
0.384314 0.207843 0.619608
0.513725 0.203922 0.623529
0.643137 0.200000 0.623529
0.780392 0.184314 0.619608
0.917647 0.176471 0.615686
0.996078 0.164706 0.600000
0.000000 0.364706 0.607843
0.003922 0.356863 0.623529
0.203922 0.349020 0.623529
0.364706 0.356863 0.619608
0.509804 0.349020 0.623529
0.639216 0.345098 0.615686
0.788235 0.345098 0.619608
0.917647 0.349020 0.619608
1.000000 0.345098 0.607843
0.000000 0.501961 0.615686
0.000000 0.501961 0.627451
0.180392 0.494118 0.623529
0.341176 0.494118 0.615686
0.494118 0.490196 0.623529
0.647059 0.490196 0.623529
0.788235 0.494118 0.615686
0.909804 0.494118 0.611765
0.992157 0.498039 0.611765
0.000000 0.643137 0.619608
0.003922 0.635294 0.611765
0.141176 0.647059 0.607843
0.329412 0.639216 0.623529
0.482353 0.643137 0.619608
0.635294 0.631373 0.611765
0.772549 0.643137 0.615686
0.909804 0.658824 0.623529
0.996078 0.666667 0.627451
0.000000 0.784314 0.603922
0.000000 0.776471 0.615686
0.023529 0.780392 0.596078
0.301961 0.776471 0.607843
0.486275 0.780392 0.611765
0.635294 0.784314 0.600000
0.772549 0.776471 0.603922
0.905882 0.788235 0.647059
0.996078 0.819608 0.690196
0.007843 0.901961 0.592157
0.003922 0.905882 0.584314
0.007843 0.901961 0.584314
0.301961 0.901961 0.580392
0.486275 0.905882 0.600000
0.623529 0.901961 0.588235
0.768627 0.905882 0.592157
0.898039 0.901961 0.596078
1.000000 0.901961 0.611765
0.003922 1.000000 0.576471
0.000000 1.000000 0.568627
0.109804 1.000000 0.576471
0.368627 0.996078 0.596078
0.494118 1.000000 0.576471
0.635294 1.000000 0.584314
0.760784 1.000000 0.584314
0.886275 1.000000 0.584314
0.992157 1.000000 0.592157
0.094118 0.003922 0.756863
0.176471 0.000000 0.741176
0.278431 0.000000 0.745098
0.396078 0.000000 0.745098
0.517647 0.000000 0.745098
0.643137 0.000000 0.749020
0.776471 0.000000 0.741176
0.909804 0.000000 0.752941
1.000000 0.003922 0.737255
0.054902 0.054902 0.745098
0.149020 0.058824 0.756863
0.274510 0.043137 0.741176
0.392157 0.023529 0.752941
0.509804 0.003922 0.745098
0.647059 0.000000 0.745098
0.776471 0.000000 0.756863
0.913725 0.003922 0.749020
0.992157 0.003922 0.760784
0.000000 0.200000 0.745098
0.109804 0.215686 0.737255
0.250980 0.203922 0.737255
0.384314 0.200000 0.749020
0.513725 0.196078 0.749020
0.647059 0.188235 0.749020
0.776471 0.176471 0.745098
0.909804 0.160784 0.741176
0.996078 0.149020 0.741176
0.000000 0.349020 0.749020
0.007843 0.341176 0.737255
0.211765 0.349020 0.749020
0.356863 0.349020 0.745098
0.505882 0.345098 0.752941
0.647059 0.341176 0.749020
0.776471 0.341176 0.752941
0.921569 0.337255 0.760784
0.996078 0.337255 0.741176
0.003922 0.490196 0.733333
0.003922 0.490196 0.760784
0.176471 0.486275 0.749020
0.341176 0.486275 0.752941
0.494118 0.486275 0.749020
0.639216 0.486275 0.749020
0.780392 0.478431 0.745098
0.913725 0.486275 0.749020
0.996078 0.490196 0.749020
0.000000 0.631373 0.741176
0.003922 0.631373 0.756863
0.137255 0.627451 0.745098
0.333333 0.635294 0.752941
0.490196 0.627451 0.745098
0.635294 0.635294 0.745098
0.784314 0.631373 0.745098
0.909804 0.635294 0.749020
1.000000 0.639216 0.737255
0.000000 0.772549 0.737255
0.000000 0.772549 0.737255
0.113725 0.772549 0.745098
0.325490 0.776471 0.749020
0.490196 0.780392 0.729412
0.639216 0.776471 0.749020
0.784314 0.772549 0.745098
0.909804 0.780392 0.745098
1.000000 0.792157 0.768627
0.007843 0.901961 0.725490
0.000000 0.905882 0.725490
0.066667 0.905882 0.725490
0.321569 0.901961 0.737255
0.482353 0.909804 0.733333
0.635294 0.905882 0.725490
0.772549 0.901961 0.733333
0.905882 0.901961 0.729412
1.000000 0.905882 0.768627
0.000000 1.000000 0.713725
0.000000 1.000000 0.717647
0.164706 1.000000 0.717647
0.360784 0.996078 0.729412
0.501961 1.000000 0.721569
0.647059 1.000000 0.725490
0.780392 0.996078 0.729412
0.894118 1.000000 0.729412
0.996078 1.000000 0.733333
0.113725 0.000000 0.866667
0.184314 0.000000 0.870588
0.282353 0.000000 0.874510
0.396078 0.003922 0.874510
0.517647 0.000000 0.874510
0.643137 0.000000 0.874510
0.772549 0.000000 0.870588
0.894118 0.003922 0.870588
1.000000 0.000000 0.874510
0.074510 0.035294 0.862745
0.164706 0.035294 0.870588
0.278431 0.015686 0.866667
0.392157 0.000000 0.870588
0.517647 0.000000 0.874510
0.643137 0.000000 0.866667
0.772549 0.000000 0.870588
0.905882 0.000000 0.874510
1.000000 0.000000 0.874510
0.000000 0.196078 0.870588
0.125490 0.203922 0.878431
0.254902 0.200000 0.870588
0.384314 0.196078 0.866667
0.501961 0.188235 0.866667
0.643137 0.180392 0.870588
0.772549 0.172549 0.870588
0.909804 0.160784 0.870588
1.000000 0.149020 0.870588
0.000000 0.349020 0.870588
0.035294 0.341176 0.874510
0.227451 0.345098 0.870588
0.364706 0.341176 0.874510
0.505882 0.341176 0.866667
0.635294 0.337255 0.870588
0.772549 0.333333 0.874510
0.905882 0.329412 0.878431
1.000000 0.329412 0.878431
0.000000 0.482353 0.878431
0.003922 0.478431 0.866667
0.188235 0.478431 0.866667
0.349020 0.474510 0.866667
0.498039 0.474510 0.866667
0.635294 0.478431 0.866667
0.772549 0.478431 0.874510
0.898039 0.482353 0.874510
1.000000 0.478431 0.878431
0.000000 0.615686 0.862745
0.003922 0.615686 0.874510
0.172549 0.619608 0.866667
0.341176 0.619608 0.870588
0.498039 0.619608 0.870588
0.631373 0.627451 0.862745
0.768627 0.627451 0.870588
0.901961 0.627451 0.870588
1.000000 0.627451 0.862745
0.003922 0.760784 0.858824
0.003922 0.756863 0.870588
0.164706 0.756863 0.862745
0.349020 0.760784 0.866667
0.501961 0.760784 0.862745
0.643137 0.768627 0.866667
0.780392 0.772549 0.866667
0.909804 0.772549 0.858824
1.000000 0.776471 0.870588
0.000000 0.894118 0.874510
0.000000 0.886275 0.862745
0.176471 0.890196 0.862745
0.349020 0.894118 0.858824
0.498039 0.894118 0.862745
0.635294 0.898039 0.862745
0.780392 0.898039 0.866667
0.905882 0.894118 0.858824
1.000000 0.905882 0.874510
0.011765 1.000000 0.870588
0.000000 1.000000 0.866667
0.211765 1.000000 0.866667
0.352941 1.000000 0.862745
0.513725 1.000000 0.858824
0.658824 1.000000 0.862745
0.796078 0.996078 0.858824
0.909804 1.000000 0.878431
1.000000 0.996078 0.874510
0.117647 0.003922 0.992157
0.180392 0.000000 0.984314
0.278431 0.000000 0.988235
0.392157 0.000000 0.984314
0.513725 0.000000 0.988235
0.635294 0.000000 0.992157
0.764706 0.003922 0.980392
0.882353 0.000000 0.988235
0.988235 0.000000 0.984314
0.105882 0.027451 0.996078
0.172549 0.015686 0.980392
0.278431 0.007843 0.984314
0.392157 0.000000 0.984314
0.513725 0.000000 0.988235
0.631373 0.003922 0.984314
0.756863 0.003922 0.988235
0.890196 0.000000 0.980392
0.996078 0.000000 0.972549
0.054902 0.192157 0.996078
0.149020 0.200000 0.984314
0.262745 0.200000 0.972549
0.384314 0.196078 0.980392
0.509804 0.192157 0.980392
0.643137 0.184314 0.988235
0.760784 0.184314 0.988235
0.882353 0.176471 0.980392
1.000000 0.168627 0.984314
0.003922 0.337255 0.976471
0.109804 0.333333 0.988235
0.247059 0.337255 0.984314
0.368627 0.337255 0.984314
0.505882 0.341176 0.984314
0.627451 0.333333 0.980392
0.760784 0.333333 0.996078
0.878431 0.337255 0.988235
1.000000 0.333333 0.992157
0.000000 0.478431 0.992157
0.027451 0.474510 0.984314
0.219608 0.466667 0.980392
0.360784 0.474510 0.984314
0.494118 0.474510 0.984314
0.627451 0.474510 0.980392
0.756863 0.470588 0.984314
0.882353 0.482353 0.984314
1.000000 0.482353 0.984314
0.003922 0.607843 0.984314
0.062745 0.619608 0.988235
0.231373 0.607843 0.976471
0.376471 0.611765 0.980392
0.509804 0.611765 0.984314
0.635294 0.615686 0.984314
0.764706 0.619608 0.984314
0.894118 0.623529 0.980392
1.000000 0.623529 0.996078
0.000000 0.745098 0.980392
0.094118 0.745098 0.972549
0.250980 0.752941 0.980392
0.388235 0.749020 0.980392
0.521569 0.752941 0.972549
0.650980 0.756863 0.972549
0.780392 0.760784 0.972549
0.894118 0.764706 0.980392
1.000000 0.764706 0.968627
0.003922 0.894118 0.956863
0.007843 0.894118 0.972549
0.223529 0.890196 0.972549
0.368627 0.894118 0.968627
0.513725 0.898039 0.972549
0.650980 0.898039 0.964706
0.784314 0.898039 0.960784
0.913725 0.905882 0.960784
1.000000 0.913725 0.960784
0.000000 1.000000 0.949020
0.113725 1.000000 0.952941
0.262745 1.000000 0.945098
0.400000 1.000000 0.952941
0.545098 1.000000 0.949020
0.682353 0.996078 0.945098
0.835294 1.000000 0.945098
0.964706 0.996078 0.945098
1.000000 1.000000 0.941176
