lut_library_archive/removed_20260629/50个风景lut/50个风景lut44.cube
# 版权归凌孟成所有，侵权必究
TITLE "Jungle LUT #44"
#LUT size
LUT_3D_SIZE 25
#LUT data points
0.000000 0.003922 0.007843
0.031373 0.000000 0.000000
0.078431 0.000000 0.003922
0.137255 0.003922 0.007843
0.192157 0.000000 0.011765
0.239216 0.003922 0.011765
0.286275 0.007843 0.007843
0.329412 0.011765 0.007843
0.380392 0.027451 0.027451
0.419608 0.047059 0.031373
0.462745 0.070588 0.047059
0.505882 0.086275 0.054902
0.552941 0.105882 0.074510
0.592157 0.129412 0.090196
0.635294 0.156863 0.113725
0.674510 0.172549 0.121569
0.717647 0.192157 0.149020
0.756863 0.219608 0.156863
0.807843 0.239216 0.180392
0.843137 0.258824 0.211765
0.878431 0.278431 0.219608
0.921569 0.298039 0.247059
0.968627 0.321569 0.274510
1.000000 0.345098 0.301961
1.000000 0.364706 0.317647
0.000000 0.039216 0.000000
0.047059 0.027451 0.003922
0.090196 0.031373 0.003922
0.133333 0.039216 0.007843
0.196078 0.043137 0.015686
0.227451 0.054902 0.003922
0.290196 0.054902 0.023529
0.333333 0.062745 0.011765
0.380392 0.074510 0.027451
0.427451 0.082353 0.035294
0.466667 0.101961 0.043137
0.505882 0.117647 0.058824
0.537255 0.133333 0.074510
0.580392 0.152941 0.086275
0.627451 0.168627 0.101961
0.686275 0.192157 0.137255
0.721569 0.207843 0.145098
0.756863 0.231373 0.164706
0.803922 0.247059 0.192157
0.850980 0.274510 0.207843
0.886275 0.294118 0.231373
0.925490 0.309804 0.250980
0.964706 0.325490 0.274510
1.000000 0.345098 0.301961
1.000000 0.376471 0.325490
0.000000 0.090196 0.007843
0.054902 0.086275 0.003922
0.098039 0.090196 0.003922
0.152941 0.082353 0.003922
0.188235 0.082353 0.000000
0.235294 0.094118 0.007843
0.286275 0.098039 0.011765
0.333333 0.105882 0.027451
0.380392 0.113725 0.031373
0.419608 0.117647 0.039216
0.466667 0.133333 0.050980
0.501961 0.149020 0.062745
0.541176 0.164706 0.078431
0.580392 0.180392 0.101961
0.627451 0.192157 0.113725
0.682353 0.211765 0.117647
0.721569 0.223529 0.149020
0.756863 0.247059 0.156863
0.800000 0.262745 0.192157
0.843137 0.286275 0.207843
0.882353 0.301961 0.223529
0.921569 0.317647 0.254902
0.960784 0.341176 0.266667
1.000000 0.356863 0.301961
1.000000 0.380392 0.329412
0.000000 0.141176 0.000000
0.062745 0.141176 0.000000
0.117647 0.141176 0.000000
0.164706 0.141176 0.000000
0.211765 0.141176 0.000000
0.250980 0.133333 0.000000
0.294118 0.141176 0.011765
0.341176 0.149020 0.023529
0.368627 0.152941 0.031373
0.415686 0.160784 0.035294
0.454902 0.176471 0.058824
0.501961 0.180392 0.086275
0.545098 0.192157 0.090196
0.584314 0.211765 0.101961
0.631373 0.223529 0.133333
0.670588 0.239216 0.149020
0.713725 0.254902 0.149020
0.760784 0.266667 0.168627
0.803922 0.286275 0.196078
0.843137 0.301961 0.219608
0.882353 0.321569 0.227451
0.925490 0.333333 0.258824
0.964706 0.352941 0.274510
0.992157 0.372549 0.298039
0.996078 0.392157 0.329412
0.023529 0.196078 0.003922
0.070588 0.196078 0.003922
0.121569 0.200000 0.000000
0.168627 0.196078 0.000000
0.219608 0.192157 0.000000
0.266667 0.196078 0.000000
0.301961 0.192157 0.003922
0.333333 0.188235 0.011765
0.376471 0.200000 0.039216
0.419608 0.207843 0.058824
0.454902 0.207843 0.070588
0.501961 0.215686 0.086275
0.549020 0.235294 0.098039
0.580392 0.243137 0.113725
0.631373 0.258824 0.133333
0.670588 0.278431 0.149020
0.713725 0.286275 0.168627
0.752941 0.294118 0.188235
0.800000 0.309804 0.200000
0.839216 0.325490 0.223529
0.886275 0.337255 0.239216
0.921569 0.360784 0.266667
0.952941 0.376471 0.278431
0.988235 0.400000 0.313725
0.996078 0.419608 0.321569
0.035294 0.250980 0.000000
0.086275 0.250980 0.000000
0.133333 0.250980 0.000000
0.176471 0.250980 0.000000
0.227451 0.247059 0.000000
0.278431 0.247059 0.000000
0.321569 0.250980 0.000000
0.360784 0.247059 0.000000
0.396078 0.239216 0.000000
0.431373 0.243137 0.047059
0.466667 0.258824 0.101961
0.501961 0.270588 0.113725
0.552941 0.282353 0.121569
0.584314 0.290196 0.129412
0.631373 0.305882 0.149020
0.678431 0.317647 0.172549
0.725490 0.325490 0.176471
0.760784 0.329412 0.184314
0.807843 0.341176 0.215686
0.847059 0.360784 0.231373
0.886275 0.376471 0.243137
0.921569 0.388235 0.262745
0.960784 0.400000 0.294118
0.992157 0.423529 0.317647
1.000000 0.435294 0.345098
0.050980 0.294118 0.000000
0.098039 0.301961 0.011765
0.137255 0.298039 0.000000
0.176471 0.305882 0.000000
0.223529 0.294118 0.000000
0.270588 0.294118 0.003922
0.325490 0.294118 0.000000
0.364706 0.294118 0.003922
0.400000 0.298039 0.000000
0.435294 0.294118 0.003922
0.470588 0.298039 0.058824
0.509804 0.305882 0.109804
0.545098 0.317647 0.133333
0.592157 0.329412 0.152941
0.631373 0.341176 0.172549
0.674510 0.352941 0.168627
0.721569 0.364706 0.192157
0.760784 0.372549 0.211765
0.800000 0.380392 0.223529
0.850980 0.388235 0.239216
0.886275 0.400000 0.266667
0.925490 0.411765 0.294118
0.960784 0.427451 0.301961
0.992157 0.447059 0.325490
1.000000 0.454902 0.349020
0.058824 0.345098 0.000000
0.098039 0.345098 0.000000
0.137255 0.345098 0.000000
0.172549 0.349020 0.000000
0.231373 0.349020 0.011765
0.266667 0.337255 0.000000
0.313725 0.349020 0.000000
0.364706 0.349020 0.000000
0.407843 0.345098 0.000000
0.443137 0.345098 0.000000
0.482353 0.341176 0.011765
0.513725 0.349020 0.058824
0.549020 0.352941 0.113725
0.588235 0.364706 0.164706
0.631373 0.384314 0.184314
0.674510 0.384314 0.200000
0.721569 0.392157 0.207843
0.760784 0.403922 0.227451
0.807843 0.411765 0.247059
0.843137 0.423529 0.258824
0.882353 0.431373 0.278431
0.921569 0.443137 0.290196
0.960784 0.454902 0.329412
0.992157 0.478431 0.337255
1.000000 0.478431 0.372549
0.058824 0.400000 0.000000
0.098039 0.392157 0.000000
0.133333 0.392157 0.000000
0.176471 0.388235 0.003922
0.219608 0.403922 0.000000
0.266667 0.384314 0.000000
0.309804 0.392157 0.000000
0.360784 0.388235 0.011765
0.403922 0.388235 0.007843
0.443137 0.388235 0.007843
0.482353 0.392157 0.000000
0.521569 0.388235 0.000000
0.560784 0.388235 0.050980
0.596078 0.400000 0.121569
0.639216 0.411765 0.160784
0.670588 0.423529 0.215686
0.709804 0.439216 0.223529
0.756863 0.435294 0.239216
0.800000 0.443137 0.266667
0.839216 0.454902 0.278431
0.874510 0.466667 0.290196
0.913725 0.478431 0.298039
0.949020 0.490196 0.329412
0.996078 0.494118 0.349020
0.992157 0.513725 0.376471
0.074510 0.435294 0.000000
0.101961 0.439216 0.011765
0.145098 0.435294 0.000000
0.176471 0.435294 0.003922
0.215686 0.435294 0.007843
0.258824 0.439216 0.011765
0.309804 0.435294 0.000000
0.349020 0.435294 0.000000
0.400000 0.439216 0.000000
0.443137 0.443137 0.003922
0.482353 0.439216 0.000000
0.521569 0.435294 0.000000
0.560784 0.435294 0.000000
0.603922 0.439216 0.047059
0.643137 0.443137 0.117647
0.682353 0.450980 0.184314
0.713725 0.462745 0.219608
0.752941 0.474510 0.254902
0.796078 0.482353 0.274510
0.831373 0.490196 0.278431
0.878431 0.501961 0.305882
0.917647 0.513725 0.321569
0.956863 0.521569 0.345098
0.992157 0.533333 0.372549
0.996078 0.545098 0.384314
0.082353 0.490196 0.000000
0.113725 0.490196 0.000000
0.145098 0.494118 0.000000
0.184314 0.494118 0.000000
0.223529 0.494118 0.003922
0.258824 0.490196 0.000000
0.301961 0.494118 0.000000
0.352941 0.494118 0.007843
0.400000 0.498039 0.000000
0.443137 0.490196 0.000000
0.486275 0.490196 0.000000
0.525490 0.486275 0.003922
0.572549 0.490196 0.000000
0.611765 0.490196 0.000000
0.654902 0.494118 0.047059
0.701961 0.486275 0.121569
0.729412 0.509804 0.184314
0.764706 0.513725 0.235294
0.803922 0.521569 0.290196
0.843137 0.529412 0.321569
0.878431 0.545098 0.321569
0.913725 0.549020 0.345098
0.960784 0.560784 0.368627
0.992157 0.576471 0.392157
1.000000 0.580392 0.419608
0.074510 0.537255 0.000000
0.109804 0.533333 0.000000
0.133333 0.533333 0.003922
0.172549 0.537255 0.007843
0.223529 0.529412 0.000000
0.270588 0.537255 0.000000
0.305882 0.533333 0.000000
0.345098 0.533333 0.000000
0.388235 0.529412 0.000000
0.439216 0.533333 0.000000
0.486275 0.533333 0.000000
0.529412 0.533333 0.000000
0.568627 0.529412 0.003922
0.615686 0.529412 0.000000
0.658824 0.533333 0.000000
0.701961 0.533333 0.023529
0.733333 0.533333 0.121569
0.772549 0.541176 0.184314
0.811765 0.556863 0.243137
0.843137 0.568627 0.294118
0.882353 0.572549 0.349020
0.921569 0.588235 0.364706
0.952941 0.596078 0.388235
0.980392 0.603922 0.403922
1.000000 0.615686 0.431373
0.074510 0.576471 0.000000
0.094118 0.576471 0.000000
0.137255 0.576471 0.003922
0.172549 0.580392 0.003922
0.211765 0.572549 0.003922
0.254902 0.584314 0.007843
0.298039 0.580392 0.007843
0.345098 0.576471 0.003922
0.388235 0.584314 0.007843
0.427451 0.576471 0.000000
0.478431 0.576471 0.003922
0.521569 0.568627 0.000000
0.580392 0.580392 0.007843
0.615686 0.576471 0.000000
0.658824 0.572549 0.000000
0.698039 0.572549 0.000000
0.737255 0.576471 0.011765
0.780392 0.580392 0.121569
0.815686 0.580392 0.196078
0.850980 0.592157 0.254902
0.886275 0.607843 0.301961
0.917647 0.615686 0.349020
0.956863 0.623529 0.400000
0.988235 0.639216 0.427451
1.000000 0.647059 0.443137
0.066667 0.623529 0.000000
0.109804 0.623529 0.003922
0.137255 0.611765 0.000000
0.172549 0.619608 0.003922
0.211765 0.619608 0.003922
0.247059 0.623529 0.000000
0.290196 0.627451 0.000000
0.341176 0.623529 0.000000
0.384314 0.615686 0.003922
0.439216 0.619608 0.000000
0.478431 0.619608 0.000000
0.521569 0.611765 0.011765
0.560784 0.615686 0.007843
0.615686 0.623529 0.000000
0.654902 0.619608 0.011765
0.690196 0.607843 0.000000
0.741176 0.611765 0.000000
0.780392 0.623529 0.007843
0.815686 0.615686 0.117647
0.850980 0.627451 0.184314
0.886275 0.623529 0.274510
0.925490 0.643137 0.321569
0.952941 0.650980 0.376471
0.992157 0.662745 0.419608
1.000000 0.674510 0.462745
0.062745 0.662745 0.000000
0.098039 0.658824 0.003922
0.129412 0.662745 0.000000
0.164706 0.662745 0.007843
0.200000 0.658824 0.000000
0.247059 0.662745 0.000000
0.294118 0.658824 0.000000
0.333333 0.658824 0.000000
0.376471 0.654902 0.000000
0.431373 0.662745 0.003922
0.474510 0.658824 0.000000
0.513725 0.658824 0.003922
0.568627 0.658824 0.000000
0.607843 0.658824 0.000000
0.650980 0.654902 0.011765
0.701961 0.658824 0.000000
0.749020 0.650980 0.003922
0.780392 0.654902 0.000000
0.819608 0.658824 0.003922
0.858824 0.654902 0.125490
0.886275 0.662745 0.211765
0.933333 0.666667 0.270588
0.964706 0.670588 0.345098
0.996078 0.686275 0.392157
0.996078 0.701961 0.447059
0.066667 0.721569 0.003922
0.090196 0.717647 0.000000
0.129412 0.721569 0.003922
0.164706 0.717647 0.000000
0.203922 0.717647 0.003922
0.247059 0.713725 0.000000
0.298039 0.709804 0.000000
0.345098 0.709804 0.007843
0.380392 0.713725 0.003922
0.423529 0.709804 0.003922
0.478431 0.713725 0.000000
0.521569 0.709804 0.003922
0.568627 0.705882 0.007843
0.607843 0.705882 0.003922
0.650980 0.701961 0.003922
0.694118 0.709804 0.000000
0.745098 0.701961 0.000000
0.788235 0.705882 0.003922
0.827451 0.701961 0.000000
0.862745 0.701961 0.003922
0.905882 0.701961 0.133333
0.941176 0.701961 0.215686
0.976471 0.713725 0.301961
0.996078 0.717647 0.356863
1.000000 0.729412 0.427451
0.050980 0.749020 0.000000
0.090196 0.741176 0.000000
0.137255 0.752941 0.000000
0.164706 0.749020 0.003922
0.203922 0.749020 0.000000
0.235294 0.756863 0.000000
0.294118 0.752941 0.000000
0.345098 0.745098 0.000000
0.384314 0.749020 0.000000
0.431373 0.749020 0.000000
0.470588 0.749020 0.003922
0.513725 0.745098 0.007843
0.556863 0.749020 0.003922
0.603922 0.749020 0.000000
0.643137 0.749020 0.000000
0.694118 0.741176 0.003922
0.741176 0.745098 0.000000
0.784314 0.741176 0.003922
0.831373 0.741176 0.000000
0.870588 0.741176 0.000000
0.898039 0.741176 0.011765
0.941176 0.745098 0.121569
0.976471 0.745098 0.235294
1.000000 0.745098 0.305882
1.000000 0.756863 0.376471
0.050980 0.780392 0.000000
0.086275 0.788235 0.011765
0.129412 0.796078 0.003922
0.164706 0.792157 0.000000
0.200000 0.796078 0.000000
0.235294 0.788235 0.000000
0.290196 0.788235 0.000000
0.329412 0.788235 0.000000
0.368627 0.788235 0.000000
0.423529 0.792157 0.000000
0.462745 0.788235 0.000000
0.513725 0.792157 0.000000
0.556863 0.788235 0.000000
0.596078 0.784314 0.007843
0.650980 0.784314 0.007843
0.694118 0.780392 0.000000
0.737255 0.780392 0.000000
0.776471 0.780392 0.000000
0.823529 0.776471 0.000000
0.870588 0.780392 0.000000
0.909804 0.780392 0.000000
0.933333 0.780392 0.000000
0.976471 0.784314 0.149020
1.000000 0.772549 0.243137
0.996078 0.788235 0.333333
0.050980 0.827451 0.000000
0.090196 0.827451 0.007843
0.129412 0.827451 0.003922
0.164706 0.839216 0.003922
0.207843 0.831373 0.000000
0.243137 0.823529 0.000000
0.286275 0.827451 0.003922
0.325490 0.831373 0.000000
0.372549 0.827451 0.000000
0.423529 0.831373 0.003922
0.462745 0.823529 0.003922
0.509804 0.823529 0.000000
0.549020 0.823529 0.000000
0.588235 0.823529 0.000000
0.639216 0.831373 0.000000
0.690196 0.823529 0.000000
0.729412 0.827451 0.000000
0.768627 0.819608 0.000000
0.807843 0.815686 0.011765
0.858824 0.819608 0.000000
0.901961 0.815686 0.000000
0.949020 0.811765 0.007843
0.976471 0.819608 0.000000
0.996078 0.815686 0.133333
1.000000 0.811765 0.266667
0.043137 0.866667 0.000000
0.082353 0.866667 0.000000
0.117647 0.866667 0.007843
0.156863 0.862745 0.000000
0.196078 0.870588 0.000000
0.239216 0.866667 0.000000
0.286275 0.862745 0.000000
0.329412 0.866667 0.003922
0.372549 0.866667 0.000000
0.415686 0.870588 0.003922
0.458824 0.866667 0.000000
0.505882 0.866667 0.000000
0.545098 0.862745 0.003922
0.584314 0.866667 0.000000
0.635294 0.858824 0.003922
0.674510 0.858824 0.011765
0.717647 0.854902 0.000000
0.764706 0.858824 0.003922
0.803922 0.858824 0.000000
0.843137 0.858824 0.000000
0.894118 0.854902 0.000000
0.937255 0.858824 0.000000
0.976471 0.858824 0.000000
0.996078 0.858824 0.000000
1.000000 0.847059 0.145098
0.070588 0.913725 0.000000
0.098039 0.909804 0.000000
0.133333 0.913725 0.000000
0.164706 0.917647 0.000000
0.203922 0.917647 0.000000
0.250980 0.913725 0.000000
0.290196 0.913725 0.000000
0.333333 0.913725 0.000000
0.376471 0.917647 0.000000
0.415686 0.909804 0.000000
0.462745 0.905882 0.003922
0.498039 0.901961 0.000000
0.545098 0.905882 0.000000
0.588235 0.909804 0.000000
0.635294 0.905882 0.000000
0.678431 0.901961 0.003922
0.721569 0.901961 0.000000
0.760784 0.909804 0.000000
0.800000 0.901961 0.000000
0.839216 0.898039 0.007843
0.890196 0.901961 0.000000
0.941176 0.898039 0.000000
0.984314 0.894118 0.007843
1.000000 0.894118 0.007843
1.000000 0.894118 0.003922
0.050980 0.937255 0.000000
0.082353 0.949020 0.000000
0.133333 0.941176 0.007843
0.160784 0.945098 0.000000
0.207843 0.952941 0.019608
0.223529 0.949020 0.000000
0.278431 0.945098 0.007843
0.321569 0.945098 0.003922
0.360784 0.945098 0.000000
0.407843 0.949020 0.000000
0.447059 0.945098 0.000000
0.494118 0.945098 0.000000
0.537255 0.941176 0.000000
0.588235 0.945098 0.000000
0.623529 0.937255 0.007843
0.674510 0.937255 0.000000
0.713725 0.945098 0.000000
0.752941 0.937255 0.000000
0.800000 0.933333 0.015686
0.854902 0.933333 0.000000
0.894118 0.933333 0.003922
0.941176 0.937255 0.000000
0.976471 0.937255 0.007843
0.992157 0.933333 0.000000
1.000000 0.937255 0.007843
0.035294 0.984314 0.000000
0.074510 0.976471 0.000000
0.113725 0.976471 0.007843
0.149020 0.980392 0.000000
0.192157 0.984314 0.007843
0.247059 0.984314 0.003922
0.286275 0.984314 0.003922
0.321569 0.980392 0.003922
0.368627 0.980392 0.003922
0.407843 0.972549 0.000000
0.462745 0.980392 0.000000
0.494118 0.972549 0.000000
0.537255 0.976471 0.000000
0.576471 0.976471 0.000000
0.615686 0.968627 0.000000
0.662745 0.976471 0.007843
0.705882 0.972549 0.011765
0.745098 0.976471 0.000000
0.792157 0.972549 0.000000
0.847059 0.972549 0.000000
0.886275 0.972549 0.000000
0.913725 0.968627 0.000000
0.964706 0.964706 0.000000
1.000000 0.968627 0.003922
1.000000 0.964706 0.000000
0.031373 1.000000 0.000000
0.086275 0.996078 0.007843
0.098039 1.000000 0.000000
0.145098 0.996078 0.000000
0.188235 1.000000 0.003922
0.231373 0.996078 0.000000
0.274510 1.000000 0.003922
0.313725 1.000000 0.000000
0.352941 1.000000 0.000000
0.403922 1.000000 0.007843
0.447059 1.000000 0.003922
0.486275 1.000000 0.000000
0.525490 1.000000 0.000000
0.568627 1.000000 0.000000
0.619608 1.000000 0.000000
0.662745 0.996078 0.000000
0.701961 1.000000 0.000000
0.741176 0.996078 0.000000
0.792157 1.000000 0.000000
0.843137 1.000000 0.000000
0.894118 0.992157 0.003922
0.933333 1.000000 0.000000
0.968627 1.000000 0.000000
0.992157 0.996078 0.007843
1.000000 0.992157 0.000000
0.035294 0.992157 0.011765
0.082353 0.996078 0.000000
0.109804 1.000000 0.000000
0.152941 0.996078 0.000000
0.188235 1.000000 0.000000
0.227451 1.000000 0.000000
0.270588 1.000000 0.000000
0.313725 1.000000 0.000000
0.352941 1.000000 0.003922
0.392157 1.000000 0.003922
0.439216 1.000000 0.000000
0.478431 1.000000 0.000000
0.537255 0.996078 0.000000
0.580392 1.000000 0.003922
0.619608 1.000000 0.000000
0.662745 0.996078 0.000000
0.713725 1.000000 0.000000
0.760784 1.000000 0.000000
0.811765 0.996078 0.000000
0.854902 1.000000 0.000000
0.901961 0.992157 0.000000
0.949020 1.000000 0.000000
0.984314 0.996078 0.000000
1.000000 0.996078 0.003922
1.000000 1.000000 0.000000
0.003922 0.000000 0.019608
0.043137 0.000000 0.019608
0.094118 0.000000 0.019608
0.145098 0.000000 0.027451
0.203922 0.003922 0.031373
0.247059 0.007843 0.035294
0.290196 0.011765 0.035294
0.337255 0.019608 0.039216
0.384314 0.035294 0.050980
0.431373 0.054902 0.062745
0.474510 0.082353 0.082353
0.509804 0.105882 0.086275
0.549020 0.121569 0.101961
0.584314 0.141176 0.109804
0.627451 0.164706 0.125490
0.678431 0.184314 0.137255
0.721569 0.203922 0.164706
0.764706 0.223529 0.184314
0.803922 0.239216 0.196078
0.843137 0.266667 0.207843
0.882353 0.286275 0.250980
0.921569 0.305882 0.247059
0.960784 0.329412 0.266667
0.996078 0.349020 0.301961
0.996078 0.368627 0.329412
0.000000 0.035294 0.015686
0.050980 0.031373 0.019608
0.094118 0.035294 0.015686
0.149020 0.039216 0.035294
0.184314 0.047059 0.039216
0.250980 0.050980 0.031373
0.298039 0.058824 0.039216
0.341176 0.070588 0.043137
0.380392 0.078431 0.054902
0.427451 0.098039 0.066667
0.462745 0.109804 0.074510
0.505882 0.125490 0.090196
0.541176 0.149020 0.109804
0.592157 0.168627 0.121569
0.647059 0.184314 0.137255
0.670588 0.203922 0.149020
0.721569 0.223529 0.164706
0.760784 0.239216 0.188235
0.800000 0.254902 0.196078
0.850980 0.270588 0.223529
0.886275 0.294118 0.231373
0.929412 0.309804 0.258824
0.968627 0.329412 0.278431
0.996078 0.349020 0.305882
0.988235 0.368627 0.333333
0.003922 0.086275 0.011765
0.058824 0.086275 0.015686
0.113725 0.094118 0.019608
0.152941 0.094118 0.011765
0.196078 0.086275 0.035294
0.239216 0.094118 0.031373
0.286275 0.105882 0.047059
0.333333 0.113725 0.054902
0.376471 0.121569 0.050980
0.419608 0.133333 0.066667
0.462745 0.137255 0.082353
0.505882 0.156863 0.101961
0.545098 0.168627 0.105882
0.592157 0.192157 0.113725
0.623529 0.203922 0.141176
0.670588 0.219608 0.137255
0.713725 0.231373 0.168627
0.749020 0.250980 0.176471
0.796078 0.266667 0.211765
0.843137 0.290196 0.223529
0.886275 0.305882 0.235294
0.925490 0.317647 0.262745
0.964706 0.341176 0.286275
1.000000 0.356863 0.301961
0.992157 0.384314 0.329412
0.003922 0.141176 0.015686
0.070588 0.137255 0.003922
0.109804 0.149020 0.011765
0.172549 0.137255 0.007843
0.215686 0.141176 0.011765
0.243137 0.141176 0.043137
0.286275 0.145098 0.043137
0.333333 0.152941 0.050980
0.380392 0.160784 0.070588
0.423529 0.172549 0.074510
0.454902 0.180392 0.078431
0.494118 0.188235 0.101961
0.541176 0.203922 0.113725
0.584314 0.211765 0.125490
0.627451 0.227451 0.141176
0.674510 0.243137 0.152941
0.721569 0.258824 0.180392
0.760784 0.262745 0.188235
0.796078 0.282353 0.203922
0.835294 0.309804 0.227451
0.878431 0.329412 0.247059
0.929412 0.329412 0.266667
0.956863 0.352941 0.290196
0.996078 0.372549 0.309804
0.996078 0.403922 0.337255
0.035294 0.188235 0.003922
0.074510 0.200000 0.003922
0.121569 0.192157 0.000000
0.164706 0.196078 0.003922
0.239216 0.192157 0.003922
0.274510 0.192157 0.007843
0.305882 0.192157 0.019608
0.345098 0.196078 0.043137
0.376471 0.203922 0.066667
0.419608 0.211765 0.090196
0.458824 0.219608 0.105882
0.501961 0.223529 0.113725
0.545098 0.243137 0.133333
0.580392 0.254902 0.137255
0.623529 0.266667 0.160784
0.662745 0.286275 0.160784
0.709804 0.294118 0.172549
0.752941 0.301961 0.192157
0.800000 0.313725 0.211765
0.839216 0.329412 0.235294
0.866667 0.345098 0.254902
0.921569 0.360784 0.266667
0.956863 0.376471 0.290196
0.992157 0.396078 0.313725
0.996078 0.415686 0.345098
0.035294 0.250980 0.000000
0.078431 0.254902 0.000000
0.133333 0.250980 0.000000
0.176471 0.250980 0.000000
0.227451 0.243137 0.003922
0.278431 0.247059 0.003922
0.317647 0.247059 0.000000
0.360784 0.243137 0.000000
0.388235 0.247059 0.050980
0.419608 0.250980 0.082353
0.454902 0.262745 0.105882
0.494118 0.278431 0.129412
0.541176 0.286275 0.137255
0.588235 0.294118 0.149020
0.635294 0.305882 0.172549
0.682353 0.309804 0.192157
0.717647 0.325490 0.192157
0.760784 0.333333 0.211765
0.800000 0.345098 0.215686
0.847059 0.356863 0.247059
0.886275 0.372549 0.262745
0.925490 0.388235 0.286275
0.964706 0.403922 0.301961
1.000000 0.423529 0.325490
0.996078 0.439216 0.345098
0.047059 0.294118 0.015686
0.094118 0.298039 0.003922
0.137255 0.301961 0.003922
0.172549 0.298039 0.000000
0.231373 0.298039 0.000000
0.254902 0.298039 0.000000
0.313725 0.301961 0.000000
0.360784 0.298039 0.003922
0.396078 0.294118 0.003922
0.431373 0.294118 0.035294
0.466667 0.298039 0.090196
0.505882 0.305882 0.129412
0.545098 0.321569 0.152941
0.584314 0.333333 0.156863
0.631373 0.341176 0.172549
0.674510 0.352941 0.196078
0.709804 0.360784 0.203922
0.760784 0.372549 0.219608
0.803922 0.380392 0.247059
0.847059 0.396078 0.250980
0.882353 0.400000 0.270588
0.921569 0.415686 0.294118
0.960784 0.431373 0.317647
1.000000 0.439216 0.337255
1.000000 0.462745 0.352941
0.050980 0.341176 0.000000
0.098039 0.345098 0.000000
0.133333 0.345098 0.007843
0.188235 0.345098 0.000000
0.223529 0.341176 0.003922
0.270588 0.345098 0.000000
0.309804 0.345098 0.000000
0.360784 0.345098 0.000000
0.407843 0.345098 0.000000
0.443137 0.341176 0.000000
0.482353 0.341176 0.035294
0.505882 0.349020 0.078431
0.552941 0.360784 0.141176
0.588235 0.368627 0.180392
0.623529 0.380392 0.188235
0.670588 0.388235 0.207843
0.713725 0.396078 0.227451
0.756863 0.411765 0.235294
0.800000 0.419608 0.250980
0.835294 0.423529 0.266667
0.878431 0.431373 0.286275
0.917647 0.450980 0.301961
0.964706 0.454902 0.329412
0.980392 0.470588 0.345098
1.000000 0.486275 0.368627
0.074510 0.388235 0.000000
0.105882 0.388235 0.000000
0.149020 0.392157 0.003922
0.172549 0.388235 0.000000
0.227451 0.392157 0.007843
0.266667 0.392157 0.003922
0.305882 0.392157 0.000000
0.360784 0.392157 0.003922
0.400000 0.392157 0.000000
0.447059 0.392157 0.003922
0.482353 0.388235 0.000000
0.521569 0.384314 0.015686
0.564706 0.384314 0.082353
0.592157 0.407843 0.141176
0.627451 0.415686 0.180392
0.662745 0.419608 0.227451
0.709804 0.435294 0.231373
0.752941 0.439216 0.247059
0.800000 0.447059 0.258824
0.835294 0.454902 0.278431
0.874510 0.466667 0.290196
0.917647 0.482353 0.305882
0.952941 0.494118 0.333333
0.992157 0.498039 0.368627
0.996078 0.509804 0.376471
0.066667 0.443137 0.003922
0.101961 0.443137 0.000000
0.145098 0.435294 0.000000
0.184314 0.431373 0.003922
0.219608 0.443137 0.000000
0.266667 0.439216 0.000000
0.309804 0.439216 0.000000
0.349020 0.435294 0.000000
0.396078 0.435294 0.000000
0.439216 0.439216 0.000000
0.482353 0.435294 0.000000
0.529412 0.439216 0.000000
0.560784 0.439216 0.000000
0.603922 0.431373 0.090196
0.639216 0.435294 0.149020
0.674510 0.450980 0.180392
0.709804 0.466667 0.235294
0.752941 0.478431 0.274510
0.788235 0.486275 0.282353
0.835294 0.494118 0.286275
0.870588 0.501961 0.313725
0.913725 0.513725 0.333333
0.956863 0.521569 0.352941
0.992157 0.533333 0.372549
1.000000 0.549020 0.396078
0.078431 0.486275 0.003922
0.109804 0.486275 0.000000
0.141176 0.490196 0.000000
0.180392 0.486275 0.000000
0.223529 0.494118 0.003922
0.262745 0.490196 0.007843
0.309804 0.490196 0.000000
0.356863 0.490196 0.007843
0.396078 0.482353 0.000000
0.439216 0.486275 0.000000
