lut_library_archive/removed_20260629/50个风景lut/50个风景lut03.cube
# 版权归凌孟成所有，侵权必究
TITLE "Jungle LUT #3"
#LUT size
LUT_3D_SIZE 25
#LUT data points
0.000000 0.000000 0.000000
0.003922 0.003922 0.000000
0.078431 0.000000 0.003922
0.117647 0.000000 0.000000
0.152941 0.000000 0.000000
0.211765 0.000000 0.000000
0.250980 0.000000 0.000000
0.290196 0.000000 0.003922
0.329412 0.000000 0.000000
0.376471 0.000000 0.003922
0.423529 0.000000 0.000000
0.466667 0.003922 0.003922
0.517647 0.000000 0.011765
0.556863 0.000000 0.015686
0.607843 0.003922 0.015686
0.650980 0.003922 0.027451
0.698039 0.000000 0.023529
0.741176 0.003922 0.031373
0.788235 0.011765 0.047059
0.827451 0.015686 0.054902
0.870588 0.027451 0.058824
0.913725 0.043137 0.070588
0.956863 0.062745 0.090196
1.000000 0.074510 0.094118
0.996078 0.094118 0.101961
0.000000 0.023529 0.000000
0.023529 0.035294 0.007843
0.066667 0.023529 0.000000
0.109804 0.031373 0.003922
0.156863 0.027451 0.000000
0.200000 0.023529 0.000000
0.247059 0.035294 0.003922
0.286275 0.031373 0.007843
0.341176 0.039216 0.007843
0.384314 0.039216 0.003922
0.423529 0.039216 0.003922
0.466667 0.035294 0.007843
0.509804 0.039216 0.015686
0.560784 0.039216 0.019608
0.600000 0.039216 0.015686
0.658824 0.047059 0.027451
0.694118 0.047059 0.031373
0.737255 0.050980 0.039216
0.788235 0.062745 0.047059
0.827451 0.070588 0.058824
0.874510 0.078431 0.070588
0.909804 0.082353 0.078431
0.956863 0.090196 0.090196
0.992157 0.101961 0.098039
1.000000 0.117647 0.101961
0.000000 0.074510 0.000000
0.019608 0.070588 0.003922
0.070588 0.078431 0.000000
0.113725 0.070588 0.000000
0.156863 0.074510 0.007843
0.192157 0.078431 0.015686
0.243137 0.082353 0.011765
0.286275 0.078431 0.007843
0.337255 0.082353 0.011765
0.376471 0.082353 0.007843
0.423529 0.082353 0.015686
0.462745 0.082353 0.015686
0.509804 0.082353 0.015686
0.564706 0.090196 0.027451
0.603922 0.090196 0.019608
0.650980 0.090196 0.027451
0.698039 0.090196 0.035294
0.737255 0.098039 0.047059
0.784314 0.098039 0.054902
0.827451 0.105882 0.066667
0.870588 0.109804 0.074510
0.913725 0.121569 0.082353
0.956863 0.121569 0.098039
0.996078 0.133333 0.101961
1.000000 0.149020 0.113725
0.000000 0.113725 0.000000
0.015686 0.117647 0.003922
0.078431 0.121569 0.003922
0.121569 0.117647 0.007843
0.156863 0.113725 0.003922
0.196078 0.117647 0.011765
0.243137 0.121569 0.011765
0.286275 0.125490 0.015686
0.325490 0.125490 0.019608
0.376471 0.125490 0.027451
0.423529 0.125490 0.031373
0.470588 0.129412 0.023529
0.509804 0.129412 0.023529
0.556863 0.137255 0.027451
0.603922 0.133333 0.031373
0.654902 0.137255 0.047059
0.698039 0.141176 0.047059
0.741176 0.141176 0.050980
0.784314 0.149020 0.070588
0.823529 0.149020 0.070588
0.866667 0.152941 0.078431
0.909804 0.152941 0.086275
0.956863 0.156863 0.098039
1.000000 0.172549 0.109804
0.992157 0.180392 0.117647
0.007843 0.156863 0.000000
0.019608 0.164706 0.000000
0.074510 0.164706 0.000000
0.117647 0.160784 0.003922
0.156863 0.160784 0.000000
0.211765 0.168627 0.000000
0.235294 0.160784 0.003922
0.278431 0.160784 0.027451
0.325490 0.168627 0.031373
0.368627 0.172549 0.035294
0.419608 0.172549 0.035294
0.466667 0.168627 0.035294
0.513725 0.176471 0.047059
0.556863 0.180392 0.047059
0.607843 0.180392 0.058824
0.650980 0.184314 0.058824
0.694118 0.184314 0.050980
0.741176 0.192157 0.062745
0.784314 0.192157 0.078431
0.823529 0.192157 0.082353
0.870588 0.196078 0.086275
0.909804 0.200000 0.094118
0.952941 0.211765 0.105882
0.988235 0.215686 0.121569
1.000000 0.215686 0.125490
0.011765 0.207843 0.000000
0.023529 0.207843 0.000000
0.066667 0.211765 0.000000
0.113725 0.211765 0.000000
0.168627 0.211765 0.000000
0.211765 0.207843 0.000000
0.250980 0.215686 0.000000
0.301961 0.211765 0.007843
0.337255 0.211765 0.011765
0.380392 0.211765 0.043137
0.427451 0.219608 0.062745
0.466667 0.223529 0.062745
0.513725 0.227451 0.062745
0.560784 0.227451 0.074510
0.611765 0.231373 0.066667
0.658824 0.231373 0.070588
0.701961 0.235294 0.086275
0.745098 0.235294 0.094118
0.788235 0.235294 0.094118
0.831373 0.239216 0.094118
0.874510 0.243137 0.094118
0.913725 0.250980 0.105882
0.952941 0.254902 0.121569
0.988235 0.258824 0.137255
1.000000 0.258824 0.152941
0.000000 0.254902 0.000000
0.007843 0.243137 0.000000
0.066667 0.258824 0.000000
0.113725 0.247059 0.000000
0.156863 0.254902 0.000000
0.211765 0.258824 0.007843
0.247059 0.247059 0.000000
0.294118 0.250980 0.000000
0.337255 0.254902 0.007843
0.380392 0.254902 0.023529
0.423529 0.262745 0.050980
0.470588 0.266667 0.074510
0.513725 0.266667 0.090196
0.564706 0.274510 0.090196
0.615686 0.278431 0.094118
0.654902 0.274510 0.098039
0.701961 0.278431 0.098039
0.752941 0.278431 0.101961
0.792157 0.282353 0.109804
0.843137 0.282353 0.117647
0.878431 0.290196 0.121569
0.917647 0.290196 0.117647
0.956863 0.294118 0.133333
1.000000 0.294118 0.149020
1.000000 0.301961 0.160784
0.011765 0.301961 0.000000
0.000000 0.298039 0.000000
0.066667 0.294118 0.003922
0.109804 0.298039 0.000000
0.164706 0.294118 0.007843
0.207843 0.301961 0.003922
0.243137 0.298039 0.000000
0.290196 0.301961 0.000000
0.345098 0.298039 0.000000
0.384314 0.298039 0.003922
0.431373 0.294118 0.027451
0.466667 0.305882 0.062745
0.517647 0.313725 0.090196
0.560784 0.313725 0.105882
0.611765 0.325490 0.125490
0.658824 0.321569 0.121569
0.705882 0.325490 0.117647
0.749020 0.329412 0.125490
0.788235 0.329412 0.121569
0.831373 0.333333 0.125490
0.874510 0.337255 0.133333
0.917647 0.337255 0.149020
0.960784 0.333333 0.152941
0.996078 0.341176 0.168627
1.000000 0.345098 0.172549
0.007843 0.345098 0.003922
0.003922 0.341176 0.000000
0.043137 0.341176 0.000000
0.098039 0.341176 0.007843
0.152941 0.341176 0.000000
0.196078 0.345098 0.003922
0.250980 0.345098 0.007843
0.298039 0.349020 0.003922
0.345098 0.345098 0.000000
0.388235 0.345098 0.000000
0.427451 0.345098 0.000000
0.470588 0.345098 0.011765
0.517647 0.349020 0.050980
0.564706 0.356863 0.098039
0.615686 0.364706 0.125490
0.662745 0.368627 0.145098
0.705882 0.372549 0.149020
0.745098 0.376471 0.137255
0.788235 0.380392 0.141176
0.831373 0.376471 0.145098
0.870588 0.376471 0.149020
0.905882 0.388235 0.164706
0.960784 0.384314 0.172549
0.984314 0.384314 0.180392
1.000000 0.392157 0.184314
0.003922 0.384314 0.000000
0.000000 0.396078 0.007843
0.011765 0.388235 0.000000
0.090196 0.388235 0.000000
0.152941 0.388235 0.003922
0.207843 0.388235 0.000000
0.250980 0.388235 0.000000
0.298039 0.396078 0.000000
0.349020 0.388235 0.000000
0.388235 0.388235 0.003922
0.431373 0.392157 0.011765
0.474510 0.384314 0.007843
0.513725 0.400000 0.003922
0.560784 0.400000 0.047059
0.607843 0.400000 0.094118
0.654902 0.411765 0.129412
0.701961 0.415686 0.149020
0.745098 0.419608 0.160784
0.788235 0.423529 0.168627
0.831373 0.423529 0.176471
0.874510 0.423529 0.176471
0.913725 0.427451 0.184314
0.960784 0.431373 0.184314
0.996078 0.431373 0.188235
1.000000 0.431373 0.192157
0.003922 0.443137 0.011765
0.000000 0.450980 0.000000
0.000000 0.443137 0.000000
0.086275 0.447059 0.003922
0.149020 0.439216 0.003922
0.200000 0.443137 0.000000
0.247059 0.443137 0.000000
0.294118 0.443137 0.000000
0.345098 0.439216 0.000000
0.388235 0.443137 0.000000
0.443137 0.443137 0.007843
0.482353 0.443137 0.007843
0.529412 0.443137 0.003922
0.572549 0.447059 0.011765
0.619608 0.450980 0.050980
0.662745 0.447059 0.094118
0.705882 0.462745 0.129412
0.749020 0.462745 0.152941
0.792157 0.470588 0.180392
0.835294 0.470588 0.200000
0.874510 0.470588 0.207843
0.917647 0.474510 0.207843
0.964706 0.478431 0.207843
1.000000 0.482353 0.211765
1.000000 0.486275 0.235294
0.000000 0.490196 0.000000
0.000000 0.490196 0.000000
0.000000 0.482353 0.000000
0.070588 0.486275 0.000000
0.137255 0.486275 0.015686
0.188235 0.486275 0.000000
0.254902 0.490196 0.011765
0.298039 0.490196 0.000000
0.341176 0.482353 0.000000
0.388235 0.482353 0.000000
0.431373 0.486275 0.000000
0.482353 0.490196 0.000000
0.525490 0.486275 0.000000
0.572549 0.490196 0.000000
0.619608 0.490196 0.000000
0.654902 0.494118 0.039216
0.701961 0.494118 0.094118
0.745098 0.498039 0.133333
0.784314 0.505882 0.160784
0.835294 0.513725 0.188235
0.878431 0.517647 0.223529
0.921569 0.521569 0.231373
0.960784 0.525490 0.223529
0.992157 0.529412 0.239216
0.988235 0.529412 0.250980
0.000000 0.529412 0.003922
0.007843 0.529412 0.000000
0.000000 0.529412 0.000000
0.050980 0.537255 0.000000
0.125490 0.529412 0.000000
0.180392 0.533333 0.000000
0.239216 0.525490 0.000000
0.290196 0.533333 0.003922
0.337255 0.537255 0.000000
0.388235 0.529412 0.000000
0.423529 0.533333 0.000000
0.478431 0.533333 0.000000
0.521569 0.529412 0.000000
0.564706 0.525490 0.000000
0.611765 0.525490 0.000000
0.658824 0.525490 0.003922
0.701961 0.533333 0.031373
0.745098 0.537255 0.082353
0.788235 0.541176 0.129412
0.831373 0.549020 0.164706
0.870588 0.552941 0.196078
0.913725 0.556863 0.239216
0.945098 0.564706 0.247059
0.992157 0.572549 0.266667
0.996078 0.568627 0.266667
0.000000 0.568627 0.007843
0.003922 0.568627 0.000000
0.000000 0.576471 0.011765
0.015686 0.572549 0.000000
0.113725 0.576471 0.000000
0.176471 0.576471 0.000000
0.227451 0.572549 0.000000
0.282353 0.568627 0.003922
0.329412 0.572549 0.003922
0.384314 0.576471 0.011765
0.427451 0.576471 0.007843
0.474510 0.564706 0.000000
0.517647 0.564706 0.000000
0.564706 0.572549 0.003922
0.603922 0.572549 0.003922
0.650980 0.572549 0.000000
0.694118 0.576471 0.000000
0.737255 0.576471 0.019608
0.776471 0.580392 0.074510
0.827451 0.580392 0.137255
0.870588 0.584314 0.180392
0.917647 0.588235 0.200000
0.952941 0.596078 0.239216
0.980392 0.611765 0.270588
1.000000 0.623529 0.286275
0.003922 0.611765 0.000000
0.003922 0.611765 0.000000
0.000000 0.607843 0.000000
0.007843 0.615686 0.003922
0.101961 0.615686 0.003922
0.164706 0.615686 0.000000
0.227451 0.619608 0.000000
0.270588 0.623529 0.003922
0.325490 0.615686 0.000000
0.372549 0.615686 0.000000
0.423529 0.619608 0.003922
0.470588 0.615686 0.000000
0.509804 0.607843 0.000000
0.556863 0.611765 0.000000
0.607843 0.615686 0.000000
0.650980 0.607843 0.003922
0.698039 0.603922 0.007843
0.737255 0.607843 0.000000
0.784314 0.615686 0.011765
0.823529 0.615686 0.066667
0.874510 0.623529 0.137255
0.909804 0.627451 0.164706
0.952941 0.627451 0.211765
0.988235 0.635294 0.254902
1.000000 0.643137 0.286275
0.003922 0.666667 0.000000
0.007843 0.670588 0.007843
0.011765 0.666667 0.000000
0.003922 0.666667 0.000000
0.094118 0.666667 0.000000
0.152941 0.670588 0.000000
0.227451 0.666667 0.000000
0.278431 0.666667 0.000000
0.325490 0.670588 0.000000
0.368627 0.666667 0.000000
0.423529 0.666667 0.003922
0.470588 0.662745 0.000000
0.513725 0.658824 0.000000
0.560784 0.662745 0.000000
0.600000 0.662745 0.000000
0.643137 0.666667 0.007843
0.701961 0.658824 0.000000
0.741176 0.658824 0.000000
0.784314 0.658824 0.000000
0.827451 0.662745 0.019608
0.874510 0.662745 0.066667
0.913725 0.670588 0.133333
0.952941 0.670588 0.196078
0.992157 0.674510 0.231373
1.000000 0.682353 0.282353
0.003922 0.705882 0.003922
0.000000 0.705882 0.000000
0.015686 0.705882 0.003922
0.000000 0.709804 0.000000
0.078431 0.701961 0.000000
0.152941 0.701961 0.007843
0.207843 0.709804 0.000000
0.266667 0.713725 0.000000
0.313725 0.709804 0.000000
0.364706 0.709804 0.000000
0.419608 0.705882 0.000000
0.466667 0.705882 0.003922
0.509804 0.701961 0.000000
0.556863 0.701961 0.003922
0.603922 0.698039 0.007843
0.643137 0.701961 0.000000
0.690196 0.701961 0.000000
0.737255 0.698039 0.003922
0.780392 0.698039 0.003922
0.823529 0.698039 0.000000
0.862745 0.701961 0.003922
0.909804 0.705882 0.066667
0.960784 0.705882 0.149020
0.996078 0.705882 0.176471
1.000000 0.709804 0.243137
0.003922 0.741176 0.000000
0.003922 0.749020 0.019608
0.000000 0.745098 0.007843
0.003922 0.741176 0.000000
0.054902 0.749020 0.000000
0.141176 0.737255 0.000000
0.200000 0.745098 0.000000
0.254902 0.752941 0.003922
0.313725 0.749020 0.000000
0.356863 0.745098 0.000000
0.419608 0.741176 0.000000
0.454902 0.749020 0.007843
0.505882 0.745098 0.000000
0.545098 0.745098 0.000000
0.588235 0.749020 0.003922
0.639216 0.745098 0.000000
0.682353 0.741176 0.000000
0.725490 0.745098 0.007843
0.772549 0.741176 0.007843
0.819608 0.745098 0.000000
0.862745 0.741176 0.000000
0.901961 0.741176 0.003922
0.949020 0.741176 0.050980
0.992157 0.745098 0.137255
0.996078 0.749020 0.211765
0.000000 0.788235 0.000000
0.003922 0.788235 0.000000
0.003922 0.788235 0.000000
0.011765 0.788235 0.000000
0.015686 0.788235 0.000000
0.125490 0.784314 0.000000
0.196078 0.788235 0.000000
0.262745 0.788235 0.003922
0.309804 0.788235 0.007843
0.356863 0.792157 0.003922
0.403922 0.792157 0.000000
0.447059 0.788235 0.000000
0.494118 0.784314 0.003922
0.541176 0.780392 0.000000
0.596078 0.784314 0.007843
0.639216 0.784314 0.000000
0.678431 0.784314 0.000000
0.725490 0.780392 0.000000
0.768627 0.776471 0.000000
0.815686 0.780392 0.000000
0.850980 0.776471 0.000000
0.905882 0.780392 0.007843
0.945098 0.780392 0.000000
0.976471 0.780392 0.031373
1.000000 0.776471 0.141176
0.003922 0.827451 0.000000
0.000000 0.827451 0.007843
0.000000 0.827451 0.000000
0.007843 0.819608 0.011765
0.011765 0.827451 0.003922
0.109804 0.831373 0.000000
0.200000 0.827451 0.003922
0.247059 0.827451 0.000000
0.305882 0.831373 0.000000
0.356863 0.827451 0.000000
0.403922 0.827451 0.003922
0.454902 0.831373 0.003922
0.501961 0.823529 0.003922
0.541176 0.823529 0.007843
0.584314 0.819608 0.000000
0.627451 0.823529 0.000000
0.674510 0.823529 0.003922
0.721569 0.823529 0.000000
0.768627 0.823529 0.000000
0.807843 0.823529 0.007843
0.847059 0.823529 0.000000
0.886275 0.823529 0.000000
0.941176 0.823529 0.007843
0.980392 0.823529 0.011765
1.000000 0.823529 0.011765
0.003922 0.878431 0.011765
0.000000 0.882353 0.011765
0.000000 0.874510 0.007843
0.003922 0.874510 0.000000
0.000000 0.878431 0.000000
0.125490 0.878431 0.000000
0.196078 0.874510 0.003922
0.247059 0.874510 0.003922
0.305882 0.870588 0.000000
0.356863 0.874510 0.000000
0.403922 0.874510 0.000000
0.450980 0.874510 0.000000
0.498039 0.866667 0.000000
0.549020 0.870588 0.000000
0.592157 0.866667 0.000000
0.631373 0.870588 0.000000
0.682353 0.866667 0.011765
0.721569 0.866667 0.003922
0.764706 0.866667 0.000000
0.807843 0.866667 0.000000
0.858824 0.866667 0.000000
0.898039 0.866667 0.003922
0.937255 0.866667 0.000000
0.976471 0.866667 0.000000
1.000000 0.858824 0.000000
0.007843 0.905882 0.000000
0.000000 0.905882 0.000000
0.003922 0.913725 0.000000
0.000000 0.905882 0.000000
0.003922 0.917647 0.011765
0.109804 0.905882 0.000000
0.188235 0.905882 0.003922
0.247059 0.909804 0.000000
0.294118 0.909804 0.003922
0.352941 0.913725 0.011765
0.396078 0.913725 0.000000
0.443137 0.909804 0.000000
0.490196 0.913725 0.000000
0.537255 0.913725 0.003922
0.576471 0.913725 0.000000
0.635294 0.905882 0.000000
0.674510 0.905882 0.003922
0.713725 0.905882 0.000000
0.760784 0.909804 0.000000
0.803922 0.905882 0.000000
0.843137 0.905882 0.003922
0.894118 0.905882 0.000000
0.933333 0.909804 0.000000
0.980392 0.898039 0.000000
1.000000 0.905882 0.000000
0.003922 0.945098 0.000000
0.003922 0.949020 0.000000
0.003922 0.945098 0.000000
0.011765 0.949020 0.003922
0.000000 0.949020 0.000000
0.094118 0.956863 0.000000
0.188235 0.952941 0.000000
0.243137 0.945098 0.000000
0.294118 0.945098 0.000000
0.352941 0.941176 0.000000
0.396078 0.949020 0.000000
0.447059 0.945098 0.000000
0.482353 0.949020 0.000000
0.529412 0.949020 0.007843
0.580392 0.949020 0.000000
0.627451 0.945098 0.000000
0.670588 0.941176 0.000000
0.709804 0.941176 0.000000
0.756863 0.941176 0.000000
0.807843 0.945098 0.003922
0.850980 0.945098 0.000000
0.886275 0.945098 0.000000
0.929412 0.949020 0.007843
0.964706 0.937255 0.003922
0.992157 0.949020 0.007843
0.007843 0.976471 0.000000
0.000000 0.992157 0.000000
0.000000 0.980392 0.007843
0.011765 0.980392 0.003922
0.000000 0.992157 0.003922
0.101961 0.988235 0.000000
0.172549 0.988235 0.000000
0.239216 0.988235 0.000000
0.290196 0.980392 0.000000
0.341176 0.988235 0.000000
0.392157 0.992157 0.000000
0.439216 0.984314 0.000000
0.490196 0.984314 0.003922
0.525490 0.984314 0.000000
0.572549 0.992157 0.000000
0.623529 0.984314 0.000000
0.662745 0.984314 0.000000
0.705882 0.984314 0.003922
0.749020 0.980392 0.000000
0.800000 0.980392 0.003922
0.839216 0.984314 0.000000
0.878431 0.984314 0.000000
0.925490 0.972549 0.000000
0.968627 0.976471 0.000000
1.000000 0.980392 0.000000
0.000000 1.000000 0.011765
0.000000 1.000000 0.000000
0.000000 1.000000 0.000000
0.000000 1.000000 0.000000
0.000000 1.000000 0.000000
0.094118 1.000000 0.003922
0.176471 0.992157 0.003922
0.231373 0.996078 0.007843
0.290196 1.000000 0.007843
0.345098 1.000000 0.000000
0.388235 0.996078 0.000000
0.439216 0.992157 0.000000
0.482353 0.996078 0.000000
0.525490 1.000000 0.000000
0.568627 1.000000 0.000000
0.611765 1.000000 0.000000
0.658824 1.000000 0.000000
0.701961 0.996078 0.003922
0.741176 0.996078 0.000000
0.792157 1.000000 0.000000
0.831373 1.000000 0.000000
0.870588 1.000000 0.000000
0.921569 1.000000 0.000000
0.968627 0.996078 0.000000
0.996078 1.000000 0.003922
0.003922 0.000000 0.023529
0.007843 0.003922 0.027451
0.078431 0.000000 0.035294
0.113725 0.000000 0.035294
0.164706 0.003922 0.035294
0.207843 0.000000 0.039216
0.243137 0.000000 0.027451
0.298039 0.000000 0.047059
0.337255 0.003922 0.035294
0.384314 0.003922 0.043137
0.423529 0.000000 0.050980
0.470588 0.000000 0.054902
0.517647 0.000000 0.054902
0.556863 0.000000 0.047059
0.603922 0.003922 0.050980
0.650980 0.000000 0.066667
0.694118 0.000000 0.070588
0.741176 0.003922 0.070588
0.788235 0.003922 0.074510
0.835294 0.011765 0.086275
0.878431 0.023529 0.098039
0.913725 0.035294 0.105882
0.952941 0.054902 0.105882
1.000000 0.078431 0.113725
0.988235 0.094118 0.129412
0.000000 0.031373 0.039216
0.011765 0.027451 0.039216
0.070588 0.023529 0.023529
0.125490 0.027451 0.043137
0.160784 0.027451 0.031373
0.200000 0.023529 0.043137
0.247059 0.027451 0.039216
0.298039 0.027451 0.039216
0.341176 0.023529 0.043137
0.384314 0.027451 0.054902
0.423529 0.027451 0.050980
0.470588 0.031373 0.054902
0.509804 0.031373 0.050980
0.560784 0.031373 0.054902
0.607843 0.031373 0.062745
0.650980 0.043137 0.066667
0.698039 0.043137 0.074510
0.741176 0.047059 0.078431
0.788235 0.058824 0.082353
0.831373 0.058824 0.094118
0.874510 0.070588 0.105882
0.913725 0.082353 0.101961
0.960784 0.090196 0.117647
0.992157 0.105882 0.121569
1.000000 0.109804 0.129412
0.003922 0.062745 0.035294
0.023529 0.074510 0.039216
0.070588 0.070588 0.031373
0.109804 0.074510 0.047059
0.156863 0.074510 0.054902
0.196078 0.078431 0.047059
0.247059 0.078431 0.047059
0.286275 0.078431 0.054902
0.341176 0.078431 0.047059
0.376471 0.086275 0.050980
0.427451 0.078431 0.054902
0.462745 0.082353 0.054902
0.513725 0.082353 0.054902
0.556863 0.086275 0.062745
0.607843 0.086275 0.066667
0.654902 0.086275 0.074510
0.698039 0.090196 0.074510
0.737255 0.098039 0.078431
0.788235 0.101961 0.082353
0.831373 0.105882 0.090196
0.874510 0.109804 0.101961
0.913725 0.117647 0.101961
0.960784 0.125490 0.109804
0.996078 0.129412 0.125490
1.000000 0.137255 0.125490
0.000000 0.121569 0.039216
0.023529 0.117647 0.031373
0.070588 0.125490 0.035294
0.117647 0.113725 0.043137
0.156863 0.113725 0.039216
0.196078 0.125490 0.047059
0.243137 0.117647 0.058824
0.286275 0.117647 0.054902
0.329412 0.121569 0.058824
0.372549 0.125490 0.058824
0.415686 0.129412 0.070588
0.462745 0.125490 0.066667
0.505882 0.129412 0.066667
0.556863 0.129412 0.070588
0.607843 0.129412 0.078431
0.654902 0.133333 0.082353
0.698039 0.137255 0.082353
0.741176 0.141176 0.082353
0.780392 0.141176 0.090196
0.823529 0.149020 0.101961
0.866667 0.152941 0.109804
0.913725 0.152941 0.113725
0.956863 0.160784 0.113725
0.992157 0.176471 0.137255
0.992157 0.176471 0.137255
0.003922 0.156863 0.035294
0.019608 0.156863 0.023529
0.066667 0.160784 0.027451
0.117647 0.160784 0.043137
0.152941 0.168627 0.039216
0.203922 0.164706 0.035294
0.247059 0.164706 0.050980
0.286275 0.168627 0.066667
0.329412 0.164706 0.070588
0.376471 0.172549 0.078431
0.423529 0.172549 0.074510
0.466667 0.168627 0.074510
0.509804 0.180392 0.086275
0.556863 0.180392 0.082353
0.603922 0.184314 0.082353
0.654902 0.184314 0.090196
0.698039 0.180392 0.090196
0.741176 0.184314 0.090196
0.784314 0.188235 0.098039
0.823529 0.196078 0.101961
0.874510 0.192157 0.109804
0.913725 0.200000 0.117647
0.956863 0.203922 0.129412
0.988235 0.211765 0.137255
1.000000 0.215686 0.145098
0.000000 0.207843 0.027451
0.007843 0.211765 0.023529
0.066667 0.203922 0.035294
0.121569 0.211765 0.031373
0.152941 0.203922 0.023529
0.203922 0.211765 0.027451
0.254902 0.203922 0.031373
0.298039 0.207843 0.035294
0.337255 0.207843 0.070588
0.380392 0.211765 0.086275
0.427451 0.219608 0.094118
0.458824 0.223529 0.082353
0.509804 0.227451 0.086275
0.560784 0.231373 0.098039
0.607843 0.231373 0.098039
0.658824 0.235294 0.101961
0.701961 0.231373 0.098039
0.745098 0.235294 0.109804
0.784314 0.235294 0.113725
0.823529 0.239216 0.113725
0.870588 0.239216 0.125490
0.917647 0.250980 0.129412
0.960784 0.250980 0.137255
1.000000 0.254902 0.145098
0.992157 0.266667 0.156863
0.000000 0.250980 0.015686
0.003922 0.250980 0.027451
0.062745 0.254902 0.039216
0.101961 0.250980 0.019608
0.156863 0.254902 0.027451
0.207843 0.250980 0.015686
0.254902 0.254902 0.019608
0.298039 0.258824 0.027451
0.337255 0.254902 0.047059
0.380392 0.254902 0.062745
0.419608 0.258824 0.086275
0.466667 0.266667 0.098039
0.513725 0.270588 0.109804
0.560784 0.274510 0.109804
0.607843 0.282353 0.125490
0.662745 0.278431 0.133333
0.701961 0.282353 0.117647
0.745098 0.286275 0.113725
0.784314 0.286275 0.125490
0.827451 0.290196 0.133333
0.870588 0.294118 0.133333
0.917647 0.294118 0.137255
0.956863 0.294118 0.149020
1.000000 0.294118 0.156863
0.992157 0.305882 0.160784
0.003922 0.301961 0.011765
0.000000 0.298039 0.015686
0.050980 0.298039 0.023529
0.098039 0.294118 0.015686
0.164706 0.294118 0.023529
0.207843 0.298039 0.015686
0.247059 0.298039 0.015686
0.294118 0.298039 0.023529
0.341176 0.301961 0.023529
0.388235 0.298039 0.031373
0.423529 0.301961 0.050980
0.470588 0.305882 0.086275
0.517647 0.313725 0.117647
0.564706 0.321569 0.137255
0.611765 0.325490 0.129412
0.658824 0.321569 0.137255
0.701961 0.325490 0.137255
0.745098 0.329412 0.145098
0.788235 0.333333 0.149020
0.827451 0.333333 0.145098
0.870588 0.337255 0.152941
0.913725 0.337255 0.164706
0.952941 0.337255 0.168627
0.984314 0.341176 0.172549
1.000000 0.341176 0.180392
0.011765 0.345098 0.019608
0.000000 0.345098 0.023529
0.027451 0.337255 0.011765
0.101961 0.345098 0.011765
0.156863 0.345098 0.007843
0.196078 0.345098 0.011765
0.250980 0.345098 0.015686
0.298039 0.345098 0.007843
0.345098 0.341176 0.015686
0.384314 0.345098 0.011765
0.427451 0.345098 0.019608
0.474510 0.349020 0.054902
0.513725 0.352941 0.101961
0.560784 0.356863 0.121569
0.607843 0.364706 0.141176
0.654902 0.372549 0.152941
0.694118 0.372549 0.152941
0.733333 0.372549 0.156863
0.788235 0.376471 0.168627
0.831373 0.380392 0.168627
0.870588 0.380392 0.168627
0.909804 0.380392 0.172549
0.956863 0.388235 0.180392
0.980392 0.388235 0.188235
1.000000 0.392157 0.188235
0.000000 0.384314 0.019608
0.000000 0.392157 0.015686
0.015686 0.384314 0.007843
0.086275 0.384314 0.000000
0.152941 0.392157 0.015686
0.203922 0.388235 0.003922
0.247059 0.388235 0.003922
0.294118 0.388235 0.003922
0.341176 0.388235 0.003922
0.384314 0.392157 0.003922
0.427451 0.396078 0.007843
0.466667 0.396078 0.003922
0.517647 0.392157 0.050980
0.556863 0.396078 0.086275
0.603922 0.396078 0.121569
0.647059 0.407843 0.152941
0.694118 0.415686 0.172549
0.737255 0.415686 0.180392
0.788235 0.419608 0.188235
0.831373 0.423529 0.184314
0.874510 0.427451 0.192157
0.905882 0.431373 0.192157
0.956863 0.431373 0.200000
0.988235 0.431373 0.203922
1.000000 0.435294 0.211765
0.007843 0.435294 0.007843
0.000000 0.435294 0.000000
0.000000 0.443137 0.000000
0.074510 0.443137 0.000000
0.149020 0.439216 0.003922
0.196078 0.439216 0.000000
0.239216 0.447059 0.000000
0.294118 0.443137 0.007843
0.333333 0.435294 0.003922
0.384314 0.439216 0.000000
