lut_library_archive/removed_20260629/50个风景lut/50个风景lut49.cube
# 版权归凌孟成所有，侵权必究
TITLE "Jungle LUT #49"
#LUT size
LUT_3D_SIZE 9
#LUT data points
0.050980 0.054902 0.062745
0.125490 0.047059 0.050980
0.235294 0.043137 0.054902
0.333333 0.043137 0.039216
0.447059 0.058824 0.039216
0.568627 0.070588 0.043137
0.709804 0.086275 0.035294
0.850980 0.090196 0.023529
0.996078 0.086275 0.000000
0.043137 0.137255 0.043137
0.133333 0.133333 0.039216
0.231373 0.137255 0.043137
0.337255 0.133333 0.047059
0.450980 0.137255 0.047059
0.576471 0.145098 0.039216
0.709804 0.160784 0.039216
0.843137 0.156863 0.011765
0.976471 0.164706 0.000000
0.047059 0.227451 0.035294
0.121569 0.231373 0.043137
0.223529 0.231373 0.047059
0.337255 0.235294 0.043137
0.450980 0.243137 0.047059
0.580392 0.247059 0.031373
0.713725 0.258824 0.019608
0.847059 0.262745 0.000000
0.992157 0.266667 0.011765
0.062745 0.341176 0.043137
0.137255 0.345098 0.039216
0.235294 0.349020 0.027451
0.341176 0.356863 0.027451
0.458824 0.356863 0.015686
0.584314 0.360784 0.011765
0.713725 0.364706 0.000000
0.854902 0.376471 0.003922
0.984314 0.380392 0.003922
0.054902 0.478431 0.000000
0.141176 0.478431 0.000000
0.243137 0.478431 0.000000
0.356863 0.482353 0.000000
0.474510 0.482353 0.000000
0.596078 0.486275 0.000000
0.729412 0.490196 0.003922
0.862745 0.494118 0.007843
0.992157 0.505882 0.000000
0.062745 0.615686 0.000000
0.145098 0.611765 0.000000
0.254902 0.611765 0.000000
0.368627 0.619608 0.007843
0.494118 0.615686 0.003922
0.615686 0.615686 0.000000
0.737255 0.619608 0.000000
0.866667 0.623529 0.000000
0.992157 0.631373 0.007843
0.054902 0.741176 0.000000
0.149020 0.745098 0.007843
0.254902 0.745098 0.000000
0.384314 0.749020 0.000000
0.505882 0.745098 0.000000
0.631373 0.745098 0.000000
0.749020 0.745098 0.003922
0.874510 0.745098 0.003922
0.996078 0.749020 0.000000
0.062745 0.874510 0.003922
0.164706 0.882353 0.003922
0.266667 0.886275 0.000000
0.392157 0.882353 0.000000
0.521569 0.882353 0.000000
0.639216 0.882353 0.000000
0.772549 0.882353 0.000000
0.901961 0.882353 0.000000
1.000000 0.882353 0.000000
0.125490 1.000000 0.000000
0.192157 0.996078 0.003922
0.298039 0.996078 0.000000
0.407843 1.000000 0.000000
0.541176 1.000000 0.000000
0.674510 1.000000 0.003922
0.803922 1.000000 0.000000
0.949020 1.000000 0.000000
1.000000 1.000000 0.078431
0.027451 0.062745 0.129412
0.129412 0.047059 0.121569
0.231373 0.058824 0.117647
0.333333 0.066667 0.117647
0.447059 0.070588 0.117647
0.572549 0.070588 0.121569
0.709804 0.070588 0.105882
0.847059 0.070588 0.105882
0.980392 0.070588 0.101961
0.058824 0.133333 0.125490
0.125490 0.133333 0.121569
0.227451 0.133333 0.125490
0.329412 0.137255 0.113725
0.447059 0.145098 0.121569
0.572549 0.145098 0.117647
0.705882 0.141176 0.105882
0.847059 0.149020 0.101961
0.988235 0.156863 0.082353
0.058824 0.227451 0.109804
0.137255 0.235294 0.121569
0.223529 0.239216 0.109804
0.337255 0.235294 0.113725
0.450980 0.243137 0.117647
0.576471 0.247059 0.105882
0.713725 0.250980 0.101961
0.843137 0.254902 0.086275
0.992157 0.258824 0.090196
0.043137 0.349020 0.121569
0.129412 0.341176 0.113725
0.231373 0.341176 0.101961
0.345098 0.345098 0.101961
0.462745 0.352941 0.098039
0.588235 0.364706 0.101961
0.717647 0.372549 0.090196
0.858824 0.376471 0.082353
0.996078 0.380392 0.070588
0.035294 0.474510 0.082353
0.129412 0.470588 0.090196
0.239216 0.474510 0.082353
0.356863 0.474510 0.082353
0.474510 0.478431 0.078431
0.592157 0.482353 0.054902
0.729412 0.486275 0.058824
0.862745 0.498039 0.054902
0.996078 0.505882 0.050980
0.019608 0.607843 0.015686
0.129412 0.611765 0.015686
0.243137 0.607843 0.007843
0.372549 0.607843 0.019608
0.494118 0.615686 0.015686
0.623529 0.611765 0.007843
0.741176 0.611765 0.000000
0.870588 0.619608 0.000000
0.996078 0.623529 0.000000
0.003922 0.733333 0.000000
0.129412 0.741176 0.000000
0.247059 0.741176 0.003922
0.368627 0.741176 0.000000
0.501961 0.741176 0.000000
0.627451 0.749020 0.000000
0.756863 0.745098 0.003922
0.878431 0.749020 0.000000
1.000000 0.752941 0.007843
0.023529 0.874510 0.007843
0.133333 0.878431 0.000000
0.262745 0.882353 0.003922
0.388235 0.878431 0.000000
0.505882 0.878431 0.000000
0.643137 0.882353 0.000000
0.768627 0.878431 0.000000
0.898039 0.878431 0.000000
1.000000 0.878431 0.000000
0.113725 1.000000 0.000000
0.168627 0.992157 0.007843
0.282353 1.000000 0.000000
0.403922 1.000000 0.000000
0.541176 0.996078 0.011765
0.674510 1.000000 0.000000
0.811765 1.000000 0.035294
0.949020 1.000000 0.101961
1.000000 1.000000 0.152941
0.039216 0.043137 0.215686
0.117647 0.047059 0.211765
0.223529 0.058824 0.207843
0.337255 0.062745 0.215686
0.450980 0.054902 0.219608
0.576471 0.039216 0.211765
0.713725 0.011765 0.207843
0.850980 0.000000 0.196078
0.996078 0.000000 0.203922
0.054902 0.125490 0.211765
0.121569 0.125490 0.203922
0.223529 0.129412 0.215686
0.337255 0.137255 0.211765
0.443137 0.133333 0.215686
0.584314 0.125490 0.207843
0.705882 0.121569 0.200000
0.854902 0.121569 0.203922
1.000000 0.109804 0.196078
0.047059 0.227451 0.219608
0.129412 0.235294 0.215686
0.239216 0.223529 0.211765
0.341176 0.235294 0.207843
0.462745 0.239216 0.211765
0.584314 0.243137 0.207843
0.709804 0.243137 0.196078
0.850980 0.243137 0.196078
1.000000 0.243137 0.192157
0.000000 0.349020 0.196078
0.117647 0.345098 0.196078
0.231373 0.349020 0.200000
0.345098 0.352941 0.207843
0.462745 0.352941 0.207843
0.588235 0.356863 0.207843
0.729412 0.364706 0.196078
0.854902 0.368627 0.196078
0.996078 0.368627 0.188235
0.003922 0.474510 0.196078
0.105882 0.470588 0.184314
0.231373 0.482353 0.184314
0.352941 0.470588 0.180392
0.474510 0.474510 0.184314
0.600000 0.474510 0.180392
0.733333 0.486275 0.184314
0.866667 0.494118 0.184314
1.000000 0.490196 0.176471
0.003922 0.611765 0.180392
0.086275 0.611765 0.172549
0.227451 0.611765 0.168627
0.360784 0.611765 0.164706
0.486275 0.615686 0.172549
0.615686 0.607843 0.172549
0.737255 0.607843 0.156863
0.874510 0.619608 0.164706
0.996078 0.623529 0.168627
0.000000 0.733333 0.141176
0.070588 0.745098 0.141176
0.223529 0.745098 0.137255
0.364706 0.745098 0.137255
0.494118 0.745098 0.125490
0.623529 0.745098 0.133333
0.756863 0.745098 0.129412
0.886275 0.749020 0.145098
0.996078 0.749020 0.141176
0.007843 0.882353 0.117647
0.074510 0.878431 0.129412
0.243137 0.874510 0.121569
0.372549 0.882353 0.113725
0.505882 0.882353 0.117647
0.631373 0.882353 0.105882
0.760784 0.878431 0.117647
0.898039 0.882353 0.125490
0.992157 0.878431 0.137255
0.000000 1.000000 0.137255
0.117647 1.000000 0.133333
0.258824 1.000000 0.145098
0.392157 1.000000 0.152941
0.525490 0.996078 0.156863
0.662745 1.000000 0.172549
0.811765 0.996078 0.196078
0.952941 0.996078 0.219608
1.000000 1.000000 0.258824
0.047059 0.050980 0.301961
0.117647 0.054902 0.309804
0.215686 0.058824 0.305882
0.337255 0.054902 0.313725
0.458824 0.043137 0.325490
0.580392 0.023529 0.321569
0.717647 0.000000 0.321569
0.854902 0.000000 0.317647
0.996078 0.000000 0.305882
0.039216 0.125490 0.309804
0.125490 0.117647 0.313725
0.219608 0.125490 0.313725
0.333333 0.121569 0.313725
0.450980 0.121569 0.321569
0.584314 0.113725 0.321569
0.713725 0.082353 0.317647
0.862745 0.027451 0.325490
0.992157 0.000000 0.309804
0.027451 0.223529 0.313725
0.117647 0.227451 0.321569
0.223529 0.231373 0.317647
0.345098 0.227451 0.321569
0.462745 0.231373 0.317647
0.584314 0.223529 0.313725
0.725490 0.219608 0.309804
0.858824 0.211765 0.309804
0.996078 0.196078 0.309804
0.000000 0.349020 0.309804
0.098039 0.356863 0.317647
0.219608 0.349020 0.313725
0.345098 0.345098 0.313725
0.462745 0.352941 0.309804
0.584314 0.349020 0.305882
0.729412 0.352941 0.305882
0.870588 0.352941 0.313725
0.996078 0.345098 0.313725
0.003922 0.478431 0.301961
0.019608 0.466667 0.317647
0.207843 0.474510 0.305882
0.349020 0.478431 0.309804
0.482353 0.478431 0.298039
0.607843 0.478431 0.309804
0.733333 0.482353 0.305882
0.866667 0.482353 0.305882
1.000000 0.482353 0.301961
0.000000 0.615686 0.290196
0.007843 0.615686 0.290196
0.203922 0.615686 0.286275
0.345098 0.615686 0.298039
0.490196 0.611765 0.298039
0.619608 0.615686 0.301961
0.749020 0.611765 0.282353
0.878431 0.615686 0.298039
1.000000 0.615686 0.309804
0.003922 0.745098 0.282353
0.007843 0.749020 0.278431
0.180392 0.741176 0.270588
0.349020 0.741176 0.286275
0.482353 0.749020 0.274510
0.627451 0.741176 0.278431
0.756863 0.749020 0.282353
0.886275 0.749020 0.278431
1.000000 0.741176 0.290196
0.003922 0.886275 0.266667
0.007843 0.878431 0.278431
0.176471 0.882353 0.258824
0.345098 0.878431 0.274510
0.490196 0.878431 0.270588
0.627451 0.886275 0.262745
0.764706 0.878431 0.274510
0.901961 0.882353 0.278431
1.000000 0.874510 0.290196
0.000000 1.000000 0.286275
0.003922 0.996078 0.278431
0.219608 1.000000 0.298039
0.368627 0.996078 0.298039
0.513725 0.996078 0.294118
0.654902 1.000000 0.305882
0.807843 0.996078 0.313725
0.949020 1.000000 0.333333
1.000000 1.000000 0.349020
0.043137 0.054902 0.419608
0.121569 0.054902 0.423529
0.235294 0.050980 0.435294
0.341176 0.043137 0.427451
0.454902 0.031373 0.435294
0.596078 0.000000 0.443137
0.725490 0.000000 0.435294
0.854902 0.000000 0.443137
0.996078 0.003922 0.431373
0.039216 0.121569 0.431373
0.117647 0.121569 0.435294
0.231373 0.121569 0.423529
0.345098 0.121569 0.431373
0.462745 0.113725 0.435294
0.584314 0.101961 0.427451
0.725490 0.070588 0.447059
0.858824 0.000000 0.439216
0.992157 0.000000 0.435294
0.000000 0.219608 0.435294
0.098039 0.219608 0.431373
0.223529 0.223529 0.435294
0.341176 0.223529 0.427451
0.458824 0.223529 0.435294
0.600000 0.219608 0.435294
0.725490 0.211765 0.439216
0.862745 0.188235 0.439216
0.992157 0.176471 0.435294
0.000000 0.337255 0.427451
0.066667 0.341176 0.439216
0.219608 0.345098 0.443137
0.345098 0.337255 0.431373
0.470588 0.337255 0.431373
0.596078 0.349020 0.431373
0.741176 0.341176 0.435294
0.866667 0.337255 0.435294
0.996078 0.321569 0.431373
0.003922 0.474510 0.427451
0.003922 0.474510 0.435294
0.196078 0.474510 0.443137
0.345098 0.474510 0.439216
0.474510 0.474510 0.427451
0.603922 0.470588 0.435294
0.745098 0.470588 0.431373
0.874510 0.474510 0.435294
0.996078 0.462745 0.431373
0.000000 0.615686 0.431373
0.007843 0.615686 0.431373
0.160784 0.615686 0.431373
0.325490 0.615686 0.423529
0.482353 0.611765 0.427451
0.619608 0.611765 0.423529
0.756863 0.615686 0.427451
0.886275 0.607843 0.435294
1.000000 0.607843 0.435294
0.000000 0.749020 0.415686
0.003922 0.745098 0.415686
0.094118 0.752941 0.419608
0.305882 0.749020 0.419608
0.462745 0.752941 0.411765
0.619608 0.745098 0.411765
0.764706 0.745098 0.415686
0.894118 0.745098 0.419608
1.000000 0.745098 0.415686
0.000000 0.882353 0.411765
0.000000 0.882353 0.403922
0.015686 0.878431 0.415686
0.309804 0.886275 0.415686
0.470588 0.882353 0.407843
0.619608 0.886275 0.403922
0.760784 0.882353 0.407843
0.898039 0.878431 0.415686
1.000000 0.882353 0.435294
0.000000 1.000000 0.427451
0.000000 1.000000 0.419608
0.094118 0.996078 0.431373
0.317647 0.996078 0.423529
0.474510 1.000000 0.415686
0.639216 1.000000 0.431373
0.792157 1.000000 0.443137
0.941176 0.996078 0.450980
1.000000 1.000000 0.466667
0.062745 0.043137 0.552941
0.129412 0.047059 0.545098
0.239216 0.039216 0.552941
0.352941 0.027451 0.552941
0.466667 0.000000 0.556863
0.596078 0.000000 0.568627
0.725490 0.003922 0.560784
0.862745 0.003922 0.576471
0.996078 0.003922 0.572549
0.023529 0.113725 0.552941
0.105882 0.117647 0.560784
0.227451 0.109804 0.549020
0.341176 0.105882 0.549020
0.466667 0.094118 0.556863
0.600000 0.074510 0.564706
0.725490 0.027451 0.560784
0.878431 0.000000 0.568627
1.000000 0.000000 0.564706
0.000000 0.219608 0.552941
0.078431 0.211765 0.560784
0.223529 0.215686 0.545098
0.349020 0.215686 0.552941
0.474510 0.203922 0.556863
0.603922 0.196078 0.568627
0.729412 0.192157 0.564706
0.874510 0.180392 0.568627
0.992157 0.168627 0.568627
0.003922 0.337255 0.552941
0.000000 0.337255 0.568627
0.172549 0.337255 0.556863
0.333333 0.329412 0.564706
0.478431 0.329412 0.568627
0.607843 0.329412 0.564706
0.745098 0.333333 0.564706
0.882353 0.333333 0.572549
0.988235 0.333333 0.576471
0.003922 0.474510 0.560784
0.000000 0.474510 0.564706
0.164706 0.470588 0.556863
0.313725 0.470588 0.572549
0.478431 0.458824 0.576471
0.615686 0.466667 0.568627
0.745098 0.470588 0.572549
0.882353 0.470588 0.560784
0.996078 0.466667 0.564706
0.000000 0.619608 0.572549
0.003922 0.611765 0.580392
0.137255 0.615686 0.572549
0.309804 0.615686 0.564706
0.466667 0.611765 0.572549
0.611765 0.600000 0.564706
0.749020 0.603922 0.564706
0.882353 0.611765 0.560784
0.996078 0.603922 0.580392
0.007843 0.749020 0.568627
0.003922 0.745098 0.564706
0.039216 0.752941 0.560784
0.301961 0.745098 0.564706
0.462745 0.752941 0.560784
0.607843 0.749020 0.560784
0.756863 0.749020 0.560784
0.894118 0.745098 0.568627
0.996078 0.752941 0.568627
0.007843 0.878431 0.568627
0.000000 0.886275 0.568627
0.000000 0.878431 0.564706
0.290196 0.878431 0.560784
0.435294 0.886275 0.552941
0.600000 0.882353 0.552941
0.756863 0.882353 0.549020
0.901961 0.882353 0.560784
1.000000 0.878431 0.564706
0.003922 1.000000 0.592157
0.003922 1.000000 0.584314
0.003922 0.996078 0.560784
0.262745 1.000000 0.560784
0.458824 1.000000 0.564706
0.619608 1.000000 0.576471
0.780392 1.000000 0.572549
0.933333 1.000000 0.584314
1.000000 1.000000 0.603922
0.035294 0.023529 0.678431
0.137255 0.027451 0.701961
0.254902 0.007843 0.698039
0.368627 0.000000 0.694118
0.482353 0.003922 0.690196
0.603922 0.000000 0.698039
0.745098 0.000000 0.705882
0.866667 0.003922 0.694118
0.992157 0.003922 0.698039
0.000000 0.113725 0.694118
0.109804 0.109804 0.698039
0.239216 0.101961 0.698039
0.368627 0.090196 0.694118
0.486275 0.066667 0.694118
0.619608 0.023529 0.701961
0.741176 0.000000 0.705882
0.874510 0.000000 0.701961
1.000000 0.000000 0.713725
0.000000 0.207843 0.701961
0.023529 0.211765 0.698039
0.211765 0.203922 0.686275
0.345098 0.203922 0.690196
0.482353 0.200000 0.701961
0.611765 0.180392 0.701961
0.745098 0.164706 0.698039
0.886275 0.156863 0.698039
1.000000 0.149020 0.698039
0.000000 0.337255 0.709804
0.007843 0.321569 0.694118
0.152941 0.325490 0.713725
0.325490 0.325490 0.701961
0.470588 0.325490 0.698039
0.615686 0.317647 0.709804
0.760784 0.309804 0.713725
0.890196 0.317647 0.705882
0.996078 0.321569 0.713725
0.000000 0.470588 0.709804
0.000000 0.470588 0.709804
0.070588 0.462745 0.698039
0.298039 0.458824 0.709804
0.454902 0.458824 0.709804
0.611765 0.454902 0.701961
0.752941 0.454902 0.709804
0.890196 0.458824 0.705882
0.992157 0.466667 0.705882
0.007843 0.607843 0.698039
0.003922 0.603922 0.698039
0.000000 0.611765 0.701961
0.274510 0.611765 0.709804
0.443137 0.603922 0.705882
0.600000 0.600000 0.709804
0.756863 0.600000 0.705882
0.886275 0.600000 0.705882
1.000000 0.592157 0.709804
0.000000 0.756863 0.713725
0.000000 0.756863 0.721569
0.000000 0.752941 0.701961
0.274510 0.752941 0.709804
0.450980 0.749020 0.701961
0.611765 0.752941 0.713725
0.749020 0.749020 0.709804
0.882353 0.749020 0.713725
1.000000 0.741176 0.709804
0.000000 0.878431 0.701961
0.000000 0.882353 0.705882
0.000000 0.878431 0.705882
0.282353 0.882353 0.709804
0.450980 0.886275 0.709804
0.600000 0.886275 0.709804
0.741176 0.882353 0.701961
0.898039 0.882353 0.705882
1.000000 0.878431 0.717647
0.000000 1.000000 0.717647
0.007843 1.000000 0.713725
0.101961 0.996078 0.725490
0.325490 1.000000 0.721569
0.482353 1.000000 0.733333
0.596078 1.000000 0.709804
0.764706 1.000000 0.709804
0.921569 1.000000 0.721569
1.000000 1.000000 0.729412
0.000000 0.000000 0.839216
0.121569 0.003922 0.835294
0.247059 0.000000 0.843137
0.376471 0.000000 0.839216
0.505882 0.000000 0.839216
0.639216 0.000000 0.843137
0.764706 0.000000 0.847059
0.894118 0.000000 0.839216
1.000000 0.003922 0.843137
0.000000 0.094118 0.831373
0.094118 0.090196 0.835294
0.247059 0.078431 0.843137
0.360784 0.054902 0.835294
0.505882 0.027451 0.847059
0.627451 0.000000 0.839216
0.756863 0.003922 0.847059
0.901961 0.003922 0.862745
1.000000 0.003922 0.843137
0.003922 0.207843 0.831373
0.000000 0.207843 0.843137
0.203922 0.200000 0.839216
0.356863 0.188235 0.843137
0.486275 0.184314 0.843137
0.631373 0.168627 0.843137
0.752941 0.149020 0.847059
0.901961 0.117647 0.847059
0.992157 0.105882 0.843137
0.000000 0.321569 0.847059
0.000000 0.321569 0.850980
0.117647 0.321569 0.858824
0.317647 0.317647 0.843137
0.474510 0.317647 0.847059
0.623529 0.305882 0.847059
0.764706 0.301961 0.850980
0.901961 0.298039 0.854902
1.000000 0.301961 0.850980
0.000000 0.462745 0.843137
0.000000 0.458824 0.862745
0.007843 0.450980 0.858824
0.270588 0.443137 0.854902
0.439216 0.447059 0.839216
0.603922 0.443137 0.850980
0.764706 0.439216 0.854902
0.905882 0.439216 0.858824
1.000000 0.443137 0.843137
0.000000 0.611765 0.843137
0.000000 0.607843 0.858824
0.000000 0.600000 0.854902
0.215686 0.600000 0.854902
0.423529 0.592157 0.850980
0.592157 0.596078 0.858824
0.752941 0.592157 0.858824
0.905882 0.596078 0.854902
0.980392 0.607843 0.835294
0.000000 0.752941 0.843137
0.000000 0.752941 0.850980
0.007843 0.737255 0.854902
0.235294 0.749020 0.858824
0.419608 0.749020 0.850980
0.588235 0.741176 0.854902
0.745098 0.745098 0.854902
0.901961 0.745098 0.850980
1.000000 0.752941 0.858824
0.000000 0.898039 0.854902
0.000000 0.894118 0.850980
0.000000 0.894118 0.858824
0.231373 0.890196 0.858824
0.435294 0.886275 0.854902
0.588235 0.890196 0.850980
0.749020 0.886275 0.858824
0.894118 0.882353 0.854902
1.000000 0.886275 0.870588
0.000000 1.000000 0.843137
0.007843 0.992157 0.850980
0.086275 0.992157 0.850980
0.309804 1.000000 0.854902
0.478431 1.000000 0.854902
0.631373 1.000000 0.858824
0.780392 0.996078 0.870588
0.909804 1.000000 0.878431
1.000000 1.000000 0.882353
0.000000 0.000000 0.984314
0.105882 0.000000 0.992157
0.239216 0.000000 0.984314
0.372549 0.000000 0.980392
0.513725 0.000000 0.988235
0.647059 0.000000 0.996078
0.772549 0.000000 0.988235
0.905882 0.003922 0.988235
0.992157 0.003922 0.988235
0.003922 0.074510 0.992157
0.058824 0.070588 0.992157
0.235294 0.050980 0.984314
0.368627 0.019608 0.992157
0.501961 0.003922 1.000000
0.635294 0.000000 0.992157
0.772549 0.003922 0.992157
0.901961 0.007843 0.992157
1.000000 0.000000 0.996078
0.007843 0.192157 0.984314
0.003922 0.192157 1.000000
0.192157 0.184314 0.996078
0.349020 0.184314 0.992157
0.494118 0.172549 0.992157
0.631373 0.149020 0.988235
0.768627 0.125490 0.992157
0.905882 0.086275 0.992157
1.000000 0.023529 0.988235
0.003922 0.317647 0.992157
0.003922 0.309804 0.984314
0.050980 0.317647 0.988235
0.309804 0.309804 0.988235
0.462745 0.313725 0.992157
0.623529 0.298039 0.996078
0.768627 0.298039 0.996078
0.913725 0.282353 1.000000
1.000000 0.282353 0.992157
0.000000 0.439216 1.000000
0.003922 0.439216 1.000000
0.011765 0.435294 1.000000
0.231373 0.435294 1.000000
0.439216 0.443137 1.000000
0.603922 0.435294 0.996078
0.756863 0.435294 1.000000
0.898039 0.439216 1.000000
1.000000 0.431373 1.000000
0.003922 0.596078 0.992157
0.000000 0.592157 0.988235
0.000000 0.596078 1.000000
0.098039 0.584314 0.992157
0.388235 0.576471 0.992157
0.584314 0.576471 0.996078
0.741176 0.580392 0.996078
0.894118 0.584314 1.000000
1.000000 0.580392 0.996078
0.000000 0.741176 1.000000
0.000000 0.741176 0.996078
0.003922 0.745098 1.000000
0.109804 0.741176 0.996078
0.380392 0.737255 0.992157
0.560784 0.729412 1.000000
0.729412 0.733333 0.996078
0.894118 0.733333 1.000000
0.996078 0.741176 1.000000
0.000000 0.894118 1.000000
0.015686 0.886275 1.000000
0.000000 0.890196 0.996078
0.129412 0.886275 0.984314
0.396078 0.882353 1.000000
0.572549 0.882353 1.000000
0.737255 0.882353 0.996078
0.882353 0.878431 1.000000
0.996078 0.894118 1.000000
0.003922 1.000000 0.988235
0.003922 1.000000 1.000000
0.007843 0.988235 1.000000
0.247059 1.000000 0.988235
0.450980 1.000000 1.000000
0.623529 1.000000 0.996078
0.784314 0.996078 0.996078
0.933333 0.996078 0.996078
1.000000 1.000000 1.000000
