lut_library_archive/removed_20260629/50个风景lut/50个风景lut30.cube
# 版权归凌孟成所有，侵权必究
TITLE "Jungle LUT #30"
#LUT size
LUT_3D_SIZE 9
#LUT data points
0.003922 0.000000 0.000000
0.133333 0.011765 0.003922
0.278431 0.023529 0.007843
0.415686 0.027451 0.015686
0.560784 0.039216 0.023529
0.686275 0.070588 0.066667
0.807843 0.113725 0.105882
0.925490 0.160784 0.145098
0.996078 0.211765 0.192157
0.000000 0.152941 0.019608
0.133333 0.156863 0.007843
0.290196 0.164706 0.015686
0.427451 0.160784 0.023529
0.556863 0.168627 0.047059
0.690196 0.176471 0.074510
0.807843 0.196078 0.109804
0.913725 0.219608 0.156863
0.992157 0.258824 0.200000
0.000000 0.298039 0.023529
0.137255 0.301961 0.019608
0.282353 0.301961 0.035294
0.439216 0.305882 0.058824
0.564706 0.301961 0.086275
0.690196 0.305882 0.113725
0.807843 0.321569 0.149020
0.921569 0.329412 0.176471
1.000000 0.356863 0.227451
0.011765 0.435294 0.090196
0.145098 0.447059 0.078431
0.298039 0.450980 0.101961
0.439216 0.450980 0.109804
0.576471 0.447059 0.129412
0.694118 0.443137 0.160784
0.800000 0.447059 0.180392
0.917647 0.450980 0.223529
1.000000 0.462745 0.258824
0.121569 0.584314 0.152941
0.192157 0.580392 0.152941
0.309804 0.580392 0.152941
0.439216 0.580392 0.164706
0.572549 0.580392 0.184314
0.698039 0.580392 0.203922
0.807843 0.572549 0.235294
0.913725 0.572549 0.262745
1.000000 0.572549 0.309804
0.200000 0.698039 0.235294
0.250980 0.701961 0.235294
0.345098 0.701961 0.235294
0.458824 0.694118 0.239216
0.580392 0.698039 0.250980
0.690196 0.701961 0.258824
0.807843 0.694118 0.286275
0.917647 0.690196 0.309804
1.000000 0.690196 0.356863
0.274510 0.803922 0.298039
0.317647 0.803922 0.313725
0.388235 0.803922 0.301961
0.474510 0.807843 0.309804
0.572549 0.800000 0.325490
0.686275 0.800000 0.329412
0.803922 0.800000 0.345098
0.917647 0.796078 0.372549
0.992157 0.807843 0.403922
0.356863 0.901961 0.392157
0.376471 0.913725 0.396078
0.439216 0.905882 0.403922
0.517647 0.905882 0.400000
0.596078 0.905882 0.403922
0.701961 0.905882 0.411765
0.807843 0.905882 0.435294
0.905882 0.909804 0.450980
0.996078 0.905882 0.490196
0.482353 1.000000 0.509804
0.505882 1.000000 0.509804
0.533333 0.996078 0.513725
0.584314 0.996078 0.529412
0.650980 1.000000 0.529412
0.737255 1.000000 0.545098
0.815686 0.996078 0.560784
0.909804 1.000000 0.592157
0.996078 1.000000 0.623529
0.003922 0.007843 0.129412
0.137255 0.003922 0.141176
0.282353 0.019608 0.149020
0.419608 0.043137 0.160784
0.552941 0.074510 0.172549
0.690196 0.109804 0.180392
0.807843 0.141176 0.211765
0.917647 0.184314 0.227451
0.996078 0.223529 0.262745
0.000000 0.149020 0.149020
0.149020 0.156863 0.152941
0.278431 0.160784 0.152941
0.423529 0.164706 0.164706
0.560784 0.176471 0.180392
0.682353 0.188235 0.192157
0.803922 0.211765 0.207843
0.921569 0.239216 0.235294
0.996078 0.278431 0.266667
0.000000 0.301961 0.168627
0.145098 0.309804 0.160784
0.286275 0.301961 0.164706
0.435294 0.305882 0.184314
0.564706 0.309804 0.192157
0.686275 0.313725 0.203922
0.800000 0.325490 0.219608
0.913725 0.333333 0.247059
0.996078 0.360784 0.278431
0.015686 0.443137 0.180392
0.160784 0.435294 0.188235
0.294118 0.447059 0.192157
0.431373 0.450980 0.200000
0.568627 0.450980 0.215686
0.686275 0.447059 0.231373
0.807843 0.447059 0.254902
0.913725 0.458824 0.274510
1.000000 0.466667 0.309804
0.121569 0.576471 0.231373
0.192157 0.580392 0.223529
0.313725 0.568627 0.231373
0.447059 0.580392 0.243137
0.568627 0.576471 0.247059
0.686275 0.576471 0.258824
0.807843 0.576471 0.286275
0.913725 0.572549 0.309804
1.000000 0.580392 0.337255
0.196078 0.694118 0.274510
0.254902 0.698039 0.274510
0.337255 0.694118 0.278431
0.454902 0.694118 0.290196
0.568627 0.698039 0.290196
0.690196 0.690196 0.305882
0.803922 0.690196 0.321569
0.909804 0.682353 0.352941
0.996078 0.694118 0.380392
0.286275 0.800000 0.333333
0.317647 0.803922 0.325490
0.376471 0.796078 0.333333
0.474510 0.800000 0.337255
0.576471 0.800000 0.349020
0.690196 0.800000 0.364706
0.803922 0.800000 0.376471
0.901961 0.803922 0.400000
1.000000 0.800000 0.435294
0.368627 0.901961 0.407843
0.396078 0.913725 0.411765
0.447059 0.909804 0.427451
0.513725 0.898039 0.415686
0.596078 0.905882 0.435294
0.694118 0.905882 0.435294
0.800000 0.905882 0.454902
0.898039 0.905882 0.470588
1.000000 0.901961 0.509804
0.486275 1.000000 0.521569
0.505882 0.996078 0.517647
0.537255 1.000000 0.529412
0.588235 1.000000 0.537255
0.650980 1.000000 0.545098
0.741176 1.000000 0.560784
0.819608 1.000000 0.576471
0.905882 1.000000 0.607843
0.996078 1.000000 0.631373
0.000000 0.000000 0.282353
0.129412 0.003922 0.290196
0.278431 0.015686 0.298039
0.427451 0.039216 0.309804
0.552941 0.078431 0.301961
0.682353 0.125490 0.313725
0.807843 0.172549 0.325490
0.909804 0.219608 0.341176
1.000000 0.254902 0.356863
0.000000 0.156863 0.298039
0.133333 0.149020 0.298039
0.282353 0.156863 0.301961
0.427451 0.172549 0.305882
0.560784 0.188235 0.313725
0.682353 0.211765 0.321569
0.800000 0.239216 0.325490
0.913725 0.266667 0.352941
0.992157 0.294118 0.364706
0.003922 0.290196 0.305882
0.141176 0.301961 0.309804
0.282353 0.305882 0.298039
0.427451 0.305882 0.325490
0.560784 0.317647 0.329412
0.682353 0.321569 0.325490
0.800000 0.337255 0.337255
0.909804 0.352941 0.360784
0.996078 0.368627 0.368627
0.007843 0.443137 0.317647
0.149020 0.450980 0.325490
0.301961 0.443137 0.325490
0.435294 0.447059 0.325490
0.564706 0.450980 0.333333
0.678431 0.454902 0.341176
0.800000 0.458824 0.360784
0.913725 0.466667 0.372549
0.996078 0.478431 0.392157
0.129412 0.576471 0.337255
0.192157 0.584314 0.341176
0.309804 0.584314 0.341176
0.439216 0.576471 0.341176
0.576471 0.580392 0.352941
0.682353 0.576471 0.360784
0.800000 0.576471 0.376471
0.905882 0.576471 0.392157
0.992157 0.580392 0.427451
0.215686 0.698039 0.380392
0.254902 0.694118 0.364706
0.349020 0.698039 0.368627
0.454902 0.698039 0.372549
0.572549 0.694118 0.380392
0.682353 0.694118 0.384314
0.800000 0.694118 0.392157
0.901961 0.690196 0.415686
1.000000 0.694118 0.450980
0.301961 0.796078 0.403922
0.341176 0.796078 0.407843
0.396078 0.796078 0.400000
0.478431 0.800000 0.407843
0.576471 0.800000 0.419608
0.686275 0.803922 0.427451
0.800000 0.803922 0.439216
0.909804 0.803922 0.462745
0.992157 0.803922 0.474510
0.384314 0.909804 0.458824
0.400000 0.909804 0.462745
0.443137 0.905882 0.458824
0.525490 0.901961 0.478431
0.603922 0.905882 0.482353
0.694118 0.901961 0.478431
0.800000 0.905882 0.501961
0.901961 0.909804 0.521569
1.000000 0.905882 0.545098
0.486275 1.000000 0.564706
0.513725 1.000000 0.560784
0.541176 0.996078 0.560784
0.584314 1.000000 0.568627
0.654902 0.996078 0.576471
0.737255 1.000000 0.588235
0.823529 1.000000 0.615686
0.917647 1.000000 0.643137
1.000000 1.000000 0.654902
0.000000 0.000000 0.439216
0.105882 0.003922 0.431373
0.262745 0.015686 0.427451
0.419608 0.035294 0.439216
0.552941 0.078431 0.443137
0.686275 0.125490 0.454902
0.807843 0.176471 0.450980
0.909804 0.231373 0.450980
1.000000 0.278431 0.470588
0.000000 0.149020 0.427451
0.109804 0.149020 0.431373
0.266667 0.156863 0.447059
0.423529 0.160784 0.443137
0.556863 0.184314 0.443137
0.682353 0.207843 0.447059
0.792157 0.243137 0.450980
0.921569 0.274510 0.462745
0.996078 0.317647 0.466667
0.007843 0.294118 0.450980
0.117647 0.298039 0.427451
0.282353 0.301961 0.458824
0.431373 0.305882 0.458824
0.556863 0.317647 0.450980
0.682353 0.333333 0.450980
0.796078 0.352941 0.462745
0.901961 0.372549 0.470588
1.000000 0.396078 0.498039
0.007843 0.443137 0.450980
0.145098 0.450980 0.466667
0.294118 0.447059 0.458824
0.431373 0.447059 0.458824
0.552941 0.450980 0.462745
0.678431 0.458824 0.462745
0.796078 0.466667 0.474510
0.905882 0.474510 0.486275
1.000000 0.490196 0.498039
0.125490 0.580392 0.466667
0.203922 0.572549 0.466667
0.321569 0.580392 0.462745
0.439216 0.580392 0.470588
0.568627 0.580392 0.466667
0.682353 0.584314 0.474510
0.792157 0.580392 0.486275
0.898039 0.580392 0.498039
1.000000 0.588235 0.517647
0.235294 0.694118 0.478431
0.270588 0.698039 0.474510
0.356863 0.698039 0.482353
0.462745 0.694118 0.482353
0.568627 0.698039 0.490196
0.686275 0.698039 0.490196
0.792157 0.690196 0.490196
0.905882 0.694118 0.513725
1.000000 0.701961 0.537255
0.313725 0.800000 0.501961
0.333333 0.803922 0.525490
0.403922 0.800000 0.501961
0.482353 0.796078 0.501961
0.588235 0.800000 0.505882
0.690196 0.800000 0.509804
0.796078 0.800000 0.525490
0.901961 0.807843 0.533333
1.000000 0.800000 0.572549
0.400000 0.901961 0.552941
0.415686 0.905882 0.545098
0.470588 0.901961 0.552941
0.529412 0.905882 0.552941
0.611765 0.909804 0.556863
0.698039 0.905882 0.560784
0.800000 0.898039 0.568627
0.901961 0.909804 0.584314
1.000000 0.901961 0.611765
0.501961 1.000000 0.619608
0.509804 0.996078 0.607843
0.549020 0.996078 0.619608
0.588235 1.000000 0.627451
0.658824 1.000000 0.631373
0.741176 0.996078 0.635294
0.827451 1.000000 0.650980
0.909804 1.000000 0.674510
0.996078 1.000000 0.694118
0.000000 0.011765 0.564706
0.082353 0.015686 0.556863
0.254902 0.027451 0.568627
0.403922 0.054902 0.564706
0.549020 0.078431 0.564706
0.694118 0.117647 0.576471
0.803922 0.176471 0.568627
0.909804 0.227451 0.568627
1.000000 0.278431 0.576471
0.000000 0.156863 0.556863
0.117647 0.152941 0.564706
0.258824 0.160784 0.568627
0.419608 0.164706 0.572549
0.552941 0.176471 0.568627
0.686275 0.200000 0.576471
0.800000 0.243137 0.572549
0.901961 0.282353 0.580392
0.992157 0.317647 0.576471
0.003922 0.294118 0.572549
0.129412 0.298039 0.568627
0.274510 0.301961 0.576471
0.419608 0.301961 0.576471
0.552941 0.313725 0.576471
0.682353 0.329412 0.580392
0.796078 0.352941 0.580392
0.905882 0.368627 0.572549
1.000000 0.396078 0.584314
0.047059 0.439216 0.580392
0.152941 0.443137 0.588235
0.290196 0.439216 0.580392
0.423529 0.439216 0.576471
0.549020 0.443137 0.572549
0.678431 0.454902 0.580392
0.788235 0.474510 0.588235
0.894118 0.486275 0.584314
0.992157 0.501961 0.596078
0.117647 0.580392 0.588235
0.207843 0.576471 0.576471
0.321569 0.576471 0.584314
0.439216 0.576471 0.584314
0.564706 0.580392 0.592157
0.674510 0.580392 0.588235
0.788235 0.584314 0.600000
0.894118 0.596078 0.607843
1.000000 0.600000 0.611765
0.231373 0.694118 0.588235
0.286275 0.694118 0.588235
0.364706 0.694118 0.592157
0.458824 0.694118 0.592157
0.568627 0.694118 0.600000
0.686275 0.694118 0.600000
0.796078 0.690196 0.607843
0.901961 0.694118 0.623529
1.000000 0.701961 0.639216
0.333333 0.803922 0.603922
0.356863 0.800000 0.611765
0.415686 0.800000 0.607843
0.494118 0.800000 0.607843
0.592157 0.803922 0.611765
0.690196 0.800000 0.611765
0.792157 0.800000 0.615686
0.901961 0.807843 0.627451
0.996078 0.807843 0.650980
0.403922 0.901961 0.623529
0.431373 0.898039 0.631373
0.466667 0.901961 0.631373
0.541176 0.905882 0.631373
0.611765 0.905882 0.643137
0.705882 0.901961 0.647059
0.800000 0.901961 0.647059
0.905882 0.905882 0.662745
0.996078 0.909804 0.674510
0.498039 0.996078 0.674510
0.517647 1.000000 0.674510
0.537255 0.996078 0.678431
0.600000 0.996078 0.690196
0.654902 1.000000 0.690196
0.737255 1.000000 0.690196
0.827451 1.000000 0.705882
0.913725 1.000000 0.717647
1.000000 1.000000 0.741176
0.000000 0.023529 0.682353
0.078431 0.035294 0.678431
0.254902 0.050980 0.686275
0.400000 0.062745 0.686275
0.537255 0.094118 0.682353
0.674510 0.129412 0.698039
0.803922 0.172549 0.690196
0.909804 0.227451 0.682353
0.992157 0.282353 0.686275
0.000000 0.156863 0.682353
0.105882 0.152941 0.678431
0.254902 0.164706 0.682353
0.396078 0.172549 0.682353
0.541176 0.184314 0.690196
0.678431 0.207843 0.701961
0.796078 0.235294 0.690196
0.909804 0.278431 0.686275
0.992157 0.329412 0.694118
0.000000 0.290196 0.670588
0.149020 0.290196 0.674510
0.274510 0.298039 0.682353
0.407843 0.301961 0.682353
0.545098 0.309804 0.686275
0.674510 0.325490 0.694118
0.796078 0.341176 0.698039
0.909804 0.372549 0.694118
1.000000 0.403922 0.698039
0.098039 0.431373 0.686275
0.180392 0.431373 0.682353
0.298039 0.435294 0.694118
0.423529 0.439216 0.694118
0.560784 0.447059 0.698039
0.670588 0.450980 0.698039
0.792157 0.462745 0.698039
0.905882 0.486275 0.705882
1.000000 0.501961 0.709804
0.172549 0.564706 0.698039
0.227451 0.564706 0.694118
0.317647 0.564706 0.694118
0.439216 0.568627 0.698039
0.560784 0.572549 0.701961
0.670588 0.572549 0.694118
0.796078 0.588235 0.705882
0.894118 0.596078 0.705882
0.992157 0.603922 0.694118
0.243137 0.686275 0.701961
0.282353 0.694118 0.705882
0.364706 0.690196 0.705882
0.462745 0.686275 0.713725
0.576471 0.690196 0.713725
0.678431 0.690196 0.709804
0.788235 0.690196 0.705882
0.894118 0.701961 0.717647
1.000000 0.705882 0.717647
0.333333 0.792157 0.709804
0.352941 0.800000 0.701961
0.415686 0.796078 0.717647
0.494118 0.800000 0.713725
0.588235 0.800000 0.705882
0.690196 0.800000 0.709804
0.792157 0.800000 0.709804
0.901961 0.803922 0.717647
0.992157 0.807843 0.729412
0.407843 0.905882 0.721569
0.427451 0.905882 0.721569
0.466667 0.901961 0.733333
0.533333 0.898039 0.721569
0.611765 0.909804 0.729412
0.709804 0.901961 0.725490
0.800000 0.905882 0.729412
0.901961 0.905882 0.741176
1.000000 0.909804 0.749020
0.505882 1.000000 0.752941
0.509804 0.996078 0.745098
0.545098 1.000000 0.752941
0.600000 1.000000 0.752941
0.654902 1.000000 0.752941
0.741176 0.996078 0.760784
0.831373 1.000000 0.780392
0.917647 1.000000 0.780392
1.000000 1.000000 0.803922
0.000000 0.050980 0.792157
0.113725 0.054902 0.788235
0.262745 0.074510 0.796078
0.396078 0.090196 0.800000
0.533333 0.117647 0.796078
0.650980 0.156863 0.792157
0.788235 0.184314 0.803922
0.901961 0.231373 0.803922
0.984314 0.286275 0.788235
0.000000 0.164706 0.800000
0.121569 0.172549 0.792157
0.270588 0.176471 0.803922
0.403922 0.188235 0.800000
0.529412 0.196078 0.803922
0.662745 0.219608 0.807843
0.784314 0.247059 0.803922
0.905882 0.270588 0.807843
1.000000 0.317647 0.796078
0.062745 0.294118 0.796078
0.164706 0.294118 0.800000
0.286275 0.301961 0.800000
0.407843 0.305882 0.803922
0.545098 0.313725 0.807843
0.662745 0.325490 0.807843
0.780392 0.349020 0.807843
0.901961 0.368627 0.800000
1.000000 0.400000 0.800000
0.141176 0.435294 0.800000
0.200000 0.431373 0.792157
0.301961 0.431373 0.803922
0.423529 0.435294 0.800000
0.545098 0.439216 0.803922
0.666667 0.450980 0.807843
0.788235 0.466667 0.807843
0.905882 0.482353 0.815686
1.000000 0.501961 0.811765
0.203922 0.556863 0.800000
0.247059 0.560784 0.792157
0.329412 0.556863 0.796078
0.439216 0.564706 0.803922
0.552941 0.568627 0.807843
0.670588 0.576471 0.811765
0.780392 0.580392 0.811765
0.901961 0.584314 0.815686
0.996078 0.603922 0.815686
0.270588 0.678431 0.807843
0.301961 0.678431 0.803922
0.372549 0.682353 0.811765
0.466667 0.682353 0.803922
0.568627 0.690196 0.811765
0.674510 0.686275 0.807843
0.792157 0.694118 0.815686
0.894118 0.698039 0.811765
0.996078 0.701961 0.819608
0.341176 0.803922 0.803922
0.364706 0.800000 0.815686
0.419608 0.792157 0.815686
0.494118 0.800000 0.815686
0.592157 0.800000 0.819608
0.690196 0.803922 0.819608
0.796078 0.800000 0.815686
0.894118 0.807843 0.815686
0.996078 0.811765 0.835294
0.407843 0.898039 0.819608
0.423529 0.898039 0.827451
0.470588 0.898039 0.815686
0.533333 0.901961 0.807843
0.619608 0.905882 0.827451
0.701961 0.905882 0.819608
0.807843 0.905882 0.823529
0.898039 0.905882 0.823529
0.996078 0.913725 0.839216
0.505882 0.992157 0.847059
0.517647 1.000000 0.827451
0.556863 1.000000 0.827451
0.600000 1.000000 0.835294
0.662745 1.000000 0.839216
0.737255 0.996078 0.839216
0.819608 1.000000 0.847059
0.913725 1.000000 0.850980
1.000000 0.996078 0.874510
0.031373 0.078431 0.901961
0.145098 0.090196 0.909804
0.274510 0.098039 0.901961
0.400000 0.113725 0.909804
0.533333 0.141176 0.909804
0.658824 0.168627 0.905882
0.776471 0.207843 0.909804
0.890196 0.250980 0.905882
1.000000 0.290196 0.913725
0.066667 0.184314 0.913725
0.149020 0.184314 0.901961
0.278431 0.184314 0.905882
0.407843 0.196078 0.909804
0.537255 0.211765 0.909804
0.654902 0.239216 0.913725
0.776471 0.262745 0.905882
0.898039 0.298039 0.905882
1.000000 0.329412 0.909804
0.129412 0.298039 0.901961
0.188235 0.305882 0.917647
0.301961 0.305882 0.901961
0.411765 0.309804 0.909804
0.537255 0.325490 0.913725
0.662745 0.341176 0.913725
0.776471 0.356863 0.913725
0.898039 0.372549 0.913725
1.000000 0.403922 0.909804
0.176471 0.427451 0.901961
0.231373 0.427451 0.901961
0.321569 0.435294 0.905882
0.419608 0.439216 0.901961
0.545098 0.447059 0.905882
0.654902 0.458824 0.909804
0.772549 0.474510 0.909804
0.898039 0.482353 0.913725
1.000000 0.501961 0.913725
0.227451 0.560784 0.913725
0.266667 0.560784 0.909804
0.341176 0.556863 0.909804
0.443137 0.560784 0.905882
0.556863 0.564706 0.898039
0.662745 0.568627 0.913725
0.784314 0.580392 0.913725
0.894118 0.584314 0.901961
1.000000 0.600000 0.917647
0.290196 0.678431 0.909804
0.317647 0.678431 0.909804
0.384314 0.682353 0.917647
0.466667 0.682353 0.905882
0.568627 0.682353 0.909804
0.666667 0.686275 0.905882
0.784314 0.694118 0.913725
0.898039 0.698039 0.921569
0.996078 0.701961 0.921569
0.364706 0.792157 0.913725
0.400000 0.796078 0.905882
0.435294 0.792157 0.905882
0.505882 0.792157 0.909804
0.596078 0.796078 0.909804
0.694118 0.800000 0.913725
0.796078 0.800000 0.917647
0.901961 0.803922 0.917647
0.996078 0.815686 0.925490
0.431373 0.905882 0.917647
0.443137 0.901961 0.921569
0.474510 0.898039 0.909804
0.545098 0.901961 0.913725
0.615686 0.901961 0.917647
0.709804 0.909804 0.921569
0.803922 0.905882 0.909804
0.901961 0.905882 0.921569
1.000000 0.913725 0.921569
0.517647 1.000000 0.917647
0.533333 1.000000 0.921569
0.556863 1.000000 0.913725
0.607843 0.996078 0.917647
0.670588 1.000000 0.921569
0.749020 1.000000 0.925490
0.831373 1.000000 0.925490
0.913725 0.996078 0.921569
0.996078 1.000000 0.937255
0.137255 0.117647 0.996078
0.192157 0.121569 1.000000
0.305882 0.133333 1.000000
0.411765 0.149020 1.000000
0.529412 0.176471 1.000000
0.658824 0.211765 1.000000
0.768627 0.250980 0.996078
0.882353 0.290196 1.000000
0.988235 0.329412 1.000000
0.152941 0.203922 0.996078
0.211765 0.200000 1.000000
0.309804 0.203922 1.000000
0.419608 0.219608 1.000000
0.533333 0.235294 1.000000
0.650980 0.262745 1.000000
0.768627 0.298039 0.996078
0.886275 0.329412 1.000000
0.996078 0.356863 1.000000
0.184314 0.305882 1.000000
0.227451 0.309804 0.996078
0.321569 0.321569 1.000000
0.427451 0.325490 1.000000
0.541176 0.341176 0.996078
0.654902 0.352941 1.000000
0.772549 0.372549 1.000000
0.886275 0.400000 0.996078
1.000000 0.431373 0.992157
0.219608 0.435294 1.000000
0.258824 0.435294 0.996078
0.337255 0.443137 1.000000
0.439216 0.443137 1.000000
0.549020 0.454902 0.996078
0.658824 0.458824 0.996078
0.776471 0.482353 0.996078
0.890196 0.494118 1.000000
1.000000 0.517647 1.000000
0.254902 0.556863 1.000000
0.282353 0.556863 1.000000
0.356863 0.560784 1.000000
0.454902 0.560784 1.000000
0.564706 0.564706 1.000000
0.666667 0.572549 1.000000
0.784314 0.580392 1.000000
0.890196 0.596078 1.000000
1.000000 0.603922 1.000000
0.329412 0.674510 0.996078
0.349020 0.670588 0.996078
0.407843 0.674510 1.000000
0.474510 0.674510 1.000000
0.568627 0.678431 1.000000
0.674510 0.686275 1.000000
0.780392 0.690196 0.996078
0.898039 0.698039 1.000000
0.996078 0.705882 1.000000
0.403922 0.796078 1.000000
0.407843 0.800000 1.000000
0.454902 0.788235 1.000000
0.517647 0.792157 0.996078
0.596078 0.792157 1.000000
0.690196 0.788235 1.000000
0.792157 0.800000 1.000000
0.898039 0.803922 1.000000
0.996078 0.807843 1.000000
0.454902 0.901961 1.000000
0.482353 0.894118 1.000000
0.517647 0.898039 1.000000
0.568627 0.898039 1.000000
0.639216 0.901961 1.000000
0.717647 0.901961 1.000000
0.807843 0.901961 1.000000
0.905882 0.905882 1.000000
1.000000 0.901961 1.000000
0.549020 1.000000 1.000000
0.568627 1.000000 1.000000
0.588235 1.000000 1.000000
0.631373 1.000000 1.000000
0.690196 0.996078 0.996078
0.764706 1.000000 1.000000
0.843137 1.000000 0.996078
0.925490 0.996078 0.996078
1.000000 1.000000 1.000000
