lut_library_archive/removed_20260629/50个风景lut/50个风景lut35.cube
# 版权归凌孟成所有，侵权必究
TITLE "Jungle LUT #35"
#LUT size
LUT_3D_SIZE 25
#LUT data points
0.000000 0.000000 0.000000
0.000000 0.000000 0.000000
0.054902 0.000000 0.000000
0.098039 0.003922 0.003922
0.137255 0.000000 0.000000
0.196078 0.000000 0.003922
0.227451 0.000000 0.000000
0.258824 0.003922 0.000000
0.309804 0.003922 0.003922
0.352941 0.000000 0.000000
0.400000 0.003922 0.003922
0.447059 0.000000 0.000000
0.494118 0.000000 0.003922
0.537255 0.000000 0.000000
0.592157 0.000000 0.003922
0.631373 0.000000 0.000000
0.682353 0.000000 0.003922
0.729412 0.003922 0.000000
0.776471 0.003922 0.000000
0.827451 0.000000 0.000000
0.878431 0.000000 0.000000
0.929412 0.000000 0.000000
0.984314 0.000000 0.003922
0.996078 0.000000 0.000000
0.996078 0.000000 0.000000
0.011765 0.011765 0.003922
0.011765 0.011765 0.003922
0.050980 0.019608 0.007843
0.094118 0.011765 0.000000
0.137255 0.015686 0.007843
0.180392 0.007843 0.003922
0.231373 0.003922 0.000000
0.266667 0.000000 0.000000
0.309804 0.003922 0.003922
0.356863 0.000000 0.000000
0.400000 0.003922 0.000000
0.450980 0.003922 0.003922
0.494118 0.000000 0.003922
0.549020 0.000000 0.000000
0.588235 0.000000 0.003922
0.631373 0.000000 0.000000
0.682353 0.000000 0.003922
0.729412 0.003922 0.000000
0.784314 0.003922 0.000000
0.831373 0.003922 0.000000
0.878431 0.000000 0.000000
0.929412 0.000000 0.000000
0.980392 0.003922 0.003922
1.000000 0.003922 0.011765
1.000000 0.003922 0.003922
0.000000 0.050980 0.000000
0.011765 0.062745 0.000000
0.062745 0.054902 0.003922
0.105882 0.050980 0.007843
0.137255 0.050980 0.000000
0.184314 0.054902 0.000000
0.223529 0.050980 0.000000
0.270588 0.050980 0.000000
0.317647 0.050980 0.000000
0.356863 0.050980 0.000000
0.403922 0.043137 0.000000
0.447059 0.039216 0.003922
0.494118 0.031373 0.000000
0.541176 0.019608 0.000000
0.588235 0.011765 0.003922
0.635294 0.003922 0.003922
0.682353 0.000000 0.000000
0.729412 0.000000 0.000000
0.772549 0.000000 0.000000
0.827451 0.000000 0.000000
0.878431 0.000000 0.000000
0.933333 0.003922 0.003922
0.968627 0.000000 0.003922
1.000000 0.003922 0.003922
0.996078 0.003922 0.000000
0.003922 0.098039 0.011765
0.015686 0.094118 0.000000
0.050980 0.101961 0.000000
0.109804 0.090196 0.007843
0.145098 0.086275 0.003922
0.184314 0.098039 0.003922
0.231373 0.094118 0.007843
0.270588 0.098039 0.000000
0.313725 0.101961 0.000000
0.360784 0.094118 0.003922
0.407843 0.094118 0.003922
0.450980 0.094118 0.000000
0.494118 0.094118 0.003922
0.541176 0.086275 0.000000
0.588235 0.086275 0.003922
0.635294 0.078431 0.000000
0.686275 0.070588 0.003922
0.733333 0.062745 0.000000
0.780392 0.062745 0.007843
0.827451 0.054902 0.000000
0.866667 0.047059 0.000000
0.917647 0.039216 0.000000
0.972549 0.031373 0.003922
0.996078 0.023529 0.000000
0.996078 0.023529 0.000000
0.007843 0.129412 0.000000
0.023529 0.141176 0.007843
0.054902 0.141176 0.000000
0.105882 0.133333 0.003922
0.141176 0.141176 0.000000
0.192157 0.141176 0.003922
0.231373 0.137255 0.000000
0.270588 0.145098 0.000000
0.313725 0.141176 0.003922
0.360784 0.141176 0.003922
0.407843 0.141176 0.003922
0.450980 0.137255 0.000000
0.498039 0.137255 0.000000
0.545098 0.137255 0.000000
0.588235 0.133333 0.000000
0.639216 0.137255 0.000000
0.682353 0.133333 0.003922
0.733333 0.129412 0.003922
0.776471 0.125490 0.000000
0.827451 0.125490 0.000000
0.882353 0.117647 0.000000
0.921569 0.121569 0.000000
0.968627 0.121569 0.000000
0.996078 0.113725 0.000000
1.000000 0.117647 0.000000
0.000000 0.180392 0.000000
0.019608 0.180392 0.007843
0.070588 0.184314 0.003922
0.109804 0.176471 0.000000
0.141176 0.188235 0.000000
0.180392 0.188235 0.000000
0.231373 0.192157 0.000000
0.278431 0.184314 0.003922
0.317647 0.184314 0.003922
0.364706 0.180392 0.000000
0.411765 0.184314 0.000000
0.462745 0.188235 0.000000
0.509804 0.188235 0.003922
0.552941 0.184314 0.003922
0.603922 0.188235 0.000000
0.643137 0.188235 0.000000
0.694118 0.184314 0.003922
0.741176 0.184314 0.003922
0.788235 0.184314 0.003922
0.835294 0.184314 0.003922
0.878431 0.180392 0.000000
0.933333 0.180392 0.000000
0.976471 0.176471 0.000000
0.996078 0.180392 0.000000
1.000000 0.180392 0.003922
0.000000 0.223529 0.000000
0.015686 0.227451 0.000000
0.070588 0.223529 0.000000
0.109804 0.219608 0.000000
0.152941 0.223529 0.000000
0.192157 0.223529 0.000000
0.231373 0.227451 0.003922
0.274510 0.227451 0.000000
0.325490 0.227451 0.000000
0.368627 0.227451 0.000000
0.419608 0.227451 0.000000
0.458824 0.227451 0.000000
0.501961 0.231373 0.000000
0.549020 0.235294 0.003922
0.592157 0.231373 0.000000
0.643137 0.235294 0.000000
0.690196 0.235294 0.003922
0.737255 0.239216 0.000000
0.784314 0.235294 0.000000
0.839216 0.235294 0.000000
0.882353 0.239216 0.000000
0.929412 0.235294 0.000000
0.972549 0.239216 0.000000
0.988235 0.239216 0.000000
1.000000 0.231373 0.003922
0.000000 0.270588 0.007843
0.007843 0.270588 0.000000
0.066667 0.266667 0.003922
0.101961 0.270588 0.000000
0.152941 0.274510 0.007843
0.192157 0.270588 0.000000
0.235294 0.274510 0.000000
0.282353 0.270588 0.007843
0.329412 0.270588 0.000000
0.368627 0.274510 0.000000
0.411765 0.278431 0.000000
0.462745 0.278431 0.003922
0.509804 0.282353 0.003922
0.552941 0.278431 0.003922
0.596078 0.282353 0.003922
0.643137 0.282353 0.003922
0.690196 0.282353 0.003922
0.741176 0.278431 0.000000
0.784314 0.282353 0.003922
0.839216 0.282353 0.000000
0.878431 0.282353 0.000000
0.929412 0.282353 0.000000
0.984314 0.278431 0.000000
1.000000 0.286275 0.000000
1.000000 0.278431 0.000000
0.000000 0.321569 0.000000
0.007843 0.317647 0.000000
0.050980 0.321569 0.000000
0.094118 0.325490 0.003922
0.149020 0.325490 0.003922
0.192157 0.321569 0.000000
0.235294 0.321569 0.000000
0.286275 0.321569 0.000000
0.325490 0.321569 0.000000
0.372549 0.325490 0.003922
0.419608 0.321569 0.000000
0.466667 0.321569 0.003922
0.505882 0.325490 0.000000
0.549020 0.329412 0.000000
0.592157 0.325490 0.000000
0.647059 0.325490 0.000000
0.686275 0.325490 0.000000
0.737255 0.325490 0.000000
0.784314 0.329412 0.000000
0.831373 0.333333 0.000000
0.878431 0.329412 0.003922
0.937255 0.325490 0.000000
0.976471 0.337255 0.003922
0.992157 0.333333 0.007843
1.000000 0.329412 0.007843
0.003922 0.360784 0.000000
0.000000 0.368627 0.000000
0.027451 0.368627 0.000000
0.086275 0.364706 0.000000
0.141176 0.364706 0.000000
0.192157 0.368627 0.003922
0.235294 0.368627 0.000000
0.278431 0.372549 0.000000
0.325490 0.368627 0.000000
0.380392 0.368627 0.003922
0.423529 0.364706 0.000000
0.462745 0.364706 0.000000
0.509804 0.372549 0.003922
0.552941 0.372549 0.000000
0.600000 0.368627 0.000000
0.643137 0.372549 0.000000
0.694118 0.368627 0.000000
0.737255 0.372549 0.000000
0.784314 0.376471 0.000000
0.831373 0.376471 0.003922
0.882353 0.380392 0.000000
0.929412 0.380392 0.000000
0.976471 0.384314 0.003922
1.000000 0.380392 0.000000
1.000000 0.380392 0.000000
0.000000 0.415686 0.000000
0.000000 0.431373 0.000000
0.000000 0.427451 0.000000
0.082353 0.427451 0.000000
0.145098 0.415686 0.000000
0.192157 0.415686 0.000000
0.235294 0.415686 0.000000
0.294118 0.423529 0.003922
0.333333 0.423529 0.000000
0.376471 0.419608 0.007843
0.427451 0.423529 0.000000
0.470588 0.423529 0.000000
0.513725 0.419608 0.003922
0.556863 0.423529 0.003922
0.603922 0.423529 0.000000
0.647059 0.419608 0.000000
0.701961 0.423529 0.000000
0.745098 0.423529 0.000000
0.788235 0.427451 0.000000
0.835294 0.427451 0.000000
0.886275 0.431373 0.003922
0.933333 0.431373 0.003922
0.980392 0.435294 0.007843
0.996078 0.435294 0.003922
0.992157 0.431373 0.000000
0.003922 0.470588 0.007843
0.000000 0.466667 0.003922
0.000000 0.458824 0.000000
0.062745 0.474510 0.011765
0.133333 0.466667 0.007843
0.180392 0.470588 0.000000
0.239216 0.474510 0.000000
0.286275 0.462745 0.003922
0.333333 0.462745 0.003922
0.384314 0.466667 0.000000
0.427451 0.462745 0.000000
0.470588 0.466667 0.003922
0.509804 0.466667 0.003922
0.556863 0.470588 0.000000
0.603922 0.466667 0.000000
0.650980 0.470588 0.000000
0.698039 0.466667 0.003922
0.745098 0.470588 0.000000
0.792157 0.470588 0.000000
0.843137 0.474510 0.000000
0.890196 0.474510 0.003922
0.933333 0.470588 0.000000
0.976471 0.478431 0.003922
1.000000 0.466667 0.000000
1.000000 0.474510 0.011765
0.000000 0.505882 0.007843
0.000000 0.513725 0.003922
0.000000 0.517647 0.000000
0.054902 0.513725 0.000000
0.117647 0.513725 0.000000
0.184314 0.509804 0.000000
0.231373 0.517647 0.000000
0.274510 0.513725 0.000000
0.329412 0.513725 0.000000
0.372549 0.513725 0.000000
0.423529 0.513725 0.000000
0.466667 0.509804 0.000000
0.513725 0.513725 0.000000
0.560784 0.509804 0.000000
0.600000 0.509804 0.000000
0.650980 0.517647 0.003922
0.701961 0.521569 0.000000
0.745098 0.513725 0.003922
0.788235 0.521569 0.000000
0.843137 0.521569 0.000000
0.886275 0.525490 0.000000
0.941176 0.521569 0.003922
0.972549 0.529412 0.000000
1.000000 0.509804 0.000000
0.992157 0.521569 0.000000
0.000000 0.556863 0.000000
0.000000 0.560784 0.003922
0.000000 0.560784 0.007843
0.023529 0.560784 0.000000
0.121569 0.560784 0.000000
0.176471 0.564706 0.000000
0.235294 0.560784 0.003922
0.290196 0.560784 0.000000
0.333333 0.556863 0.000000
0.376471 0.560784 0.003922
0.427451 0.556863 0.003922
0.470588 0.552941 0.000000
0.521569 0.556863 0.003922
0.564706 0.560784 0.000000
0.607843 0.556863 0.003922
0.654902 0.556863 0.000000
0.698039 0.560784 0.000000
0.745098 0.564706 0.000000
0.788235 0.568627 0.000000
0.843137 0.568627 0.000000
0.882353 0.568627 0.000000
0.929412 0.568627 0.007843
0.984314 0.568627 0.000000
1.000000 0.564706 0.000000
0.996078 0.572549 0.003922
0.003922 0.600000 0.003922
0.000000 0.607843 0.003922
0.000000 0.603922 0.000000
0.015686 0.607843 0.000000
0.113725 0.603922 0.000000
0.172549 0.607843 0.003922
0.231373 0.603922 0.000000
0.278431 0.607843 0.000000
0.333333 0.603922 0.000000
0.384314 0.607843 0.000000
0.431373 0.607843 0.000000
0.470588 0.607843 0.000000
0.525490 0.607843 0.007843
0.564706 0.607843 0.003922
0.611765 0.607843 0.003922
0.658824 0.607843 0.000000
0.701961 0.603922 0.000000
0.745098 0.611765 0.000000
0.788235 0.607843 0.000000
0.839216 0.607843 0.000000
0.894118 0.607843 0.000000
0.929412 0.615686 0.000000
0.980392 0.615686 0.000000
1.000000 0.615686 0.000000
1.000000 0.611765 0.000000
0.003922 0.658824 0.000000
0.003922 0.658824 0.003922
0.000000 0.662745 0.000000
0.003922 0.666667 0.000000
0.105882 0.658824 0.003922
0.168627 0.658824 0.007843
0.243137 0.662745 0.000000
0.286275 0.662745 0.000000
0.341176 0.658824 0.003922
0.380392 0.658824 0.000000
0.435294 0.658824 0.000000
0.474510 0.662745 0.000000
0.529412 0.658824 0.003922
0.568627 0.658824 0.000000
0.615686 0.662745 0.000000
0.662745 0.658824 0.000000
0.705882 0.654902 0.000000
0.756863 0.662745 0.003922
0.796078 0.662745 0.000000
0.847059 0.658824 0.000000
0.890196 0.662745 0.000000
0.941176 0.662745 0.003922
0.988235 0.666667 0.003922
1.000000 0.662745 0.000000
1.000000 0.658824 0.000000
0.003922 0.705882 0.000000
0.000000 0.701961 0.000000
0.000000 0.713725 0.007843
0.003922 0.705882 0.000000
0.094118 0.705882 0.003922
0.168627 0.705882 0.000000
0.223529 0.713725 0.007843
0.282353 0.709804 0.000000
0.325490 0.709804 0.000000
0.380392 0.705882 0.000000
0.435294 0.705882 0.000000
0.482353 0.705882 0.003922
0.529412 0.705882 0.000000
0.572549 0.705882 0.000000
0.623529 0.705882 0.000000
0.662745 0.705882 0.000000
0.709804 0.705882 0.000000
0.752941 0.705882 0.000000
0.803922 0.705882 0.000000
0.847059 0.705882 0.000000
0.890196 0.709804 0.000000
0.937255 0.705882 0.000000
0.984314 0.709804 0.000000
1.000000 0.705882 0.000000
0.992157 0.709804 0.000000
0.000000 0.752941 0.003922
0.000000 0.752941 0.000000
0.007843 0.756863 0.007843
0.000000 0.756863 0.000000
0.082353 0.752941 0.000000
0.164706 0.756863 0.007843
0.223529 0.752941 0.003922
0.274510 0.752941 0.003922
0.325490 0.752941 0.003922
0.376471 0.749020 0.000000
0.427451 0.752941 0.000000
0.474510 0.752941 0.000000
0.529412 0.752941 0.000000
0.572549 0.749020 0.000000
0.615686 0.752941 0.000000
0.666667 0.756863 0.003922
0.709804 0.752941 0.000000
0.760784 0.749020 0.000000
0.796078 0.752941 0.007843
0.850980 0.756863 0.000000
0.901961 0.756863 0.003922
0.945098 0.756863 0.000000
0.984314 0.752941 0.000000
0.988235 0.752941 0.000000
1.000000 0.756863 0.000000
0.007843 0.803922 0.000000
0.003922 0.803922 0.015686
0.003922 0.800000 0.000000
0.000000 0.803922 0.000000
0.058824 0.803922 0.003922
0.152941 0.796078 0.000000
0.215686 0.796078 0.003922
0.282353 0.803922 0.007843
0.325490 0.800000 0.000000
0.376471 0.803922 0.000000
0.423529 0.803922 0.000000
0.478431 0.800000 0.000000
0.525490 0.796078 0.000000
0.572549 0.803922 0.003922
0.615686 0.800000 0.007843
0.662745 0.800000 0.000000
0.709804 0.800000 0.000000
0.752941 0.796078 0.003922
0.796078 0.800000 0.007843
0.847059 0.796078 0.000000
0.890196 0.800000 0.007843
0.941176 0.800000 0.015686
0.988235 0.796078 0.007843
1.000000 0.800000 0.000000
1.000000 0.800000 0.003922
0.000000 0.847059 0.000000
0.000000 0.847059 0.003922
0.000000 0.843137 0.007843
0.007843 0.839216 0.000000
0.043137 0.847059 0.000000
0.125490 0.847059 0.007843
0.211765 0.847059 0.003922
0.274510 0.847059 0.003922
0.321569 0.850980 0.000000
0.368627 0.854902 0.000000
0.423529 0.854902 0.000000
0.470588 0.850980 0.000000
0.521569 0.847059 0.000000
0.568627 0.847059 0.000000
0.611765 0.843137 0.000000
0.658824 0.843137 0.000000
0.705882 0.843137 0.003922
0.752941 0.843137 0.000000
0.803922 0.847059 0.000000
0.847059 0.850980 0.000000
0.894118 0.839216 0.003922
0.941176 0.843137 0.003922
0.988235 0.843137 0.007843
1.000000 0.843137 0.003922
1.000000 0.847059 0.003922
0.007843 0.898039 0.000000
0.000000 0.905882 0.003922
0.003922 0.898039 0.015686
0.007843 0.898039 0.000000
0.007843 0.905882 0.000000
0.129412 0.901961 0.000000
0.203922 0.898039 0.003922
0.266667 0.905882 0.007843
0.325490 0.894118 0.000000
0.376471 0.898039 0.000000
0.419608 0.894118 0.000000
0.470588 0.898039 0.000000
0.521569 0.894118 0.000000
0.572549 0.898039 0.003922
0.615686 0.894118 0.000000
0.662745 0.894118 0.000000
0.709804 0.901961 0.003922
0.756863 0.894118 0.000000
0.800000 0.901961 0.003922
0.850980 0.894118 0.000000
0.898039 0.894118 0.000000
0.945098 0.894118 0.000000
0.988235 0.894118 0.000000
1.000000 0.890196 0.000000
1.000000 0.894118 0.003922
0.000000 0.941176 0.003922
0.007843 0.945098 0.000000
0.007843 0.933333 0.000000
0.000000 0.952941 0.000000
0.003922 0.945098 0.000000
0.105882 0.941176 0.000000
0.207843 0.937255 0.000000
0.262745 0.949020 0.003922
0.305882 0.945098 0.000000
0.360784 0.945098 0.003922
0.415686 0.945098 0.000000
0.462745 0.945098 0.003922
0.513725 0.945098 0.007843
0.564706 0.945098 0.003922
0.615686 0.949020 0.003922
0.666667 0.945098 0.000000
0.709804 0.941176 0.000000
0.756863 0.941176 0.000000
0.803922 0.941176 0.000000
0.850980 0.941176 0.000000
0.898039 0.941176 0.000000
0.945098 0.941176 0.000000
0.988235 0.937255 0.000000
1.000000 0.937255 0.000000
1.000000 0.941176 0.000000
0.000000 0.984314 0.000000
0.003922 0.988235 0.000000
0.000000 0.980392 0.000000
0.011765 0.980392 0.003922
0.011765 0.984314 0.000000
0.098039 0.992157 0.000000
0.196078 0.984314 0.000000
0.250980 0.988235 0.000000
0.309804 0.984314 0.003922
0.356863 0.988235 0.000000
0.411765 0.984314 0.000000
0.462745 0.992157 0.003922
0.513725 0.988235 0.003922
0.560784 0.988235 0.003922
0.607843 0.984314 0.003922
0.662745 0.984314 0.003922
0.705882 0.992157 0.000000
0.752941 0.984314 0.003922
0.796078 0.988235 0.000000
0.850980 0.988235 0.007843
0.898039 0.988235 0.000000
0.941176 0.984314 0.003922
0.988235 0.984314 0.003922
1.000000 0.984314 0.007843
1.000000 0.984314 0.003922
0.000000 1.000000 0.000000
0.007843 1.000000 0.000000
0.007843 1.000000 0.000000
0.015686 1.000000 0.000000
0.000000 0.996078 0.000000
0.086275 1.000000 0.000000
0.156863 1.000000 0.003922
0.243137 0.996078 0.003922
0.305882 1.000000 0.003922
0.364706 0.996078 0.003922
0.411765 0.996078 0.000000
0.462745 1.000000 0.003922
0.505882 1.000000 0.003922
0.564706 1.000000 0.000000
0.607843 0.996078 0.003922
0.658824 1.000000 0.000000
0.701961 1.000000 0.000000
0.752941 1.000000 0.000000
0.796078 1.000000 0.000000
0.843137 1.000000 0.000000
0.890196 0.996078 0.000000
0.925490 1.000000 0.003922
0.972549 0.996078 0.000000
1.000000 1.000000 0.003922
1.000000 0.996078 0.011765
0.000000 1.000000 0.000000
0.000000 0.996078 0.000000
0.000000 1.000000 0.003922
0.000000 0.996078 0.000000
0.007843 1.000000 0.000000
0.086275 1.000000 0.000000
0.168627 0.996078 0.003922
0.231373 0.996078 0.000000
0.290196 1.000000 0.000000
0.345098 1.000000 0.000000
0.407843 1.000000 0.007843
0.458824 0.996078 0.003922
0.498039 0.996078 0.000000
0.545098 0.996078 0.000000
0.596078 1.000000 0.000000
0.639216 1.000000 0.000000
0.682353 1.000000 0.000000
0.721569 1.000000 0.003922
0.764706 1.000000 0.000000
0.811765 0.996078 0.000000
0.850980 1.000000 0.000000
0.894118 1.000000 0.000000
0.937255 1.000000 0.000000
0.976471 1.000000 0.000000
0.992157 0.996078 0.000000
0.003922 0.003922 0.011765
0.000000 0.000000 0.007843
0.070588 0.000000 0.011765
0.098039 0.000000 0.011765
0.145098 0.003922 0.011765
0.184314 0.003922 0.015686
0.223529 0.003922 0.007843
0.274510 0.000000 0.011765
0.313725 0.007843 0.007843
0.356863 0.003922 0.003922
0.400000 0.003922 0.003922
0.450980 0.003922 0.003922
0.501961 0.000000 0.003922
0.549020 0.000000 0.003922
0.592157 0.000000 0.003922
0.639216 0.000000 0.000000
0.686275 0.003922 0.000000
0.733333 0.000000 0.000000
0.772549 0.000000 0.000000
0.827451 0.000000 0.000000
0.878431 0.000000 0.000000
0.921569 0.000000 0.000000
0.976471 0.000000 0.000000
0.996078 0.000000 0.000000
0.996078 0.000000 0.007843
0.007843 0.007843 0.007843
0.011765 0.003922 0.007843
0.062745 0.015686 0.015686
0.101961 0.011765 0.000000
0.137255 0.015686 0.007843
0.188235 0.015686 0.011765
0.223529 0.011765 0.003922
0.262745 0.003922 0.003922
0.309804 0.003922 0.003922
0.360784 0.000000 0.003922
0.407843 0.000000 0.003922
0.450980 0.000000 0.000000
0.501961 0.000000 0.003922
0.545098 0.000000 0.000000
0.592157 0.000000 0.003922
0.643137 0.000000 0.000000
0.682353 0.000000 0.000000
0.733333 0.000000 0.000000
0.784314 0.003922 0.000000
0.827451 0.000000 0.000000
0.878431 0.000000 0.000000
0.925490 0.003922 0.000000
0.972549 0.003922 0.003922
0.996078 0.003922 0.000000
0.996078 0.000000 0.000000
0.007843 0.054902 0.007843
0.011765 0.054902 0.000000
0.070588 0.054902 0.011765
0.094118 0.054902 0.007843
0.141176 0.054902 0.011765
0.184314 0.058824 0.011765
0.211765 0.058824 0.000000
0.266667 0.054902 0.007843
0.317647 0.050980 0.007843
0.360784 0.047059 0.003922
0.407843 0.039216 0.000000
0.450980 0.031373 0.000000
0.498039 0.027451 0.000000
0.537255 0.027451 0.000000
0.592157 0.007843 0.000000
0.643137 0.000000 0.000000
0.682353 0.000000 0.000000
0.733333 0.003922 0.000000
0.776471 0.003922 0.003922
0.827451 0.000000 0.000000
0.878431 0.000000 0.000000
0.925490 0.003922 0.000000
0.972549 0.007843 0.000000
0.996078 0.003922 0.000000
0.996078 0.000000 0.000000
0.003922 0.105882 0.007843
0.007843 0.094118 0.003922
0.062745 0.101961 0.007843
0.098039 0.086275 0.011765
0.156863 0.098039 0.007843
0.168627 0.098039 0.003922
0.223529 0.098039 0.007843
0.278431 0.098039 0.003922
0.313725 0.094118 0.000000
0.352941 0.094118 0.000000
0.403922 0.090196 0.000000
0.458824 0.090196 0.000000
0.501961 0.086275 0.000000
0.545098 0.082353 0.000000
0.592157 0.078431 0.000000
0.635294 0.070588 0.000000
0.686275 0.062745 0.000000
0.733333 0.054902 0.000000
0.784314 0.047059 0.003922
0.831373 0.039216 0.000000
0.874510 0.035294 0.003922
0.925490 0.031373 0.000000
0.972549 0.019608 0.011765
0.992157 0.019608 0.000000
0.996078 0.000000 0.007843
0.000000 0.149020 0.003922
0.027451 0.133333 0.007843
0.070588 0.137255 0.000000
0.109804 0.137255 0.015686
0.137255 0.137255 0.003922
0.188235 0.137255 0.003922
0.231373 0.137255 0.000000
0.274510 0.141176 0.000000
0.317647 0.137255 0.000000
0.368627 0.141176 0.000000
0.411765 0.137255 0.000000
0.454902 0.141176 0.003922
0.498039 0.137255 0.000000
0.545098 0.137255 0.000000
0.588235 0.133333 0.000000
0.639216 0.129412 0.003922
0.690196 0.121569 0.000000
0.733333 0.121569 0.000000
0.784314 0.121569 0.000000
0.827451 0.121569 0.000000
0.878431 0.113725 0.003922
0.925490 0.113725 0.003922
0.976471 0.109804 0.003922
0.996078 0.105882 0.000000
0.996078 0.105882 0.000000
0.000000 0.180392 0.000000
0.015686 0.184314 0.003922
0.058824 0.184314 0.000000
0.105882 0.192157 0.000000
0.149020 0.180392 0.000000
0.192157 0.184314 0.000000
0.231373 0.184314 0.000000
0.278431 0.184314 0.000000
0.317647 0.192157 0.007843
0.360784 0.188235 0.003922
0.407843 0.188235 0.000000
0.450980 0.184314 0.000000
0.501961 0.184314 0.000000
0.545098 0.184314 0.000000
0.592157 0.188235 0.000000
0.643137 0.188235 0.003922
0.690196 0.180392 0.000000
0.737255 0.180392 0.000000
0.784314 0.180392 0.000000
0.831373 0.180392 0.000000
0.878431 0.180392 0.000000
0.921569 0.180392 0.000000
0.976471 0.176471 0.000000
0.992157 0.176471 0.000000
1.000000 0.176471 0.007843
0.000000 0.223529 0.000000
0.015686 0.235294 0.000000
0.054902 0.227451 0.000000
0.113725 0.227451 0.000000
0.149020 0.215686 0.003922
0.192157 0.219608 0.007843
0.231373 0.227451 0.003922
0.278431 0.231373 0.003922
0.325490 0.227451 0.000000
0.372549 0.231373 0.003922
0.419608 0.227451 0.000000
0.458824 0.227451 0.000000
0.505882 0.231373 0.000000
0.549020 0.227451 0.000000
0.600000 0.231373 0.000000
0.647059 0.231373 0.003922
0.686275 0.231373 0.000000
0.733333 0.231373 0.003922
0.780392 0.231373 0.000000
0.835294 0.231373 0.000000
0.878431 0.235294 0.003922
0.929412 0.231373 0.003922
0.968627 0.235294 0.003922
0.992157 0.231373 0.000000
1.000000 0.227451 0.003922
0.000000 0.266667 0.003922
0.003922 0.278431 0.000000
0.047059 0.270588 0.000000
0.105882 0.274510 0.000000
0.137255 0.278431 0.000000
0.196078 0.274510 0.000000
0.231373 0.270588 0.000000
0.286275 0.274510 0.011765
0.325490 0.266667 0.000000
0.368627 0.274510 0.000000
0.415686 0.270588 0.000000
0.458824 0.274510 0.000000
0.505882 0.278431 0.000000
0.552941 0.278431 0.000000
0.592157 0.278431 0.000000
0.639216 0.278431 0.000000
0.686275 0.278431 0.000000
0.737255 0.274510 0.000000
0.780392 0.278431 0.000000
0.827451 0.278431 0.000000
0.878431 0.282353 0.000000
0.925490 0.282353 0.003922
0.980392 0.282353 0.007843
1.000000 0.282353 0.007843
1.000000 0.282353 0.007843
0.000000 0.309804 0.000000
0.000000 0.317647 0.000000
0.035294 0.321569 0.000000
0.105882 0.321569 0.003922
0.145098 0.317647 0.007843
0.196078 0.317647 0.003922
0.235294 0.321569 0.000000
0.282353 0.317647 0.000000
0.317647 0.325490 0.000000
0.368627 0.325490 0.003922
0.411765 0.325490 0.000000
0.466667 0.321569 0.003922
0.505882 0.325490 0.000000
0.552941 0.325490 0.003922
0.592157 0.325490 0.007843
0.643137 0.321569 0.000000
0.690196 0.329412 0.003922
0.737255 0.325490 0.000000
0.780392 0.333333 0.000000
0.831373 0.333333 0.000000
0.874510 0.337255 0.000000
0.929412 0.329412 0.000000
0.972549 0.333333 0.000000
1.000000 0.325490 0.000000
1.000000 0.329412 0.000000
0.015686 0.352941 0.003922
0.000000 0.368627 0.000000
0.019608 0.368627 0.000000
0.082353 0.372549 0.000000
0.145098 0.368627 0.000000
0.192157 0.368627 0.003922
0.235294 0.368627 0.000000
0.278431 0.372549 0.000000
0.329412 0.372549 0.003922
0.372549 0.368627 0.003922
0.419608 0.368627 0.000000
0.462745 0.372549 0.003922
0.505882 0.364706 0.000000
0.556863 0.364706 0.000000
0.600000 0.368627 0.000000
0.647059 0.372549 0.000000
0.686275 0.372549 0.007843
0.737255 0.372549 0.000000
0.784314 0.376471 0.003922
0.823529 0.376471 0.000000
0.882353 0.380392 0.000000
0.925490 0.384314 0.000000
0.972549 0.384314 0.003922
0.992157 0.384314 0.000000
1.000000 0.380392 0.000000
0.003922 0.415686 0.011765
0.000000 0.419608 0.003922
0.003922 0.419608 0.000000
0.070588 0.419608 0.000000
0.141176 0.419608 0.003922
0.188235 0.419608 0.003922
0.235294 0.419608 0.003922
0.286275 0.415686 0.003922
0.333333 0.419608 0.000000
0.380392 0.415686 0.003922
