lut_library_archive/removed_20260629/50个风景lut/50个风景lut28.cube
# 版权归凌孟成所有，侵权必究
TITLE "Jungle LUT #28"
#LUT size
LUT_3D_SIZE 25
#LUT data points
0.003922 0.000000 0.000000
0.007843 0.003922 0.000000
0.070588 0.000000 0.000000
0.113725 0.000000 0.000000
0.152941 0.000000 0.000000
0.196078 0.000000 0.000000
0.239216 0.000000 0.000000
0.274510 0.000000 0.003922
0.329412 0.000000 0.007843
0.368627 0.000000 0.000000
0.407843 0.003922 0.000000
0.450980 0.003922 0.000000
0.498039 0.003922 0.015686
0.545098 0.003922 0.023529
0.592157 0.000000 0.015686
0.635294 0.000000 0.023529
0.686275 0.000000 0.035294
0.729412 0.003922 0.035294
0.772549 0.007843 0.039216
0.819608 0.015686 0.050980
0.862745 0.019608 0.058824
0.898039 0.031373 0.062745
0.941176 0.047059 0.074510
0.988235 0.062745 0.082353
1.000000 0.082353 0.094118
0.000000 0.019608 0.003922
0.019608 0.023529 0.000000
0.062745 0.027451 0.000000
0.105882 0.027451 0.000000
0.149020 0.031373 0.000000
0.196078 0.027451 0.003922
0.239216 0.031373 0.007843
0.274510 0.027451 0.000000
0.325490 0.035294 0.000000
0.376471 0.035294 0.000000
0.415686 0.035294 0.007843
0.458824 0.031373 0.011765
0.498039 0.031373 0.015686
0.545098 0.039216 0.019608
0.588235 0.035294 0.019608
0.635294 0.047059 0.023529
0.674510 0.043137 0.031373
0.725490 0.047059 0.031373
0.768627 0.062745 0.039216
0.819608 0.062745 0.050980
0.854902 0.066667 0.066667
0.901961 0.074510 0.070588
0.945098 0.086275 0.070588
0.976471 0.094118 0.086275
1.000000 0.113725 0.098039
0.000000 0.066667 0.003922
0.015686 0.074510 0.000000
0.074510 0.066667 0.007843
0.109804 0.066667 0.000000
0.149020 0.066667 0.000000
0.188235 0.074510 0.011765
0.235294 0.074510 0.003922
0.278431 0.078431 0.003922
0.325490 0.078431 0.007843
0.368627 0.086275 0.007843
0.415686 0.082353 0.011765
0.454902 0.078431 0.015686
0.501961 0.082353 0.019608
0.545098 0.086275 0.027451
0.588235 0.082353 0.027451
0.631373 0.086275 0.027451
0.682353 0.086275 0.035294
0.725490 0.090196 0.039216
0.772549 0.090196 0.047059
0.811765 0.098039 0.054902
0.858824 0.105882 0.066667
0.905882 0.113725 0.082353
0.945098 0.109804 0.086275
0.984314 0.129412 0.094118
1.000000 0.137255 0.105882
0.000000 0.113725 0.000000
0.011765 0.113725 0.000000
0.082353 0.105882 0.000000
0.113725 0.117647 0.000000
0.152941 0.109804 0.000000
0.192157 0.113725 0.015686
0.239216 0.113725 0.015686
0.282353 0.121569 0.019608
0.321569 0.117647 0.023529
0.372549 0.117647 0.031373
0.415686 0.125490 0.031373
0.454902 0.125490 0.023529
0.498039 0.129412 0.027451
0.545098 0.125490 0.023529
0.588235 0.129412 0.031373
0.631373 0.129412 0.039216
0.682353 0.133333 0.043137
0.725490 0.137255 0.043137
0.768627 0.137255 0.058824
0.811765 0.141176 0.070588
0.854902 0.145098 0.070588
0.898039 0.149020 0.078431
0.945098 0.156863 0.094118
0.996078 0.160784 0.098039
0.992157 0.172549 0.113725
0.003922 0.152941 0.007843
0.023529 0.160784 0.000000
0.070588 0.149020 0.000000
0.109804 0.152941 0.000000
0.164706 0.156863 0.003922
0.203922 0.156863 0.007843
0.227451 0.149020 0.003922
0.270588 0.156863 0.023529
0.321569 0.164706 0.035294
0.360784 0.164706 0.035294
0.407843 0.160784 0.031373
0.443137 0.168627 0.027451
0.501961 0.172549 0.039216
0.541176 0.172549 0.035294
0.588235 0.172549 0.047059
0.635294 0.180392 0.058824
0.682353 0.176471 0.050980
0.725490 0.180392 0.058824
0.768627 0.184314 0.074510
0.811765 0.184314 0.082353
0.862745 0.184314 0.086275
0.901961 0.192157 0.094118
0.941176 0.196078 0.101961
0.976471 0.203922 0.109804
1.000000 0.207843 0.121569
0.000000 0.203922 0.011765
0.023529 0.196078 0.000000
0.062745 0.207843 0.003922
0.113725 0.200000 0.007843
0.152941 0.200000 0.003922
0.192157 0.203922 0.000000
0.243137 0.203922 0.000000
0.290196 0.196078 0.007843
0.329412 0.203922 0.011765
0.368627 0.207843 0.039216
0.415686 0.211765 0.058824
0.458824 0.215686 0.062745
0.505882 0.219608 0.062745
0.549020 0.223529 0.066667
0.592157 0.219608 0.062745
0.647059 0.227451 0.070588
0.690196 0.231373 0.070588
0.729412 0.227451 0.074510
0.768627 0.227451 0.082353
0.815686 0.235294 0.086275
0.862745 0.235294 0.094118
0.901961 0.243137 0.101961
0.945098 0.243137 0.117647
0.988235 0.247059 0.129412
1.000000 0.247059 0.141176
0.003922 0.239216 0.000000
0.007843 0.243137 0.000000
0.058824 0.250980 0.000000
0.113725 0.247059 0.007843
0.156863 0.243137 0.000000
0.207843 0.247059 0.000000
0.247059 0.239216 0.000000
0.286275 0.239216 0.003922
0.325490 0.247059 0.011765
0.368627 0.247059 0.027451
0.415686 0.254902 0.047059
0.458824 0.254902 0.070588
0.498039 0.258824 0.078431
0.549020 0.266667 0.078431
0.596078 0.266667 0.082353
0.639216 0.270588 0.090196
0.686275 0.270588 0.086275
0.729412 0.274510 0.090196
0.780392 0.278431 0.101961
0.823529 0.282353 0.109804
0.862745 0.278431 0.113725
0.905882 0.282353 0.125490
0.949020 0.286275 0.133333
0.996078 0.286275 0.133333
0.996078 0.298039 0.149020
0.000000 0.290196 0.000000
0.003922 0.290196 0.003922
0.050980 0.286275 0.000000
0.105882 0.294118 0.003922
0.156863 0.290196 0.000000
0.196078 0.290196 0.000000
0.239216 0.294118 0.000000
0.282353 0.290196 0.000000
0.333333 0.286275 0.000000
0.376471 0.290196 0.003922
0.419608 0.290196 0.027451
0.458824 0.298039 0.054902
0.509804 0.305882 0.082353
0.549020 0.309804 0.098039
0.596078 0.317647 0.113725
0.643137 0.317647 0.113725
0.694118 0.317647 0.117647
0.733333 0.321569 0.113725
0.776471 0.325490 0.113725
0.815686 0.325490 0.121569
0.862745 0.333333 0.125490
0.905882 0.333333 0.133333
0.945098 0.333333 0.145098
0.980392 0.341176 0.149020
1.000000 0.337255 0.164706
0.003922 0.333333 0.000000
0.003922 0.333333 0.000000
0.027451 0.333333 0.000000
0.094118 0.333333 0.019608
0.149020 0.337255 0.007843
0.200000 0.333333 0.000000
0.243137 0.337255 0.000000
0.286275 0.341176 0.000000
0.329412 0.337255 0.007843
0.380392 0.333333 0.000000
0.419608 0.337255 0.000000
0.462745 0.337255 0.011765
0.505882 0.341176 0.050980
0.549020 0.352941 0.082353
0.596078 0.356863 0.109804
0.643137 0.360784 0.133333
0.686275 0.364706 0.137255
0.729412 0.368627 0.137255
0.776471 0.368627 0.137255
0.819608 0.368627 0.145098
0.862745 0.372549 0.152941
0.898039 0.380392 0.160784
0.941176 0.372549 0.164706
0.976471 0.380392 0.164706
1.000000 0.380392 0.172549
0.000000 0.380392 0.000000
0.000000 0.372549 0.000000
0.019608 0.376471 0.011765
0.086275 0.380392 0.007843
0.145098 0.384314 0.007843
0.196078 0.380392 0.000000
0.239216 0.380392 0.000000
0.286275 0.384314 0.000000
0.333333 0.380392 0.000000
0.380392 0.380392 0.003922
0.419608 0.380392 0.000000
0.458824 0.380392 0.007843
0.501961 0.388235 0.000000
0.549020 0.388235 0.035294
0.592157 0.392157 0.082353
0.647059 0.400000 0.129412
0.690196 0.403922 0.145098
0.733333 0.403922 0.152941
0.780392 0.415686 0.160784
0.823529 0.419608 0.160784
0.862745 0.415686 0.168627
0.898039 0.423529 0.168627
0.937255 0.423529 0.172549
0.976471 0.431373 0.176471
0.996078 0.435294 0.184314
0.003922 0.431373 0.000000
0.000000 0.431373 0.000000
0.003922 0.431373 0.000000
0.082353 0.431373 0.000000
0.141176 0.423529 0.000000
0.200000 0.431373 0.007843
0.243137 0.423529 0.000000
0.286275 0.435294 0.000000
0.329412 0.431373 0.003922
0.376471 0.427451 0.003922
0.419608 0.427451 0.000000
0.470588 0.431373 0.000000
0.513725 0.427451 0.000000
0.552941 0.435294 0.003922
0.600000 0.435294 0.043137
0.639216 0.439216 0.090196
0.690196 0.447059 0.121569
0.733333 0.454902 0.149020
0.780392 0.458824 0.172549
0.827451 0.462745 0.192157
0.866667 0.462745 0.200000
0.901961 0.470588 0.200000
0.945098 0.474510 0.200000
0.988235 0.478431 0.211765
0.996078 0.474510 0.211765
0.000000 0.474510 0.000000
0.000000 0.474510 0.000000
0.007843 0.466667 0.007843
0.066667 0.470588 0.011765
0.129412 0.474510 0.003922
0.180392 0.470588 0.000000
0.243137 0.478431 0.000000
0.282353 0.470588 0.000000
0.325490 0.474510 0.000000
0.372549 0.474510 0.000000
0.419608 0.474510 0.000000
0.470588 0.474510 0.007843
0.505882 0.470588 0.003922
0.552941 0.466667 0.000000
0.603922 0.466667 0.000000
0.639216 0.486275 0.027451
0.686275 0.486275 0.074510
0.733333 0.486275 0.121569
0.784314 0.494118 0.156863
0.827451 0.501961 0.188235
0.870588 0.509804 0.215686
0.901961 0.513725 0.219608
0.937255 0.513725 0.223529
0.980392 0.517647 0.235294
0.996078 0.517647 0.239216
0.003922 0.517647 0.000000
0.000000 0.505882 0.000000
0.000000 0.521569 0.000000
0.054902 0.513725 0.003922
0.117647 0.513725 0.003922
0.180392 0.521569 0.007843
0.231373 0.517647 0.003922
0.278431 0.517647 0.003922
0.321569 0.517647 0.000000
0.372549 0.517647 0.000000
0.415686 0.517647 0.000000
0.462745 0.513725 0.000000
0.513725 0.513725 0.003922
0.560784 0.509804 0.000000
0.600000 0.509804 0.000000
0.643137 0.517647 0.000000
0.682353 0.521569 0.019608
0.729412 0.521569 0.082353
0.776471 0.529412 0.125490
0.823529 0.541176 0.156863
0.862745 0.545098 0.188235
0.909804 0.549020 0.231373
0.937255 0.556863 0.239216
0.988235 0.560784 0.258824
0.992157 0.568627 0.254902
0.000000 0.560784 0.003922
0.000000 0.552941 0.000000
0.000000 0.568627 0.007843
0.015686 0.560784 0.000000
0.113725 0.556863 0.000000
0.172549 0.560784 0.000000
0.219608 0.560784 0.007843
0.266667 0.560784 0.000000
0.313725 0.564706 0.000000
0.368627 0.560784 0.000000
0.415686 0.560784 0.003922
0.466667 0.556863 0.000000
0.509804 0.552941 0.000000
0.549020 0.560784 0.007843
0.592157 0.556863 0.011765
0.639216 0.556863 0.000000
0.678431 0.560784 0.000000
0.729412 0.560784 0.007843
0.764706 0.568627 0.054902
0.815686 0.576471 0.117647
0.858824 0.580392 0.164706
0.909804 0.580392 0.192157
0.941176 0.592157 0.231373
0.976471 0.600000 0.262745
1.000000 0.607843 0.286275
0.000000 0.603922 0.000000
0.007843 0.603922 0.000000
0.003922 0.600000 0.000000
0.003922 0.600000 0.000000
0.101961 0.596078 0.000000
0.160784 0.603922 0.007843
0.227451 0.600000 0.003922
0.266667 0.607843 0.000000
0.313725 0.600000 0.000000
0.356863 0.607843 0.000000
0.415686 0.600000 0.000000
0.458824 0.603922 0.000000
0.501961 0.596078 0.007843
0.545098 0.603922 0.003922
0.588235 0.603922 0.000000
0.635294 0.600000 0.000000
0.678431 0.596078 0.003922
0.721569 0.600000 0.000000
0.768627 0.607843 0.011765
0.811765 0.603922 0.062745
0.854902 0.615686 0.125490
0.898039 0.619608 0.164706
0.941176 0.623529 0.203922
0.988235 0.627451 0.247059
1.000000 0.635294 0.274510
0.000000 0.654902 0.000000
0.000000 0.654902 0.000000
0.000000 0.654902 0.000000
0.000000 0.654902 0.000000
0.090196 0.647059 0.011765
0.149020 0.650980 0.003922
0.227451 0.647059 0.000000
0.270588 0.658824 0.000000
0.321569 0.654902 0.003922
0.364706 0.647059 0.003922
0.411765 0.650980 0.003922
0.462745 0.650980 0.007843
0.505882 0.650980 0.000000
0.549020 0.647059 0.000000
0.596078 0.647059 0.000000
0.639216 0.647059 0.007843
0.682353 0.654902 0.000000
0.725490 0.650980 0.000000
0.776471 0.647059 0.000000
0.815686 0.647059 0.003922
0.862745 0.647059 0.043137
0.905882 0.658824 0.105882
0.941176 0.662745 0.168627
0.984314 0.666667 0.215686
1.000000 0.674510 0.266667
0.000000 0.690196 0.000000
0.000000 0.690196 0.000000
0.007843 0.690196 0.000000
0.007843 0.698039 0.007843
0.054902 0.694118 0.000000
0.149020 0.690196 0.007843
0.196078 0.694118 0.000000
0.254902 0.698039 0.000000
0.305882 0.698039 0.000000
0.352941 0.694118 0.000000
0.403922 0.690196 0.000000
0.454902 0.690196 0.000000
0.498039 0.690196 0.000000
0.545098 0.690196 0.000000
0.596078 0.690196 0.000000
0.635294 0.686275 0.000000
0.678431 0.690196 0.000000
0.729412 0.690196 0.003922
0.768627 0.690196 0.007843
0.811765 0.690196 0.000000
0.854902 0.694118 0.000000
0.898039 0.698039 0.043137
0.945098 0.694118 0.109804
0.984314 0.701961 0.168627
0.996078 0.705882 0.223529
0.000000 0.733333 0.000000
0.000000 0.737255 0.000000
0.003922 0.737255 0.003922
0.000000 0.737255 0.000000
0.039216 0.737255 0.000000
0.133333 0.725490 0.000000
0.200000 0.733333 0.000000
0.247059 0.737255 0.000000
0.301961 0.733333 0.000000
0.360784 0.737255 0.000000
0.403922 0.737255 0.000000
0.443137 0.737255 0.000000
0.494118 0.737255 0.000000
0.533333 0.737255 0.000000
0.588235 0.729412 0.000000
0.627451 0.729412 0.000000
0.674510 0.733333 0.000000
0.721569 0.729412 0.000000
0.760784 0.729412 0.000000
0.807843 0.733333 0.000000
0.847059 0.733333 0.000000
0.890196 0.725490 0.003922
0.933333 0.729412 0.019608
0.976471 0.741176 0.129412
0.996078 0.741176 0.184314
0.000000 0.780392 0.015686
0.000000 0.776471 0.000000
0.003922 0.772549 0.003922
0.003922 0.780392 0.000000
0.003922 0.772549 0.000000
0.117647 0.772549 0.003922
0.188235 0.776471 0.007843
0.258824 0.776471 0.003922
0.313725 0.768627 0.003922
0.356863 0.772549 0.003922
0.400000 0.776471 0.000000
0.447059 0.776471 0.000000
0.490196 0.772549 0.000000
0.537255 0.776471 0.000000
0.584314 0.772549 0.000000
0.631373 0.772549 0.003922
0.670588 0.776471 0.000000
0.725490 0.772549 0.003922
0.760784 0.768627 0.003922
0.800000 0.768627 0.000000
0.847059 0.768627 0.003922
0.898039 0.772549 0.003922
0.925490 0.772549 0.000000
0.968627 0.776471 0.000000
1.000000 0.768627 0.129412
0.000000 0.815686 0.000000
0.000000 0.811765 0.011765
0.000000 0.819608 0.000000
0.000000 0.819608 0.007843
0.003922 0.819608 0.000000
0.098039 0.815686 0.003922
0.188235 0.819608 0.000000
0.250980 0.815686 0.000000
0.290196 0.819608 0.000000
0.341176 0.819608 0.000000
0.392157 0.815686 0.000000
0.447059 0.815686 0.000000
0.490196 0.811765 0.000000
0.533333 0.815686 0.000000
0.576471 0.811765 0.000000
0.619608 0.811765 0.003922
0.662745 0.811765 0.000000
0.705882 0.815686 0.000000
0.756863 0.811765 0.000000
0.803922 0.819608 0.003922
0.843137 0.811765 0.000000
0.886275 0.815686 0.000000
0.933333 0.815686 0.000000
0.976471 0.811765 0.003922
1.000000 0.811765 0.003922
0.007843 0.854902 0.003922
0.007843 0.866667 0.011765
0.000000 0.862745 0.000000
0.003922 0.854902 0.000000
0.000000 0.870588 0.000000
0.101961 0.870588 0.000000
0.180392 0.858824 0.000000
0.235294 0.858824 0.007843
0.301961 0.854902 0.000000
0.345098 0.858824 0.000000
0.392157 0.862745 0.000000
0.435294 0.866667 0.000000
0.486275 0.862745 0.000000
0.529412 0.858824 0.003922
0.576471 0.854902 0.000000
0.623529 0.858824 0.000000
0.678431 0.854902 0.003922
0.713725 0.858824 0.000000
0.752941 0.858824 0.000000
0.792157 0.858824 0.000000
0.839216 0.858824 0.003922
0.882353 0.858824 0.003922
0.929412 0.858824 0.000000
0.972549 0.854902 0.000000
1.000000 0.854902 0.000000
0.003922 0.890196 0.003922
0.000000 0.909804 0.000000
0.011765 0.890196 0.000000
0.000000 0.905882 0.000000
0.000000 0.901961 0.000000
0.082353 0.901961 0.000000
0.164706 0.898039 0.000000
0.239216 0.894118 0.000000
0.290196 0.898039 0.003922
0.341176 0.901961 0.000000
0.396078 0.901961 0.000000
0.439216 0.898039 0.003922
0.486275 0.898039 0.007843
0.525490 0.898039 0.003922
0.572549 0.898039 0.003922
0.619608 0.898039 0.000000
0.658824 0.898039 0.003922
0.709804 0.894118 0.000000
0.752941 0.898039 0.000000
0.800000 0.901961 0.003922
0.839216 0.898039 0.007843
0.874510 0.894118 0.003922
0.913725 0.898039 0.000000
0.968627 0.898039 0.000000
0.996078 0.901961 0.000000
0.007843 0.933333 0.000000
0.003922 0.937255 0.003922
0.000000 0.945098 0.000000
0.003922 0.937255 0.015686
0.000000 0.937255 0.000000
0.078431 0.941176 0.000000
0.168627 0.937255 0.000000
0.215686 0.937255 0.000000
0.278431 0.941176 0.000000
0.333333 0.941176 0.000000
0.388235 0.937255 0.000000
0.431373 0.933333 0.003922
0.478431 0.937255 0.000000
0.525490 0.933333 0.003922
0.568627 0.941176 0.000000
0.611765 0.937255 0.003922
0.662745 0.937255 0.003922
0.701961 0.933333 0.000000
0.749020 0.933333 0.000000
0.800000 0.933333 0.003922
0.843137 0.933333 0.000000
0.882353 0.933333 0.000000
0.917647 0.937255 0.000000
0.960784 0.937255 0.000000
1.000000 0.933333 0.015686
0.007843 0.972549 0.000000
0.000000 0.980392 0.000000
0.000000 0.968627 0.000000
0.007843 0.976471 0.000000
0.000000 0.984314 0.000000
0.070588 0.972549 0.000000
0.141176 0.980392 0.000000
0.219608 0.980392 0.003922
0.282353 0.976471 0.003922
0.329412 0.980392 0.000000
0.376471 0.984314 0.000000
0.423529 0.980392 0.000000
0.470588 0.976471 0.000000
0.521569 0.976471 0.000000
0.560784 0.976471 0.000000
0.607843 0.976471 0.003922
0.647059 0.980392 0.000000
0.698039 0.972549 0.000000
0.741176 0.972549 0.000000
0.792157 0.972549 0.000000
0.831373 0.972549 0.000000
0.870588 0.972549 0.000000
0.913725 0.968627 0.000000
0.964706 0.972549 0.000000
1.000000 0.972549 0.000000
0.007843 0.996078 0.003922
0.007843 1.000000 0.000000
0.000000 1.000000 0.003922
0.000000 1.000000 0.003922
0.000000 1.000000 0.000000
0.062745 0.996078 0.000000
0.152941 0.996078 0.000000
0.215686 1.000000 0.007843
0.270588 0.996078 0.000000
0.325490 1.000000 0.003922
0.384314 1.000000 0.000000
0.427451 0.996078 0.003922
0.478431 1.000000 0.000000
0.521569 0.996078 0.000000
0.560784 0.996078 0.000000
0.603922 1.000000 0.000000
0.647059 1.000000 0.000000
0.698039 1.000000 0.003922
0.741176 0.996078 0.000000
0.788235 0.996078 0.000000
0.831373 1.000000 0.000000
0.870588 1.000000 0.000000
0.917647 1.000000 0.000000
0.960784 1.000000 0.000000
0.988235 1.000000 0.000000
0.003922 0.000000 0.023529
0.007843 0.003922 0.027451
0.070588 0.003922 0.035294
0.117647 0.003922 0.023529
0.160784 0.000000 0.023529
0.196078 0.000000 0.035294
0.239216 0.003922 0.035294
0.282353 0.000000 0.039216
0.321569 0.003922 0.039216
0.368627 0.003922 0.039216
0.415686 0.000000 0.047059
0.454902 0.000000 0.058824
0.498039 0.000000 0.054902
0.541176 0.003922 0.050980
0.584314 0.000000 0.047059
0.627451 0.000000 0.062745
0.682353 0.000000 0.066667
0.721569 0.000000 0.062745
0.772549 0.003922 0.066667
0.807843 0.007843 0.074510
0.850980 0.011765 0.082353
0.898039 0.027451 0.094118
0.941176 0.043137 0.101961
0.988235 0.054902 0.109804
1.000000 0.070588 0.117647
0.003922 0.023529 0.039216
0.011765 0.027451 0.039216
0.062745 0.031373 0.023529
0.113725 0.027451 0.035294
0.156863 0.023529 0.027451
0.188235 0.023529 0.031373
0.243137 0.027451 0.047059
0.286275 0.027451 0.035294
0.321569 0.023529 0.035294
0.364706 0.027451 0.039216
0.407843 0.031373 0.047059
0.454902 0.027451 0.047059
0.498039 0.031373 0.047059
0.545098 0.035294 0.050980
0.592157 0.035294 0.058824
0.631373 0.035294 0.054902
0.686275 0.039216 0.066667
0.729412 0.043137 0.070588
0.776471 0.050980 0.074510
0.819608 0.054902 0.078431
0.854902 0.062745 0.078431
0.901961 0.070588 0.090196
0.949020 0.078431 0.105882
0.980392 0.094118 0.117647
0.992157 0.105882 0.121569
0.003922 0.070588 0.039216
0.027451 0.074510 0.027451
0.066667 0.070588 0.039216
0.098039 0.070588 0.039216
0.149020 0.074510 0.047059
0.184314 0.070588 0.039216
0.243137 0.074510 0.043137
0.286275 0.078431 0.047059
0.329412 0.078431 0.043137
0.368627 0.078431 0.043137
0.411765 0.082353 0.050980
0.458824 0.078431 0.054902
0.501961 0.082353 0.058824
0.549020 0.082353 0.066667
0.592157 0.078431 0.062745
0.635294 0.082353 0.066667
0.686275 0.086275 0.066667
0.717647 0.086275 0.074510
0.772549 0.090196 0.086275
0.811765 0.105882 0.082353
0.854902 0.105882 0.094118
0.898039 0.109804 0.101961
0.945098 0.117647 0.113725
0.984314 0.117647 0.113725
1.000000 0.133333 0.129412
0.000000 0.105882 0.031373
0.011765 0.113725 0.015686
0.070588 0.117647 0.031373
0.105882 0.113725 0.023529
0.156863 0.113725 0.039216
0.188235 0.113725 0.050980
0.231373 0.117647 0.062745
0.282353 0.121569 0.054902
0.321569 0.121569 0.054902
0.368627 0.121569 0.054902
0.411765 0.125490 0.066667
0.454902 0.117647 0.066667
0.501961 0.117647 0.066667
0.549020 0.121569 0.062745
0.592157 0.125490 0.070588
0.639216 0.133333 0.082353
0.678431 0.133333 0.074510
0.729412 0.137255 0.074510
0.772549 0.137255 0.086275
0.819608 0.145098 0.098039
0.850980 0.149020 0.101961
0.901961 0.149020 0.105882
0.945098 0.152941 0.113725
0.980392 0.160784 0.113725
0.992157 0.168627 0.133333
0.003922 0.152941 0.050980
0.019608 0.156863 0.031373
0.070588 0.152941 0.031373
0.121569 0.156863 0.035294
0.160784 0.156863 0.035294
0.207843 0.152941 0.039216
0.239216 0.164706 0.047059
0.286275 0.160784 0.062745
0.321569 0.164706 0.066667
0.376471 0.160784 0.078431
0.407843 0.164706 0.066667
0.458824 0.168627 0.070588
0.494118 0.172549 0.078431
0.545098 0.176471 0.074510
0.592157 0.176471 0.082353
0.635294 0.172549 0.086275
0.686275 0.176471 0.086275
0.725490 0.188235 0.094118
0.776471 0.188235 0.101961
0.807843 0.192157 0.094118
0.858824 0.192157 0.109804
0.901961 0.192157 0.117647
0.937255 0.200000 0.121569
0.980392 0.203922 0.129412
1.000000 0.211765 0.141176
0.000000 0.196078 0.035294
0.011765 0.203922 0.027451
0.062745 0.200000 0.031373
0.117647 0.207843 0.035294
0.152941 0.196078 0.027451
0.200000 0.207843 0.023529
0.250980 0.200000 0.027451
0.290196 0.203922 0.043137
0.329412 0.200000 0.062745
0.364706 0.207843 0.078431
0.407843 0.207843 0.086275
0.450980 0.215686 0.082353
0.501961 0.215686 0.086275
0.549020 0.223529 0.090196
0.592157 0.223529 0.086275
0.635294 0.227451 0.098039
0.682353 0.227451 0.105882
0.721569 0.227451 0.101961
0.772549 0.227451 0.105882
0.819608 0.235294 0.109804
0.862745 0.239216 0.113725
0.905882 0.243137 0.129412
0.937255 0.243137 0.133333
0.980392 0.247059 0.141176
0.996078 0.254902 0.149020
0.000000 0.247059 0.031373
0.007843 0.247059 0.015686
0.054902 0.247059 0.031373
0.109804 0.247059 0.027451
0.149020 0.243137 0.015686
0.207843 0.250980 0.023529
0.247059 0.250980 0.023529
0.290196 0.247059 0.035294
0.325490 0.239216 0.043137
0.372549 0.247059 0.062745
0.415686 0.254902 0.086275
0.462745 0.258824 0.101961
0.501961 0.258824 0.105882
0.545098 0.262745 0.105882
0.596078 0.270588 0.113725
0.639216 0.270588 0.121569
0.682353 0.278431 0.121569
0.725490 0.274510 0.121569
0.768627 0.278431 0.129412
0.815686 0.274510 0.129412
0.862745 0.282353 0.133333
0.905882 0.286275 0.141176
0.945098 0.286275 0.152941
0.988235 0.290196 0.141176
1.000000 0.294118 0.156863
0.003922 0.290196 0.019608
0.000000 0.286275 0.015686
0.043137 0.290196 0.015686
0.113725 0.290196 0.027451
0.152941 0.282353 0.011765
0.203922 0.294118 0.027451
0.243137 0.294118 0.023529
0.286275 0.290196 0.023529
0.329412 0.290196 0.019608
0.372549 0.290196 0.035294
0.415686 0.290196 0.050980
0.458824 0.298039 0.086275
0.501961 0.305882 0.105882
0.549020 0.313725 0.125490
0.596078 0.313725 0.117647
0.635294 0.313725 0.129412
0.686275 0.317647 0.137255
0.729412 0.321569 0.137255
0.768627 0.321569 0.137255
0.811765 0.325490 0.145098
0.850980 0.325490 0.141176
0.894118 0.329412 0.145098
0.945098 0.333333 0.152941
0.976471 0.333333 0.156863
1.000000 0.337255 0.164706
0.003922 0.337255 0.011765
0.000000 0.333333 0.015686
0.027451 0.329412 0.015686
0.101961 0.333333 0.019608
0.152941 0.337255 0.015686
0.200000 0.329412 0.003922
0.243137 0.337255 0.007843
0.286275 0.341176 0.007843
0.325490 0.329412 0.015686
0.376471 0.333333 0.019608
0.415686 0.333333 0.015686
0.454902 0.341176 0.043137
0.501961 0.341176 0.090196
0.549020 0.352941 0.113725
0.592157 0.356863 0.129412
0.639216 0.360784 0.141176
0.682353 0.364706 0.149020
0.729412 0.368627 0.152941
0.768627 0.364706 0.156863
0.819608 0.368627 0.156863
0.862745 0.372549 0.160784
0.901961 0.372549 0.164706
0.941176 0.384314 0.172549
0.972549 0.392157 0.180392
0.996078 0.380392 0.180392
0.003922 0.384314 0.011765
0.000000 0.372549 0.000000
0.023529 0.380392 0.015686
0.082353 0.376471 0.003922
0.141176 0.380392 0.007843
0.188235 0.380392 0.011765
0.239216 0.380392 0.003922
0.282353 0.384314 0.003922
0.337255 0.380392 0.003922
0.376471 0.384314 0.003922
0.415686 0.376471 0.000000
0.458824 0.388235 0.003922
0.505882 0.380392 0.047059
0.549020 0.388235 0.078431
0.596078 0.388235 0.113725
0.635294 0.396078 0.141176
0.682353 0.403922 0.160784
0.725490 0.403922 0.168627
0.780392 0.411765 0.172549
0.823529 0.415686 0.176471
0.862745 0.415686 0.180392
0.898039 0.419608 0.188235
0.941176 0.423529 0.192157
0.980392 0.423529 0.196078
1.000000 0.427451 0.203922
0.000000 0.427451 0.007843
0.000000 0.419608 0.000000
0.007843 0.431373 0.000000
0.066667 0.427451 0.000000
0.141176 0.427451 0.003922
0.188235 0.431373 0.003922
0.239216 0.427451 0.000000
0.290196 0.431373 0.000000
0.325490 0.427451 0.000000
0.372549 0.423529 0.000000
