lut_library_archive/removed_20260629/50个风景lut/50个风景lut20.cube
# 版权归凌孟成所有，侵权必究
TITLE "Jungle LUT #20"
#LUT size
LUT_3D_SIZE 9
#LUT data points
0.058824 0.058824 0.058824
0.113725 0.066667 0.066667
0.211765 0.094118 0.094118
0.309804 0.117647 0.101961
0.411765 0.156863 0.141176
0.533333 0.200000 0.180392
0.674510 0.254902 0.223529
0.807843 0.309804 0.274510
0.933333 0.384314 0.345098
0.035294 0.133333 0.047059
0.133333 0.133333 0.039216
0.235294 0.137255 0.066667
0.325490 0.156863 0.094118
0.427451 0.184314 0.133333
0.545098 0.223529 0.176471
0.674510 0.278431 0.215686
0.803922 0.329412 0.266667
0.941176 0.396078 0.345098
0.047059 0.243137 0.043137
0.137255 0.231373 0.043137
0.239216 0.231373 0.031373
0.349020 0.243137 0.066667
0.454902 0.258824 0.113725
0.576471 0.290196 0.160784
0.698039 0.333333 0.211765
0.827451 0.376471 0.254902
0.952941 0.431373 0.341176
0.050980 0.345098 0.011765
0.137255 0.349020 0.003922
0.243137 0.352941 0.019608
0.364706 0.349020 0.007843
0.466667 0.356863 0.039216
0.592157 0.380392 0.098039
0.721569 0.407843 0.168627
0.854902 0.443137 0.235294
0.964706 0.486275 0.301961
0.031373 0.478431 0.003922
0.133333 0.478431 0.000000
0.243137 0.478431 0.000000
0.360784 0.478431 0.000000
0.482353 0.474510 0.000000
0.607843 0.486275 0.000000
0.745098 0.509804 0.078431
0.878431 0.541176 0.176471
0.988235 0.572549 0.278431
0.003922 0.619608 0.003922
0.105882 0.619608 0.007843
0.243137 0.623529 0.000000
0.372549 0.611765 0.003922
0.498039 0.615686 0.000000
0.619608 0.615686 0.011765
0.749020 0.619608 0.003922
0.874510 0.639216 0.011765
1.000000 0.670588 0.211765
0.000000 0.749020 0.000000
0.039216 0.745098 0.007843
0.219608 0.749020 0.003922
0.368627 0.749020 0.000000
0.490196 0.745098 0.000000
0.623529 0.745098 0.000000
0.752941 0.741176 0.000000
0.878431 0.741176 0.003922
0.996078 0.760784 0.000000
0.003922 0.882353 0.000000
0.007843 0.882353 0.007843
0.172549 0.886275 0.000000
0.349020 0.890196 0.007843
0.490196 0.882353 0.007843
0.623529 0.886275 0.000000
0.756863 0.882353 0.000000
0.894118 0.882353 0.000000
1.000000 0.878431 0.000000
0.011765 1.000000 0.023529
0.007843 0.996078 0.003922
0.047059 1.000000 0.000000
0.305882 1.000000 0.003922
0.482353 0.996078 0.000000
0.627451 1.000000 0.003922
0.784314 1.000000 0.003922
0.933333 1.000000 0.003922
1.000000 1.000000 0.000000
0.027451 0.058824 0.137255
0.149020 0.039216 0.137255
0.231373 0.070588 0.133333
0.305882 0.137255 0.164706
0.403922 0.184314 0.203922
0.521569 0.223529 0.223529
0.658824 0.270588 0.258824
0.796078 0.321569 0.317647
0.933333 0.388235 0.376471
0.054902 0.133333 0.129412
0.137255 0.137255 0.137255
0.219608 0.149020 0.141176
0.313725 0.176471 0.168627
0.419608 0.203922 0.188235
0.541176 0.239216 0.215686
0.666667 0.286275 0.258824
0.807843 0.337255 0.301961
0.933333 0.407843 0.372549
0.054902 0.239216 0.113725
0.133333 0.247059 0.129412
0.235294 0.231373 0.113725
0.341176 0.243137 0.133333
0.447059 0.266667 0.172549
0.556863 0.298039 0.196078
0.690196 0.333333 0.258824
0.815686 0.376471 0.290196
0.941176 0.439216 0.356863
0.027451 0.345098 0.105882
0.117647 0.349020 0.098039
0.235294 0.349020 0.090196
0.349020 0.341176 0.101961
0.470588 0.349020 0.125490
0.592157 0.388235 0.164706
0.721569 0.415686 0.223529
0.850980 0.454902 0.274510
0.960784 0.494118 0.345098
0.000000 0.478431 0.062745
0.113725 0.474510 0.070588
0.235294 0.474510 0.066667
0.360784 0.474510 0.050980
0.478431 0.478431 0.043137
0.600000 0.478431 0.062745
0.741176 0.509804 0.149020
0.878431 0.545098 0.223529
0.988235 0.568627 0.309804
0.000000 0.615686 0.000000
0.082353 0.611765 0.000000
0.231373 0.611765 0.000000
0.360784 0.611765 0.000000
0.490196 0.611765 0.000000
0.611765 0.611765 0.000000
0.749020 0.615686 0.000000
0.882353 0.639216 0.113725
1.000000 0.658824 0.247059
0.000000 0.749020 0.000000
0.000000 0.749020 0.000000
0.200000 0.745098 0.003922
0.352941 0.741176 0.000000
0.490196 0.745098 0.000000
0.623529 0.737255 0.000000
0.749020 0.749020 0.000000
0.886275 0.749020 0.003922
1.000000 0.756863 0.031373
0.000000 0.886275 0.000000
0.007843 0.886275 0.000000
0.168627 0.890196 0.000000
0.345098 0.878431 0.000000
0.482353 0.882353 0.000000
0.635294 0.878431 0.003922
0.756863 0.878431 0.000000
0.890196 0.874510 0.000000
0.992157 0.874510 0.003922
0.007843 0.996078 0.003922
0.007843 0.996078 0.003922
0.007843 1.000000 0.000000
0.298039 1.000000 0.000000
0.466667 1.000000 0.000000
0.623529 1.000000 0.000000
0.780392 1.000000 0.000000
0.937255 0.996078 0.003922
1.000000 1.000000 0.000000
0.031373 0.047059 0.231373
0.121569 0.047059 0.235294
0.235294 0.050980 0.231373
0.349020 0.043137 0.235294
0.443137 0.133333 0.247059
0.541176 0.219608 0.278431
0.654902 0.305882 0.333333
0.788235 0.352941 0.376471
0.929412 0.423529 0.439216
0.047059 0.133333 0.227451
0.129412 0.133333 0.243137
0.243137 0.125490 0.235294
0.341176 0.137255 0.227451
0.423529 0.203922 0.254902
0.529412 0.274510 0.305882
0.650980 0.313725 0.325490
0.796078 0.368627 0.392157
0.917647 0.443137 0.447059
0.039216 0.235294 0.231373
0.133333 0.235294 0.231373
0.235294 0.235294 0.235294
0.325490 0.254902 0.247059
0.435294 0.282353 0.270588
0.552941 0.317647 0.286275
0.674510 0.349020 0.325490
0.819608 0.400000 0.368627
0.933333 0.462745 0.431373
0.007843 0.349020 0.215686
0.098039 0.349020 0.215686
0.231373 0.349020 0.215686
0.356863 0.345098 0.207843
0.470588 0.356863 0.231373
0.584314 0.384314 0.262745
0.717647 0.423529 0.309804
0.839216 0.458824 0.352941
0.960784 0.513725 0.419608
0.000000 0.474510 0.188235
0.070588 0.474510 0.188235
0.227451 0.474510 0.196078
0.352941 0.478431 0.192157
0.482353 0.474510 0.184314
0.607843 0.478431 0.200000
0.741176 0.513725 0.262745
0.870588 0.549020 0.321569
0.976471 0.576471 0.396078
0.007843 0.607843 0.180392
0.011765 0.615686 0.168627
0.207843 0.619608 0.156863
0.352941 0.619608 0.152941
0.494118 0.615686 0.149020
0.619608 0.611765 0.145098
0.749020 0.611765 0.149020
0.886275 0.639216 0.243137
1.000000 0.670588 0.345098
0.000000 0.741176 0.098039
0.000000 0.745098 0.094118
0.172549 0.749020 0.098039
0.341176 0.745098 0.082353
0.490196 0.741176 0.058824
0.615686 0.745098 0.050980
0.760784 0.745098 0.019608
0.886275 0.749020 0.011765
1.000000 0.760784 0.211765
0.000000 0.886275 0.000000
0.000000 0.878431 0.000000
0.101961 0.878431 0.000000
0.325490 0.882353 0.000000
0.470588 0.882353 0.000000
0.615686 0.874510 0.000000
0.752941 0.878431 0.003922
0.890196 0.878431 0.000000
1.000000 0.874510 0.003922
0.000000 0.996078 0.000000
0.000000 0.996078 0.000000
0.000000 1.000000 0.011765
0.262745 0.996078 0.000000
0.447059 1.000000 0.003922
0.607843 1.000000 0.000000
0.776471 1.000000 0.000000
0.929412 1.000000 0.000000
1.000000 1.000000 0.000000
0.035294 0.043137 0.345098
0.141176 0.035294 0.337255
0.243137 0.047059 0.337255
0.345098 0.039216 0.345098
0.474510 0.003922 0.356863
0.592157 0.078431 0.352941
0.698039 0.207843 0.372549
0.807843 0.313725 0.419608
0.917647 0.458824 0.525490
0.047059 0.129412 0.345098
0.125490 0.125490 0.337255
0.239216 0.117647 0.341176
0.356863 0.117647 0.349020
0.474510 0.105882 0.349020
0.584314 0.164706 0.345098
0.686275 0.258824 0.372549
0.807843 0.356863 0.439216
0.901961 0.498039 0.533333
0.000000 0.235294 0.345098
0.113725 0.231373 0.341176
0.227451 0.235294 0.333333
0.356863 0.227451 0.341176
0.478431 0.231373 0.337255
0.568627 0.290196 0.352941
0.682353 0.364706 0.400000
0.796078 0.447059 0.474510
0.913725 0.501961 0.521569
0.007843 0.341176 0.349020
0.101961 0.341176 0.352941
0.223529 0.349020 0.337255
0.349020 0.352941 0.333333
0.450980 0.368627 0.356863
0.560784 0.400000 0.384314
0.701961 0.439216 0.415686
0.831373 0.482353 0.458824
0.937255 0.545098 0.521569
0.003922 0.482353 0.337255
0.000000 0.478431 0.325490
0.196078 0.478431 0.321569
0.341176 0.478431 0.313725
0.482353 0.474510 0.313725
0.615686 0.490196 0.341176
0.737255 0.521569 0.400000
0.854902 0.552941 0.435294
0.968627 0.600000 0.501961
0.000000 0.615686 0.290196
0.003922 0.615686 0.317647
0.160784 0.619608 0.309804
0.333333 0.619608 0.301961
0.482353 0.619608 0.298039
0.619608 0.607843 0.298039
0.760784 0.615686 0.309804
0.894118 0.647059 0.384314
0.996078 0.678431 0.458824
0.000000 0.749020 0.274510
0.003922 0.752941 0.266667
0.066667 0.749020 0.266667
0.301961 0.756863 0.266667
0.466667 0.749020 0.258824
0.611765 0.749020 0.254902
0.764706 0.745098 0.250980
0.890196 0.752941 0.258824
1.000000 0.764706 0.356863
0.003922 0.886275 0.219608
0.000000 0.882353 0.215686
0.003922 0.886275 0.219608
0.282353 0.882353 0.215686
0.458824 0.874510 0.207843
0.607843 0.874510 0.196078
0.756863 0.874510 0.184314
0.890196 0.882353 0.172549
0.996078 0.874510 0.133333
0.007843 1.000000 0.090196
0.003922 0.996078 0.090196
0.007843 1.000000 0.086275
0.192157 0.992157 0.070588
0.419608 1.000000 0.035294
0.600000 0.996078 0.000000
0.768627 0.992157 0.000000
0.921569 1.000000 0.000000
1.000000 1.000000 0.000000
0.050980 0.047059 0.454902
0.133333 0.043137 0.466667
0.239216 0.035294 0.466667
0.364706 0.019608 0.462745
0.470588 0.003922 0.458824
0.611765 0.000000 0.470588
0.745098 0.000000 0.470588
0.854902 0.152941 0.482353
0.952941 0.329412 0.521569
0.007843 0.125490 0.454902
0.129412 0.117647 0.466667
0.235294 0.117647 0.454902
0.360784 0.113725 0.470588
0.474510 0.094118 0.466667
0.603922 0.070588 0.462745
0.737255 0.043137 0.470588
0.843137 0.223529 0.486275
0.949020 0.368627 0.533333
0.000000 0.215686 0.466667
0.086275 0.219608 0.466667
0.235294 0.215686 0.466667
0.368627 0.215686 0.462745
0.478431 0.207843 0.462745
0.615686 0.200000 0.458824
0.737255 0.235294 0.466667
0.839216 0.337255 0.490196
0.937255 0.470588 0.564706
0.000000 0.349020 0.466667
0.047059 0.337255 0.466667
0.207843 0.345098 0.470588
0.352941 0.333333 0.458824
0.482353 0.325490 0.458824
0.611765 0.341176 0.454902
0.709804 0.407843 0.486275
0.819608 0.490196 0.549020
0.917647 0.600000 0.627451
0.003922 0.470588 0.454902
0.000000 0.478431 0.458824
0.184314 0.478431 0.458824
0.341176 0.466667 0.447059
0.470588 0.474510 0.454902
0.588235 0.494118 0.486275
0.713725 0.537255 0.517647
0.831373 0.576471 0.552941
0.941176 0.631373 0.611765
0.003922 0.623529 0.466667
0.000000 0.615686 0.447059
0.090196 0.615686 0.447059
0.305882 0.611765 0.447059
0.466667 0.611765 0.439216
0.619608 0.607843 0.431373
0.760784 0.631373 0.470588
0.882353 0.662745 0.541176
0.976471 0.705882 0.592157
0.007843 0.749020 0.427451
0.003922 0.749020 0.427451
0.000000 0.745098 0.423529
0.254902 0.745098 0.407843
0.443137 0.749020 0.403922
0.603922 0.745098 0.403922
0.760784 0.745098 0.396078
0.898039 0.749020 0.431373
1.000000 0.780392 0.529412
0.000000 0.890196 0.392157
0.000000 0.886275 0.384314
0.000000 0.890196 0.400000
0.192157 0.890196 0.388235
0.419608 0.886275 0.376471
0.592157 0.886275 0.380392
0.745098 0.874510 0.360784
0.890196 0.870588 0.360784
0.996078 0.878431 0.352941
0.000000 1.000000 0.333333
0.000000 0.996078 0.333333
0.000000 1.000000 0.325490
0.000000 1.000000 0.317647
0.372549 1.000000 0.317647
0.572549 1.000000 0.317647
0.760784 0.996078 0.305882
0.921569 1.000000 0.298039
1.000000 1.000000 0.274510
0.031373 0.035294 0.592157
0.133333 0.039216 0.588235
0.243137 0.015686 0.596078
0.384314 0.000000 0.592157
0.490196 0.000000 0.596078
0.607843 0.003922 0.592157
0.745098 0.000000 0.603922
0.870588 0.003922 0.592157
1.000000 0.000000 0.600000
0.000000 0.113725 0.600000
0.117647 0.117647 0.596078
0.227451 0.109804 0.596078
0.364706 0.086275 0.596078
0.482353 0.070588 0.584314
0.615686 0.019608 0.588235
0.741176 0.003922 0.596078
0.886275 0.000000 0.592157
1.000000 0.117647 0.607843
0.000000 0.219608 0.584314
0.058824 0.215686 0.588235
0.227451 0.207843 0.607843
0.352941 0.207843 0.584314
0.490196 0.196078 0.592157
0.619608 0.184314 0.592157
0.745098 0.164706 0.596078
0.882353 0.125490 0.584314
1.000000 0.286275 0.615686
0.000000 0.341176 0.592157
0.000000 0.337255 0.603922
0.180392 0.325490 0.600000
0.341176 0.329412 0.600000
0.482353 0.325490 0.600000
0.615686 0.313725 0.596078
0.764706 0.309804 0.596078
0.886275 0.341176 0.603922
0.992157 0.462745 0.631373
0.000000 0.474510 0.588235
0.000000 0.470588 0.607843
0.133333 0.474510 0.584314
0.305882 0.462745 0.600000
0.462745 0.454902 0.600000
0.615686 0.450980 0.596078
0.756863 0.462745 0.592157
0.847059 0.545098 0.623529
0.949020 0.627451 0.674510
0.000000 0.619608 0.603922
0.003922 0.607843 0.596078
0.023529 0.615686 0.588235
0.290196 0.611765 0.596078
0.447059 0.607843 0.584314
0.603922 0.603922 0.572549
0.737255 0.643137 0.635294
0.854902 0.682353 0.670588
0.960784 0.721569 0.701961
0.011765 0.749020 0.588235
0.003922 0.752941 0.588235
0.000000 0.749020 0.576471
0.215686 0.752941 0.572549
0.427451 0.752941 0.572549
0.600000 0.749020 0.564706
0.760784 0.745098 0.560784
0.901961 0.768627 0.619608
0.988235 0.796078 0.678431
0.000000 0.886275 0.564706
0.000000 0.890196 0.568627
0.003922 0.878431 0.552941
0.160784 0.882353 0.568627
0.384314 0.886275 0.545098
0.576471 0.882353 0.545098
0.741176 0.882353 0.541176
0.898039 0.882353 0.541176
1.000000 0.882353 0.568627
0.000000 0.992157 0.533333
0.000000 0.996078 0.537255
0.007843 1.000000 0.533333
0.003922 1.000000 0.513725
0.333333 1.000000 0.513725
0.560784 0.996078 0.521569
0.741176 1.000000 0.505882
0.921569 1.000000 0.509804
1.000000 1.000000 0.494118
0.007843 0.007843 0.721569
0.125490 0.000000 0.741176
0.254902 0.000000 0.733333
0.380392 0.003922 0.737255
0.498039 0.003922 0.737255
0.627451 0.000000 0.737255
0.752941 0.000000 0.741176
0.886275 0.000000 0.733333
0.996078 0.000000 0.729412
0.000000 0.101961 0.741176
0.101961 0.101961 0.729412
0.250980 0.090196 0.741176
0.368627 0.070588 0.737255
0.501961 0.015686 0.737255
0.623529 0.000000 0.737255
0.760784 0.000000 0.733333
0.886275 0.000000 0.737255
1.000000 0.000000 0.737255
0.000000 0.207843 0.741176
0.000000 0.203922 0.733333
0.211765 0.203922 0.741176
0.356863 0.196078 0.737255
0.478431 0.188235 0.733333
0.627451 0.164706 0.737255
0.760784 0.129412 0.737255
0.886275 0.086275 0.733333
0.992157 0.011765 0.717647
0.007843 0.325490 0.737255
0.000000 0.325490 0.741176
0.149020 0.313725 0.745098
0.325490 0.313725 0.733333
0.478431 0.313725 0.737255
0.627451 0.305882 0.741176
0.760784 0.290196 0.733333
0.901961 0.278431 0.749020
1.000000 0.270588 0.729412
0.000000 0.466667 0.741176
0.000000 0.462745 0.741176
0.003922 0.458824 0.737255
0.282353 0.454902 0.733333
0.450980 0.450980 0.741176
0.611765 0.439216 0.741176
0.764706 0.435294 0.737255
0.905882 0.431373 0.733333
0.996078 0.450980 0.721569
0.003922 0.607843 0.733333
0.011765 0.607843 0.733333
0.000000 0.607843 0.737255
0.250980 0.603922 0.737255
0.431373 0.600000 0.733333
0.600000 0.596078 0.729412
0.768627 0.588235 0.741176
0.890196 0.596078 0.725490
0.988235 0.678431 0.764706
0.003922 0.749020 0.733333
0.000000 0.752941 0.733333
0.003922 0.749020 0.741176
0.203922 0.756863 0.733333
0.431373 0.752941 0.737255
0.596078 0.749020 0.729412
0.752941 0.749020 0.733333
0.870588 0.788235 0.768627
0.976471 0.827451 0.815686
0.007843 0.886275 0.713725
0.007843 0.886275 0.721569
0.003922 0.882353 0.705882
0.129412 0.882353 0.717647
0.411765 0.886275 0.717647
0.584314 0.886275 0.721569
0.737255 0.882353 0.709804
0.894118 0.882353 0.705882
0.996078 0.894118 0.756863
0.003922 1.000000 0.694118
0.000000 1.000000 0.694118
0.003922 0.996078 0.701961
0.003922 1.000000 0.694118
0.380392 1.000000 0.701961
0.549020 0.996078 0.694118
0.733333 1.000000 0.690196
0.909804 1.000000 0.686275
0.996078 1.000000 0.678431
0.003922 0.003922 0.874510
0.117647 0.000000 0.870588
0.243137 0.000000 0.866667
0.376471 0.000000 0.866667
0.501961 0.000000 0.878431
0.623529 0.007843 0.874510
0.756863 0.000000 0.866667
0.898039 0.007843 0.878431
1.000000 0.000000 0.874510
0.000000 0.074510 0.862745
0.082353 0.078431 0.870588
0.231373 0.058824 0.870588
0.372549 0.015686 0.866667
0.498039 0.000000 0.874510
0.635294 0.003922 0.866667
0.760784 0.003922 0.878431
0.901961 0.000000 0.882353
0.988235 0.003922 0.870588
0.007843 0.196078 0.870588
0.000000 0.207843 0.874510
0.203922 0.188235 0.870588
0.360784 0.184314 0.882353
0.490196 0.164706 0.870588
0.619608 0.141176 0.874510
0.760784 0.109804 0.878431
0.898039 0.007843 0.866667
0.996078 0.003922 0.866667
0.007843 0.313725 0.870588
0.000000 0.317647 0.870588
0.117647 0.305882 0.870588
0.325490 0.317647 0.886275
0.474510 0.309804 0.890196
0.619608 0.290196 0.878431
0.760784 0.278431 0.874510
0.901961 0.250980 0.878431
1.000000 0.235294 0.870588
0.007843 0.454902 0.874510
0.007843 0.450980 0.890196
0.003922 0.447059 0.878431
0.254902 0.435294 0.878431
0.447059 0.431373 0.874510
0.600000 0.431373 0.882353
0.756863 0.423529 0.882353
0.901961 0.411765 0.882353
0.996078 0.411765 0.870588
0.000000 0.596078 0.862745
0.000000 0.596078 0.874510
0.000000 0.592157 0.870588
0.188235 0.588235 0.878431
0.415686 0.580392 0.878431
0.592157 0.584314 0.878431
0.749020 0.584314 0.882353
0.905882 0.576471 0.878431
0.992157 0.576471 0.866667
0.000000 0.745098 0.874510
0.000000 0.741176 0.874510
0.007843 0.733333 0.886275
0.149020 0.741176 0.886275
0.403922 0.741176 0.878431
0.584314 0.733333 0.874510
0.741176 0.737255 0.870588
0.894118 0.733333 0.858824
1.000000 0.745098 0.870588
0.003922 0.886275 0.862745
0.000000 0.894118 0.874510
0.003922 0.882353 0.870588
0.035294 0.882353 0.862745
0.384314 0.878431 0.866667
0.572549 0.886275 0.874510
0.737255 0.878431 0.862745
0.886275 0.882353 0.874510
0.992157 0.921569 0.913725
0.000000 1.000000 0.866667
0.000000 1.000000 0.850980
0.007843 1.000000 0.858824
0.000000 1.000000 0.850980
0.368627 1.000000 0.850980
0.572549 1.000000 0.866667
0.745098 1.000000 0.866667
0.901961 1.000000 0.874510
1.000000 1.000000 0.878431
0.003922 0.000000 0.996078
0.094118 0.003922 1.000000
0.235294 0.003922 0.992157
0.368627 0.003922 1.000000
0.501961 0.003922 0.996078
0.635294 0.000000 1.000000
0.764706 0.000000 0.996078
0.898039 0.003922 1.000000
1.000000 0.003922 1.000000
0.003922 0.047059 0.988235
0.039216 0.035294 0.992157
0.231373 0.015686 1.000000
0.372549 0.000000 1.000000
0.498039 0.000000 1.000000
0.631373 0.000000 0.996078
0.764706 0.000000 1.000000
0.901961 0.000000 0.992157
1.000000 0.000000 1.000000
0.007843 0.180392 1.000000
0.003922 0.184314 1.000000
0.180392 0.180392 0.996078
0.341176 0.168627 0.996078
0.490196 0.149020 1.000000
0.619608 0.117647 1.000000
0.756863 0.058824 0.992157
0.898039 0.003922 1.000000
1.000000 0.000000 0.988235
0.007843 0.321569 1.000000
0.003922 0.305882 1.000000
0.074510 0.305882 1.000000
0.305882 0.305882 0.996078
0.466667 0.294118 1.000000
0.611765 0.282353 1.000000
0.752941 0.262745 1.000000
0.890196 0.243137 1.000000
1.000000 0.207843 1.000000
0.000000 0.443137 1.000000
0.000000 0.431373 1.000000
0.007843 0.431373 1.000000
0.243137 0.427451 1.000000
0.427451 0.427451 1.000000
0.588235 0.423529 1.000000
0.745098 0.415686 0.996078
0.886275 0.403922 1.000000
1.000000 0.392157 1.000000
0.000000 0.580392 1.000000
0.000000 0.584314 0.996078
0.000000 0.580392 1.000000
0.125490 0.568627 1.000000
0.400000 0.568627 1.000000
0.576471 0.568627 1.000000
0.733333 0.568627 1.000000
0.878431 0.564706 1.000000
1.000000 0.556863 1.000000
0.011765 0.733333 1.000000
0.000000 0.725490 1.000000
0.003922 0.717647 0.996078
0.011765 0.729412 0.992157
0.376471 0.729412 0.996078
0.564706 0.721569 1.000000
0.733333 0.721569 1.000000
0.886275 0.717647 1.000000
1.000000 0.713725 1.000000
0.000000 0.878431 1.000000
0.000000 0.870588 1.000000
0.003922 0.870588 1.000000
0.003922 0.874510 0.996078
0.345098 0.870588 1.000000
0.552941 0.866667 0.996078
0.725490 0.866667 0.992157
0.874510 0.878431 1.000000
1.000000 0.886275 1.000000
0.000000 0.996078 0.996078
0.003922 1.000000 1.000000
0.000000 1.000000 0.988235
0.000000 1.000000 1.000000
0.341176 0.996078 0.996078
0.564706 1.000000 1.000000
0.749020 1.000000 1.000000
0.913725 0.996078 1.000000
1.000000 0.996078 1.000000
