lut_library_archive/removed_20260629/50个风景lut/50个风景lut50.cube
# 版权归凌孟成所有，侵权必究
TITLE "Jungle LUT #50"
#LUT size
LUT_3D_SIZE 5
#LUT data points
0.054902 0.054902 0.062745
0.223529 0.043137 0.054902
0.439216 0.070588 0.039216
0.705882 0.078431 0.039216
0.984314 0.078431 0.007843
0.000000 0.223529 0.105882
0.176471 0.231373 0.039216
0.439216 0.243137 0.047059
0.705882 0.250980 0.011765
0.976471 0.270588 0.007843
0.011765 0.423529 0.203922
0.007843 0.431373 0.137255
0.372549 0.466667 0.000000
0.717647 0.482353 0.003922
0.988235 0.498039 0.003922
0.003922 0.662745 0.317647
0.003922 0.666667 0.301961
0.003922 0.694118 0.003922
0.600000 0.725490 0.000000
1.000000 0.741176 0.007843
0.003922 1.000000 0.478431
0.000000 1.000000 0.474510
0.000000 0.996078 0.384314
0.003922 1.000000 0.007843
0.949020 1.000000 0.000000
0.039216 0.047059 0.196078
0.219608 0.054902 0.203922
0.450980 0.058824 0.207843
0.698039 0.011765 0.203922
0.976471 0.003922 0.207843
0.054902 0.231373 0.211765
0.231373 0.227451 0.211765
0.450980 0.239216 0.207843
0.701961 0.239216 0.203922
0.980392 0.239216 0.192157
0.000000 0.435294 0.266667
0.003922 0.435294 0.235294
0.396078 0.462745 0.149020
0.725490 0.474510 0.192157
0.984314 0.490196 0.168627
0.000000 0.674510 0.345098
0.003922 0.674510 0.337255
0.000000 0.690196 0.000000
0.607843 0.725490 0.007843
1.000000 0.737255 0.145098
0.011765 0.996078 0.513725
0.000000 0.996078 0.498039
0.000000 0.996078 0.447059
0.007843 0.996078 0.003922
0.956863 0.996078 0.031373
0.050980 0.047059 0.415686
0.231373 0.050980 0.407843
0.458824 0.039216 0.415686
0.701961 0.000000 0.431373
0.988235 0.003922 0.427451
0.000000 0.219608 0.435294
0.215686 0.215686 0.427451
0.450980 0.215686 0.419608
0.713725 0.200000 0.435294
0.992157 0.164706 0.443137
0.000000 0.466667 0.435294
0.196078 0.470588 0.427451
0.466667 0.466667 0.419608
0.733333 0.466667 0.431373
1.000000 0.462745 0.400000
0.000000 0.701961 0.505882
0.011765 0.701961 0.478431
0.003922 0.701961 0.403922
0.647059 0.733333 0.341176
0.992157 0.737255 0.407843
0.003922 1.000000 0.584314
0.000000 0.996078 0.572549
0.000000 0.996078 0.537255
0.007843 0.996078 0.003922
0.976471 0.996078 0.384314
0.039216 0.027451 0.682353
0.243137 0.011765 0.678431
0.470588 0.000000 0.686275
0.721569 0.000000 0.682353
0.996078 0.000000 0.701961
0.003922 0.207843 0.686275
0.211765 0.203922 0.686275
0.482353 0.200000 0.694118
0.729412 0.168627 0.694118
0.996078 0.141176 0.694118
0.003922 0.466667 0.694118
0.062745 0.458824 0.701961
0.447059 0.447059 0.698039
0.752941 0.443137 0.701961
1.000000 0.450980 0.698039
0.003922 0.745098 0.698039
0.003922 0.745098 0.698039
0.431373 0.745098 0.694118
0.737255 0.737255 0.705882
1.000000 0.733333 0.705882
0.003922 1.000000 0.784314
0.000000 1.000000 0.772549
0.000000 0.992157 0.760784
0.003922 0.988235 0.639216
0.992157 1.000000 0.678431
0.003922 0.000000 0.980392
0.243137 0.000000 0.976471
0.505882 0.000000 0.980392
0.768627 0.000000 0.980392
0.992157 0.003922 0.980392
0.007843 0.192157 0.984314
0.188235 0.180392 0.984314
0.490196 0.168627 0.984314
0.760784 0.109804 0.988235
1.000000 0.003922 0.976471
0.000000 0.435294 0.996078
0.000000 0.431373 0.992157
0.423529 0.427451 0.992157
0.745098 0.423529 0.988235
1.000000 0.419608 0.992157
0.000000 0.741176 0.996078
0.000000 0.733333 0.980392
0.360784 0.725490 0.980392
0.721569 0.725490 0.988235
0.996078 0.725490 0.988235
0.003922 1.000000 0.988235
0.000000 0.996078 0.996078
0.423529 1.000000 0.996078
0.768627 1.000000 0.992157
1.000000 1.000000 1.000000
