lut_library_archive/removed_20260629/50个风景lut/50个风景lut04.cube
# 版权归凌孟成所有，侵权必究
TITLE "Jungle LUT #4"
#LUT size
LUT_3D_SIZE 25
#LUT data points
0.000000 0.000000 0.000000
0.000000 0.000000 0.000000
0.050980 0.000000 0.000000
0.101961 0.000000 0.003922
0.137255 0.003922 0.000000
0.196078 0.000000 0.003922
0.235294 0.000000 0.000000
0.274510 0.000000 0.000000
0.321569 0.003922 0.000000
0.360784 0.000000 0.003922
0.415686 0.003922 0.000000
0.462745 0.000000 0.000000
0.509804 0.000000 0.000000
0.556863 0.003922 0.000000
0.611765 0.000000 0.003922
0.654902 0.000000 0.000000
0.694118 0.000000 0.000000
0.749020 0.000000 0.000000
0.800000 0.000000 0.003922
0.847059 0.003922 0.003922
0.898039 0.000000 0.000000
0.949020 0.003922 0.000000
0.996078 0.000000 0.007843
0.996078 0.000000 0.000000
0.996078 0.003922 0.000000
0.007843 0.011765 0.000000
0.011765 0.015686 0.000000
0.054902 0.015686 0.007843
0.101961 0.011765 0.000000
0.141176 0.007843 0.003922
0.188235 0.011765 0.000000
0.239216 0.007843 0.000000
0.274510 0.007843 0.003922
0.317647 0.003922 0.007843
0.368627 0.000000 0.000000
0.415686 0.003922 0.000000
0.462745 0.000000 0.003922
0.505882 0.000000 0.003922
0.564706 0.000000 0.000000
0.607843 0.000000 0.007843
0.650980 0.003922 0.000000
0.698039 0.003922 0.003922
0.752941 0.003922 0.003922
0.800000 0.003922 0.000000
0.850980 0.000000 0.003922
0.901961 0.000000 0.007843
0.945098 0.000000 0.000000
0.996078 0.000000 0.007843
0.996078 0.000000 0.000000
0.996078 0.000000 0.000000
0.000000 0.058824 0.007843
0.011765 0.062745 0.000000
0.062745 0.054902 0.003922
0.105882 0.058824 0.003922
0.133333 0.058824 0.000000
0.180392 0.054902 0.000000
0.235294 0.054902 0.000000
0.278431 0.054902 0.000000
0.317647 0.054902 0.000000
0.368627 0.047059 0.000000
0.411765 0.050980 0.007843
0.462745 0.039216 0.000000
0.513725 0.035294 0.000000
0.552941 0.019608 0.000000
0.607843 0.003922 0.003922
0.654902 0.007843 0.003922
0.698039 0.003922 0.003922
0.745098 0.003922 0.000000
0.800000 0.000000 0.003922
0.847059 0.003922 0.000000
0.901961 0.003922 0.000000
0.949020 0.003922 0.000000
0.988235 0.003922 0.000000
0.988235 0.003922 0.000000
0.996078 0.003922 0.000000
0.007843 0.101961 0.015686
0.019608 0.098039 0.000000
0.050980 0.101961 0.000000
0.101961 0.101961 0.007843
0.152941 0.094118 0.003922
0.188235 0.105882 0.000000
0.235294 0.101961 0.000000
0.278431 0.098039 0.000000
0.317647 0.098039 0.000000
0.372549 0.098039 0.000000
0.423529 0.094118 0.000000
0.466667 0.090196 0.000000
0.501961 0.094118 0.000000
0.556863 0.086275 0.000000
0.603922 0.086275 0.000000
0.654902 0.082353 0.000000
0.694118 0.074510 0.000000
0.745098 0.070588 0.000000
0.796078 0.062745 0.003922
0.850980 0.062745 0.003922
0.886275 0.050980 0.000000
0.941176 0.043137 0.000000
0.996078 0.031373 0.003922
1.000000 0.027451 0.000000
1.000000 0.027451 0.000000
0.000000 0.141176 0.003922
0.023529 0.137255 0.011765
0.062745 0.141176 0.000000
0.101961 0.141176 0.000000
0.141176 0.141176 0.000000
0.196078 0.141176 0.000000
0.235294 0.141176 0.000000
0.274510 0.149020 0.000000
0.321569 0.152941 0.000000
0.364706 0.149020 0.000000
0.415686 0.149020 0.003922
0.466667 0.145098 0.000000
0.513725 0.145098 0.003922
0.556863 0.145098 0.000000
0.603922 0.141176 0.000000
0.654902 0.141176 0.000000
0.698039 0.133333 0.000000
0.745098 0.133333 0.003922
0.800000 0.133333 0.000000
0.843137 0.129412 0.003922
0.894118 0.125490 0.000000
0.945098 0.125490 0.003922
0.984314 0.121569 0.000000
1.000000 0.117647 0.000000
1.000000 0.117647 0.000000
0.000000 0.184314 0.003922
0.019608 0.188235 0.007843
0.066667 0.192157 0.007843
0.113725 0.188235 0.000000
0.156863 0.188235 0.000000
0.188235 0.188235 0.000000
0.239216 0.192157 0.003922
0.286275 0.192157 0.003922
0.333333 0.192157 0.003922
0.376471 0.188235 0.000000
0.427451 0.192157 0.003922
0.474510 0.192157 0.000000
0.517647 0.188235 0.003922
0.568627 0.192157 0.003922
0.615686 0.196078 0.000000
0.666667 0.196078 0.000000
0.705882 0.188235 0.000000
0.760784 0.188235 0.003922
0.803922 0.192157 0.000000
0.850980 0.188235 0.000000
0.901961 0.188235 0.000000
0.949020 0.192157 0.000000
0.996078 0.188235 0.003922
0.996078 0.188235 0.000000
1.000000 0.192157 0.007843
0.000000 0.235294 0.003922
0.019608 0.235294 0.007843
0.066667 0.239216 0.000000
0.113725 0.231373 0.000000
0.156863 0.231373 0.003922
0.196078 0.235294 0.000000
0.235294 0.235294 0.000000
0.282353 0.239216 0.000000
0.329412 0.235294 0.000000
0.376471 0.235294 0.000000
0.427451 0.239216 0.000000
0.474510 0.239216 0.003922
0.513725 0.239216 0.003922
0.560784 0.243137 0.000000
0.611765 0.243137 0.000000
0.670588 0.239216 0.000000
0.709804 0.239216 0.000000
0.764706 0.239216 0.000000
0.811765 0.239216 0.000000
0.858824 0.243137 0.003922
0.905882 0.239216 0.000000
0.952941 0.243137 0.003922
1.000000 0.239216 0.000000
1.000000 0.239216 0.000000
1.000000 0.239216 0.000000
0.000000 0.274510 0.000000
0.000000 0.282353 0.000000
0.066667 0.274510 0.000000
0.117647 0.278431 0.003922
0.160784 0.282353 0.007843
0.200000 0.278431 0.000000
0.243137 0.282353 0.003922
0.290196 0.278431 0.007843
0.333333 0.286275 0.003922
0.384314 0.278431 0.000000
0.419608 0.286275 0.003922
0.474510 0.286275 0.003922
0.517647 0.290196 0.003922
0.568627 0.286275 0.003922
0.611765 0.290196 0.000000
0.658824 0.294118 0.000000
0.709804 0.294118 0.000000
0.752941 0.290196 0.000000
0.807843 0.290196 0.000000
0.854902 0.294118 0.003922
0.901961 0.294118 0.000000
0.952941 0.294118 0.007843
1.000000 0.286275 0.011765
0.996078 0.294118 0.003922
0.992157 0.290196 0.000000
0.011765 0.321569 0.003922
0.003922 0.325490 0.000000
0.043137 0.325490 0.000000
0.101961 0.329412 0.000000
0.149020 0.325490 0.000000
0.200000 0.325490 0.000000
0.243137 0.329412 0.000000
0.294118 0.329412 0.003922
0.325490 0.333333 0.003922
0.372549 0.333333 0.000000
0.427451 0.329412 0.000000
0.478431 0.329412 0.003922
0.529412 0.329412 0.003922
0.568627 0.333333 0.000000
0.615686 0.333333 0.003922
0.666667 0.337255 0.000000
0.713725 0.337255 0.000000
0.756863 0.337255 0.000000
0.800000 0.341176 0.000000
0.850980 0.341176 0.003922
0.894118 0.341176 0.000000
0.949020 0.337255 0.003922
0.992157 0.337255 0.000000
0.992157 0.341176 0.011765
1.000000 0.333333 0.003922
0.000000 0.372549 0.000000
0.000000 0.376471 0.000000
0.019608 0.376471 0.000000
0.082353 0.380392 0.000000
0.152941 0.376471 0.000000
0.200000 0.380392 0.000000
0.239216 0.380392 0.000000
0.298039 0.380392 0.007843
0.349020 0.376471 0.003922
0.384314 0.372549 0.000000
0.427451 0.376471 0.000000
0.478431 0.376471 0.000000
0.529412 0.380392 0.000000
0.572549 0.384314 0.000000
0.615686 0.380392 0.000000
0.666667 0.384314 0.000000
0.709804 0.380392 0.000000
0.752941 0.384314 0.000000
0.800000 0.388235 0.000000
0.850980 0.388235 0.003922
0.901961 0.388235 0.000000
0.949020 0.388235 0.000000
0.996078 0.388235 0.000000
1.000000 0.384314 0.000000
0.996078 0.388235 0.003922
0.003922 0.431373 0.003922
0.000000 0.435294 0.003922
0.000000 0.431373 0.000000
0.074510 0.435294 0.000000
0.141176 0.431373 0.000000
0.196078 0.427451 0.000000
0.243137 0.431373 0.000000
0.309804 0.435294 0.000000
0.341176 0.435294 0.003922
0.388235 0.435294 0.003922
0.439216 0.431373 0.000000
0.482353 0.435294 0.003922
0.525490 0.431373 0.000000
0.576471 0.435294 0.003922
0.619608 0.435294 0.000000
0.670588 0.435294 0.003922
0.717647 0.435294 0.000000
0.772549 0.435294 0.000000
0.811765 0.435294 0.000000
0.858824 0.439216 0.000000
0.905882 0.439216 0.000000
0.952941 0.435294 0.000000
0.996078 0.443137 0.000000
1.000000 0.439216 0.000000
1.000000 0.439216 0.000000
0.003922 0.478431 0.003922
0.007843 0.474510 0.003922
0.003922 0.470588 0.000000
0.066667 0.482353 0.000000
0.141176 0.478431 0.000000
0.203922 0.486275 0.000000
0.243137 0.478431 0.000000
0.298039 0.474510 0.000000
0.345098 0.478431 0.000000
0.396078 0.478431 0.003922
0.443137 0.482353 0.003922
0.490196 0.482353 0.007843
0.525490 0.478431 0.000000
0.576471 0.482353 0.000000
0.623529 0.482353 0.003922
0.670588 0.482353 0.003922
0.717647 0.482353 0.003922
0.764706 0.486275 0.000000
0.811765 0.482353 0.000000
0.858824 0.482353 0.003922
0.901961 0.486275 0.007843
0.945098 0.486275 0.000000
0.996078 0.490196 0.000000
1.000000 0.482353 0.000000
0.988235 0.490196 0.000000
0.000000 0.529412 0.003922
0.000000 0.529412 0.003922
0.000000 0.529412 0.000000
0.058824 0.517647 0.000000
0.129412 0.525490 0.007843
0.192157 0.529412 0.007843
0.231373 0.529412 0.000000
0.286275 0.529412 0.000000
0.341176 0.529412 0.000000
0.392157 0.525490 0.000000
0.439216 0.525490 0.000000
0.482353 0.521569 0.000000
0.533333 0.525490 0.000000
0.580392 0.525490 0.003922
0.627451 0.521569 0.000000
0.670588 0.525490 0.003922
0.717647 0.529412 0.003922
0.764706 0.529412 0.003922
0.811765 0.529412 0.003922
0.858824 0.529412 0.003922
0.905882 0.529412 0.000000
0.952941 0.529412 0.003922
1.000000 0.529412 0.000000
0.996078 0.537255 0.000000
1.000000 0.541176 0.000000
0.000000 0.576471 0.000000
0.000000 0.576471 0.000000
0.003922 0.564706 0.007843
0.027451 0.572549 0.003922
0.129412 0.572549 0.007843
0.188235 0.576471 0.007843
0.243137 0.576471 0.000000
0.298039 0.568627 0.000000
0.337255 0.568627 0.000000
0.392157 0.580392 0.000000
0.439216 0.580392 0.000000
0.486275 0.572549 0.003922
0.533333 0.572549 0.000000
0.576471 0.576471 0.000000
0.619608 0.572549 0.000000
0.670588 0.576471 0.000000
0.717647 0.576471 0.000000
0.764706 0.576471 0.003922
0.811765 0.576471 0.003922
0.858824 0.576471 0.000000
0.905882 0.576471 0.003922
0.941176 0.580392 0.003922
0.996078 0.580392 0.007843
0.996078 0.576471 0.000000
0.992157 0.584314 0.007843
0.003922 0.611765 0.000000
0.000000 0.623529 0.003922
0.000000 0.623529 0.003922
0.023529 0.623529 0.003922
0.113725 0.623529 0.000000
0.176471 0.623529 0.000000
0.239216 0.619608 0.000000
0.286275 0.623529 0.000000
0.345098 0.619608 0.000000
0.384314 0.619608 0.000000
0.439216 0.623529 0.003922
0.486275 0.627451 0.000000
0.525490 0.619608 0.000000
0.576471 0.619608 0.000000
0.619608 0.619608 0.000000
0.670588 0.619608 0.000000
0.721569 0.619608 0.003922
0.764706 0.623529 0.003922
0.811765 0.615686 0.000000
0.854902 0.619608 0.000000
0.909804 0.619608 0.003922
0.956863 0.627451 0.007843
0.992157 0.623529 0.003922
1.000000 0.623529 0.007843
1.000000 0.619608 0.003922
0.000000 0.682353 0.000000
0.000000 0.678431 0.003922
0.003922 0.678431 0.000000
0.019608 0.678431 0.000000
0.101961 0.682353 0.007843
0.176471 0.678431 0.007843
0.250980 0.682353 0.000000
0.294118 0.686275 0.000000
0.349020 0.678431 0.000000
0.396078 0.678431 0.003922
0.443137 0.678431 0.000000
0.490196 0.678431 0.000000
0.537255 0.682353 0.000000
0.584314 0.678431 0.000000
0.631373 0.682353 0.000000
0.678431 0.678431 0.000000
0.725490 0.678431 0.003922
0.768627 0.674510 0.000000
0.815686 0.674510 0.000000
0.862745 0.674510 0.000000
0.909804 0.674510 0.000000
0.956863 0.674510 0.000000
0.996078 0.674510 0.000000
1.000000 0.674510 0.000000
1.000000 0.670588 0.003922
0.011765 0.721569 0.000000
0.000000 0.717647 0.000000
0.000000 0.721569 0.000000
0.000000 0.725490 0.003922
0.105882 0.721569 0.011765
0.176471 0.721569 0.011765
0.227451 0.733333 0.000000
0.290196 0.729412 0.000000
0.337255 0.729412 0.007843
0.392157 0.729412 0.003922
0.447059 0.725490 0.003922
0.490196 0.725490 0.003922
0.533333 0.721569 0.000000
0.588235 0.721569 0.000000
0.627451 0.721569 0.000000
0.678431 0.725490 0.000000
0.721569 0.721569 0.000000
0.768627 0.721569 0.000000
0.815686 0.721569 0.000000
0.862745 0.721569 0.000000
0.909804 0.721569 0.000000
0.956863 0.721569 0.000000
1.000000 0.717647 0.000000
1.000000 0.717647 0.003922
1.000000 0.717647 0.000000
0.000000 0.768627 0.000000
0.000000 0.768627 0.000000
0.000000 0.768627 0.007843
0.000000 0.780392 0.000000
0.078431 0.768627 0.000000
0.168627 0.768627 0.000000
0.223529 0.772549 0.000000
0.278431 0.772549 0.000000
0.333333 0.772549 0.000000
0.392157 0.768627 0.000000
0.431373 0.768627 0.000000
0.486275 0.768627 0.000000
0.533333 0.772549 0.000000
0.584314 0.772549 0.000000
0.627451 0.768627 0.000000
0.678431 0.768627 0.000000
0.725490 0.772549 0.003922
0.768627 0.772549 0.000000
0.819608 0.772549 0.003922
0.862745 0.768627 0.000000
0.909804 0.768627 0.000000
0.956863 0.768627 0.000000
1.000000 0.764706 0.003922
0.996078 0.760784 0.000000
0.996078 0.768627 0.000000
0.003922 0.819608 0.003922
0.003922 0.819608 0.003922
0.000000 0.823529 0.003922
0.000000 0.815686 0.000000
0.066667 0.815686 0.000000
0.152941 0.815686 0.000000
0.219608 0.823529 0.000000
0.286275 0.815686 0.000000
0.333333 0.819608 0.003922
0.384314 0.823529 0.000000
0.431373 0.823529 0.000000
0.482353 0.815686 0.000000
0.529412 0.811765 0.000000
0.576471 0.819608 0.000000
0.623529 0.815686 0.007843
0.678431 0.815686 0.000000
0.721569 0.815686 0.000000
0.768627 0.815686 0.000000
0.815686 0.815686 0.000000
0.870588 0.815686 0.000000
0.913725 0.811765 0.000000
0.964706 0.807843 0.000000
0.996078 0.807843 0.000000
1.000000 0.807843 0.003922
1.000000 0.811765 0.000000
0.000000 0.862745 0.000000
0.000000 0.866667 0.000000
0.000000 0.858824 0.003922
0.011765 0.862745 0.003922
0.043137 0.866667 0.000000
0.149020 0.862745 0.011765
0.227451 0.866667 0.007843
0.266667 0.870588 0.000000
0.321569 0.870588 0.000000
0.380392 0.866667 0.000000
0.435294 0.866667 0.007843
0.482353 0.862745 0.003922
0.529412 0.866667 0.000000
0.572549 0.862745 0.000000
0.619608 0.862745 0.000000
0.674510 0.858824 0.000000
0.717647 0.858824 0.000000
0.764706 0.858824 0.000000
0.819608 0.858824 0.000000
0.862745 0.862745 0.000000
0.901961 0.862745 0.000000
0.952941 0.858824 0.000000
1.000000 0.858824 0.003922
1.000000 0.850980 0.000000
1.000000 0.858824 0.003922
0.000000 0.913725 0.000000
0.000000 0.913725 0.007843
0.003922 0.909804 0.007843
0.007843 0.917647 0.000000
0.035294 0.917647 0.000000
0.145098 0.917647 0.007843
0.211765 0.913725 0.000000
0.274510 0.921569 0.003922
0.333333 0.909804 0.003922
0.380392 0.913725 0.003922
0.431373 0.909804 0.000000
0.482353 0.909804 0.000000
0.529412 0.913725 0.000000
0.576471 0.913725 0.000000
0.627451 0.909804 0.000000
0.666667 0.909804 0.000000
0.717647 0.909804 0.000000
0.768627 0.909804 0.000000
0.815686 0.909804 0.000000
0.862745 0.909804 0.000000
0.909804 0.905882 0.000000
0.956863 0.909804 0.000000
1.000000 0.905882 0.003922
1.000000 0.905882 0.003922
1.000000 0.905882 0.000000
0.000000 0.952941 0.000000
0.011765 0.956863 0.000000
0.000000 0.952941 0.003922
0.000000 0.960784 0.000000
0.000000 0.960784 0.000000
0.121569 0.956863 0.000000
0.207843 0.949020 0.000000
0.270588 0.964706 0.000000
0.317647 0.960784 0.000000
0.372549 0.956863 0.000000
0.427451 0.956863 0.000000
0.474510 0.960784 0.003922
0.529412 0.956863 0.003922
0.576471 0.960784 0.000000
0.623529 0.956863 0.003922
0.674510 0.952941 0.000000
0.721569 0.952941 0.003922
0.764706 0.952941 0.000000
0.815686 0.952941 0.000000
0.858824 0.952941 0.003922
0.905882 0.949020 0.000000
0.956863 0.949020 0.000000
1.000000 0.952941 0.000000
0.996078 0.956863 0.000000
0.992157 0.952941 0.000000
0.011765 0.996078 0.000000
0.007843 1.000000 0.000000
0.007843 0.996078 0.011765
0.007843 0.996078 0.011765
0.011765 1.000000 0.000000
0.105882 0.996078 0.000000
0.200000 0.996078 0.000000
0.258824 0.996078 0.003922
0.313725 1.000000 0.000000
0.368627 1.000000 0.003922
0.415686 1.000000 0.003922
0.478431 0.996078 0.007843
0.525490 1.000000 0.007843
0.580392 1.000000 0.007843
0.623529 0.996078 0.000000
0.662745 0.996078 0.003922
0.717647 0.996078 0.000000
0.760784 0.996078 0.000000
0.811765 0.996078 0.000000
0.858824 0.996078 0.000000
0.909804 1.000000 0.003922
0.952941 0.996078 0.000000
0.992157 0.988235 0.003922
1.000000 0.992157 0.007843
1.000000 0.988235 0.011765
0.000000 1.000000 0.000000
0.000000 1.000000 0.000000
0.003922 0.992157 0.000000
0.000000 1.000000 0.003922
0.003922 0.996078 0.000000
0.101961 1.000000 0.000000
0.172549 1.000000 0.000000
0.250980 1.000000 0.003922
0.309804 0.996078 0.003922
0.372549 0.996078 0.003922
0.419608 0.996078 0.000000
0.474510 0.992157 0.003922
0.521569 0.996078 0.003922
0.568627 1.000000 0.000000
0.619608 1.000000 0.000000
0.662745 0.996078 0.000000
0.713725 1.000000 0.000000
0.756863 0.996078 0.003922
0.800000 1.000000 0.007843
0.847059 1.000000 0.000000
0.890196 0.996078 0.003922
0.933333 1.000000 0.000000
0.968627 1.000000 0.000000
0.996078 1.000000 0.003922
1.000000 0.992157 0.015686
0.000000 1.000000 0.000000
0.000000 0.996078 0.007843
0.000000 1.000000 0.003922
0.000000 1.000000 0.000000
0.007843 1.000000 0.000000
0.109804 1.000000 0.000000
0.203922 0.996078 0.007843
0.250980 1.000000 0.003922
0.305882 1.000000 0.000000
0.368627 1.000000 0.003922
0.419608 0.992157 0.007843
0.462745 1.000000 0.007843
0.505882 0.996078 0.000000
0.552941 0.996078 0.000000
0.600000 0.996078 0.000000
0.643137 1.000000 0.000000
0.682353 1.000000 0.007843
0.725490 0.996078 0.003922
0.764706 1.000000 0.003922
0.815686 1.000000 0.003922
0.854902 1.000000 0.000000
0.901961 1.000000 0.000000
0.937255 1.000000 0.000000
0.972549 1.000000 0.003922
0.984314 0.996078 0.000000
0.000000 0.000000 0.000000
0.000000 0.007843 0.003922
0.074510 0.000000 0.015686
0.098039 0.003922 0.011765
0.141176 0.007843 0.011765
0.184314 0.003922 0.011765
0.231373 0.000000 0.007843
0.274510 0.000000 0.003922
0.317647 0.003922 0.007843
0.360784 0.000000 0.003922
0.407843 0.000000 0.000000
0.454902 0.003922 0.000000
0.509804 0.000000 0.000000
0.556863 0.003922 0.000000
0.603922 0.000000 0.000000
0.650980 0.003922 0.000000
0.705882 0.003922 0.000000
0.752941 0.003922 0.000000
0.800000 0.003922 0.000000
0.850980 0.000000 0.000000
0.901961 0.003922 0.000000
0.945098 0.000000 0.000000
0.996078 0.000000 0.000000
0.996078 0.000000 0.000000
0.996078 0.000000 0.007843
0.011765 0.011765 0.003922
0.011765 0.003922 0.015686
0.062745 0.015686 0.015686
0.098039 0.015686 0.011765
0.145098 0.011765 0.007843
0.188235 0.007843 0.007843
0.227451 0.019608 0.000000
0.278431 0.003922 0.003922
0.317647 0.000000 0.000000
0.368627 0.000000 0.000000
0.415686 0.003922 0.000000
0.466667 0.000000 0.000000
0.513725 0.000000 0.000000
0.564706 0.000000 0.000000
0.607843 0.000000 0.000000
0.654902 0.000000 0.000000
0.705882 0.003922 0.000000
0.752941 0.003922 0.000000
0.800000 0.003922 0.000000
0.850980 0.000000 0.000000
0.898039 0.000000 0.000000
0.945098 0.000000 0.000000
0.996078 0.000000 0.000000
0.996078 0.000000 0.007843
1.000000 0.003922 0.011765
0.003922 0.054902 0.015686
0.007843 0.062745 0.003922
0.062745 0.054902 0.007843
0.098039 0.058824 0.019608
0.145098 0.050980 0.011765
0.192157 0.058824 0.011765
0.227451 0.054902 0.003922
0.278431 0.058824 0.007843
0.321569 0.054902 0.003922
0.368627 0.047059 0.000000
0.411765 0.043137 0.003922
0.462745 0.031373 0.000000
0.509804 0.031373 0.000000
0.552941 0.019608 0.000000
0.607843 0.003922 0.003922
0.650980 0.003922 0.000000
0.698039 0.003922 0.003922
0.745098 0.000000 0.000000
0.800000 0.000000 0.003922
0.847059 0.003922 0.003922
0.894118 0.003922 0.000000
0.945098 0.003922 0.007843
0.996078 0.003922 0.000000
0.980392 0.015686 0.003922
0.996078 0.000000 0.000000
0.003922 0.101961 0.019608
0.023529 0.094118 0.000000
0.070588 0.109804 0.015686
0.113725 0.094118 0.007843
0.145098 0.105882 0.000000
0.184314 0.105882 0.011765
0.235294 0.101961 0.003922
0.278431 0.098039 0.003922
0.317647 0.098039 0.000000
0.364706 0.101961 0.000000
0.415686 0.094118 0.000000
0.466667 0.090196 0.000000
0.509804 0.090196 0.000000
0.560784 0.082353 0.000000
0.603922 0.078431 0.000000
0.654902 0.074510 0.000000
0.705882 0.066667 0.000000
0.752941 0.058824 0.000000
0.792157 0.050980 0.003922
0.847059 0.050980 0.003922
0.898039 0.043137 0.003922
0.941176 0.031373 0.000000
0.988235 0.023529 0.011765
0.996078 0.023529 0.000000
0.996078 0.003922 0.000000
0.003922 0.145098 0.003922
0.023529 0.141176 0.007843
0.066667 0.145098 0.000000
0.101961 0.141176 0.007843
0.149020 0.137255 0.000000
0.196078 0.141176 0.000000
0.239216 0.145098 0.003922
0.274510 0.149020 0.000000
0.317647 0.149020 0.000000
0.360784 0.149020 0.000000
0.411765 0.145098 0.000000
0.466667 0.145098 0.000000
0.513725 0.145098 0.003922
0.556863 0.145098 0.000000
0.607843 0.137255 0.000000
0.650980 0.137255 0.000000
0.698039 0.125490 0.000000
0.749020 0.125490 0.000000
0.800000 0.125490 0.000000
0.839216 0.125490 0.000000
0.898039 0.117647 0.000000
0.941176 0.117647 0.000000
0.988235 0.117647 0.000000
0.996078 0.109804 0.000000
0.996078 0.113725 0.003922
0.000000 0.188235 0.000000
0.011765 0.192157 0.000000
0.062745 0.188235 0.003922
0.117647 0.188235 0.000000
0.149020 0.188235 0.000000
0.200000 0.192157 0.000000
0.235294 0.188235 0.000000
0.286275 0.192157 0.003922
0.333333 0.192157 0.003922
0.376471 0.188235 0.000000
0.423529 0.188235 0.000000
0.470588 0.188235 0.000000
0.513725 0.184314 0.000000
0.564706 0.188235 0.000000
0.615686 0.184314 0.000000
0.662745 0.184314 0.000000
0.705882 0.180392 0.000000
0.756863 0.184314 0.000000
0.803922 0.184314 0.000000
0.847059 0.184314 0.000000
0.901961 0.180392 0.000000
0.952941 0.184314 0.000000
0.996078 0.180392 0.000000
0.996078 0.180392 0.000000
0.996078 0.180392 0.000000
0.000000 0.223529 0.000000
0.011765 0.239216 0.000000
0.062745 0.235294 0.003922
0.113725 0.235294 0.000000
0.152941 0.219608 0.003922
0.200000 0.231373 0.000000
0.239216 0.235294 0.011765
0.282353 0.235294 0.000000
0.329412 0.235294 0.000000
0.384314 0.231373 0.000000
0.427451 0.235294 0.003922
0.470588 0.235294 0.000000
0.517647 0.235294 0.003922
0.564706 0.235294 0.000000
0.611765 0.235294 0.000000
0.662745 0.239216 0.000000
0.709804 0.239216 0.003922
0.752941 0.239216 0.000000
0.803922 0.239216 0.000000
0.847059 0.235294 0.003922
0.894118 0.239216 0.003922
0.949020 0.239216 0.000000
0.996078 0.235294 0.000000
0.988235 0.239216 0.000000
1.000000 0.231373 0.000000
0.000000 0.278431 0.000000
0.003922 0.278431 0.000000
0.058824 0.278431 0.000000
0.113725 0.282353 0.003922
0.152941 0.282353 0.000000
0.200000 0.278431 0.000000
0.239216 0.278431 0.003922
0.290196 0.278431 0.007843
0.333333 0.286275 0.003922
0.384314 0.278431 0.000000
0.419608 0.286275 0.003922
0.474510 0.286275 0.003922
0.517647 0.286275 0.000000
0.568627 0.286275 0.003922
0.611765 0.290196 0.000000
0.654902 0.286275 0.003922
0.705882 0.290196 0.000000
0.749020 0.286275 0.000000
0.803922 0.286275 0.000000
0.850980 0.290196 0.000000
0.898039 0.290196 0.000000
0.941176 0.294118 0.003922
1.000000 0.286275 0.000000
1.000000 0.286275 0.000000
1.000000 0.290196 0.003922
0.007843 0.309804 0.000000
0.000000 0.333333 0.000000
0.035294 0.325490 0.000000
0.101961 0.329412 0.000000
0.152941 0.329412 0.007843
0.196078 0.325490 0.000000
0.243137 0.329412 0.000000
0.294118 0.333333 0.000000
0.333333 0.329412 0.003922
0.376471 0.329412 0.000000
0.427451 0.333333 0.000000
0.474510 0.333333 0.003922
0.517647 0.337255 0.000000
0.572549 0.337255 0.007843
0.611765 0.337255 0.003922
0.662745 0.333333 0.000000
0.705882 0.337255 0.000000
0.756863 0.337255 0.000000
0.796078 0.337255 0.000000
0.850980 0.333333 0.000000
0.898039 0.337255 0.000000
0.949020 0.337255 0.003922
1.000000 0.337255 0.000000
0.988235 0.341176 0.000000
1.000000 0.341176 0.000000
0.003922 0.372549 0.000000
0.000000 0.372549 0.000000
0.019608 0.376471 0.000000
0.090196 0.380392 0.000000
0.145098 0.380392 0.003922
0.196078 0.380392 0.000000
0.243137 0.376471 0.003922
0.290196 0.372549 0.000000
0.345098 0.372549 0.000000
0.388235 0.376471 0.003922
0.419608 0.380392 0.000000
0.470588 0.384314 0.000000
0.517647 0.376471 0.000000
0.568627 0.380392 0.003922
0.615686 0.380392 0.000000
0.666667 0.384314 0.000000
0.709804 0.380392 0.003922
0.756863 0.380392 0.007843
0.807843 0.384314 0.000000
0.850980 0.380392 0.003922
0.901961 0.388235 0.003922
0.945098 0.392157 0.007843
0.984314 0.392157 0.003922
1.000000 0.392157 0.007843
0.992157 0.384314 0.000000
0.011765 0.423529 0.011765
0.000000 0.431373 0.000000
0.003922 0.431373 0.000000
0.070588 0.439216 0.000000
0.149020 0.431373 0.007843
0.196078 0.427451 0.003922
0.243137 0.431373 0.000000
0.290196 0.431373 0.000000
0.337255 0.431373 0.000000
0.384314 0.431373 0.000000
