lut_library_archive/removed_20260629/50个风景lut/50个风景lut34.cube
# 版权归凌孟成所有，侵权必究
TITLE "Jungle LUT #34"
#LUT size
LUT_3D_SIZE 5
#LUT data points
0.000000 0.003922 0.000000
0.278431 0.011765 0.011765
0.525490 0.094118 0.058824
0.768627 0.223529 0.172549
0.996078 0.349020 0.305882
0.047059 0.282353 0.007843
0.301961 0.278431 0.000000
0.513725 0.301961 0.129412
0.784314 0.364706 0.200000
1.000000 0.439216 0.337255
0.074510 0.556863 0.000000
0.286275 0.549020 0.000000
0.545098 0.549020 0.000000
0.792157 0.556863 0.172549
1.000000 0.627451 0.419608
0.003922 0.807843 0.000000
0.266667 0.803922 0.000000
0.525490 0.807843 0.000000
0.788235 0.800000 0.003922
0.996078 0.800000 0.227451
0.000000 0.996078 0.000000
0.243137 1.000000 0.000000
0.517647 1.000000 0.000000
0.803922 1.000000 0.000000
1.000000 1.000000 0.007843
0.039216 0.011765 0.223529
0.298039 0.003922 0.223529
0.541176 0.105882 0.235294
0.772549 0.258824 0.298039
0.996078 0.364706 0.388235
0.066667 0.278431 0.223529
0.305882 0.278431 0.207843
0.521569 0.317647 0.266667
0.764706 0.376471 0.317647
0.996078 0.447059 0.411765
0.090196 0.549020 0.180392
0.278431 0.552941 0.176471
0.545098 0.549020 0.180392
0.784314 0.568627 0.317647
0.996078 0.635294 0.490196
0.003922 0.800000 0.133333
0.262745 0.800000 0.133333
0.521569 0.807843 0.113725
0.796078 0.796078 0.113725
0.992157 0.800000 0.345098
0.003922 1.000000 0.074510
0.207843 1.000000 0.082353
0.513725 0.996078 0.090196
0.796078 1.000000 0.082353
1.000000 1.000000 0.121569
0.101961 0.000000 0.482353
0.298039 0.000000 0.486275
0.549020 0.000000 0.482353
0.807843 0.074510 0.486275
0.996078 0.313725 0.525490
0.105882 0.266667 0.478431
0.305882 0.262745 0.490196
0.541176 0.274510 0.482353
0.800000 0.317647 0.490196
1.000000 0.450980 0.549020
0.015686 0.549020 0.490196
0.266667 0.552941 0.478431
0.541176 0.545098 0.474510
0.780392 0.600000 0.549020
0.992157 0.647059 0.600000
0.000000 0.807843 0.454902
0.200000 0.803922 0.450980
0.505882 0.803922 0.443137
0.788235 0.803922 0.435294
1.000000 0.819608 0.607843
0.000000 1.000000 0.419608
0.082353 0.996078 0.423529
0.474510 0.996078 0.435294
0.788235 0.996078 0.431373
0.996078 1.000000 0.435294
0.117647 0.000000 0.737255
0.301961 0.003922 0.741176
0.549020 0.000000 0.749020
0.811765 0.000000 0.741176
1.000000 0.003922 0.733333
0.090196 0.262745 0.752941
0.294118 0.254902 0.745098
0.541176 0.262745 0.741176
0.815686 0.250980 0.745098
1.000000 0.250980 0.729412
0.000000 0.537255 0.749020
0.227451 0.525490 0.749020
0.529412 0.525490 0.749020
0.811765 0.517647 0.741176
1.000000 0.568627 0.745098
0.000000 0.811765 0.733333
0.129412 0.807843 0.733333
0.505882 0.807843 0.737255
0.792157 0.800000 0.745098
0.996078 0.847059 0.835294
0.000000 1.000000 0.733333
0.223529 1.000000 0.729412
0.525490 0.996078 0.749020
0.776471 1.000000 0.729412
1.000000 1.000000 0.737255
0.113725 0.000000 1.000000
0.290196 0.003922 0.996078
0.549020 0.003922 0.996078
0.811765 0.000000 0.996078
0.992157 0.003922 0.996078
0.019608 0.254902 1.000000
0.278431 0.250980 1.000000
0.545098 0.250980 1.000000
0.807843 0.235294 1.000000
0.996078 0.215686 0.996078
0.003922 0.501961 0.992157
0.180392 0.509804 1.000000
0.505882 0.513725 0.996078
0.800000 0.505882 1.000000
0.992157 0.505882 0.996078
0.003922 0.780392 0.988235
0.003922 0.780392 1.000000
0.454902 0.780392 0.984314
0.776471 0.788235 1.000000
0.992157 0.784314 0.996078
0.000000 1.000000 0.992157
0.007843 1.000000 1.000000
0.486275 0.996078 0.988235
0.819608 1.000000 0.988235
1.000000 1.000000 1.000000
