lut_library_archive/removed_20260629/50个风景lut/50个风景lut43.cube
# 版权归凌孟成所有，侵权必究
TITLE "Jungle LUT #43"
#LUT size
LUT_3D_SIZE 5
#LUT data points
0.000000 0.000000 0.000000
0.219608 0.003922 0.000000
0.509804 0.000000 0.007843
0.827451 0.000000 0.000000
0.996078 0.000000 0.000000
0.000000 0.227451 0.000000
0.227451 0.231373 0.003922
0.509804 0.243137 0.003922
0.827451 0.254902 0.000000
1.000000 0.223529 0.000000
0.000000 0.529412 0.000000
0.235294 0.525490 0.000000
0.525490 0.525490 0.000000
0.827451 0.541176 0.000000
1.000000 0.513725 0.000000
0.000000 0.823529 0.000000
0.113725 0.823529 0.003922
0.498039 0.823529 0.000000
0.807843 0.803922 0.000000
0.996078 0.776471 0.000000
0.000000 1.000000 0.000000
0.000000 1.000000 0.000000
0.411765 0.996078 0.000000
0.725490 0.996078 0.003922
0.992157 1.000000 0.011765
0.000000 0.003922 0.227451
0.231373 0.000000 0.231373
0.513725 0.003922 0.247059
0.839216 0.003922 0.196078
0.992157 0.003922 0.164706
0.007843 0.223529 0.231373
0.223529 0.223529 0.223529
0.521569 0.215686 0.215686
0.835294 0.180392 0.188235
0.996078 0.137255 0.133333
0.000000 0.533333 0.160784
0.156863 0.529412 0.160784
0.521569 0.525490 0.129412
0.831373 0.525490 0.101961
1.000000 0.490196 0.003922
0.000000 0.819608 0.000000
0.000000 0.819608 0.003922
0.486275 0.815686 0.000000
0.807843 0.815686 0.003922
0.996078 0.768627 0.003922
0.007843 1.000000 0.000000
0.000000 1.000000 0.000000
0.376471 1.000000 0.007843
0.717647 0.996078 0.000000
0.996078 1.000000 0.003922
0.003922 0.000000 0.541176
0.254902 0.003922 0.545098
0.533333 0.000000 0.533333
0.843137 0.007843 0.541176
1.000000 0.000000 0.494118
0.000000 0.211765 0.545098
0.196078 0.203922 0.537255
0.529412 0.164706 0.529412
0.843137 0.062745 0.529412
1.000000 0.000000 0.478431
0.000000 0.521569 0.537255
0.000000 0.525490 0.537255
0.505882 0.505882 0.505882
0.839216 0.505882 0.498039
1.000000 0.474510 0.462745
0.000000 0.831373 0.470588
0.003922 0.823529 0.454902
0.454902 0.819608 0.454902
0.807843 0.811765 0.443137
0.996078 0.764706 0.403922
0.007843 1.000000 0.345098
0.003922 1.000000 0.349020
0.337255 1.000000 0.329412
0.701961 0.996078 0.286275
1.000000 1.000000 0.184314
0.000000 0.000000 0.831373
0.250980 0.000000 0.835294
0.545098 0.003922 0.835294
0.831373 0.000000 0.839216
0.996078 0.000000 0.800000
0.003922 0.176471 0.847059
0.172549 0.176471 0.843137
0.525490 0.117647 0.835294
0.835294 0.000000 0.827451
1.000000 0.000000 0.800000
0.000000 0.498039 0.839216
0.000000 0.494118 0.823529
0.494118 0.482353 0.831373
0.815686 0.478431 0.819608
1.000000 0.474510 0.764706
0.000000 0.811765 0.819608
0.003922 0.807843 0.811765
0.478431 0.807843 0.815686
0.803922 0.803922 0.803922
0.996078 0.800000 0.803922
0.000000 1.000000 0.752941
0.011765 1.000000 0.745098
0.513725 0.996078 0.772549
0.764706 0.996078 0.768627
1.000000 0.996078 0.745098
0.003922 0.000000 0.996078
0.203922 0.003922 0.996078
0.494118 0.000000 1.000000
0.756863 0.003922 0.996078
1.000000 0.000000 0.996078
0.000000 0.160784 1.000000
0.145098 0.149020 0.996078
0.474510 0.109804 1.000000
0.745098 0.007843 1.000000
1.000000 0.000000 0.996078
0.000000 0.474510 1.000000
0.035294 0.462745 0.996078
0.470588 0.462745 1.000000
0.752941 0.462745 1.000000
1.000000 0.458824 1.000000
0.003922 0.752941 1.000000
0.105882 0.749020 0.996078
0.525490 0.768627 1.000000
0.788235 0.792157 1.000000
0.996078 0.788235 1.000000
0.000000 1.000000 0.988235
0.109804 1.000000 0.996078
0.529412 1.000000 0.996078
0.788235 1.000000 1.000000
1.000000 1.000000 1.000000
