lut_library_archive/removed_20260629/50个风景lut/50个风景lut28.cube
# 版权归凌孟成所有，侵权必究
TITLE "Jungle LUT #28"
#LUT size
LUT_3D_SIZE 9
#LUT data points
0.003922 0.000000 0.000000
0.113725 0.000000 0.000000
0.239216 0.000000 0.000000
0.368627 0.000000 0.000000
0.498039 0.003922 0.015686
0.635294 0.000000 0.023529
0.772549 0.007843 0.039216
0.898039 0.031373 0.062745
1.000000 0.082353 0.094118
0.000000 0.113725 0.000000
0.113725 0.117647 0.000000
0.239216 0.113725 0.015686
0.372549 0.117647 0.031373
0.498039 0.129412 0.027451
0.631373 0.129412 0.039216
0.768627 0.137255 0.058824
0.898039 0.149020 0.078431
0.992157 0.172549 0.113725
0.003922 0.239216 0.000000
0.113725 0.247059 0.007843
0.247059 0.239216 0.000000
0.368627 0.247059 0.027451
0.498039 0.258824 0.078431
0.639216 0.270588 0.090196
0.780392 0.278431 0.101961
0.905882 0.282353 0.125490
0.996078 0.298039 0.149020
0.000000 0.380392 0.000000
0.086275 0.380392 0.007843
0.239216 0.380392 0.000000
0.380392 0.380392 0.003922
0.501961 0.388235 0.000000
0.647059 0.400000 0.129412
0.780392 0.415686 0.160784
0.898039 0.423529 0.168627
0.996078 0.435294 0.184314
0.003922 0.517647 0.000000
0.054902 0.513725 0.003922
0.231373 0.517647 0.003922
0.372549 0.517647 0.000000
0.513725 0.513725 0.003922
0.643137 0.517647 0.000000
0.776471 0.529412 0.125490
0.909804 0.549020 0.231373
0.992157 0.568627 0.254902
0.000000 0.654902 0.000000
0.000000 0.654902 0.000000
0.227451 0.647059 0.000000
0.364706 0.647059 0.003922
0.505882 0.650980 0.000000
0.639216 0.647059 0.007843
0.776471 0.647059 0.000000
0.905882 0.658824 0.105882
1.000000 0.674510 0.266667
0.000000 0.780392 0.015686
0.003922 0.780392 0.000000
0.188235 0.776471 0.007843
0.356863 0.772549 0.003922
0.490196 0.772549 0.000000
0.631373 0.772549 0.003922
0.760784 0.768627 0.003922
0.898039 0.772549 0.003922
1.000000 0.768627 0.129412
0.003922 0.890196 0.003922
0.000000 0.905882 0.000000
0.164706 0.898039 0.000000
0.341176 0.901961 0.000000
0.486275 0.898039 0.007843
0.619608 0.898039 0.000000
0.752941 0.898039 0.000000
0.874510 0.894118 0.003922
0.996078 0.901961 0.000000
0.007843 0.996078 0.003922
0.000000 1.000000 0.003922
0.152941 0.996078 0.000000
0.325490 1.000000 0.003922
0.478431 1.000000 0.000000
0.603922 1.000000 0.000000
0.741176 0.996078 0.000000
0.870588 1.000000 0.000000
0.988235 1.000000 0.000000
0.003922 0.000000 0.125490
0.113725 0.000000 0.125490
0.239216 0.000000 0.129412
0.376471 0.003922 0.137255
0.505882 0.000000 0.121569
0.635294 0.003922 0.129412
0.772549 0.003922 0.129412
0.894118 0.007843 0.156863
1.000000 0.058824 0.172549
0.000000 0.117647 0.125490
0.117647 0.117647 0.117647
0.235294 0.109804 0.121569
0.372549 0.113725 0.129412
0.498039 0.121569 0.137255
0.631373 0.121569 0.137255
0.768627 0.133333 0.145098
0.898039 0.145098 0.164706
1.000000 0.156863 0.180392
0.000000 0.247059 0.113725
0.105882 0.243137 0.117647
0.243137 0.247059 0.121569
0.364706 0.247059 0.145098
0.498039 0.262745 0.160784
0.635294 0.266667 0.164706
0.768627 0.270588 0.156863
0.898039 0.278431 0.192157
1.000000 0.290196 0.192157
0.000000 0.380392 0.101961
0.066667 0.376471 0.109804
0.235294 0.380392 0.105882
0.376471 0.372549 0.109804
0.505882 0.384314 0.133333
0.639216 0.407843 0.192157
0.776471 0.419608 0.211765
0.898039 0.423529 0.215686
1.000000 0.427451 0.235294
0.000000 0.513725 0.105882
0.000000 0.517647 0.082353
0.219608 0.517647 0.090196
0.368627 0.517647 0.082353
0.509804 0.517647 0.082353
0.635294 0.513725 0.105882
0.772549 0.533333 0.188235
0.905882 0.556863 0.266667
1.000000 0.564706 0.290196
0.003922 0.647059 0.054902
0.003922 0.647059 0.054902
0.203922 0.647059 0.043137
0.356863 0.650980 0.050980
0.498039 0.650980 0.043137
0.643137 0.647059 0.047059
0.764706 0.643137 0.047059
0.894118 0.658824 0.180392
1.000000 0.670588 0.290196
0.007843 0.772549 0.015686
0.003922 0.780392 0.000000
0.176471 0.772549 0.000000
0.349020 0.772549 0.000000
0.494118 0.768627 0.000000
0.623529 0.772549 0.000000
0.760784 0.776471 0.000000
0.898039 0.776471 0.000000
1.000000 0.780392 0.180392
0.007843 0.898039 0.000000
0.003922 0.898039 0.007843
0.160784 0.901961 0.000000
0.337255 0.898039 0.000000
0.478431 0.898039 0.003922
0.627451 0.898039 0.000000
0.749020 0.894118 0.003922
0.890196 0.894118 0.007843
1.000000 0.894118 0.000000
0.003922 0.996078 0.000000
0.000000 1.000000 0.003922
0.133333 1.000000 0.000000
0.329412 1.000000 0.000000
0.466667 0.996078 0.003922
0.607843 1.000000 0.000000
0.741176 1.000000 0.000000
0.870588 1.000000 0.003922
0.992157 1.000000 0.000000
0.000000 0.000000 0.250980
0.125490 0.000000 0.254902
0.239216 0.007843 0.258824
0.372549 0.000000 0.258824
0.509804 0.000000 0.258824
0.635294 0.000000 0.254902
0.768627 0.003922 0.243137
0.901961 0.003922 0.243137
1.000000 0.000000 0.254902
0.000000 0.113725 0.247059
0.109804 0.109804 0.258824
0.250980 0.101961 0.254902
0.376471 0.101961 0.254902
0.505882 0.094118 0.250980
0.635294 0.082353 0.250980
0.772549 0.078431 0.258824
0.894118 0.101961 0.258824
0.996078 0.133333 0.274510
0.000000 0.239216 0.250980
0.090196 0.247059 0.247059
0.231373 0.247059 0.243137
0.368627 0.243137 0.247059
0.501961 0.250980 0.254902
0.639216 0.254902 0.258824
0.768627 0.250980 0.262745
0.898039 0.266667 0.266667
0.992157 0.282353 0.278431
0.007843 0.384314 0.239216
0.023529 0.380392 0.243137
0.223529 0.380392 0.239216
0.372549 0.376471 0.243137
0.501961 0.388235 0.270588
0.643137 0.403922 0.290196
0.776471 0.411765 0.290196
0.901961 0.411765 0.294118
1.000000 0.427451 0.305882
0.000000 0.517647 0.219608
0.003922 0.513725 0.223529
0.215686 0.517647 0.235294
0.364706 0.513725 0.227451
0.505882 0.513725 0.227451
0.643137 0.513725 0.243137
0.780392 0.537255 0.305882
0.905882 0.552941 0.349020
1.000000 0.556863 0.345098
0.007843 0.654902 0.215686
0.007843 0.647059 0.219608
0.192157 0.647059 0.211765
0.352941 0.650980 0.215686
0.498039 0.647059 0.211765
0.647059 0.647059 0.211765
0.772549 0.647059 0.219608
0.909804 0.662745 0.305882
0.992157 0.686275 0.372549
0.000000 0.780392 0.192157
0.000000 0.772549 0.196078
0.172549 0.776471 0.196078
0.333333 0.776471 0.188235
0.486275 0.772549 0.180392
0.631373 0.772549 0.184314
0.764706 0.776471 0.184314
0.898039 0.776471 0.188235
1.000000 0.780392 0.290196
0.003922 0.890196 0.156863
0.003922 0.894118 0.168627
0.145098 0.898039 0.156863
0.333333 0.898039 0.168627
0.482353 0.898039 0.160784
0.615686 0.894118 0.149020
0.741176 0.894118 0.145098
0.886275 0.898039 0.149020
1.000000 0.890196 0.137255
0.000000 1.000000 0.129412
0.007843 1.000000 0.117647
0.133333 1.000000 0.121569
0.333333 1.000000 0.133333
0.470588 0.996078 0.121569
0.603922 1.000000 0.113725
0.745098 1.000000 0.121569
0.866667 1.000000 0.125490
0.992157 1.000000 0.125490
0.003922 0.000000 0.364706
0.129412 0.000000 0.368627
0.243137 0.003922 0.368627
0.380392 0.000000 0.372549
0.509804 0.003922 0.376471
0.647059 0.000000 0.372549
0.768627 0.000000 0.368627
0.901961 0.003922 0.368627
0.996078 0.000000 0.364706
0.000000 0.105882 0.368627
0.117647 0.094118 0.368627
0.254902 0.090196 0.372549
0.380392 0.082353 0.364706
0.513725 0.082353 0.368627
0.639216 0.066667 0.360784
0.776471 0.054902 0.368627
0.905882 0.023529 0.360784
0.992157 0.003922 0.360784
0.000000 0.235294 0.376471
0.082353 0.231373 0.372549
0.247059 0.239216 0.384314
0.380392 0.235294 0.372549
0.517647 0.239216 0.372549
0.643137 0.227451 0.368627
0.768627 0.231373 0.364706
0.901961 0.231373 0.364706
0.996078 0.243137 0.372549
0.000000 0.376471 0.372549
0.054902 0.376471 0.368627
0.227451 0.376471 0.376471
0.372549 0.372549 0.364706
0.498039 0.376471 0.364706
0.639216 0.384314 0.376471
0.772549 0.388235 0.376471
0.901961 0.400000 0.388235
1.000000 0.411765 0.384314
0.000000 0.517647 0.360784
0.000000 0.517647 0.360784
0.211765 0.517647 0.360784
0.364706 0.513725 0.352941
0.509804 0.513725 0.356863
0.643137 0.525490 0.384314
0.776471 0.545098 0.419608
0.898039 0.549020 0.423529
1.000000 0.560784 0.435294
0.000000 0.654902 0.352941
0.000000 0.654902 0.352941
0.188235 0.650980 0.352941
0.345098 0.650980 0.352941
0.501961 0.650980 0.349020
0.639216 0.650980 0.341176
0.772549 0.647059 0.352941
0.901961 0.674510 0.427451
0.992157 0.709804 0.490196
0.007843 0.772549 0.333333
0.000000 0.776471 0.325490
0.152941 0.772549 0.329412
0.345098 0.776471 0.333333
0.482353 0.764706 0.325490
0.623529 0.776471 0.325490
0.760784 0.772549 0.329412
0.894118 0.772549 0.325490
0.996078 0.780392 0.415686
0.000000 0.890196 0.325490
0.000000 0.901961 0.313725
0.156863 0.898039 0.321569
0.329412 0.901961 0.309804
0.482353 0.898039 0.309804
0.619608 0.894118 0.301961
0.752941 0.894118 0.305882
0.882353 0.894118 0.301961
0.996078 0.890196 0.298039
0.000000 0.996078 0.298039
0.007843 1.000000 0.298039
0.145098 1.000000 0.298039
0.321569 1.000000 0.294118
0.482353 0.996078 0.286275
0.611765 1.000000 0.298039
0.745098 1.000000 0.286275
0.878431 1.000000 0.290196
0.996078 1.000000 0.298039
0.058824 0.003922 0.486275
0.141176 0.000000 0.486275
0.270588 0.000000 0.490196
0.388235 0.000000 0.494118
0.517647 0.000000 0.498039
0.643137 0.000000 0.490196
0.776471 0.003922 0.490196
0.905882 0.000000 0.494118
1.000000 0.000000 0.494118
0.011765 0.098039 0.494118
0.137255 0.094118 0.501961
0.262745 0.086275 0.490196
0.384314 0.074510 0.494118
0.513725 0.058824 0.494118
0.647059 0.043137 0.498039
0.772549 0.027451 0.490196
0.905882 0.003922 0.490196
0.996078 0.000000 0.482353
0.000000 0.227451 0.486275
0.094118 0.231373 0.498039
0.250980 0.231373 0.490196
0.384314 0.231373 0.494118
0.513725 0.227451 0.498039
0.635294 0.223529 0.494118
0.776471 0.223529 0.490196
0.905882 0.211765 0.486275
1.000000 0.203922 0.482353
0.000000 0.368627 0.486275
0.039216 0.372549 0.494118
0.227451 0.360784 0.498039
0.384314 0.368627 0.505882
0.517647 0.364706 0.486275
0.650980 0.364706 0.482353
0.780392 0.368627 0.486275
0.909804 0.364706 0.478431
1.000000 0.364706 0.478431
0.007843 0.509804 0.490196
0.003922 0.517647 0.494118
0.215686 0.517647 0.494118
0.360784 0.513725 0.486275
0.505882 0.509804 0.486275
0.639216 0.509804 0.482353
0.772549 0.517647 0.501961
0.898039 0.533333 0.505882
0.992157 0.545098 0.513725
0.007843 0.650980 0.482353
0.000000 0.654902 0.486275
0.180392 0.654902 0.486275
0.349020 0.650980 0.486275
0.501961 0.647059 0.478431
0.639216 0.643137 0.478431
0.776471 0.658824 0.509804
0.898039 0.690196 0.564706
0.996078 0.698039 0.572549
0.000000 0.780392 0.466667
0.003922 0.776471 0.462745
0.137255 0.772549 0.466667
0.337255 0.780392 0.466667
0.490196 0.776471 0.466667
0.631373 0.776471 0.462745
0.764706 0.768627 0.462745
0.901961 0.776471 0.490196
0.996078 0.800000 0.560784
0.000000 0.894118 0.443137
0.003922 0.898039 0.447059
0.168627 0.898039 0.447059
0.337255 0.901961 0.450980
0.482353 0.898039 0.462745
0.627451 0.894118 0.450980
0.749020 0.894118 0.447059
0.890196 0.890196 0.443137
0.996078 0.894118 0.450980
0.003922 1.000000 0.431373
0.003922 1.000000 0.439216
0.168627 0.992157 0.439216
0.337255 1.000000 0.439216
0.482353 0.996078 0.439216
0.615686 0.996078 0.435294
0.745098 1.000000 0.435294
0.870588 1.000000 0.439216
0.996078 1.000000 0.443137
0.086275 0.003922 0.619608
0.160784 0.000000 0.619608
0.278431 0.000000 0.619608
0.392157 0.000000 0.619608
0.525490 0.000000 0.623529
0.639216 0.000000 0.615686
0.776471 0.003922 0.627451
0.901961 0.003922 0.619608
1.000000 0.003922 0.603922
0.058824 0.090196 0.619608
0.145098 0.082353 0.611765
0.266667 0.078431 0.611765
0.392157 0.062745 0.611765
0.509804 0.043137 0.615686
0.647059 0.015686 0.623529
0.772549 0.000000 0.615686
0.913725 0.000000 0.623529
1.000000 0.000000 0.611765
0.011765 0.227451 0.631373
0.117647 0.227451 0.615686
0.250980 0.223529 0.627451
0.384314 0.219608 0.611765
0.517647 0.215686 0.623529
0.650980 0.219608 0.615686
0.776471 0.207843 0.611765
0.905882 0.207843 0.615686
0.992157 0.203922 0.611765
0.000000 0.364706 0.619608
0.047059 0.364706 0.611765
0.231373 0.349020 0.623529
0.384314 0.364706 0.631373
0.513725 0.360784 0.623529
0.650980 0.356863 0.619608
0.784314 0.356863 0.611765
0.917647 0.360784 0.627451
1.000000 0.360784 0.607843
0.000000 0.501961 0.615686
0.000000 0.509804 0.627451
0.211765 0.505882 0.619608
0.364706 0.501961 0.619608
0.513725 0.501961 0.623529
0.647059 0.505882 0.615686
0.788235 0.501961 0.619608
0.905882 0.501961 0.615686
0.996078 0.505882 0.592157
0.007843 0.643137 0.619608
0.000000 0.643137 0.619608
0.200000 0.643137 0.611765
0.349020 0.643137 0.623529
0.498039 0.643137 0.615686
0.639216 0.643137 0.611765
0.772549 0.643137 0.615686
0.894118 0.658824 0.619608
0.996078 0.666667 0.627451
0.000000 0.780392 0.603922
0.000000 0.768627 0.603922
0.141176 0.780392 0.603922
0.333333 0.776471 0.603922
0.490196 0.776471 0.607843
0.631373 0.768627 0.600000
0.768627 0.772549 0.607843
0.898039 0.780392 0.631373
0.996078 0.819608 0.690196
0.003922 0.898039 0.596078
0.007843 0.894118 0.603922
0.137255 0.898039 0.588235
0.325490 0.901961 0.588235
0.486275 0.894118 0.592157
0.627451 0.894118 0.592157
0.760784 0.894118 0.588235
0.890196 0.894118 0.588235
0.988235 0.898039 0.600000
0.003922 1.000000 0.572549
0.003922 0.996078 0.572549
0.152941 0.992157 0.576471
0.364706 0.996078 0.580392
0.494118 0.996078 0.584314
0.627451 1.000000 0.584314
0.756863 0.996078 0.580392
0.886275 1.000000 0.584314
0.996078 1.000000 0.584314
0.113725 0.000000 0.737255
0.176471 0.000000 0.741176
0.278431 0.000000 0.745098
0.396078 0.003922 0.741176
0.517647 0.000000 0.745098
0.643137 0.000000 0.733333
0.768627 0.000000 0.745098
0.901961 0.000000 0.741176
0.996078 0.000000 0.733333
0.074510 0.074510 0.752941
0.160784 0.074510 0.752941
0.274510 0.070588 0.749020
0.403922 0.058824 0.741176
0.513725 0.043137 0.737255
0.654902 0.007843 0.752941
0.768627 0.000000 0.745098
0.909804 0.007843 0.745098
1.000000 0.003922 0.745098
0.011765 0.215686 0.752941
0.137255 0.215686 0.737255
0.250980 0.223529 0.741176
0.384314 0.215686 0.737255
0.513725 0.215686 0.749020
0.643137 0.203922 0.745098
0.776471 0.200000 0.749020
0.898039 0.192157 0.745098
0.988235 0.188235 0.741176
0.000000 0.360784 0.749020
0.066667 0.356863 0.745098
0.235294 0.352941 0.737255
0.376471 0.356863 0.756863
0.505882 0.356863 0.745098
0.643137 0.352941 0.741176
0.772549 0.349020 0.745098
0.909804 0.352941 0.752941
1.000000 0.352941 0.745098
0.011765 0.486275 0.741176
0.003922 0.494118 0.737255
0.207843 0.498039 0.745098
0.372549 0.494118 0.749020
0.498039 0.498039 0.749020
0.635294 0.490196 0.752941
0.768627 0.490196 0.749020
0.905882 0.490196 0.749020
1.000000 0.498039 0.749020
0.000000 0.635294 0.741176
0.000000 0.639216 0.745098
0.211765 0.627451 0.749020
0.352941 0.631373 0.749020
0.494118 0.627451 0.733333
0.643137 0.631373 0.737255
0.776471 0.635294 0.745098
0.901961 0.635294 0.733333
1.000000 0.627451 0.737255
0.000000 0.768627 0.733333
0.000000 0.772549 0.737255
0.184314 0.764706 0.741176
0.352941 0.772549 0.741176
0.498039 0.768627 0.741176
0.635294 0.776471 0.737255
0.776471 0.764706 0.729412
0.901961 0.768627 0.733333
1.000000 0.788235 0.752941
0.000000 0.898039 0.725490
0.000000 0.898039 0.737255
0.141176 0.894118 0.729412
0.333333 0.898039 0.729412
0.486275 0.898039 0.729412
0.635294 0.898039 0.721569
0.764706 0.894118 0.725490
0.890196 0.894118 0.721569
1.000000 0.909804 0.768627
0.000000 1.000000 0.717647
0.000000 1.000000 0.709804
0.184314 0.996078 0.721569
0.341176 1.000000 0.717647
0.501961 1.000000 0.713725
0.643137 0.996078 0.721569
0.776471 1.000000 0.721569
0.886275 1.000000 0.729412
0.992157 0.996078 0.721569
0.117647 0.000000 0.854902
0.184314 0.000000 0.862745
0.274510 0.003922 0.854902
0.396078 0.000000 0.862745
0.513725 0.000000 0.862745
0.643137 0.000000 0.866667
0.764706 0.000000 0.862745
0.890196 0.000000 0.866667
1.000000 0.000000 0.862745
0.105882 0.058824 0.866667
0.184314 0.058824 0.870588
0.278431 0.054902 0.858824
0.392157 0.047059 0.862745
0.517647 0.027451 0.870588
0.639216 0.007843 0.862745
0.764706 0.000000 0.862745
0.901961 0.003922 0.862745
1.000000 0.000000 0.870588
0.054902 0.207843 0.862745
0.145098 0.219608 0.870588
0.270588 0.207843 0.866667
0.388235 0.207843 0.866667
0.513725 0.211765 0.870588
0.635294 0.211765 0.862745
0.772549 0.200000 0.862745
0.898039 0.196078 0.866667
0.996078 0.196078 0.858824
0.000000 0.352941 0.866667
0.105882 0.360784 0.862745
0.254902 0.349020 0.866667
0.376471 0.352941 0.870588
0.505882 0.349020 0.866667
0.635294 0.349020 0.870588
0.768627 0.349020 0.866667
0.898039 0.345098 0.858824
1.000000 0.345098 0.870588
0.000000 0.486275 0.870588
0.058824 0.490196 0.870588
0.231373 0.482353 0.866667
0.364706 0.482353 0.866667
0.501961 0.486275 0.866667
0.639216 0.482353 0.862745
0.768627 0.490196 0.866667
0.894118 0.486275 0.866667
0.996078 0.478431 0.866667
0.000000 0.623529 0.870588
0.011765 0.627451 0.858824
0.215686 0.623529 0.854902
0.356863 0.623529 0.862745
0.498039 0.623529 0.862745
0.639216 0.623529 0.862745
0.768627 0.631373 0.866667
0.894118 0.627451 0.858824
0.988235 0.631373 0.854902
0.000000 0.756863 0.854902
0.007843 0.756863 0.858824
0.203922 0.756863 0.862745
0.360784 0.756863 0.858824
0.501961 0.760784 0.862745
0.639216 0.760784 0.870588
0.776471 0.768627 0.862745
0.894118 0.768627 0.858824
1.000000 0.764706 0.862745
0.000000 0.890196 0.854902
0.000000 0.886275 0.862745
0.200000 0.894118 0.862745
0.360784 0.890196 0.854902
0.494118 0.890196 0.858824
0.631373 0.894118 0.854902
0.764706 0.894118 0.858824
0.901961 0.894118 0.847059
0.996078 0.901961 0.862745
0.000000 1.000000 0.854902
0.007843 1.000000 0.854902
0.203922 1.000000 0.862745
0.360784 1.000000 0.854902
0.505882 1.000000 0.854902
0.643137 1.000000 0.858824
0.780392 1.000000 0.854902
0.913725 0.996078 0.866667
1.000000 1.000000 0.878431
0.125490 0.000000 0.984314
0.192157 0.000000 0.976471
0.282353 0.000000 0.980392
0.396078 0.003922 0.984314
0.513725 0.003922 0.984314
0.643137 0.000000 0.984314
0.752941 0.000000 0.976471
0.882353 0.003922 0.980392
1.000000 0.000000 0.988235
0.113725 0.066667 0.984314
0.172549 0.054902 0.980392
0.282353 0.054902 0.980392
0.396078 0.047059 0.980392
0.505882 0.031373 0.976471
0.635294 0.015686 0.984314
0.756863 0.003922 0.988235
0.894118 0.000000 0.984314
1.000000 0.003922 0.976471
0.094118 0.211765 0.980392
0.164706 0.215686 0.976471
0.282353 0.211765 0.980392
0.388235 0.207843 0.976471
0.509804 0.211765 0.988235
0.639216 0.207843 0.980392
0.760784 0.203922 0.980392
0.878431 0.196078 0.976471
1.000000 0.196078 0.972549
0.062745 0.352941 0.976471
0.149020 0.349020 0.996078
0.262745 0.349020 0.980392
0.384314 0.352941 0.992157
0.509804 0.345098 0.980392
0.631373 0.349020 0.984314
0.756863 0.345098 0.988235
0.886275 0.349020 0.976471
0.996078 0.345098 0.980392
0.054902 0.482353 0.988235
0.113725 0.478431 0.984314
0.247059 0.478431 0.972549
0.372549 0.482353 0.980392
0.505882 0.482353 0.976471
0.635294 0.482353 0.988235
0.756863 0.478431 0.980392
0.878431 0.486275 0.980392
0.992157 0.482353 0.976471
0.011765 0.607843 0.972549
0.129412 0.619608 0.980392
0.258824 0.615686 0.972549
0.380392 0.619608 0.976471
0.509804 0.615686 0.972549
0.635294 0.615686 0.976471
0.760784 0.619608 0.972549
0.890196 0.619608 0.976471
1.000000 0.619608 0.984314
0.035294 0.749020 0.976471
0.141176 0.745098 0.976471
0.258824 0.745098 0.976471
0.388235 0.749020 0.972549
0.513725 0.752941 0.968627
0.647059 0.749020 0.976471
0.768627 0.756863 0.972549
0.894118 0.756863 0.976471
0.992157 0.764706 0.960784
0.015686 0.894118 0.964706
0.003922 0.890196 0.968627
0.215686 0.894118 0.960784
0.364706 0.890196 0.964706
0.498039 0.894118 0.972549
0.647059 0.894118 0.964706
0.780392 0.894118 0.964706
0.909804 0.898039 0.964706
1.000000 0.901961 0.960784
0.007843 1.000000 0.960784
0.000000 1.000000 0.945098
0.219608 1.000000 0.949020
0.372549 0.996078 0.949020
0.517647 1.000000 0.949020
0.662745 1.000000 0.949020
0.815686 0.996078 0.952941
0.952941 1.000000 0.952941
1.000000 1.000000 0.941176
