lut_library_archive/removed_20260629/50个风景lut/50个风景lut07.cube
# 版权归凌孟成所有，侵权必究
TITLE "Jungle LUT #7"
#LUT size
LUT_3D_SIZE 5
#LUT data points
0.039216 0.039216 0.039216
0.262745 0.000000 0.035294
0.498039 0.007843 0.039216
0.713725 0.039216 0.094118
0.952941 0.101961 0.137255
0.000000 0.258824 0.015686
0.254902 0.262745 0.015686
0.482353 0.254902 0.109804
0.705882 0.258824 0.156863
0.949020 0.282353 0.200000
0.000000 0.498039 0.074510
0.243137 0.490196 0.070588
0.498039 0.490196 0.094118
0.698039 0.482353 0.219608
0.949020 0.525490 0.282353
0.015686 0.721569 0.137255
0.247059 0.717647 0.125490
0.474510 0.721569 0.121569
0.729412 0.725490 0.129412
0.984314 0.737255 0.231373
0.007843 1.000000 0.000000
0.219608 0.996078 0.000000
0.501961 1.000000 0.000000
0.752941 1.000000 0.000000
0.996078 1.000000 0.000000
0.000000 0.019608 0.294118
0.262745 0.003922 0.301961
0.509804 0.000000 0.294118
0.717647 0.062745 0.294118
0.968627 0.070588 0.301961
0.000000 0.262745 0.298039
0.247059 0.254902 0.305882
0.498039 0.254902 0.298039
0.705882 0.262745 0.309804
0.956863 0.278431 0.317647
0.000000 0.494118 0.305882
0.243137 0.486275 0.286275
0.494118 0.486275 0.298039
0.698039 0.490196 0.364706
0.949020 0.517647 0.380392
0.000000 0.717647 0.301961
0.235294 0.717647 0.294118
0.482353 0.725490 0.298039
0.729412 0.729412 0.294118
0.988235 0.745098 0.356863
0.000000 1.000000 0.239216
0.203922 1.000000 0.235294
0.494118 0.992157 0.227451
0.749020 1.000000 0.223529
1.000000 1.000000 0.223529
0.003922 0.000000 0.541176
0.239216 0.003922 0.537255
0.494118 0.000000 0.541176
0.717647 0.035294 0.529412
0.972549 0.000000 0.549020
0.003922 0.235294 0.541176
0.243137 0.239216 0.537255
0.486275 0.243137 0.545098
0.713725 0.254902 0.533333
0.980392 0.223529 0.541176
0.000000 0.474510 0.537255
0.235294 0.482353 0.541176
0.490196 0.478431 0.545098
0.717647 0.478431 0.537255
0.984314 0.490196 0.545098
0.000000 0.725490 0.529412
0.168627 0.725490 0.529412
0.462745 0.721569 0.525490
0.729412 0.721569 0.521569
0.984314 0.756863 0.572549
0.000000 1.000000 0.466667
0.007843 1.000000 0.474510
0.443137 0.996078 0.474510
0.741176 1.000000 0.474510
0.996078 0.996078 0.478431
0.003922 0.000000 0.776471
0.227451 0.000000 0.784314
0.470588 0.000000 0.776471
0.705882 0.000000 0.788235
0.980392 0.003922 0.811765
0.000000 0.231373 0.780392
0.227451 0.231373 0.780392
0.474510 0.227451 0.788235
0.705882 0.231373 0.776471
0.992157 0.188235 0.811765
0.003922 0.466667 0.788235
0.203922 0.462745 0.792157
0.454902 0.458824 0.784314
0.709804 0.454902 0.792157
1.000000 0.431373 0.796078
0.003922 0.709804 0.800000
0.086275 0.717647 0.796078
0.419608 0.721569 0.792157
0.725490 0.721569 0.792157
1.000000 0.741176 0.788235
0.000000 1.000000 0.780392
0.000000 0.992157 0.768627
0.349020 1.000000 0.749020
0.741176 0.996078 0.768627
1.000000 0.996078 0.776471
0.000000 0.000000 0.996078
0.207843 0.000000 0.996078
0.462745 0.003922 1.000000
0.709804 0.000000 1.000000
0.968627 0.000000 1.000000
0.003922 0.219608 1.000000
0.211765 0.227451 1.000000
0.466667 0.223529 1.000000
0.709804 0.211765 1.000000
0.976471 0.168627 1.000000
0.003922 0.450980 1.000000
0.137255 0.447059 0.992157
0.439216 0.443137 1.000000
0.705882 0.435294 0.996078
0.976471 0.415686 0.988235
0.003922 0.705882 1.000000
0.137255 0.705882 1.000000
0.447059 0.705882 0.996078
0.705882 0.701961 1.000000
1.000000 0.698039 0.996078
0.000000 0.949020 0.996078
0.239216 0.952941 1.000000
0.513725 0.952941 0.996078
0.823529 0.968627 1.000000
1.000000 1.000000 0.992157
