lut_library_archive/removed_20260629/50个风景lut/50个风景lut29.cube
# 版权归凌孟成所有，侵权必究
TITLE "Jungle LUT #29"
#LUT size
LUT_3D_SIZE 5
#LUT data points
0.000000 0.003922 0.000000
0.149020 0.000000 0.000000
0.356863 0.000000 0.000000
0.658824 0.003922 0.003922
0.972549 0.007843 0.000000
0.066667 0.152941 0.003922
0.164706 0.149020 0.003922
0.360784 0.172549 0.031373
0.658824 0.196078 0.007843
0.996078 0.200000 0.003922
0.180392 0.396078 0.000000
0.298039 0.392157 0.007843
0.443137 0.407843 0.000000
0.682353 0.439216 0.003922
0.976471 0.490196 0.113725
0.356863 0.705882 0.000000
0.450980 0.705882 0.000000
0.615686 0.709804 0.000000
0.772549 0.729412 0.000000
1.000000 0.745098 0.000000
0.560784 0.996078 0.000000
0.623529 0.996078 0.000000
0.792157 0.992157 0.000000
0.921569 1.000000 0.000000
1.000000 0.996078 0.000000
0.000000 0.003922 0.192157
0.156863 0.003922 0.188235
0.376471 0.000000 0.211765
0.670588 0.000000 0.227451
0.996078 0.000000 0.184314
0.007843 0.156863 0.196078
0.156863 0.149020 0.200000
0.388235 0.137255 0.200000
0.690196 0.066667 0.196078
0.992157 0.035294 0.203922
0.000000 0.407843 0.113725
0.164706 0.407843 0.121569
0.439216 0.407843 0.152941
0.690196 0.443137 0.243137
0.996078 0.474510 0.274510
0.168627 0.713725 0.000000
0.349020 0.717647 0.003922
0.600000 0.709804 0.000000
0.788235 0.729412 0.000000
1.000000 0.749020 0.227451
0.486275 1.000000 0.000000
0.564706 1.000000 0.000000
0.752941 1.000000 0.000000
0.917647 1.000000 0.000000
1.000000 0.992157 0.000000
0.007843 0.000000 0.505882
0.188235 0.000000 0.486275
0.427451 0.003922 0.490196
0.694118 0.000000 0.517647
1.000000 0.003922 0.529412
0.000000 0.137255 0.494118
0.117647 0.129412 0.509804
0.423529 0.082353 0.501961
0.701961 0.003922 0.513725
0.996078 0.003922 0.533333
0.000000 0.427451 0.501961
0.000000 0.427451 0.517647
0.392157 0.407843 0.521569
0.733333 0.403922 0.513725
1.000000 0.423529 0.505882
0.000000 0.741176 0.458824
0.003922 0.737255 0.450980
0.396078 0.737255 0.431373
0.764706 0.729412 0.458824
1.000000 0.764706 0.576471
0.003922 1.000000 0.301961
0.270588 1.000000 0.286275
0.603922 1.000000 0.231373
0.890196 1.000000 0.211765
1.000000 1.000000 0.380392
0.000000 0.003922 0.800000
0.188235 0.000000 0.807843
0.454902 0.000000 0.800000
0.713725 0.007843 0.811765
1.000000 0.003922 0.843137
0.000000 0.098039 0.815686
0.015686 0.066667 0.811765
0.439216 0.000000 0.823529
0.709804 0.000000 0.811765
1.000000 0.003922 0.850980
0.000000 0.403922 0.815686
0.007843 0.392157 0.811765
0.368627 0.376471 0.819608
0.713725 0.364706 0.827451
1.000000 0.349020 0.831373
0.000000 0.709804 0.815686
0.000000 0.709804 0.815686
0.352941 0.721569 0.823529
0.725490 0.729412 0.815686
1.000000 0.749020 0.811765
0.000000 1.000000 0.772549
0.003922 1.000000 0.756863
0.200000 1.000000 0.717647
0.800000 0.996078 0.749020
1.000000 1.000000 0.780392
0.000000 0.000000 0.996078
0.121569 0.000000 1.000000
0.431373 0.000000 1.000000
0.690196 0.000000 1.000000
0.956863 0.007843 1.000000
0.003922 0.007843 0.992157
0.000000 0.000000 0.996078
0.403922 0.000000 1.000000
0.674510 0.000000 0.996078
0.956863 0.007843 0.996078
0.003922 0.372549 1.000000
0.003922 0.352941 0.988235
0.349020 0.360784 1.000000
0.674510 0.356863 1.000000
0.988235 0.345098 1.000000
0.007843 0.690196 1.000000
0.000000 0.698039 0.988235
0.458824 0.709804 0.992157
0.709804 0.721569 1.000000
0.996078 0.721569 1.000000
0.243137 0.945098 0.992157
0.360784 0.937255 0.996078
0.580392 0.956863 1.000000
0.862745 0.976471 1.000000
1.000000 1.000000 1.000000
