lut_library_archive/removed_20260629/50个风景lut/50个风景lut10.cube
# 版权归凌孟成所有，侵权必究
TITLE "Jungle LUT #10"
#LUT size
LUT_3D_SIZE 5
#LUT data points
0.000000 0.000000 0.007843
0.247059 0.007843 0.000000
0.501961 0.000000 0.003922
0.772549 0.003922 0.027451
0.996078 0.000000 0.070588
0.066667 0.207843 0.027451
0.254902 0.211765 0.031373
0.501961 0.219608 0.039216
0.776471 0.235294 0.062745
1.000000 0.235294 0.094118
0.062745 0.494118 0.105882
0.258824 0.501961 0.113725
0.517647 0.501961 0.121569
0.780392 0.505882 0.129412
1.000000 0.513725 0.141176
0.011765 0.784314 0.156863
0.211765 0.788235 0.168627
0.505882 0.780392 0.160784
0.780392 0.780392 0.168627
1.000000 0.768627 0.180392
0.000000 1.000000 0.215686
0.184314 1.000000 0.215686
0.486275 1.000000 0.215686
0.752941 1.000000 0.227451
0.992157 1.000000 0.247059
0.003922 0.000000 0.305882
0.231373 0.003922 0.305882
0.498039 0.000000 0.317647
0.772549 0.000000 0.313725
0.996078 0.007843 0.317647
0.007843 0.207843 0.321569
0.239216 0.219608 0.313725
0.498039 0.203922 0.321569
0.772549 0.200000 0.313725
1.000000 0.200000 0.317647
0.003922 0.494118 0.321569
0.219608 0.498039 0.325490
0.501961 0.498039 0.325490
0.776471 0.498039 0.325490
0.996078 0.501961 0.313725
0.007843 0.768627 0.317647
0.168627 0.772549 0.317647
0.501961 0.772549 0.313725
0.776471 0.780392 0.321569
1.000000 0.768627 0.329412
0.000000 0.996078 0.321569
0.164706 1.000000 0.333333
0.482353 1.000000 0.325490
0.752941 1.000000 0.337255
0.996078 1.000000 0.349020
0.000000 0.000000 0.556863
0.227451 0.007843 0.545098
0.498039 0.000000 0.552941
0.772549 0.000000 0.556863
1.000000 0.003922 0.564706
0.003922 0.203922 0.560784
0.231373 0.196078 0.560784
0.501961 0.192157 0.560784
0.780392 0.168627 0.564706
1.000000 0.141176 0.552941
0.003922 0.494118 0.552941
0.188235 0.498039 0.556863
0.494118 0.501961 0.560784
0.780392 0.490196 0.556863
0.996078 0.494118 0.545098
0.000000 0.784314 0.541176
0.035294 0.780392 0.529412
0.482353 0.780392 0.537255
0.776471 0.776471 0.533333
1.000000 0.768627 0.541176
0.000000 1.000000 0.521569
0.176471 0.996078 0.529412
0.490196 1.000000 0.521569
0.752941 1.000000 0.533333
1.000000 0.996078 0.533333
0.105882 0.000000 0.772549
0.282353 0.007843 0.776471
0.521569 0.000000 0.772549
0.780392 0.000000 0.772549
1.000000 0.000000 0.772549
0.000000 0.188235 0.772549
0.254902 0.180392 0.784314
0.525490 0.168627 0.776471
0.788235 0.137255 0.772549
1.000000 0.125490 0.768627
0.000000 0.482353 0.776471
0.164706 0.486275 0.776471
0.494118 0.478431 0.776471
0.792157 0.474510 0.776471
1.000000 0.490196 0.772549
0.003922 0.776471 0.776471
0.121569 0.776471 0.776471
0.498039 0.780392 0.764706
0.780392 0.776471 0.768627
1.000000 0.776471 0.764706
0.031373 1.000000 0.752941
0.278431 1.000000 0.756863
0.533333 0.996078 0.752941
0.780392 1.000000 0.760784
0.996078 1.000000 0.772549
0.066667 0.000000 0.996078
0.262745 0.007843 1.000000
0.509804 0.003922 0.996078
0.764706 0.000000 0.996078
0.988235 0.003922 1.000000
0.000000 0.168627 0.992157
0.243137 0.172549 0.996078
0.501961 0.164706 1.000000
0.768627 0.145098 0.996078
1.000000 0.125490 0.992157
0.000000 0.474510 1.000000
0.180392 0.462745 0.996078
0.490196 0.466667 1.000000
0.756863 0.470588 1.000000
0.996078 0.474510 0.988235
0.007843 0.756863 1.000000
0.207843 0.752941 1.000000
0.505882 0.756863 1.000000
0.768627 0.768627 1.000000
1.000000 0.768627 1.000000
0.211765 1.000000 1.000000
0.333333 1.000000 0.996078
0.560784 0.996078 1.000000
0.803922 1.000000 0.996078
1.000000 0.996078 1.000000
