lut_library_archive/removed_20260629/50个风景lut/50个风景lut30.cube
# 版权归凌孟成所有，侵权必究
TITLE "Jungle LUT #30"
#LUT size
LUT_3D_SIZE 5
#LUT data points
0.003922 0.000000 0.000000
0.278431 0.023529 0.007843
0.560784 0.039216 0.023529
0.807843 0.113725 0.105882
0.996078 0.211765 0.192157
0.000000 0.298039 0.023529
0.282353 0.301961 0.035294
0.564706 0.301961 0.086275
0.807843 0.321569 0.149020
1.000000 0.356863 0.227451
0.121569 0.584314 0.152941
0.309804 0.580392 0.152941
0.572549 0.580392 0.184314
0.807843 0.572549 0.235294
1.000000 0.572549 0.309804
0.274510 0.803922 0.298039
0.388235 0.803922 0.301961
0.572549 0.800000 0.325490
0.803922 0.800000 0.345098
0.992157 0.807843 0.403922
0.482353 1.000000 0.509804
0.533333 0.996078 0.513725
0.650980 1.000000 0.529412
0.815686 0.996078 0.560784
0.996078 1.000000 0.623529
0.000000 0.000000 0.282353
0.278431 0.015686 0.298039
0.552941 0.078431 0.301961
0.807843 0.172549 0.325490
1.000000 0.254902 0.356863
0.003922 0.290196 0.305882
0.282353 0.305882 0.298039
0.560784 0.317647 0.329412
0.800000 0.337255 0.337255
0.996078 0.368627 0.368627
0.129412 0.576471 0.337255
0.309804 0.584314 0.341176
0.576471 0.580392 0.352941
0.800000 0.576471 0.376471
0.992157 0.580392 0.427451
0.301961 0.796078 0.403922
0.396078 0.796078 0.400000
0.576471 0.800000 0.419608
0.800000 0.803922 0.439216
0.992157 0.803922 0.474510
0.486275 1.000000 0.564706
0.541176 0.996078 0.560784
0.654902 0.996078 0.576471
0.823529 1.000000 0.615686
1.000000 1.000000 0.654902
0.000000 0.011765 0.564706
0.254902 0.027451 0.568627
0.549020 0.078431 0.564706
0.803922 0.176471 0.568627
1.000000 0.278431 0.576471
0.003922 0.294118 0.572549
0.274510 0.301961 0.576471
0.552941 0.313725 0.576471
0.796078 0.352941 0.580392
1.000000 0.396078 0.584314
0.117647 0.580392 0.588235
0.321569 0.576471 0.584314
0.564706 0.580392 0.592157
0.788235 0.584314 0.600000
1.000000 0.600000 0.611765
0.333333 0.803922 0.603922
0.415686 0.800000 0.607843
0.592157 0.803922 0.611765
0.792157 0.800000 0.615686
0.996078 0.807843 0.650980
0.498039 0.996078 0.674510
0.537255 0.996078 0.678431
0.654902 1.000000 0.690196
0.827451 1.000000 0.705882
1.000000 1.000000 0.741176
0.000000 0.050980 0.792157
0.262745 0.074510 0.796078
0.533333 0.117647 0.796078
0.788235 0.184314 0.803922
0.984314 0.286275 0.788235
0.062745 0.294118 0.796078
0.286275 0.301961 0.800000
0.545098 0.313725 0.807843
0.780392 0.349020 0.807843
1.000000 0.400000 0.800000
0.203922 0.556863 0.800000
0.329412 0.556863 0.796078
0.552941 0.568627 0.807843
0.780392 0.580392 0.811765
0.996078 0.603922 0.815686
0.341176 0.803922 0.803922
0.419608 0.792157 0.815686
0.592157 0.800000 0.819608
0.796078 0.800000 0.815686
0.996078 0.811765 0.835294
0.505882 0.992157 0.847059
0.556863 1.000000 0.827451
0.662745 1.000000 0.839216
0.819608 1.000000 0.847059
1.000000 0.996078 0.874510
0.137255 0.117647 0.996078
0.305882 0.133333 1.000000
0.529412 0.176471 1.000000
0.768627 0.250980 0.996078
0.988235 0.329412 1.000000
0.184314 0.305882 1.000000
0.321569 0.321569 1.000000
0.541176 0.341176 0.996078
0.772549 0.372549 1.000000
1.000000 0.431373 0.992157
0.254902 0.556863 1.000000
0.356863 0.560784 1.000000
0.564706 0.564706 1.000000
0.784314 0.580392 1.000000
1.000000 0.603922 1.000000
0.403922 0.796078 1.000000
0.454902 0.788235 1.000000
0.596078 0.792157 1.000000
0.792157 0.800000 1.000000
0.996078 0.807843 1.000000
0.549020 1.000000 1.000000
0.588235 1.000000 1.000000
0.690196 0.996078 0.996078
0.843137 1.000000 0.996078
1.000000 1.000000 1.000000
