lut_library_archive/removed_20260629/50个风景lut/50个风景lut18.cube
# 版权归凌孟成所有，侵权必究
TITLE "Jungle LUT #18"
#LUT size
LUT_3D_SIZE 5
#LUT data points
0.050980 0.035294 0.023529
0.270588 0.011765 0.027451
0.482353 0.015686 0.031373
0.713725 0.050980 0.047059
0.992157 0.078431 0.070588
0.168627 0.207843 0.000000
0.282353 0.223529 0.000000
0.482353 0.239216 0.086275
0.721569 0.258824 0.086275
0.980392 0.274510 0.098039
0.278431 0.341176 0.000000
0.325490 0.341176 0.007843
0.470588 0.415686 0.000000
0.733333 0.482353 0.098039
1.000000 0.525490 0.215686
0.368627 0.478431 0.003922
0.400000 0.470588 0.007843
0.513725 0.525490 0.003922
0.729412 0.654902 0.003922
0.996078 0.741176 0.000000
0.647059 0.894118 0.000000
0.690196 0.890196 0.000000
0.803922 0.913725 0.003922
0.945098 0.960784 0.000000
1.000000 0.988235 0.003922
0.066667 0.015686 0.223529
0.274510 0.011765 0.219608
0.478431 0.027451 0.200000
0.705882 0.027451 0.207843
0.984314 0.003922 0.223529
0.098039 0.227451 0.200000
0.282353 0.227451 0.215686
0.474510 0.243137 0.219608
0.713725 0.247059 0.223529
0.988235 0.262745 0.223529
0.254902 0.376471 0.109804
0.325490 0.360784 0.098039
0.478431 0.427451 0.168627
0.741176 0.486275 0.258824
1.000000 0.521569 0.290196
0.360784 0.501961 0.007843
0.396078 0.494118 0.000000
0.505882 0.529412 0.003922
0.733333 0.662745 0.003922
1.000000 0.745098 0.227451
0.623529 0.901961 0.007843
0.658824 0.901961 0.000000
0.792157 0.905882 0.000000
0.945098 0.960784 0.000000
1.000000 0.988235 0.003922
0.101961 0.031373 0.423529
0.266667 0.031373 0.423529
0.478431 0.031373 0.423529
0.709804 0.000000 0.427451
0.980392 0.003922 0.435294
0.145098 0.223529 0.419608
0.278431 0.231373 0.427451
0.474510 0.231373 0.431373
0.717647 0.207843 0.427451
0.992157 0.137255 0.435294
0.086275 0.431373 0.376471
0.227451 0.439216 0.384314
0.478431 0.450980 0.411765
0.741176 0.474510 0.439216
0.996078 0.494118 0.450980
0.184314 0.580392 0.203922
0.301961 0.572549 0.215686
0.466667 0.541176 0.188235
0.733333 0.670588 0.325490
0.996078 0.760784 0.494118
0.439216 0.917647 0.000000
0.505882 0.925490 0.000000
0.698039 0.929412 0.000000
0.921569 0.960784 0.000000
1.000000 0.988235 0.129412
0.129412 0.015686 0.674510
0.282353 0.007843 0.690196
0.490196 0.003922 0.686275
0.729412 0.003922 0.686275
0.996078 0.000000 0.701961
0.129412 0.215686 0.690196
0.274510 0.215686 0.682353
0.494118 0.215686 0.678431
0.733333 0.184314 0.682353
0.992157 0.109804 0.682353
0.000000 0.462745 0.682353
0.207843 0.450980 0.690196
0.474510 0.439216 0.686275
0.741176 0.431373 0.690196
0.992157 0.419608 0.674510
0.000000 0.674510 0.596078
0.000000 0.674510 0.596078
0.329412 0.686275 0.615686
0.741176 0.725490 0.690196
1.000000 0.749020 0.741176
0.007843 0.980392 0.086275
0.000000 0.984314 0.101961
0.007843 0.976471 0.243137
0.815686 0.980392 0.000000
0.996078 1.000000 0.603922
0.090196 0.000000 0.988235
0.278431 0.000000 0.988235
0.521569 0.003922 0.992157
0.776471 0.000000 0.992157
0.992157 0.011765 0.992157
0.003922 0.203922 1.000000
0.250980 0.200000 1.000000
0.513725 0.180392 0.992157
0.772549 0.121569 1.000000
0.992157 0.003922 0.988235
0.003922 0.439216 0.992157
0.000000 0.431373 0.992157
0.458824 0.431373 0.988235
0.764706 0.419608 1.000000
1.000000 0.388235 1.000000
0.011765 0.737255 0.996078
0.003922 0.733333 0.992157
0.376471 0.713725 1.000000
0.737255 0.713725 1.000000
1.000000 0.705882 1.000000
0.011765 0.996078 0.956863
0.000000 1.000000 0.956863
0.007843 1.000000 0.956863
0.584314 1.000000 0.972549
1.000000 1.000000 1.000000
