lut_library_archive/removed_20260629/50个风景lut/50个风景lut36.cube
# 版权归凌孟成所有，侵权必究
TITLE "Jungle LUT #36"
#LUT size
LUT_3D_SIZE 9
#LUT data points
0.000000 0.000000 0.007843
0.105882 0.003922 0.000000
0.243137 0.003922 0.000000
0.368627 0.000000 0.000000
0.494118 0.000000 0.003922
0.611765 0.000000 0.015686
0.741176 0.000000 0.039216
0.874510 0.003922 0.070588
1.000000 0.000000 0.086275
0.003922 0.098039 0.003922
0.133333 0.082353 0.007843
0.250980 0.086275 0.000000
0.372549 0.078431 0.003922
0.498039 0.074510 0.023529
0.615686 0.074510 0.035294
0.745098 0.066667 0.050980
0.870588 0.054902 0.070588
1.000000 0.054902 0.098039
0.062745 0.211765 0.027451
0.149020 0.211765 0.019608
0.270588 0.215686 0.039216
0.380392 0.215686 0.035294
0.494118 0.215686 0.047059
0.615686 0.215686 0.058824
0.749020 0.223529 0.086275
0.874510 0.223529 0.098039
0.992157 0.227451 0.109804
0.086275 0.341176 0.066667
0.168627 0.345098 0.082353
0.266667 0.349020 0.078431
0.384314 0.349020 0.094118
0.498039 0.349020 0.094118
0.619608 0.352941 0.105882
0.745098 0.352941 0.117647
0.878431 0.360784 0.137255
0.996078 0.360784 0.141176
0.086275 0.478431 0.133333
0.152941 0.486275 0.121569
0.266667 0.478431 0.133333
0.376471 0.478431 0.129412
0.501961 0.478431 0.141176
0.619608 0.486275 0.145098
0.749020 0.490196 0.152941
0.882353 0.486275 0.164706
0.992157 0.498039 0.164706
0.000000 0.611765 0.152941
0.125490 0.611765 0.156863
0.239216 0.619608 0.164706
0.368627 0.611765 0.168627
0.498039 0.615686 0.168627
0.623529 0.615686 0.180392
0.749020 0.619608 0.176471
0.878431 0.623529 0.172549
1.000000 0.623529 0.200000
0.007843 0.749020 0.184314
0.043137 0.749020 0.188235
0.223529 0.749020 0.196078
0.364706 0.752941 0.188235
0.498039 0.752941 0.188235
0.631373 0.752941 0.203922
0.752941 0.749020 0.192157
0.890196 0.752941 0.192157
0.996078 0.749020 0.196078
0.000000 0.878431 0.196078
0.000000 0.882353 0.200000
0.192157 0.878431 0.211765
0.349020 0.882353 0.215686
0.482353 0.882353 0.211765
0.619608 0.878431 0.203922
0.745098 0.878431 0.203922
0.874510 0.882353 0.219608
1.000000 0.878431 0.219608
0.000000 1.000000 0.215686
0.011765 0.996078 0.227451
0.192157 1.000000 0.227451
0.337255 1.000000 0.219608
0.482353 1.000000 0.215686
0.607843 1.000000 0.227451
0.737255 0.996078 0.227451
0.870588 1.000000 0.227451
0.996078 1.000000 0.247059
0.000000 0.000000 0.152941
0.098039 0.000000 0.149020
0.243137 0.000000 0.152941
0.376471 0.003922 0.160784
0.494118 0.000000 0.156863
0.615686 0.000000 0.168627
0.741176 0.003922 0.172549
0.874510 0.000000 0.184314
1.000000 0.000000 0.196078
0.003922 0.094118 0.156863
0.117647 0.090196 0.160784
0.247059 0.082353 0.160784
0.376471 0.070588 0.164706
0.494118 0.062745 0.168627
0.615686 0.047059 0.168627
0.745098 0.035294 0.180392
0.870588 0.023529 0.184314
0.992157 0.019608 0.196078
0.000000 0.219608 0.176471
0.137255 0.223529 0.172549
0.262745 0.207843 0.172549
0.380392 0.211765 0.176471
0.490196 0.215686 0.184314
0.615686 0.211765 0.184314
0.741176 0.215686 0.188235
0.878431 0.215686 0.196078
1.000000 0.215686 0.196078
0.050980 0.345098 0.192157
0.141176 0.345098 0.188235
0.262745 0.345098 0.184314
0.368627 0.349020 0.200000
0.498039 0.349020 0.196078
0.619608 0.352941 0.200000
0.745098 0.356863 0.203922
0.878431 0.352941 0.207843
1.000000 0.356863 0.219608
0.023529 0.482353 0.207843
0.137255 0.478431 0.211765
0.247059 0.482353 0.207843
0.376471 0.482353 0.211765
0.494118 0.482353 0.219608
0.615686 0.478431 0.219608
0.752941 0.490196 0.223529
0.878431 0.490196 0.227451
1.000000 0.490196 0.231373
0.000000 0.611765 0.231373
0.090196 0.615686 0.227451
0.231373 0.611765 0.223529
0.360784 0.619608 0.235294
0.494118 0.619608 0.231373
0.615686 0.615686 0.231373
0.752941 0.619608 0.231373
0.878431 0.619608 0.239216
0.992157 0.615686 0.243137
0.000000 0.749020 0.235294
0.000000 0.749020 0.235294
0.203922 0.749020 0.239216
0.356863 0.745098 0.239216
0.490196 0.752941 0.239216
0.619608 0.749020 0.239216
0.752941 0.752941 0.243137
0.870588 0.749020 0.250980
0.992157 0.752941 0.262745
0.000000 0.878431 0.235294
0.000000 0.882353 0.254902
0.192157 0.882353 0.250980
0.341176 0.878431 0.250980
0.478431 0.878431 0.247059
0.619608 0.878431 0.243137
0.745098 0.882353 0.247059
0.874510 0.874510 0.247059
0.992157 0.874510 0.247059
0.000000 0.996078 0.262745
0.007843 0.996078 0.254902
0.184314 0.996078 0.266667
0.345098 0.996078 0.258824
0.482353 1.000000 0.254902
0.607843 1.000000 0.258824
0.741176 1.000000 0.262745
0.870588 0.996078 0.262745
1.000000 1.000000 0.278431
0.003922 0.000000 0.313725
0.078431 0.000000 0.305882
0.231373 0.003922 0.305882
0.364706 0.000000 0.317647
0.490196 0.003922 0.317647
0.615686 0.000000 0.317647
0.741176 0.003922 0.313725
0.874510 0.000000 0.317647
0.996078 0.000000 0.325490
0.007843 0.090196 0.313725
0.078431 0.082353 0.305882
0.235294 0.078431 0.321569
0.368627 0.058824 0.313725
0.494118 0.043137 0.313725
0.607843 0.023529 0.313725
0.741176 0.000000 0.321569
0.874510 0.000000 0.317647
0.984314 0.003922 0.317647
0.000000 0.215686 0.321569
0.098039 0.223529 0.321569
0.247059 0.207843 0.313725
0.368627 0.211765 0.317647
0.486275 0.211765 0.321569
0.611765 0.207843 0.321569
0.741176 0.207843 0.325490
0.874510 0.207843 0.321569
0.996078 0.203922 0.321569
0.000000 0.345098 0.321569
0.101961 0.349020 0.317647
0.243137 0.349020 0.321569
0.368627 0.349020 0.325490
0.486275 0.349020 0.325490
0.611765 0.349020 0.325490
0.749020 0.356863 0.333333
0.878431 0.352941 0.325490
0.996078 0.349020 0.333333
0.000000 0.486275 0.321569
0.078431 0.478431 0.321569
0.227451 0.482353 0.325490
0.356863 0.478431 0.317647
0.494118 0.478431 0.333333
0.611765 0.482353 0.321569
0.749020 0.482353 0.329412
0.878431 0.490196 0.337255
1.000000 0.482353 0.329412
0.000000 0.619608 0.321569
0.007843 0.619608 0.325490
0.219608 0.611765 0.325490
0.356863 0.615686 0.325490
0.490196 0.615686 0.329412
0.623529 0.611765 0.333333
0.749020 0.615686 0.325490
0.878431 0.619608 0.329412
0.996078 0.619608 0.329412
0.000000 0.749020 0.325490
0.000000 0.752941 0.333333
0.184314 0.749020 0.333333
0.345098 0.749020 0.329412
0.486275 0.752941 0.325490
0.619608 0.749020 0.329412
0.756863 0.752941 0.337255
0.874510 0.756863 0.325490
0.988235 0.749020 0.329412
0.000000 0.878431 0.329412
0.003922 0.874510 0.321569
0.172549 0.878431 0.325490
0.337255 0.878431 0.329412
0.478431 0.882353 0.329412
0.607843 0.878431 0.321569
0.745098 0.878431 0.333333
0.874510 0.878431 0.329412
1.000000 0.870588 0.325490
0.000000 0.992157 0.321569
0.003922 0.996078 0.317647
0.156863 1.000000 0.329412
0.329412 1.000000 0.329412
0.470588 0.996078 0.317647
0.600000 1.000000 0.325490
0.741176 1.000000 0.333333
0.870588 1.000000 0.337255
0.992157 1.000000 0.337255
0.000000 0.003922 0.427451
0.050980 0.000000 0.431373
0.223529 0.003922 0.439216
0.360784 0.000000 0.435294
0.482353 0.000000 0.435294
0.603922 0.000000 0.439216
0.737255 0.000000 0.439216
0.874510 0.003922 0.447059
0.992157 0.003922 0.447059
0.000000 0.078431 0.447059
0.047059 0.070588 0.439216
0.227451 0.066667 0.443137
0.356863 0.043137 0.439216
0.482353 0.023529 0.439216
0.607843 0.007843 0.435294
0.741176 0.003922 0.447059
0.874510 0.003922 0.447059
0.992157 0.000000 0.435294
0.003922 0.207843 0.443137
0.047059 0.203922 0.435294
0.227451 0.203922 0.439216
0.360784 0.200000 0.435294
0.482353 0.203922 0.439216
0.607843 0.200000 0.431373
0.741176 0.200000 0.435294
0.874510 0.184314 0.435294
0.992157 0.176471 0.435294
0.007843 0.345098 0.435294
0.070588 0.349020 0.450980
0.227451 0.352941 0.443137
0.349020 0.349020 0.443137
0.486275 0.345098 0.447059
0.611765 0.345098 0.443137
0.745098 0.345098 0.439216
0.874510 0.345098 0.435294
1.000000 0.345098 0.443137
0.003922 0.478431 0.443137
0.003922 0.490196 0.435294
0.207843 0.482353 0.443137
0.352941 0.482353 0.439216
0.482353 0.486275 0.431373
0.615686 0.482353 0.439216
0.749020 0.482353 0.439216
0.874510 0.482353 0.443137
1.000000 0.478431 0.427451
0.000000 0.615686 0.431373
0.003922 0.623529 0.431373
0.176471 0.619608 0.431373
0.333333 0.615686 0.431373
0.486275 0.615686 0.431373
0.615686 0.623529 0.431373
0.749020 0.615686 0.435294
0.878431 0.619608 0.431373
0.996078 0.619608 0.431373
0.000000 0.752941 0.427451
0.000000 0.749020 0.423529
0.141176 0.749020 0.423529
0.329412 0.749020 0.427451
0.478431 0.749020 0.431373
0.619608 0.756863 0.427451
0.749020 0.745098 0.423529
0.882353 0.756863 0.431373
0.992157 0.749020 0.431373
0.000000 0.874510 0.423529
0.003922 0.878431 0.419608
0.117647 0.882353 0.419608
0.321569 0.882353 0.419608
0.458824 0.878431 0.415686
0.607843 0.878431 0.419608
0.745098 0.882353 0.427451
0.874510 0.878431 0.419608
1.000000 0.878431 0.435294
0.000000 0.992157 0.415686
0.003922 1.000000 0.411765
0.117647 1.000000 0.411765
0.325490 0.996078 0.415686
0.474510 1.000000 0.415686
0.600000 1.000000 0.411765
0.741176 1.000000 0.411765
0.870588 0.996078 0.419608
1.000000 1.000000 0.427451
0.003922 0.000000 0.537255
0.078431 0.000000 0.541176
0.215686 0.003922 0.541176
0.364706 0.003922 0.549020
0.482353 0.003922 0.549020
0.607843 0.003922 0.545098
0.741176 0.003922 0.549020
0.870588 0.000000 0.545098
0.996078 0.003922 0.541176
0.000000 0.070588 0.549020
0.062745 0.070588 0.552941
0.231373 0.050980 0.545098
0.360784 0.023529 0.545098
0.486275 0.007843 0.545098
0.611765 0.000000 0.549020
0.745098 0.000000 0.549020
0.862745 0.007843 0.549020
0.996078 0.003922 0.533333
0.000000 0.203922 0.541176
0.050980 0.207843 0.552941
0.223529 0.200000 0.545098
0.364706 0.196078 0.549020
0.486275 0.192157 0.552941
0.619608 0.192157 0.556863
0.749020 0.188235 0.549020
0.882353 0.180392 0.549020
1.000000 0.172549 0.545098
0.003922 0.337255 0.549020
0.039216 0.341176 0.552941
0.215686 0.337255 0.549020
0.349020 0.341176 0.537255
0.486275 0.341176 0.545098
0.611765 0.337255 0.541176
0.749020 0.341176 0.549020
0.882353 0.333333 0.541176
0.996078 0.329412 0.537255
0.000000 0.482353 0.545098
0.000000 0.482353 0.529412
0.203922 0.482353 0.545098
0.337255 0.486275 0.537255
0.482353 0.478431 0.541176
0.615686 0.482353 0.549020
0.749020 0.482353 0.549020
0.882353 0.482353 0.545098
1.000000 0.474510 0.533333
0.000000 0.623529 0.545098
0.000000 0.615686 0.541176
0.164706 0.611765 0.541176
0.325490 0.619608 0.541176
0.478431 0.615686 0.537255
0.615686 0.611765 0.525490
0.752941 0.615686 0.537255
0.878431 0.615686 0.541176
0.996078 0.619608 0.533333
0.003922 0.749020 0.537255
0.000000 0.752941 0.529412
0.098039 0.749020 0.529412
0.309804 0.752941 0.525490
0.466667 0.752941 0.533333
0.615686 0.752941 0.525490
0.749020 0.752941 0.525490
0.878431 0.752941 0.521569
1.000000 0.749020 0.529412
0.007843 0.878431 0.513725
0.000000 0.882353 0.521569
0.090196 0.874510 0.517647
0.309804 0.882353 0.525490
0.462745 0.882353 0.513725
0.611765 0.882353 0.517647
0.741176 0.878431 0.509804
0.874510 0.878431 0.513725
0.996078 0.878431 0.509804
0.011765 0.996078 0.509804
0.000000 0.996078 0.505882
0.109804 0.992157 0.513725
0.317647 1.000000 0.517647
0.466667 1.000000 0.505882
0.600000 1.000000 0.509804
0.741176 1.000000 0.513725
0.874510 1.000000 0.509804
1.000000 1.000000 0.513725
0.003922 0.000000 0.643137
0.129412 0.000000 0.650980
0.243137 0.003922 0.650980
0.372549 0.000000 0.643137
0.494118 0.003922 0.647059
0.615686 0.003922 0.647059
0.749020 0.003922 0.647059
0.878431 0.000000 0.650980
1.000000 0.000000 0.658824
0.011765 0.047059 0.654902
0.125490 0.043137 0.650980
0.250980 0.027451 0.643137
0.364706 0.011765 0.647059
0.490196 0.000000 0.650980
0.619608 0.000000 0.647059
0.749020 0.000000 0.650980
0.874510 0.003922 0.650980
0.992157 0.007843 0.635294
0.000000 0.200000 0.658824
0.094118 0.196078 0.639216
0.235294 0.196078 0.643137
0.364706 0.188235 0.647059
0.494118 0.192157 0.654902
0.627451 0.180392 0.654902
0.752941 0.172549 0.643137
0.878431 0.168627 0.643137
1.000000 0.156863 0.635294
0.000000 0.333333 0.654902
0.043137 0.337255 0.647059
0.207843 0.337255 0.639216
0.349020 0.337255 0.647059
0.494118 0.329412 0.650980
0.623529 0.329412 0.650980
0.756863 0.329412 0.647059
0.890196 0.329412 0.650980
0.996078 0.329412 0.647059
0.003922 0.474510 0.639216
0.003922 0.486275 0.647059
0.200000 0.478431 0.650980
0.345098 0.474510 0.643137
0.486275 0.474510 0.643137
0.623529 0.470588 0.643137
0.756863 0.470588 0.639216
0.886275 0.474510 0.643137
0.992157 0.474510 0.631373
0.000000 0.623529 0.639216
0.007843 0.611765 0.643137
0.176471 0.619608 0.650980
0.329412 0.615686 0.643137
0.478431 0.615686 0.639216
0.615686 0.611765 0.635294
0.752941 0.615686 0.639216
0.878431 0.619608 0.635294
1.000000 0.611765 0.643137
0.000000 0.752941 0.631373
0.000000 0.745098 0.635294
0.125490 0.752941 0.635294
0.325490 0.752941 0.631373
0.478431 0.752941 0.639216
0.619608 0.749020 0.627451
0.752941 0.749020 0.631373
0.882353 0.745098 0.627451
1.000000 0.749020 0.631373
0.000000 0.882353 0.623529
0.003922 0.882353 0.627451
0.117647 0.878431 0.631373
0.313725 0.878431 0.627451
0.470588 0.882353 0.623529
0.619608 0.878431 0.627451
0.745098 0.882353 0.623529
0.874510 0.878431 0.615686
1.000000 0.878431 0.627451
0.000000 1.000000 0.615686
0.000000 1.000000 0.619608
0.145098 0.996078 0.619608
0.341176 0.996078 0.623529
0.470588 0.996078 0.607843
0.615686 0.996078 0.615686
0.741176 1.000000 0.615686
0.874510 0.996078 0.619608
1.000000 1.000000 0.623529
0.105882 0.000000 0.749020
0.168627 0.003922 0.741176
0.278431 0.000000 0.756863
0.380392 0.000000 0.749020
0.505882 0.000000 0.749020
0.631373 0.000000 0.749020
0.756863 0.003922 0.752941
0.886275 0.003922 0.756863
1.000000 0.007843 0.741176
0.082353 0.027451 0.752941
0.160784 0.019608 0.745098
0.262745 0.007843 0.745098
0.380392 0.000000 0.749020
0.509804 0.003922 0.752941
0.631373 0.000000 0.749020
0.752941 0.000000 0.749020
0.886275 0.003922 0.749020
0.992157 0.003922 0.752941
0.031373 0.188235 0.764706
0.145098 0.188235 0.752941
0.247059 0.188235 0.749020
0.376471 0.184314 0.752941
0.501961 0.180392 0.756863
0.631373 0.168627 0.756863
0.760784 0.156863 0.752941
0.890196 0.149020 0.752941
1.000000 0.145098 0.749020
0.000000 0.325490 0.741176
0.066667 0.325490 0.756863
0.227451 0.333333 0.745098
0.356863 0.333333 0.756863
0.498039 0.329412 0.749020
0.635294 0.325490 0.756863
0.764706 0.321569 0.752941
0.898039 0.317647 0.756863
1.000000 0.321569 0.752941
0.000000 0.470588 0.749020
0.003922 0.474510 0.749020
0.196078 0.470588 0.752941
0.349020 0.466667 0.749020
0.486275 0.462745 0.745098
0.623529 0.466667 0.752941
0.760784 0.462745 0.752941
0.894118 0.462745 0.749020
1.000000 0.462745 0.749020
0.000000 0.607843 0.749020
0.011765 0.615686 0.756863
0.164706 0.603922 0.749020
0.337255 0.611765 0.752941
0.478431 0.603922 0.752941
0.623529 0.607843 0.745098
0.756863 0.611765 0.749020
0.886275 0.611765 0.752941
1.000000 0.611765 0.741176
0.007843 0.752941 0.745098
0.000000 0.749020 0.737255
0.145098 0.749020 0.749020
0.337255 0.745098 0.741176
0.482353 0.749020 0.749020
0.627451 0.752941 0.749020
0.752941 0.749020 0.741176
0.882353 0.749020 0.741176
1.000000 0.752941 0.733333
0.000000 0.882353 0.733333
0.000000 0.878431 0.745098
0.152941 0.882353 0.737255
0.329412 0.878431 0.733333
0.474510 0.882353 0.737255
0.619608 0.882353 0.741176
0.745098 0.878431 0.733333
0.886275 0.874510 0.737255
1.000000 0.878431 0.741176
0.007843 0.996078 0.733333
0.000000 1.000000 0.717647
0.172549 1.000000 0.729412
0.345098 1.000000 0.725490
0.482353 1.000000 0.733333
0.619608 1.000000 0.729412
0.752941 1.000000 0.725490
0.878431 1.000000 0.737255
0.996078 1.000000 0.737255
0.121569 0.003922 0.866667
0.180392 0.000000 0.862745
0.282353 0.003922 0.866667
0.384314 0.003922 0.870588
0.509804 0.000000 0.870588
0.635294 0.003922 0.866667
0.756863 0.000000 0.866667
0.882353 0.000000 0.862745
0.996078 0.003922 0.878431
0.109804 0.000000 0.870588
0.176471 0.003922 0.870588
0.278431 0.000000 0.870588
0.384314 0.003922 0.870588
0.509804 0.000000 0.870588
0.635294 0.003922 0.866667
0.756863 0.000000 0.866667
0.886275 0.000000 0.870588
0.988235 0.003922 0.870588
0.066667 0.184314 0.866667
0.152941 0.192157 0.870588
0.258824 0.184314 0.878431
0.384314 0.176471 0.866667
0.501961 0.176471 0.874510
0.631373 0.164706 0.862745
0.760784 0.160784 0.870588
0.894118 0.145098 0.866667
1.000000 0.121569 0.874510
0.003922 0.321569 0.866667
0.082353 0.321569 0.870588
0.219608 0.329412 0.862745
0.360784 0.329412 0.874510
0.494118 0.325490 0.878431
0.623529 0.321569 0.870588
0.760784 0.317647 0.866667
0.890196 0.313725 0.874510
1.000000 0.309804 0.870588
0.000000 0.466667 0.866667
0.003922 0.462745 0.866667
0.196078 0.458824 0.874510
0.345098 0.454902 0.874510
0.486275 0.458824 0.874510
0.623529 0.454902 0.866667
0.760784 0.458824 0.874510
0.886275 0.462745 0.870588
0.996078 0.450980 0.870588
0.000000 0.603922 0.870588
0.000000 0.600000 0.866667
0.172549 0.603922 0.866667
0.333333 0.603922 0.874510
0.482353 0.603922 0.866667
0.623529 0.603922 0.870588
0.756863 0.600000 0.874510
0.886275 0.600000 0.870588
1.000000 0.607843 0.862745
0.000000 0.745098 0.858824
0.003922 0.745098 0.862745
0.152941 0.741176 0.866667
0.337255 0.745098 0.874510
0.486275 0.745098 0.870588
0.623529 0.741176 0.874510
0.756863 0.741176 0.870588
0.890196 0.745098 0.874510
1.000000 0.745098 0.870588
0.000000 0.882353 0.858824
0.000000 0.874510 0.870588
0.156863 0.878431 0.862745
0.337255 0.874510 0.866667
0.482353 0.874510 0.866667
0.619608 0.878431 0.870588
0.752941 0.878431 0.866667
0.882353 0.878431 0.862745
0.996078 0.878431 0.870588
0.007843 1.000000 0.858824
0.000000 1.000000 0.866667
0.192157 0.996078 0.866667
0.341176 0.996078 0.862745
0.482353 0.996078 0.854902
0.619608 1.000000 0.862745
0.749020 1.000000 0.862745
0.878431 0.996078 0.862745
1.000000 1.000000 0.866667
0.086275 0.000000 0.992157
0.152941 0.007843 1.000000
0.266667 0.003922 1.000000
0.380392 0.000000 1.000000
0.509804 0.000000 1.000000
0.631373 0.000000 1.000000
0.752941 0.000000 0.996078
0.878431 0.007843 1.000000
1.000000 0.003922 1.000000
0.066667 0.007843 0.992157
0.145098 0.007843 0.996078
0.270588 0.000000 0.992157
0.388235 0.000000 0.992157
0.509804 0.000000 1.000000
0.631373 0.000000 0.996078
0.752941 0.003922 1.000000
0.874510 0.003922 0.996078
1.000000 0.003922 0.992157
0.003922 0.176471 1.000000
0.125490 0.180392 1.000000
0.250980 0.180392 1.000000
0.372549 0.176471 1.000000
0.501961 0.164706 1.000000
0.631373 0.156863 1.000000
0.752941 0.152941 1.000000
0.874510 0.141176 1.000000
1.000000 0.133333 0.992157
0.003922 0.317647 1.000000
0.019608 0.317647 1.000000
0.219608 0.321569 1.000000
0.352941 0.321569 1.000000
0.490196 0.325490 1.000000
0.615686 0.317647 0.996078
0.745098 0.313725 1.000000
0.882353 0.305882 1.000000
0.996078 0.305882 1.000000
0.015686 0.458824 1.000000
0.000000 0.458824 1.000000
0.172549 0.454902 0.996078
0.329412 0.454902 0.992157
0.478431 0.450980 1.000000
0.615686 0.454902 1.000000
0.745098 0.454902 1.000000
0.874510 0.454902 1.000000
1.000000 0.450980 1.000000
0.000000 0.596078 1.000000
0.000000 0.596078 1.000000
0.137255 0.596078 1.000000
0.317647 0.600000 1.000000
0.470588 0.592157 1.000000
0.607843 0.596078 1.000000
0.745098 0.596078 1.000000
0.878431 0.600000 1.000000
1.000000 0.600000 0.996078
0.011765 0.733333 1.000000
0.000000 0.737255 0.996078
0.133333 0.733333 1.000000
0.325490 0.737255 0.996078
0.466667 0.737255 1.000000
0.615686 0.737255 1.000000
0.741176 0.737255 1.000000
0.878431 0.741176 1.000000
0.996078 0.741176 1.000000
0.000000 0.870588 0.992157
0.000000 0.870588 1.000000
0.141176 0.870588 1.000000
0.325490 0.866667 1.000000
0.478431 0.870588 1.000000
0.611765 0.870588 0.996078
0.741176 0.870588 1.000000
0.874510 0.870588 0.996078
0.996078 0.874510 0.996078
0.003922 1.000000 0.992157
0.011765 0.996078 1.000000
0.172549 1.000000 1.000000
0.337255 1.000000 1.000000
0.482353 0.996078 0.996078
0.611765 1.000000 1.000000
0.749020 1.000000 0.996078
0.878431 1.000000 1.000000
1.000000 1.000000 1.000000
