lut_library_archive/removed_20260629/50个风景lut/50个风景lut15.cube
# 版权归凌孟成所有，侵权必究
TITLE "Jungle LUT #15"
#LUT size
LUT_3D_SIZE 5
#LUT data points
0.000000 0.000000 0.000000
0.180392 0.000000 0.000000
0.466667 0.000000 0.000000
0.800000 0.003922 0.000000
0.996078 0.000000 0.000000
0.000000 0.203922 0.000000
0.180392 0.196078 0.000000
0.474510 0.239216 0.000000
0.807843 0.254902 0.003922
1.000000 0.231373 0.003922
0.000000 0.513725 0.000000
0.219608 0.513725 0.000000
0.513725 0.513725 0.000000
0.811765 0.521569 0.000000
1.000000 0.505882 0.000000
0.000000 0.803922 0.003922
0.203922 0.803922 0.003922
0.521569 0.800000 0.000000
0.815686 0.792157 0.007843
1.000000 0.768627 0.000000
0.003922 1.000000 0.000000
0.086275 1.000000 0.000000
0.482353 0.996078 0.000000
0.796078 1.000000 0.000000
0.996078 0.996078 0.000000
0.003922 0.000000 0.172549
0.188235 0.003922 0.176471
0.482353 0.003922 0.196078
0.811765 0.000000 0.149020
1.000000 0.003922 0.117647
0.000000 0.192157 0.168627
0.184314 0.207843 0.168627
0.494118 0.203922 0.160784
0.819608 0.188235 0.125490
0.996078 0.164706 0.082353
0.000000 0.517647 0.078431
0.164706 0.513725 0.082353
0.533333 0.513725 0.054902
0.823529 0.513725 0.011765
0.996078 0.490196 0.000000
0.003922 0.796078 0.003922
0.133333 0.800000 0.003922
0.509804 0.796078 0.000000
0.811765 0.800000 0.003922
0.996078 0.760784 0.000000
0.000000 0.996078 0.000000
0.000000 1.000000 0.000000
0.466667 1.000000 0.000000
0.792157 1.000000 0.000000
1.000000 1.000000 0.000000
0.000000 0.003922 0.478431
0.227451 0.000000 0.474510
0.505882 0.000000 0.482353
0.823529 0.000000 0.490196
1.000000 0.003922 0.458824
0.007843 0.203922 0.490196
0.164706 0.188235 0.478431
0.521569 0.152941 0.490196
0.835294 0.090196 0.482353
1.000000 0.078431 0.458824
0.000000 0.513725 0.482353
0.003922 0.521569 0.466667
0.533333 0.517647 0.474510
0.831373 0.505882 0.474510
0.996078 0.486275 0.462745
0.000000 0.807843 0.447059
0.011765 0.800000 0.454902
0.505882 0.807843 0.431373
0.815686 0.796078 0.439216
1.000000 0.760784 0.443137
0.000000 1.000000 0.431373
0.058824 1.000000 0.423529
0.474510 1.000000 0.423529
0.780392 1.000000 0.415686
0.996078 1.000000 0.400000
0.000000 0.000000 0.776471
0.235294 0.000000 0.784314
0.537255 0.000000 0.792157
0.815686 0.000000 0.780392
1.000000 0.000000 0.760784
0.000000 0.176471 0.784314
0.141176 0.164706 0.784314
0.509804 0.121569 0.788235
0.819608 0.007843 0.776471
0.992157 0.031373 0.749020
0.011765 0.494118 0.788235
0.003922 0.494118 0.776471
0.501961 0.494118 0.780392
0.827451 0.490196 0.776471
1.000000 0.509804 0.768627
0.003922 0.807843 0.780392
0.035294 0.807843 0.768627
0.521569 0.800000 0.776471
0.803922 0.792157 0.772549
1.000000 0.784314 0.788235
0.176471 1.000000 0.756863
0.325490 1.000000 0.741176
0.564706 1.000000 0.764706
0.792157 0.996078 0.745098
1.000000 1.000000 0.749020
0.000000 0.000000 0.996078
0.200000 0.000000 1.000000
0.498039 0.000000 1.000000
0.772549 0.000000 1.000000
0.992157 0.003922 0.996078
0.000000 0.156863 0.992157
0.121569 0.145098 0.992157
0.482353 0.121569 1.000000
0.772549 0.054902 0.996078
0.992157 0.000000 1.000000
0.000000 0.466667 1.000000
0.066667 0.474510 0.988235
0.478431 0.478431 0.996078
0.772549 0.486275 1.000000
0.996078 0.490196 0.988235
0.000000 0.756863 1.000000
0.180392 0.756863 1.000000
0.513725 0.772549 1.000000
0.784314 0.780392 1.000000
1.000000 0.776471 1.000000
0.082353 1.000000 0.996078
0.301961 0.996078 0.996078
0.549020 0.996078 0.996078
0.807843 1.000000 0.988235
1.000000 1.000000 1.000000
