lut_library_archive/removed_20260629/50个风景lut/50个风景lut34.cube
# 版权归凌孟成所有，侵权必究
TITLE "Jungle LUT #34"
#LUT size
LUT_3D_SIZE 9
#LUT data points
0.000000 0.003922 0.000000
0.125490 0.000000 0.003922
0.278431 0.011765 0.011765
0.407843 0.043137 0.023529
0.525490 0.094118 0.058824
0.639216 0.160784 0.109804
0.768627 0.223529 0.172549
0.901961 0.278431 0.223529
0.996078 0.349020 0.305882
0.000000 0.129412 0.000000
0.152941 0.133333 0.007843
0.274510 0.133333 0.007843
0.403922 0.152941 0.047059
0.517647 0.176471 0.066667
0.647059 0.227451 0.133333
0.768627 0.270588 0.172549
0.890196 0.317647 0.235294
0.996078 0.376471 0.301961
0.047059 0.282353 0.007843
0.172549 0.274510 0.000000
0.301961 0.278431 0.000000
0.411765 0.274510 0.007843
0.513725 0.301961 0.129412
0.647059 0.329412 0.160784
0.784314 0.364706 0.200000
0.898039 0.392157 0.266667
1.000000 0.439216 0.337255
0.074510 0.415686 0.000000
0.172549 0.419608 0.007843
0.294118 0.415686 0.000000
0.419608 0.415686 0.000000
0.537255 0.415686 0.000000
0.654902 0.431373 0.168627
0.760784 0.466667 0.243137
0.886275 0.490196 0.309804
0.992157 0.525490 0.368627
0.074510 0.556863 0.000000
0.176471 0.556863 0.003922
0.286275 0.549020 0.000000
0.415686 0.552941 0.000000
0.545098 0.549020 0.000000
0.670588 0.549020 0.000000
0.792157 0.556863 0.172549
0.890196 0.600000 0.329412
1.000000 0.627451 0.419608
0.047059 0.690196 0.000000
0.156863 0.694118 0.000000
0.286275 0.690196 0.000000
0.415686 0.682353 0.003922
0.549020 0.682353 0.007843
0.670588 0.686275 0.000000
0.803922 0.674510 0.000000
0.917647 0.686275 0.184314
1.000000 0.713725 0.396078
0.003922 0.807843 0.000000
0.141176 0.807843 0.003922
0.266667 0.803922 0.000000
0.407843 0.807843 0.000000
0.525490 0.807843 0.000000
0.670588 0.800000 0.003922
0.788235 0.800000 0.003922
0.917647 0.796078 0.003922
0.996078 0.800000 0.227451
0.007843 0.921569 0.003922
0.133333 0.925490 0.000000
0.262745 0.929412 0.000000
0.392157 0.929412 0.000000
0.529412 0.929412 0.003922
0.654902 0.929412 0.003922
0.788235 0.917647 0.011765
0.921569 0.921569 0.003922
1.000000 0.925490 0.000000
0.000000 0.996078 0.000000
0.090196 0.996078 0.000000
0.243137 1.000000 0.000000
0.384314 1.000000 0.000000
0.517647 1.000000 0.000000
0.650980 1.000000 0.011765
0.803922 1.000000 0.000000
0.937255 1.000000 0.007843
1.000000 1.000000 0.007843
0.000000 0.000000 0.094118
0.149020 0.000000 0.098039
0.290196 0.000000 0.090196
0.419608 0.062745 0.121569
0.525490 0.133333 0.145098
0.650980 0.192157 0.172549
0.772549 0.239216 0.223529
0.894118 0.298039 0.262745
0.996078 0.352941 0.325490
0.015686 0.133333 0.101961
0.164706 0.133333 0.090196
0.282353 0.149020 0.113725
0.403922 0.168627 0.125490
0.517647 0.196078 0.152941
0.639216 0.239216 0.184314
0.764706 0.282353 0.223529
0.901961 0.321569 0.274510
1.000000 0.372549 0.341176
0.050980 0.282353 0.054902
0.164706 0.286275 0.054902
0.301961 0.278431 0.043137
0.411765 0.282353 0.121569
0.517647 0.309804 0.176471
0.635294 0.337255 0.211765
0.772549 0.368627 0.243137
0.890196 0.407843 0.294118
0.992157 0.443137 0.352941
0.074510 0.407843 0.003922
0.168627 0.415686 0.000000
0.294118 0.415686 0.000000
0.415686 0.411765 0.000000
0.537255 0.411765 0.086275
0.639216 0.439216 0.215686
0.768627 0.470588 0.286275
0.886275 0.498039 0.333333
1.000000 0.529412 0.403922
0.082353 0.545098 0.003922
0.164706 0.545098 0.000000
0.286275 0.549020 0.000000
0.415686 0.549020 0.003922
0.549020 0.541176 0.003922
0.670588 0.545098 0.015686
0.784314 0.564706 0.231373
0.890196 0.600000 0.368627
0.996078 0.631373 0.431373
0.047059 0.682353 0.000000
0.156863 0.682353 0.000000
0.274510 0.682353 0.003922
0.407843 0.682353 0.000000
0.537255 0.678431 0.003922
0.670588 0.678431 0.000000
0.800000 0.666667 0.000000
0.913725 0.690196 0.247059
1.000000 0.713725 0.411765
0.000000 0.800000 0.003922
0.133333 0.800000 0.000000
0.262745 0.800000 0.000000
0.400000 0.796078 0.000000
0.533333 0.803922 0.003922
0.666667 0.796078 0.000000
0.796078 0.800000 0.015686
0.929412 0.792157 0.000000
1.000000 0.807843 0.262745
0.003922 0.917647 0.000000
0.121569 0.921569 0.000000
0.262745 0.929412 0.003922
0.388235 0.921569 0.000000
0.525490 0.925490 0.007843
0.658824 0.917647 0.000000
0.780392 0.921569 0.003922
0.917647 0.917647 0.000000
1.000000 0.913725 0.000000
0.003922 1.000000 0.000000
0.047059 0.996078 0.000000
0.231373 0.996078 0.000000
0.372549 1.000000 0.000000
0.513725 0.996078 0.000000
0.658824 1.000000 0.000000
0.796078 0.996078 0.000000
0.937255 0.996078 0.003922
0.996078 1.000000 0.000000
0.039216 0.011765 0.223529
0.156863 0.003922 0.227451
0.298039 0.003922 0.223529
0.435294 0.000000 0.227451
0.541176 0.105882 0.235294
0.654902 0.188235 0.266667
0.772549 0.258824 0.298039
0.898039 0.305882 0.333333
0.996078 0.364706 0.388235
0.054902 0.121569 0.223529
0.160784 0.129412 0.211765
0.301961 0.121569 0.231373
0.427451 0.149020 0.219608
0.529412 0.203922 0.243137
0.643137 0.254902 0.266667
0.764706 0.294118 0.301961
0.898039 0.345098 0.337255
0.992157 0.388235 0.396078
0.066667 0.278431 0.223529
0.176471 0.282353 0.223529
0.305882 0.278431 0.207843
0.403922 0.301961 0.243137
0.521569 0.317647 0.266667
0.639216 0.352941 0.294118
0.764706 0.376471 0.317647
0.901961 0.407843 0.360784
0.996078 0.447059 0.411765
0.070588 0.415686 0.188235
0.176471 0.415686 0.192157
0.298039 0.419608 0.196078
0.419608 0.423529 0.196078
0.525490 0.411765 0.239216
0.635294 0.454902 0.325490
0.768627 0.478431 0.349020
0.894118 0.505882 0.384314
0.996078 0.537255 0.439216
0.090196 0.549020 0.180392
0.164706 0.545098 0.172549
0.278431 0.552941 0.176471
0.407843 0.549020 0.172549
0.545098 0.549020 0.180392
0.662745 0.545098 0.200000
0.784314 0.568627 0.317647
0.894118 0.611765 0.431373
0.996078 0.635294 0.490196
0.035294 0.686275 0.152941
0.145098 0.682353 0.156863
0.278431 0.682353 0.152941
0.403922 0.678431 0.152941
0.537255 0.678431 0.152941
0.666667 0.674510 0.152941
0.796078 0.674510 0.176471
0.913725 0.690196 0.341176
1.000000 0.725490 0.490196
0.003922 0.800000 0.133333
0.105882 0.807843 0.133333
0.262745 0.800000 0.133333
0.396078 0.803922 0.125490
0.521569 0.807843 0.113725
0.662745 0.796078 0.113725
0.796078 0.796078 0.113725
0.933333 0.792157 0.109804
0.992157 0.800000 0.345098
0.000000 0.921569 0.109804
0.078431 0.921569 0.109804
0.243137 0.925490 0.105882
0.388235 0.917647 0.098039
0.517647 0.933333 0.101961
0.658824 0.917647 0.086275
0.776471 0.917647 0.078431
0.917647 0.913725 0.066667
1.000000 0.909804 0.054902
0.003922 1.000000 0.074510
0.003922 0.996078 0.082353
0.207843 1.000000 0.082353
0.360784 1.000000 0.078431
0.513725 0.996078 0.090196
0.650980 1.000000 0.082353
0.796078 1.000000 0.082353
0.937255 1.000000 0.098039
1.000000 1.000000 0.121569
0.078431 0.000000 0.352941
0.172549 0.003922 0.356863
0.298039 0.000000 0.352941
0.427451 0.003922 0.349020
0.560784 0.000000 0.356863
0.678431 0.105882 0.360784
0.788235 0.207843 0.380392
0.898039 0.290196 0.415686
1.000000 0.372549 0.462745
0.082353 0.113725 0.356863
0.164706 0.121569 0.356863
0.298039 0.121569 0.352941
0.427451 0.113725 0.352941
0.556863 0.129412 0.352941
0.670588 0.196078 0.356863
0.772549 0.266667 0.384314
0.898039 0.333333 0.431373
1.000000 0.396078 0.466667
0.090196 0.278431 0.364706
0.188235 0.274510 0.356863
0.305882 0.270588 0.352941
0.427451 0.274510 0.349020
0.541176 0.294118 0.360784
0.650980 0.337255 0.380392
0.768627 0.372549 0.403922
0.894118 0.411765 0.443137
1.000000 0.462745 0.482353
0.090196 0.419608 0.360784
0.176471 0.415686 0.352941
0.294118 0.415686 0.352941
0.419608 0.415686 0.337255
0.525490 0.431373 0.384314
0.643137 0.454902 0.400000
0.768627 0.482353 0.427451
0.894118 0.509804 0.466667
0.992157 0.552941 0.505882
0.027451 0.549020 0.333333
0.145098 0.549020 0.325490
0.278431 0.556863 0.337255
0.411765 0.549020 0.329412
0.549020 0.545098 0.325490
0.662745 0.552941 0.364706
0.776471 0.584314 0.454902
0.890196 0.611765 0.501961
1.000000 0.654902 0.545098
0.000000 0.686275 0.329412
0.113725 0.686275 0.321569
0.266667 0.686275 0.317647
0.396078 0.686275 0.313725
0.545098 0.682353 0.313725
0.674510 0.678431 0.313725
0.803922 0.678431 0.345098
0.909804 0.698039 0.454902
0.992157 0.745098 0.584314
0.000000 0.800000 0.305882
0.027451 0.800000 0.313725
0.231373 0.803922 0.305882
0.384314 0.800000 0.298039
0.525490 0.803922 0.301961
0.666667 0.792157 0.294118
0.784314 0.807843 0.290196
0.929412 0.800000 0.294118
0.996078 0.807843 0.474510
0.011765 0.917647 0.298039
0.000000 0.925490 0.290196
0.207843 0.929412 0.286275
0.368627 0.925490 0.290196
0.505882 0.921569 0.282353
0.650980 0.913725 0.290196
0.776471 0.921569 0.274510
0.917647 0.921569 0.278431
0.988235 0.913725 0.270588
0.003922 0.996078 0.286275
0.003922 0.996078 0.278431
0.168627 0.996078 0.282353
0.345098 1.000000 0.278431
0.494118 0.996078 0.270588
0.643137 1.000000 0.282353
0.796078 0.996078 0.278431
0.941176 1.000000 0.290196
1.000000 1.000000 0.290196
0.101961 0.000000 0.482353
0.180392 0.000000 0.486275
0.298039 0.000000 0.486275
0.423529 0.000000 0.486275
0.549020 0.000000 0.482353
0.682353 0.000000 0.482353
0.807843 0.074510 0.486275
0.921569 0.211765 0.498039
0.996078 0.313725 0.525490
0.098039 0.117647 0.478431
0.180392 0.121569 0.494118
0.294118 0.125490 0.478431
0.419608 0.117647 0.486275
0.545098 0.129412 0.490196
0.678431 0.129412 0.478431
0.800000 0.180392 0.482353
0.917647 0.270588 0.505882
0.992157 0.356863 0.517647
0.105882 0.266667 0.478431
0.192157 0.266667 0.486275
0.305882 0.262745 0.490196
0.427451 0.270588 0.478431
0.541176 0.274510 0.482353
0.674510 0.274510 0.470588
0.800000 0.317647 0.490196
0.909804 0.372549 0.505882
1.000000 0.450980 0.549020
0.101961 0.407843 0.486275
0.180392 0.411765 0.482353
0.298039 0.411765 0.482353
0.423529 0.403922 0.482353
0.545098 0.400000 0.478431
0.658824 0.431373 0.478431
0.772549 0.470588 0.509804
0.890196 0.509804 0.545098
1.000000 0.549020 0.580392
0.015686 0.549020 0.490196
0.145098 0.552941 0.486275
0.266667 0.552941 0.478431
0.400000 0.545098 0.474510
0.541176 0.545098 0.474510
0.654902 0.572549 0.505882
0.780392 0.600000 0.549020
0.901961 0.619608 0.572549
0.992157 0.647059 0.600000
0.003922 0.678431 0.474510
0.070588 0.682353 0.466667
0.235294 0.678431 0.458824
0.388235 0.682353 0.462745
0.533333 0.682353 0.458824
0.674510 0.678431 0.450980
0.803922 0.682353 0.501961
0.894118 0.717647 0.596078
0.996078 0.760784 0.666667
0.000000 0.807843 0.454902
0.003922 0.803922 0.447059
0.200000 0.803922 0.450980
0.356863 0.807843 0.443137
0.505882 0.803922 0.443137
0.658824 0.803922 0.439216
0.788235 0.803922 0.435294
0.933333 0.796078 0.466667
1.000000 0.819608 0.607843
0.000000 0.917647 0.419608
0.000000 0.929412 0.443137
0.149020 0.925490 0.427451
0.341176 0.929412 0.435294
0.494118 0.925490 0.435294
0.647059 0.921569 0.431373
0.768627 0.921569 0.423529
0.913725 0.921569 0.423529
0.992157 0.917647 0.443137
0.000000 1.000000 0.419608
0.000000 0.996078 0.439216
0.082353 0.996078 0.423529
0.317647 1.000000 0.435294
0.474510 0.996078 0.435294
0.627451 1.000000 0.427451
0.788235 0.996078 0.431373
0.933333 1.000000 0.431373
0.996078 1.000000 0.435294
0.117647 0.000000 0.611765
0.192157 0.000000 0.603922
0.294118 0.000000 0.607843
0.415686 0.003922 0.611765
0.545098 0.000000 0.607843
0.674510 0.000000 0.596078
0.807843 0.007843 0.600000
0.929412 0.003922 0.600000
1.000000 0.200000 0.619608
0.117647 0.121569 0.615686
0.192157 0.117647 0.607843
0.290196 0.117647 0.607843
0.411765 0.121569 0.603922
0.549020 0.117647 0.607843
0.678431 0.125490 0.607843
0.807843 0.125490 0.607843
0.929412 0.133333 0.596078
0.992157 0.262745 0.611765
0.105882 0.262745 0.607843
0.168627 0.262745 0.600000
0.294118 0.258824 0.607843
0.415686 0.262745 0.611765
0.541176 0.266667 0.611765
0.678431 0.262745 0.607843
0.796078 0.270588 0.603922
0.937255 0.278431 0.611765
1.000000 0.360784 0.615686
0.082353 0.400000 0.607843
0.149020 0.407843 0.603922
0.274510 0.396078 0.607843
0.407843 0.396078 0.611765
0.549020 0.403922 0.615686
0.682353 0.396078 0.611765
0.803922 0.403922 0.600000
0.921569 0.439216 0.611765
0.996078 0.501961 0.647059
0.000000 0.545098 0.592157
0.113725 0.541176 0.607843
0.258824 0.541176 0.619608
0.388235 0.533333 0.607843
0.533333 0.537255 0.607843
0.670588 0.537255 0.603922
0.788235 0.560784 0.615686
0.913725 0.600000 0.643137
0.996078 0.643137 0.682353
0.000000 0.682353 0.607843
0.003922 0.682353 0.603922
0.235294 0.678431 0.600000
0.380392 0.682353 0.603922
0.521569 0.674510 0.600000
0.658824 0.670588 0.596078
0.784314 0.705882 0.662745
0.898039 0.725490 0.690196
1.000000 0.749020 0.725490
0.007843 0.803922 0.584314
0.000000 0.807843 0.584314
0.188235 0.800000 0.592157
0.360784 0.803922 0.592157
0.501961 0.803922 0.592157
0.654902 0.803922 0.580392
0.796078 0.796078 0.592157
0.929412 0.803922 0.643137
0.996078 0.843137 0.729412
0.003922 0.925490 0.592157
0.000000 0.929412 0.592157
0.180392 0.921569 0.584314
0.349020 0.929412 0.592157
0.482353 0.921569 0.580392
0.631373 0.921569 0.580392
0.772549 0.925490 0.576471
0.917647 0.917647 0.572549
1.000000 0.905882 0.615686
0.007843 0.996078 0.592157
0.007843 0.996078 0.592157
0.172549 0.996078 0.596078
0.317647 1.000000 0.580392
0.466667 1.000000 0.576471
0.619608 1.000000 0.580392
0.780392 0.996078 0.588235
0.925490 1.000000 0.580392
1.000000 1.000000 0.576471
0.117647 0.000000 0.737255
0.184314 0.000000 0.745098
0.301961 0.003922 0.741176
0.415686 0.000000 0.745098
0.549020 0.000000 0.749020
0.682353 0.000000 0.745098
0.811765 0.000000 0.741176
0.937255 0.000000 0.729412
1.000000 0.003922 0.733333
0.113725 0.113725 0.733333
0.184314 0.117647 0.760784
0.294118 0.121569 0.737255
0.419608 0.113725 0.752941
0.549020 0.109804 0.745098
0.678431 0.113725 0.737255
0.815686 0.101961 0.749020
0.929412 0.117647 0.737255
0.992157 0.121569 0.729412
0.090196 0.262745 0.752941
0.172549 0.254902 0.745098
0.294118 0.254902 0.745098
0.415686 0.258824 0.745098
0.541176 0.262745 0.741176
0.686275 0.254902 0.752941
0.815686 0.250980 0.745098
0.937255 0.258824 0.729412
1.000000 0.250980 0.729412
0.015686 0.396078 0.752941
0.117647 0.396078 0.741176
0.254902 0.392157 0.745098
0.392157 0.396078 0.749020
0.545098 0.392157 0.749020
0.678431 0.384314 0.745098
0.815686 0.388235 0.745098
0.937255 0.396078 0.741176
0.996078 0.403922 0.729412
0.000000 0.537255 0.749020
0.007843 0.537255 0.745098
0.227451 0.525490 0.749020
0.372549 0.533333 0.752941
0.529412 0.525490 0.749020
0.666667 0.529412 0.749020
0.811765 0.517647 0.741176
0.917647 0.533333 0.733333
1.000000 0.568627 0.745098
0.011765 0.670588 0.752941
0.015686 0.674510 0.749020
0.176471 0.674510 0.741176
0.352941 0.678431 0.749020
0.509804 0.670588 0.741176
0.662745 0.666667 0.745098
0.796078 0.666667 0.741176
0.913725 0.686275 0.741176
1.000000 0.721569 0.784314
0.000000 0.811765 0.733333
0.000000 0.803922 0.745098
0.129412 0.807843 0.733333
0.349020 0.807843 0.733333
0.505882 0.807843 0.737255
0.654902 0.796078 0.741176
0.792157 0.800000 0.745098
0.905882 0.827451 0.800000
0.996078 0.847059 0.835294
0.003922 0.925490 0.725490
0.003922 0.925490 0.725490
0.160784 0.921569 0.717647
0.352941 0.921569 0.729412
0.501961 0.925490 0.733333
0.639216 0.921569 0.737255
0.772549 0.921569 0.729412
0.921569 0.917647 0.729412
1.000000 0.921569 0.776471
0.000000 1.000000 0.733333
0.003922 0.996078 0.709804
0.223529 1.000000 0.729412
0.368627 1.000000 0.733333
0.525490 0.996078 0.749020
0.627451 1.000000 0.733333
0.776471 1.000000 0.729412
0.921569 1.000000 0.733333
1.000000 1.000000 0.737255
0.109804 0.000000 0.878431
0.184314 0.000000 0.874510
0.294118 0.000000 0.878431
0.415686 0.000000 0.882353
0.541176 0.000000 0.874510
0.678431 0.000000 0.878431
0.815686 0.000000 0.882353
0.945098 0.000000 0.874510
0.992157 0.000000 0.870588
0.101961 0.117647 0.882353
0.176471 0.113725 0.878431
0.290196 0.121569 0.886275
0.411765 0.113725 0.882353
0.549020 0.109804 0.886275
0.690196 0.098039 0.886275
0.819608 0.086275 0.882353
0.949020 0.066667 0.890196
0.996078 0.086275 0.878431
0.054902 0.250980 0.866667
0.137255 0.266667 0.882353
0.282353 0.258824 0.878431
0.403922 0.258824 0.878431
0.541176 0.250980 0.882353
0.686275 0.247059 0.882353
0.815686 0.243137 0.882353
0.952941 0.231373 0.882353
0.988235 0.235294 0.866667
0.000000 0.380392 0.890196
0.062745 0.392157 0.886275
0.235294 0.388235 0.886275
0.396078 0.388235 0.886275
0.529412 0.388235 0.882353
0.674510 0.380392 0.878431
0.811765 0.380392 0.878431
0.945098 0.376471 0.882353
0.996078 0.380392 0.862745
0.007843 0.521569 0.882353
0.007843 0.525490 0.890196
0.180392 0.513725 0.878431
0.364706 0.517647 0.882353
0.521569 0.517647 0.882353
0.654902 0.517647 0.886275
0.811765 0.517647 0.890196
0.949020 0.513725 0.882353
1.000000 0.525490 0.866667
0.000000 0.666667 0.874510
0.007843 0.666667 0.890196
0.105882 0.662745 0.890196
0.325490 0.658824 0.882353
0.490196 0.654902 0.882353
0.650980 0.658824 0.882353
0.803922 0.654902 0.886275
0.933333 0.654902 0.874510
1.000000 0.666667 0.858824
0.003922 0.796078 0.874510
0.003922 0.803922 0.870588
0.003922 0.800000 0.858824
0.313725 0.800000 0.886275
0.478431 0.800000 0.882353
0.639216 0.800000 0.878431
0.788235 0.796078 0.882353
0.921569 0.800000 0.862745
0.996078 0.811765 0.890196
0.003922 0.929412 0.878431
0.003922 0.933333 0.862745
0.000000 0.933333 0.878431
0.313725 0.933333 0.874510
0.486275 0.933333 0.874510
0.639216 0.921569 0.866667
0.784314 0.913725 0.870588
0.913725 0.921569 0.878431
1.000000 0.945098 0.925490
0.003922 0.996078 0.843137
0.000000 0.996078 0.854902
0.227451 1.000000 0.858824
0.364706 0.996078 0.854902
0.517647 1.000000 0.862745
0.662745 1.000000 0.870588
0.807843 1.000000 0.886275
0.925490 0.996078 0.894118
0.992157 1.000000 0.905882
0.113725 0.000000 1.000000
0.180392 0.000000 1.000000
0.290196 0.003922 0.996078
0.411765 0.000000 0.992157
0.549020 0.003922 0.996078
0.686275 0.000000 1.000000
0.811765 0.000000 0.996078
0.949020 0.000000 1.000000
0.992157 0.003922 0.996078
0.082353 0.109804 1.000000
0.172549 0.109804 1.000000
0.294118 0.109804 1.000000
0.415686 0.113725 1.000000
0.556863 0.105882 1.000000
0.674510 0.098039 1.000000
0.811765 0.074510 1.000000
0.945098 0.047059 1.000000
1.000000 0.000000 0.996078
0.019608 0.254902 1.000000
0.137255 0.258824 1.000000
0.278431 0.250980 1.000000
0.396078 0.254902 0.992157
0.545098 0.250980 1.000000
0.674510 0.243137 1.000000
0.807843 0.235294 1.000000
0.937255 0.223529 1.000000
0.996078 0.215686 0.996078
0.000000 0.384314 0.996078
0.027451 0.380392 1.000000
0.231373 0.380392 1.000000
0.384314 0.384314 1.000000
0.529412 0.384314 1.000000
0.666667 0.376471 1.000000
0.803922 0.372549 1.000000
0.933333 0.368627 0.996078
1.000000 0.356863 1.000000
0.003922 0.501961 0.992157
0.007843 0.501961 1.000000
0.180392 0.509804 1.000000
0.345098 0.517647 1.000000
0.505882 0.513725 0.996078
0.650980 0.509804 1.000000
0.800000 0.505882 1.000000
0.925490 0.509804 1.000000
0.992157 0.505882 0.996078
0.011765 0.639216 1.000000
0.007843 0.643137 1.000000
0.011765 0.643137 0.988235
0.282353 0.639216 0.996078
0.482353 0.643137 0.996078
0.639216 0.643137 0.996078
0.788235 0.647059 1.000000
0.925490 0.650980 1.000000
0.996078 0.647059 1.000000
0.003922 0.780392 0.988235
0.007843 0.784314 1.000000
0.003922 0.780392 1.000000
0.258824 0.788235 1.000000
0.454902 0.780392 0.984314
0.615686 0.776471 0.996078
0.776471 0.788235 1.000000
0.921569 0.788235 0.996078
0.992157 0.784314 0.996078
0.000000 0.929412 0.992157
0.000000 0.917647 1.000000
0.003922 0.917647 1.000000
0.243137 0.917647 1.000000
0.447059 0.921569 0.996078
0.619608 0.913725 0.996078
0.768627 0.909804 0.996078
0.905882 0.913725 1.000000
1.000000 0.921569 1.000000
0.000000 1.000000 0.992157
0.000000 1.000000 0.992157
0.007843 1.000000 1.000000
0.290196 1.000000 0.996078
0.486275 0.996078 0.988235
0.662745 1.000000 0.988235
0.819608 1.000000 0.988235
0.956863 0.996078 1.000000
1.000000 1.000000 1.000000
