lut_library_archive/removed_20260629/50个风景lut/50个风景lut02.cube
# 版权归凌孟成所有，侵权必究
TITLE "Jungle LUT #2"
#LUT size
LUT_3D_SIZE 9
#LUT data points
0.000000 0.000000 0.007843
0.117647 0.007843 0.003922
0.250980 0.019608 0.003922
0.392157 0.023529 0.015686
0.525490 0.035294 0.019608
0.654902 0.054902 0.043137
0.780392 0.094118 0.082353
0.894118 0.137255 0.117647
0.996078 0.188235 0.164706
0.003922 0.133333 0.011765
0.121569 0.137255 0.000000
0.254902 0.141176 0.015686
0.392157 0.145098 0.015686
0.517647 0.152941 0.031373
0.650980 0.164706 0.062745
0.772549 0.176471 0.086275
0.886275 0.203922 0.121569
0.996078 0.235294 0.168627
0.000000 0.274510 0.023529
0.125490 0.278431 0.023529
0.262745 0.282353 0.023529
0.403922 0.278431 0.039216
0.529412 0.282353 0.070588
0.654902 0.290196 0.090196
0.776471 0.298039 0.113725
0.898039 0.317647 0.145098
1.000000 0.333333 0.196078
0.000000 0.407843 0.066667
0.133333 0.407843 0.070588
0.270588 0.419608 0.078431
0.411765 0.419608 0.090196
0.541176 0.419608 0.098039
0.658824 0.415686 0.129412
0.776471 0.423529 0.156863
0.898039 0.431373 0.180392
1.000000 0.443137 0.223529
0.066667 0.549020 0.133333
0.164706 0.545098 0.133333
0.282353 0.549020 0.121569
0.411765 0.552941 0.137255
0.541176 0.549020 0.152941
0.662745 0.552941 0.164706
0.784314 0.552941 0.196078
0.894118 0.549020 0.227451
1.000000 0.556863 0.270588
0.160784 0.674510 0.196078
0.219608 0.682353 0.200000
0.317647 0.674510 0.192157
0.427451 0.678431 0.200000
0.549020 0.682353 0.211765
0.666667 0.678431 0.219608
0.792157 0.674510 0.243137
0.898039 0.670588 0.278431
1.000000 0.674510 0.321569
0.235294 0.792157 0.258824
0.282353 0.792157 0.274510
0.349020 0.784314 0.262745
0.447059 0.788235 0.274510
0.552941 0.784314 0.274510
0.666667 0.784314 0.290196
0.780392 0.780392 0.301961
0.894118 0.788235 0.337255
1.000000 0.788235 0.372549
0.325490 0.901961 0.345098
0.352941 0.905882 0.356863
0.411765 0.890196 0.360784
0.490196 0.898039 0.360784
0.576471 0.898039 0.372549
0.678431 0.894118 0.384314
0.784314 0.898039 0.396078
0.894118 0.901961 0.419608
0.992157 0.901961 0.447059
0.443137 1.000000 0.478431
0.462745 1.000000 0.474510
0.505882 0.996078 0.478431
0.560784 0.996078 0.486275
0.627451 1.000000 0.490196
0.721569 0.996078 0.509804
0.807843 1.000000 0.537255
0.909804 0.996078 0.568627
1.000000 0.996078 0.592157
0.000000 0.007843 0.121569
0.121569 0.007843 0.125490
0.262745 0.015686 0.129412
0.384314 0.031373 0.133333
0.521569 0.054902 0.149020
0.654902 0.074510 0.168627
0.772549 0.113725 0.180392
0.890196 0.156863 0.200000
0.996078 0.192157 0.227451
0.011765 0.133333 0.141176
0.129412 0.137255 0.133333
0.250980 0.141176 0.137255
0.388235 0.149020 0.141176
0.525490 0.156863 0.156863
0.654902 0.168627 0.176471
0.772549 0.188235 0.180392
0.894118 0.211765 0.207843
1.000000 0.243137 0.239216
0.011765 0.274510 0.145098
0.133333 0.278431 0.149020
0.262745 0.278431 0.149020
0.400000 0.278431 0.156863
0.521569 0.282353 0.168627
0.650980 0.282353 0.180392
0.772549 0.298039 0.192157
0.890196 0.321569 0.215686
0.992157 0.337255 0.235294
0.000000 0.407843 0.160784
0.121569 0.411765 0.164706
0.274510 0.415686 0.172549
0.400000 0.415686 0.176471
0.537255 0.419608 0.184314
0.650980 0.419608 0.200000
0.780392 0.427451 0.223529
0.894118 0.431373 0.243137
1.000000 0.443137 0.270588
0.066667 0.545098 0.203922
0.156863 0.549020 0.196078
0.286275 0.545098 0.196078
0.411765 0.552941 0.207843
0.541176 0.549020 0.219608
0.658824 0.549020 0.223529
0.776471 0.545098 0.247059
0.898039 0.552941 0.274510
0.996078 0.564706 0.301961
0.156863 0.674510 0.247059
0.211765 0.674510 0.235294
0.313725 0.674510 0.239216
0.431373 0.670588 0.254902
0.549020 0.670588 0.262745
0.670588 0.674510 0.274510
0.784314 0.674510 0.278431
0.890196 0.666667 0.309804
1.000000 0.674510 0.329412
0.231373 0.776471 0.301961
0.278431 0.792157 0.290196
0.352941 0.784314 0.301961
0.447059 0.784314 0.301961
0.556863 0.784314 0.313725
0.666667 0.780392 0.317647
0.788235 0.788235 0.341176
0.894118 0.792157 0.356863
0.996078 0.792157 0.396078
0.329412 0.890196 0.364706
0.360784 0.898039 0.372549
0.419608 0.894118 0.380392
0.494118 0.890196 0.380392
0.572549 0.890196 0.384314
0.678431 0.894118 0.396078
0.780392 0.890196 0.407843
0.890196 0.894118 0.435294
0.992157 0.886275 0.474510
0.447059 1.000000 0.486275
0.462745 1.000000 0.482353
0.501961 0.992157 0.490196
0.560784 1.000000 0.505882
0.627451 0.996078 0.509804
0.721569 1.000000 0.529412
0.811765 1.000000 0.545098
0.909804 1.000000 0.584314
1.000000 1.000000 0.615686
0.000000 0.000000 0.250980
0.109804 0.007843 0.262745
0.254902 0.011765 0.274510
0.388235 0.027451 0.274510
0.521569 0.062745 0.278431
0.650980 0.094118 0.290196
0.772549 0.137255 0.301961
0.886275 0.168627 0.309804
1.000000 0.207843 0.333333
0.003922 0.133333 0.262745
0.117647 0.133333 0.270588
0.254902 0.137255 0.270588
0.388235 0.149020 0.270588
0.521569 0.164706 0.286275
0.647059 0.184314 0.290196
0.772549 0.203922 0.301961
0.894118 0.231373 0.321569
1.000000 0.250980 0.341176
0.003922 0.270588 0.274510
0.117647 0.282353 0.278431
0.266667 0.270588 0.278431
0.392157 0.278431 0.286275
0.525490 0.290196 0.290196
0.654902 0.294118 0.298039
0.772549 0.309804 0.309804
0.894118 0.321569 0.325490
0.996078 0.341176 0.341176
0.000000 0.407843 0.301961
0.125490 0.411765 0.294118
0.270588 0.411765 0.294118
0.400000 0.419608 0.294118
0.529412 0.411765 0.301961
0.654902 0.423529 0.309804
0.772549 0.431373 0.325490
0.894118 0.439216 0.341176
1.000000 0.450980 0.360784
0.066667 0.541176 0.301961
0.149020 0.549020 0.301961
0.282353 0.549020 0.309804
0.407843 0.545098 0.309804
0.545098 0.549020 0.321569
0.658824 0.545098 0.321569
0.776471 0.552941 0.345098
0.886275 0.560784 0.364706
1.000000 0.564706 0.384314
0.164706 0.670588 0.337255
0.223529 0.666667 0.337255
0.313725 0.674510 0.341176
0.423529 0.670588 0.345098
0.545098 0.670588 0.345098
0.666667 0.670588 0.356863
0.776471 0.670588 0.352941
0.894118 0.674510 0.384314
1.000000 0.678431 0.419608
0.243137 0.788235 0.368627
0.270588 0.788235 0.360784
0.360784 0.780392 0.372549
0.447059 0.780392 0.376471
0.556863 0.784314 0.384314
0.666667 0.784314 0.392157
0.780392 0.788235 0.400000
0.894118 0.792157 0.419608
1.000000 0.780392 0.447059
0.345098 0.894118 0.435294
0.364706 0.894118 0.431373
0.411765 0.894118 0.435294
0.498039 0.890196 0.435294
0.580392 0.894118 0.450980
0.678431 0.890196 0.450980
0.780392 0.890196 0.458824
0.898039 0.890196 0.486275
0.984314 0.894118 0.517647
0.458824 0.988235 0.517647
0.478431 0.992157 0.521569
0.509804 0.992157 0.533333
0.552941 0.996078 0.541176
0.631373 0.992157 0.549020
0.721569 0.996078 0.556863
0.811765 0.996078 0.580392
0.901961 1.000000 0.603922
0.996078 1.000000 0.631373
0.000000 0.003922 0.400000
0.090196 0.003922 0.400000
0.247059 0.011765 0.403922
0.380392 0.019608 0.407843
0.521569 0.047059 0.419608
0.650980 0.090196 0.411765
0.772549 0.133333 0.419608
0.894118 0.184314 0.431373
1.000000 0.219608 0.443137
0.003922 0.129412 0.415686
0.094118 0.137255 0.388235
0.239216 0.137255 0.415686
0.380392 0.141176 0.411765
0.517647 0.156863 0.419608
0.643137 0.180392 0.423529
0.772549 0.203922 0.427451
0.894118 0.227451 0.435294
1.000000 0.266667 0.443137
0.011765 0.266667 0.415686
0.094118 0.262745 0.396078
0.254902 0.278431 0.419608
0.396078 0.278431 0.419608
0.529412 0.290196 0.423529
0.639216 0.301961 0.407843
0.768627 0.321569 0.431373
0.886275 0.333333 0.431373
0.996078 0.352941 0.450980
0.003922 0.407843 0.423529
0.117647 0.411765 0.423529
0.266667 0.415686 0.427451
0.400000 0.419608 0.431373
0.521569 0.419608 0.431373
0.647059 0.427451 0.439216
0.772549 0.435294 0.447059
0.898039 0.443137 0.454902
1.000000 0.462745 0.470588
0.043137 0.552941 0.443137
0.156863 0.545098 0.431373
0.278431 0.549020 0.435294
0.407843 0.541176 0.435294
0.537255 0.549020 0.435294
0.658824 0.552941 0.447059
0.776471 0.552941 0.454902
0.886275 0.556863 0.462745
0.996078 0.564706 0.466667
0.160784 0.670588 0.450980
0.219608 0.670588 0.447059
0.313725 0.670588 0.447059
0.427451 0.674510 0.450980
0.545098 0.674510 0.458824
0.670588 0.670588 0.458824
0.776471 0.670588 0.462745
0.894118 0.674510 0.482353
1.000000 0.682353 0.498039
0.239216 0.784314 0.466667
0.286275 0.788235 0.478431
0.356863 0.780392 0.474510
0.443137 0.784314 0.466667
0.560784 0.784314 0.474510
0.670588 0.780392 0.478431
0.780392 0.780392 0.490196
0.886275 0.792157 0.501961
1.000000 0.792157 0.533333
0.341176 0.894118 0.513725
0.368627 0.894118 0.521569
0.431373 0.890196 0.513725
0.501961 0.894118 0.517647
0.580392 0.890196 0.525490
0.674510 0.890196 0.525490
0.780392 0.894118 0.533333
0.894118 0.894118 0.549020
0.992157 0.886275 0.568627
0.462745 1.000000 0.592157
0.482353 0.996078 0.588235
0.517647 0.992157 0.580392
0.560784 1.000000 0.592157
0.627451 1.000000 0.600000
0.717647 1.000000 0.607843
0.803922 1.000000 0.619608
0.905882 1.000000 0.654902
1.000000 0.996078 0.674510
0.003922 0.003922 0.529412
0.082353 0.003922 0.525490
0.231373 0.015686 0.525490
0.376471 0.027451 0.537255
0.513725 0.050980 0.533333
0.643137 0.082353 0.545098
0.776471 0.133333 0.545098
0.886275 0.176471 0.549020
1.000000 0.223529 0.549020
0.000000 0.129412 0.521569
0.090196 0.125490 0.529412
0.239216 0.137255 0.533333
0.376471 0.141176 0.533333
0.513725 0.152941 0.541176
0.647059 0.172549 0.537255
0.768627 0.203922 0.545098
0.890196 0.235294 0.549020
1.000000 0.266667 0.552941
0.000000 0.270588 0.533333
0.086275 0.274510 0.533333
0.243137 0.278431 0.549020
0.396078 0.282353 0.545098
0.525490 0.278431 0.552941
0.647059 0.294118 0.545098
0.764706 0.313725 0.552941
0.882353 0.333333 0.549020
1.000000 0.349020 0.564706
0.003922 0.407843 0.537255
0.117647 0.407843 0.545098
0.262745 0.403922 0.545098
0.392157 0.415686 0.549020
0.529412 0.407843 0.541176
0.654902 0.423529 0.549020
0.772549 0.435294 0.556863
0.890196 0.447059 0.564706
0.996078 0.466667 0.564706
0.050980 0.545098 0.541176
0.156863 0.545098 0.556863
0.290196 0.545098 0.552941
0.407843 0.545098 0.552941
0.529412 0.549020 0.560784
0.654902 0.552941 0.564706
0.768627 0.556863 0.564706
0.882353 0.560784 0.568627
1.000000 0.572549 0.592157
0.164706 0.674510 0.564706
0.215686 0.670588 0.556863
0.309804 0.674510 0.568627
0.423529 0.674510 0.568627
0.541176 0.670588 0.564706
0.662745 0.674510 0.568627
0.776471 0.678431 0.568627
0.882353 0.678431 0.592157
0.992157 0.686275 0.607843
0.247059 0.780392 0.576471
0.282353 0.788235 0.568627
0.360784 0.784314 0.580392
0.450980 0.780392 0.576471
0.556863 0.784314 0.584314
0.670588 0.788235 0.584314
0.780392 0.788235 0.592157
0.890196 0.788235 0.600000
0.984314 0.796078 0.615686
0.349020 0.890196 0.596078
0.372549 0.890196 0.596078
0.419608 0.898039 0.603922
0.498039 0.890196 0.603922
0.580392 0.894118 0.607843
0.686275 0.894118 0.619608
0.784314 0.890196 0.619608
0.890196 0.894118 0.631373
0.988235 0.909804 0.639216
0.454902 1.000000 0.654902
0.474510 0.992157 0.654902
0.509804 0.996078 0.650980
0.568627 0.996078 0.662745
0.631373 1.000000 0.662745
0.725490 0.996078 0.670588
0.815686 1.000000 0.686275
0.905882 1.000000 0.701961
0.996078 1.000000 0.725490
0.000000 0.007843 0.647059
0.066667 0.007843 0.639216
0.227451 0.023529 0.658824
0.372549 0.035294 0.666667
0.509804 0.058824 0.658824
0.639216 0.082353 0.662745
0.772549 0.121569 0.662745
0.886275 0.172549 0.666667
1.000000 0.219608 0.666667
0.000000 0.133333 0.650980
0.070588 0.137255 0.654902
0.231373 0.141176 0.658824
0.380392 0.149020 0.658824
0.509804 0.152941 0.666667
0.647059 0.168627 0.658824
0.768627 0.200000 0.666667
0.890196 0.231373 0.674510
0.992157 0.270588 0.670588
0.000000 0.270588 0.654902
0.094118 0.266667 0.654902
0.250980 0.270588 0.662745
0.380392 0.274510 0.654902
0.517647 0.274510 0.662745
0.647059 0.290196 0.670588
0.768627 0.301961 0.670588
0.894118 0.329412 0.674510
0.996078 0.349020 0.678431
0.000000 0.403922 0.666667
0.113725 0.407843 0.670588
0.258824 0.403922 0.670588
0.392157 0.403922 0.666667
0.533333 0.411765 0.674510
0.650980 0.419608 0.678431
0.768627 0.431373 0.670588
0.890196 0.447059 0.674510
0.996078 0.466667 0.686275
0.054902 0.541176 0.674510
0.164706 0.529412 0.658824
0.278431 0.537255 0.662745
0.400000 0.541176 0.674510
0.529412 0.541176 0.670588
0.647059 0.549020 0.674510
0.776471 0.552941 0.682353
0.890196 0.564706 0.682353
0.988235 0.572549 0.674510
0.160784 0.674510 0.682353
0.207843 0.670588 0.678431
0.313725 0.670588 0.690196
0.415686 0.670588 0.686275
0.537255 0.670588 0.678431
0.654902 0.670588 0.682353
0.768627 0.670588 0.686275
0.878431 0.682353 0.694118
0.980392 0.686275 0.698039
0.247059 0.776471 0.678431
0.274510 0.780392 0.662745
0.352941 0.784314 0.686275
0.450980 0.784314 0.690196
0.560784 0.788235 0.694118
0.670588 0.788235 0.694118
0.780392 0.788235 0.698039
0.890196 0.784314 0.701961
0.980392 0.796078 0.717647
0.345098 0.890196 0.698039
0.376471 0.890196 0.709804
0.419608 0.890196 0.682353
0.498039 0.886275 0.701961
0.584314 0.890196 0.698039
0.686275 0.886275 0.709804
0.788235 0.890196 0.713725
0.890196 0.894118 0.721569
0.984314 0.901961 0.725490
0.462745 1.000000 0.741176
0.478431 0.996078 0.733333
0.509804 1.000000 0.733333
0.568627 1.000000 0.745098
0.635294 0.996078 0.741176
0.721569 0.996078 0.749020
0.807843 0.996078 0.752941
0.905882 1.000000 0.772549
1.000000 1.000000 0.780392
0.015686 0.015686 0.784314
0.074510 0.023529 0.772549
0.231373 0.031373 0.780392
0.376471 0.039216 0.780392
0.505882 0.058824 0.776471
0.639216 0.090196 0.780392
0.768627 0.129412 0.792157
0.890196 0.176471 0.784314
0.992157 0.231373 0.784314
0.000000 0.137255 0.772549
0.078431 0.149020 0.784314
0.235294 0.149020 0.784314
0.384314 0.149020 0.784314
0.513725 0.152941 0.784314
0.647059 0.180392 0.784314
0.768627 0.196078 0.788235
0.894118 0.223529 0.796078
1.000000 0.274510 0.803922
0.000000 0.266667 0.788235
0.101961 0.266667 0.792157
0.250980 0.270588 0.780392
0.388235 0.270588 0.788235
0.517647 0.278431 0.784314
0.639216 0.290196 0.784314
0.764706 0.301961 0.784314
0.886275 0.325490 0.788235
0.996078 0.356863 0.776471
0.007843 0.400000 0.784314
0.117647 0.400000 0.792157
0.262745 0.403922 0.788235
0.392157 0.407843 0.788235
0.517647 0.411765 0.784314
0.643137 0.419608 0.788235
0.768627 0.427451 0.796078
0.894118 0.447059 0.800000
0.996078 0.466667 0.796078
0.078431 0.529412 0.784314
0.168627 0.537255 0.780392
0.278431 0.529412 0.780392
0.400000 0.537255 0.796078
0.521569 0.537255 0.792157
0.647059 0.545098 0.792157
0.768627 0.549020 0.796078
0.890196 0.552941 0.800000
0.996078 0.576471 0.788235
0.172549 0.658824 0.788235
0.219608 0.662745 0.788235
0.305882 0.658824 0.792157
0.415686 0.662745 0.792157
0.533333 0.662745 0.792157
0.647059 0.666667 0.792157
0.772549 0.666667 0.792157
0.886275 0.678431 0.800000
0.996078 0.682353 0.796078
0.258824 0.780392 0.796078
0.290196 0.768627 0.803922
0.356863 0.776471 0.800000
0.450980 0.784314 0.796078
0.556863 0.780392 0.800000
0.670588 0.792157 0.803922
0.772549 0.788235 0.800000
0.886275 0.788235 0.811765
0.996078 0.803922 0.819608
0.349020 0.890196 0.800000
0.376471 0.890196 0.803922
0.423529 0.890196 0.796078
0.501961 0.882353 0.803922
0.588235 0.894118 0.807843
0.686275 0.894118 0.807843
0.784314 0.894118 0.807843
0.886275 0.898039 0.815686
0.996078 0.898039 0.827451
0.470588 1.000000 0.803922
0.478431 1.000000 0.823529
0.517647 0.992157 0.815686
0.568627 0.996078 0.819608
0.635294 1.000000 0.823529
0.721569 1.000000 0.827451
0.811765 1.000000 0.835294
0.901961 1.000000 0.843137
1.000000 1.000000 0.850980
0.000000 0.035294 0.901961
0.105882 0.039216 0.894118
0.254902 0.047059 0.894118
0.384314 0.058824 0.890196
0.509804 0.090196 0.890196
0.635294 0.117647 0.898039
0.760784 0.152941 0.898039
0.878431 0.192157 0.894118
0.996078 0.231373 0.898039
0.000000 0.145098 0.890196
0.117647 0.145098 0.905882
0.250980 0.145098 0.890196
0.388235 0.156863 0.894118
0.513725 0.168627 0.894118
0.635294 0.192157 0.898039
0.756863 0.215686 0.894118
0.882353 0.243137 0.898039
0.992157 0.274510 0.901961
0.000000 0.270588 0.890196
0.137255 0.270588 0.894118
0.262745 0.286275 0.874510
0.384314 0.278431 0.894118
0.517647 0.286275 0.898039
0.635294 0.298039 0.898039
0.760784 0.313725 0.901961
0.890196 0.337255 0.898039
0.996078 0.352941 0.894118
0.047059 0.403922 0.894118
0.149020 0.403922 0.898039
0.270588 0.400000 0.898039
0.392157 0.407843 0.898039
0.521569 0.411765 0.894118
0.639216 0.423529 0.894118
0.760784 0.435294 0.898039
0.886275 0.443137 0.905882
1.000000 0.462745 0.905882
0.121569 0.533333 0.898039
0.180392 0.525490 0.905882
0.274510 0.529412 0.890196
0.396078 0.533333 0.894118
0.521569 0.533333 0.898039
0.639216 0.541176 0.898039
0.764706 0.552941 0.898039
0.882353 0.560784 0.894118
0.996078 0.568627 0.901961
0.196078 0.654902 0.898039
0.243137 0.654902 0.901961
0.325490 0.654902 0.898039
0.419608 0.654902 0.898039
0.533333 0.658824 0.898039
0.643137 0.662745 0.890196
0.764706 0.666667 0.894118
0.886275 0.674510 0.901961
0.988235 0.678431 0.901961
0.286275 0.776471 0.894118
0.321569 0.776471 0.898039
0.372549 0.776471 0.901961
0.470588 0.780392 0.901961
0.564706 0.780392 0.901961
0.666667 0.784314 0.894118
0.772549 0.788235 0.901961
0.886275 0.788235 0.909804
0.992157 0.796078 0.909804
0.384314 0.882353 0.894118
0.400000 0.886275 0.894118
0.443137 0.886275 0.909804
0.505882 0.890196 0.894118
0.596078 0.890196 0.909804
0.686275 0.898039 0.905882
0.784314 0.894118 0.898039
0.890196 0.894118 0.909804
0.996078 0.901961 0.909804
0.490196 1.000000 0.917647
0.498039 0.996078 0.917647
0.521569 1.000000 0.917647
0.572549 0.996078 0.905882
0.639216 1.000000 0.917647
0.725490 0.996078 0.913725
0.807843 1.000000 0.917647
0.905882 0.996078 0.917647
1.000000 1.000000 0.929412
0.078431 0.066667 0.996078
0.160784 0.070588 1.000000
0.274510 0.086275 1.000000
0.396078 0.098039 1.000000
0.521569 0.129412 1.000000
0.643137 0.160784 1.000000
0.760784 0.192157 1.000000
0.874510 0.235294 1.000000
0.988235 0.274510 1.000000
0.101961 0.164706 0.984314
0.164706 0.164706 0.996078
0.282353 0.168627 1.000000
0.400000 0.184314 1.000000
0.521569 0.196078 1.000000
0.639216 0.215686 1.000000
0.760784 0.247059 1.000000
0.874510 0.282353 1.000000
0.992157 0.317647 1.000000
0.105882 0.278431 1.000000
0.176471 0.278431 0.996078
0.286275 0.278431 1.000000
0.396078 0.286275 1.000000
0.525490 0.301961 0.996078
0.643137 0.313725 1.000000
0.760784 0.333333 0.996078
0.874510 0.356863 0.996078
1.000000 0.380392 1.000000
0.133333 0.403922 1.000000
0.188235 0.403922 1.000000
0.290196 0.403922 1.000000
0.407843 0.411765 1.000000
0.521569 0.423529 0.996078
0.639216 0.431373 0.996078
0.760784 0.443137 0.988235
0.882353 0.458824 1.000000
0.996078 0.474510 1.000000
0.152941 0.529412 1.000000
0.207843 0.521569 1.000000
0.294118 0.525490 0.996078
0.411765 0.529412 1.000000
0.525490 0.533333 1.000000
0.643137 0.545098 1.000000
0.760784 0.552941 1.000000
0.878431 0.568627 1.000000
0.996078 0.572549 1.000000
0.231373 0.650980 0.996078
0.262745 0.654902 1.000000
0.337255 0.654902 1.000000
0.427451 0.650980 1.000000
0.533333 0.650980 0.996078
0.643137 0.658824 1.000000
0.764706 0.666667 0.996078
0.882353 0.678431 1.000000
0.992157 0.682353 1.000000
0.341176 0.780392 1.000000
0.345098 0.780392 1.000000
0.403922 0.776471 1.000000
0.482353 0.776471 1.000000
0.568627 0.772549 1.000000
0.670588 0.772549 1.000000
0.776471 0.780392 1.000000
0.898039 0.792157 1.000000
0.984314 0.788235 0.996078
0.419608 0.894118 1.000000
0.427451 0.898039 1.000000
0.470588 0.890196 1.000000
0.525490 0.894118 0.996078
0.607843 0.898039 1.000000
0.694118 0.894118 1.000000
0.788235 0.894118 1.000000
0.894118 0.894118 0.996078
1.000000 0.890196 1.000000
0.505882 0.996078 1.000000
0.521569 0.996078 0.992157
0.549020 0.996078 0.996078
0.603922 1.000000 1.000000
0.650980 1.000000 1.000000
0.725490 1.000000 0.996078
0.819608 1.000000 0.992157
0.917647 1.000000 1.000000
1.000000 0.996078 1.000000
