lut_library_archive/removed_20260629/50个风景lut/50个风景lut13.cube
# 版权归凌孟成所有，侵权必究
TITLE "Jungle LUT #13"
#LUT size
LUT_3D_SIZE 5
#LUT data points
0.050980 0.035294 0.031373
0.254902 0.011765 0.023529
0.474510 0.003922 0.011765
0.733333 0.031373 0.023529
0.992157 0.070588 0.027451
0.003922 0.247059 0.054902
0.239216 0.231373 0.000000
0.482353 0.235294 0.058824
0.737255 0.262745 0.054902
0.988235 0.274510 0.082353
0.000000 0.513725 0.074510
0.000000 0.521569 0.000000
0.435294 0.474510 0.000000
0.752941 0.494118 0.062745
1.000000 0.529412 0.192157
0.000000 0.823529 0.156863
0.003922 0.827451 0.031373
0.000000 0.811765 0.000000
0.682353 0.760784 0.000000
1.000000 0.752941 0.000000
0.000000 1.000000 0.258824
0.000000 0.996078 0.203922
0.000000 1.000000 0.011765
0.101961 0.996078 0.003922
0.988235 1.000000 0.000000
0.070588 0.015686 0.207843
0.266667 0.003922 0.211765
0.478431 0.007843 0.215686
0.713725 0.000000 0.200000
0.996078 0.000000 0.203922
0.094118 0.231373 0.207843
0.266667 0.223529 0.200000
0.466667 0.235294 0.211765
0.721569 0.239216 0.211765
0.996078 0.250980 0.227451
0.000000 0.490196 0.215686
0.003922 0.509804 0.145098
0.458824 0.470588 0.160784
0.752941 0.501961 0.250980
1.000000 0.529412 0.294118
0.000000 0.807843 0.274510
0.000000 0.827451 0.219608
0.000000 0.815686 0.003922
0.709804 0.764706 0.000000
1.000000 0.756863 0.211765
0.000000 1.000000 0.325490
0.000000 0.992157 0.290196
0.007843 0.996078 0.011765
0.007843 1.000000 0.000000
0.988235 1.000000 0.007843
0.098039 0.015686 0.427451
0.266667 0.011765 0.423529
0.474510 0.000000 0.419608
0.729412 0.003922 0.443137
1.000000 0.000000 0.439216
0.117647 0.223529 0.423529
0.270588 0.219608 0.431373
0.470588 0.215686 0.435294
0.721569 0.196078 0.435294
0.996078 0.098039 0.439216
0.129412 0.450980 0.431373
0.250980 0.458824 0.419608
0.482353 0.447059 0.419608
0.752941 0.478431 0.447059
0.996078 0.486275 0.454902
0.007843 0.776471 0.509804
0.003922 0.776471 0.486275
0.000000 0.819608 0.349020
0.725490 0.756863 0.360784
0.996078 0.772549 0.501961
0.000000 1.000000 0.521569
0.000000 0.996078 0.498039
0.000000 1.000000 0.396078
0.000000 0.996078 0.101961
0.996078 0.996078 0.266667
0.125490 0.000000 0.705882
0.278431 0.003922 0.701961
0.501961 0.003922 0.705882
0.749020 0.003922 0.701961
1.000000 0.003922 0.701961
0.090196 0.211765 0.709804
0.270588 0.215686 0.698039
0.505882 0.196078 0.705882
0.752941 0.156863 0.701961
0.992157 0.031373 0.709804
0.000000 0.458824 0.701961
0.176471 0.454902 0.705882
0.482353 0.447059 0.709804
0.764706 0.431373 0.698039
0.996078 0.427451 0.698039
0.003922 0.745098 0.705882
0.000000 0.741176 0.701961
0.458824 0.745098 0.701961
0.764706 0.737255 0.705882
1.000000 0.764706 0.733333
0.000000 1.000000 0.772549
0.007843 0.992157 0.760784
0.270588 1.000000 0.792157
0.188235 1.000000 0.678431
1.000000 0.996078 0.678431
0.078431 0.000000 1.000000
0.282353 0.003922 1.000000
0.517647 0.003922 1.000000
0.792157 0.000000 1.000000
0.996078 0.007843 1.000000
0.003922 0.192157 1.000000
0.239216 0.192157 0.992157
0.517647 0.160784 1.000000
0.784314 0.086275 1.000000
1.000000 0.000000 0.996078
0.000000 0.443137 1.000000
0.003922 0.439216 0.992157
0.454902 0.435294 1.000000
0.764706 0.419608 1.000000
1.000000 0.403922 0.992157
0.003922 0.745098 1.000000
0.000000 0.737255 1.000000
0.403922 0.737255 1.000000
0.745098 0.733333 1.000000
1.000000 0.721569 1.000000
0.000000 0.996078 0.996078
0.011765 0.992157 1.000000
0.396078 1.000000 1.000000
0.780392 0.996078 1.000000
1.000000 0.996078 1.000000
