lut_library_archive/removed_20260629/50个风景lut/50个风景lut17.cube
# 版权归凌孟成所有，侵权必究
TITLE "Jungle LUT #17"
#LUT size
LUT_3D_SIZE 5
#LUT data points
0.003922 0.000000 0.000000
0.266667 0.000000 0.000000
0.541176 0.003922 0.000000
0.839216 0.000000 0.000000
1.000000 0.003922 0.011765
0.000000 0.250980 0.000000
0.258824 0.254902 0.000000
0.560784 0.247059 0.000000
0.839216 0.235294 0.003922
1.000000 0.188235 0.000000
0.000000 0.537255 0.000000
0.286275 0.549020 0.003922
0.568627 0.529412 0.003922
0.831373 0.505882 0.003922
0.996078 0.482353 0.000000
0.003922 0.772549 0.003922
0.282353 0.776471 0.000000
0.541176 0.768627 0.000000
0.803922 0.745098 0.000000
1.000000 0.729412 0.007843
0.000000 0.980392 0.000000
0.258824 0.968627 0.000000
0.529412 0.964706 0.003922
0.807843 0.956863 0.003922
0.992157 0.925490 0.000000
0.000000 0.000000 0.247059
0.254902 0.003922 0.243137
0.549020 0.000000 0.247059
0.819608 0.000000 0.223529
0.996078 0.000000 0.211765
0.000000 0.243137 0.247059
0.250980 0.243137 0.247059
0.549020 0.235294 0.239216
0.819608 0.207843 0.219608
1.000000 0.152941 0.203922
0.000000 0.521569 0.211765
0.250980 0.529412 0.215686
0.556863 0.513725 0.203922
0.811765 0.490196 0.192157
0.992157 0.470588 0.176471
0.007843 0.752941 0.149020
0.250980 0.760784 0.172549
0.533333 0.752941 0.160784
0.803922 0.745098 0.137255
1.000000 0.721569 0.105882
0.000000 0.972549 0.062745
0.219608 0.964706 0.035294
0.513725 0.964706 0.003922
0.807843 0.956863 0.000000
1.000000 0.921569 0.000000
0.000000 0.000000 0.537255
0.262745 0.003922 0.537255
0.552941 0.003922 0.533333
0.819608 0.003922 0.521569
1.000000 0.003922 0.501961
0.000000 0.243137 0.537255
0.235294 0.231373 0.529412
0.552941 0.207843 0.537255
0.819608 0.180392 0.505882
1.000000 0.141176 0.486275
0.000000 0.521569 0.517647
0.223529 0.529412 0.537255
0.552941 0.513725 0.517647
0.811765 0.490196 0.498039
0.996078 0.458824 0.490196
0.000000 0.764706 0.490196
0.231373 0.764706 0.505882
0.521569 0.756863 0.482353
0.803922 0.745098 0.474510
1.000000 0.721569 0.462745
0.000000 0.968627 0.450980
0.223529 0.960784 0.450980
0.501961 0.960784 0.443137
0.807843 0.952941 0.439216
0.996078 0.917647 0.427451
0.003922 0.000000 0.784314
0.258824 0.000000 0.784314
0.537255 0.000000 0.792157
0.807843 0.000000 0.780392
0.996078 0.007843 0.764706
0.000000 0.211765 0.792157
0.211765 0.211765 0.784314
0.521569 0.188235 0.788235
0.811765 0.137255 0.780392
1.000000 0.086275 0.764706
0.003922 0.494118 0.792157
0.168627 0.490196 0.780392
0.525490 0.482353 0.792157
0.815686 0.474510 0.784314
0.996078 0.470588 0.780392
0.000000 0.764706 0.780392
0.160784 0.760784 0.780392
0.529412 0.752941 0.780392
0.807843 0.741176 0.780392
1.000000 0.733333 0.784314
0.047059 0.972549 0.752941
0.270588 0.960784 0.737255
0.556863 0.956863 0.768627
0.823529 0.949020 0.764706
1.000000 0.917647 0.764706
0.000000 0.000000 0.996078
0.235294 0.000000 0.996078
0.513725 0.000000 0.996078
0.788235 0.000000 1.000000
0.992157 0.000000 1.000000
0.000000 0.196078 1.000000
0.223529 0.192157 1.000000
0.509804 0.172549 1.000000
0.784314 0.129412 1.000000
0.992157 0.000000 1.000000
0.007843 0.458824 0.996078
0.227451 0.470588 1.000000
0.521569 0.470588 0.996078
0.792157 0.462745 1.000000
1.000000 0.443137 1.000000
0.003922 0.717647 1.000000
0.192157 0.717647 1.000000
0.529412 0.717647 1.000000
0.811765 0.725490 1.000000
1.000000 0.713725 1.000000
0.000000 0.968627 0.996078
0.219608 0.964706 1.000000
0.564706 0.956863 0.996078
0.870588 0.937255 1.000000
1.000000 0.909804 0.996078
