lut_library_archive/removed_20260629/50个风景lut/50个风景lut26.cube
# 版权归凌孟成所有，侵权必究
TITLE "Jungle LUT #26"
#LUT size
LUT_3D_SIZE 9
#LUT data points
0.000000 0.000000 0.000000
0.086275 0.003922 0.000000
0.196078 0.000000 0.003922
0.337255 0.003922 0.000000
0.525490 0.000000 0.003922
0.713725 0.003922 0.007843
0.878431 0.000000 0.000000
0.996078 0.000000 0.000000
0.996078 0.003922 0.000000
0.000000 0.098039 0.011765
0.078431 0.094118 0.000000
0.200000 0.105882 0.000000
0.349020 0.117647 0.000000
0.521569 0.129412 0.000000
0.709804 0.137255 0.003922
0.874510 0.121569 0.007843
0.996078 0.098039 0.000000
1.000000 0.062745 0.003922
0.000000 0.227451 0.000000
0.066667 0.219608 0.003922
0.196078 0.227451 0.000000
0.360784 0.243137 0.000000
0.537255 0.266667 0.000000
0.721569 0.282353 0.000000
0.886275 0.274510 0.003922
1.000000 0.266667 0.000000
1.000000 0.243137 0.011765
0.000000 0.388235 0.011765
0.043137 0.388235 0.000000
0.231373 0.388235 0.000000
0.392157 0.392157 0.007843
0.560784 0.415686 0.000000
0.725490 0.427451 0.000000
0.878431 0.419608 0.003922
1.000000 0.411765 0.003922
0.996078 0.396078 0.000000
0.003922 0.572549 0.000000
0.011765 0.576471 0.000000
0.254902 0.576471 0.000000
0.427451 0.576471 0.000000
0.580392 0.572549 0.000000
0.741176 0.576471 0.000000
0.882353 0.568627 0.000000
0.996078 0.556863 0.000000
1.000000 0.529412 0.000000
0.003922 0.733333 0.000000
0.000000 0.745098 0.003922
0.254902 0.733333 0.000000
0.423529 0.733333 0.000000
0.592157 0.725490 0.000000
0.741176 0.725490 0.007843
0.878431 0.713725 0.000000
0.992157 0.690196 0.000000
1.000000 0.670588 0.000000
0.000000 0.854902 0.007843
0.003922 0.847059 0.000000
0.219608 0.858824 0.000000
0.403922 0.854902 0.000000
0.568627 0.847059 0.000000
0.713725 0.843137 0.000000
0.858824 0.839216 0.003922
0.988235 0.823529 0.000000
0.988235 0.800000 0.000000
0.000000 0.952941 0.003922
0.000000 0.960784 0.000000
0.196078 0.952941 0.000000
0.376471 0.956863 0.000000
0.537255 0.949020 0.000000
0.686275 0.949020 0.007843
0.815686 0.949020 0.000000
0.976471 0.941176 0.000000
1.000000 0.925490 0.000000
0.000000 1.000000 0.000000
0.007843 1.000000 0.000000
0.152941 0.996078 0.000000
0.341176 1.000000 0.000000
0.494118 1.000000 0.000000
0.658824 1.000000 0.000000
0.815686 1.000000 0.003922
0.956863 1.000000 0.000000
1.000000 1.000000 0.003922
0.000000 0.000000 0.078431
0.082353 0.000000 0.078431
0.203922 0.000000 0.086275
0.341176 0.000000 0.066667
0.533333 0.000000 0.054902
0.713725 0.000000 0.027451
0.882353 0.000000 0.000000
0.996078 0.000000 0.000000
0.996078 0.000000 0.007843
0.000000 0.086275 0.074510
0.086275 0.098039 0.062745
0.203922 0.098039 0.070588
0.356863 0.094118 0.058824
0.537255 0.094118 0.031373
0.717647 0.086275 0.007843
0.878431 0.058824 0.000000
0.996078 0.011765 0.007843
0.996078 0.000000 0.007843
0.003922 0.223529 0.047059
0.058824 0.227451 0.047059
0.211765 0.223529 0.047059
0.364706 0.235294 0.027451
0.545098 0.258824 0.000000
0.725490 0.266667 0.000000
0.882353 0.258824 0.003922
0.992157 0.243137 0.000000
0.992157 0.223529 0.000000
0.007843 0.380392 0.003922
0.007843 0.388235 0.007843
0.227451 0.384314 0.000000
0.384314 0.392157 0.003922
0.564706 0.415686 0.000000
0.737255 0.419608 0.000000
0.886275 0.415686 0.000000
1.000000 0.403922 0.000000
1.000000 0.380392 0.000000
0.000000 0.572549 0.015686
0.007843 0.572549 0.000000
0.243137 0.572549 0.000000
0.427451 0.576471 0.000000
0.576471 0.576471 0.000000
0.745098 0.568627 0.000000
0.882353 0.568627 0.000000
1.000000 0.549020 0.000000
1.000000 0.533333 0.011765
0.003922 0.729412 0.007843
0.000000 0.721569 0.000000
0.235294 0.729412 0.000000
0.415686 0.729412 0.000000
0.584314 0.725490 0.000000
0.729412 0.725490 0.000000
0.882353 0.705882 0.000000
1.000000 0.686275 0.007843
0.996078 0.654902 0.000000
0.003922 0.854902 0.000000
0.011765 0.854902 0.003922
0.211765 0.847059 0.000000
0.388235 0.854902 0.000000
0.552941 0.847059 0.003922
0.713725 0.847059 0.000000
0.862745 0.843137 0.000000
0.992157 0.819608 0.000000
1.000000 0.796078 0.003922
0.000000 0.956863 0.000000
0.000000 0.964706 0.000000
0.192157 0.956863 0.000000
0.368627 0.952941 0.003922
0.525490 0.952941 0.000000
0.678431 0.941176 0.000000
0.815686 0.949020 0.000000
0.972549 0.937255 0.000000
1.000000 0.921569 0.000000
0.000000 1.000000 0.019608
0.000000 1.000000 0.000000
0.145098 1.000000 0.000000
0.352941 1.000000 0.003922
0.501961 1.000000 0.007843
0.658824 1.000000 0.000000
0.815686 1.000000 0.000000
0.960784 1.000000 0.000000
1.000000 0.996078 0.011765
0.000000 0.000000 0.203922
0.094118 0.000000 0.196078
0.207843 0.003922 0.196078
0.352941 0.000000 0.207843
0.541176 0.003922 0.223529
0.733333 0.000000 0.196078
0.890196 0.003922 0.168627
1.000000 0.000000 0.145098
0.988235 0.003922 0.141176
0.000000 0.098039 0.207843
0.086275 0.090196 0.200000
0.215686 0.086275 0.192157
0.360784 0.066667 0.196078
0.556863 0.000000 0.196078
0.725490 0.003922 0.176471
0.894118 0.000000 0.160784
1.000000 0.000000 0.145098
1.000000 0.000000 0.125490
0.000000 0.219608 0.196078
0.027451 0.219608 0.203922
0.203922 0.227451 0.180392
0.376471 0.227451 0.184314
0.556863 0.231373 0.176471
0.756863 0.219608 0.164706
0.886275 0.207843 0.145098
1.000000 0.200000 0.133333
1.000000 0.180392 0.121569
0.000000 0.388235 0.168627
0.000000 0.388235 0.164706
0.203922 0.392157 0.164706
0.392157 0.392157 0.149020
0.576471 0.400000 0.137255
0.737255 0.403922 0.141176
0.890196 0.400000 0.117647
0.996078 0.388235 0.105882
1.000000 0.364706 0.094118
0.000000 0.584314 0.101961
0.000000 0.572549 0.086275
0.207843 0.576471 0.086275
0.403922 0.580392 0.082353
0.584314 0.572549 0.058824
0.745098 0.564706 0.027451
0.890196 0.556863 0.050980
1.000000 0.541176 0.058824
1.000000 0.517647 0.019608
0.007843 0.737255 0.003922
0.007843 0.737255 0.003922
0.184314 0.733333 0.007843
0.400000 0.729412 0.007843
0.576471 0.729412 0.000000
0.737255 0.721569 0.000000
0.882353 0.705882 0.000000
0.996078 0.682353 0.003922
0.992157 0.662745 0.000000
0.000000 0.854902 0.000000
0.000000 0.847059 0.000000
0.180392 0.850980 0.003922
0.384314 0.850980 0.000000
0.552941 0.847059 0.003922
0.709804 0.847059 0.000000
0.866667 0.839216 0.000000
1.000000 0.831373 0.000000
1.000000 0.788235 0.000000
0.003922 0.964706 0.003922
0.000000 0.956863 0.000000
0.168627 0.956863 0.000000
0.368627 0.952941 0.000000
0.521569 0.949020 0.000000
0.682353 0.945098 0.003922
0.811765 0.941176 0.000000
0.968627 0.941176 0.000000
1.000000 0.917647 0.003922
0.003922 0.996078 0.000000
0.003922 0.996078 0.000000
0.164706 0.996078 0.003922
0.345098 1.000000 0.000000
0.505882 1.000000 0.000000
0.650980 1.000000 0.000000
0.811765 0.996078 0.000000
0.956863 1.000000 0.000000
1.000000 1.000000 0.003922
0.000000 0.000000 0.356863
0.098039 0.003922 0.341176
0.231373 0.000000 0.352941
0.368627 0.000000 0.349020
0.552941 0.000000 0.368627
0.729412 0.003922 0.380392
0.901961 0.003922 0.368627
1.000000 0.000000 0.337255
1.000000 0.003922 0.321569
0.007843 0.082353 0.352941
0.054902 0.082353 0.349020
0.223529 0.066667 0.352941
0.376471 0.027451 0.349020
0.552941 0.000000 0.368627
0.741176 0.000000 0.372549
0.894118 0.000000 0.352941
0.992157 0.000000 0.341176
0.988235 0.007843 0.329412
0.003922 0.235294 0.360784
0.000000 0.227451 0.352941
0.200000 0.215686 0.360784
0.392157 0.211765 0.360784
0.572549 0.192157 0.360784
0.745098 0.160784 0.341176
0.898039 0.145098 0.345098
1.000000 0.152941 0.337255
1.000000 0.152941 0.317647
0.000000 0.388235 0.368627
0.000000 0.388235 0.360784
0.168627 0.392157 0.364706
0.396078 0.384314 0.349020
0.580392 0.384314 0.341176
0.741176 0.392157 0.337255
0.894118 0.388235 0.337255
1.000000 0.372549 0.341176
1.000000 0.360784 0.333333
0.003922 0.580392 0.337255
0.003922 0.580392 0.333333
0.086275 0.580392 0.321569
0.396078 0.576471 0.321569
0.588235 0.572549 0.317647
0.752941 0.564706 0.321569
0.890196 0.552941 0.329412
1.000000 0.533333 0.321569
0.996078 0.513725 0.313725
0.000000 0.737255 0.305882
0.011765 0.733333 0.317647
0.137255 0.737255 0.313725
0.384314 0.733333 0.309804
0.576471 0.729412 0.309804
0.749020 0.721569 0.305882
0.878431 0.705882 0.294118
0.996078 0.682353 0.317647
1.000000 0.654902 0.309804
0.011765 0.850980 0.301961
0.000000 0.862745 0.309804
0.149020 0.854902 0.301961
0.376471 0.850980 0.298039
0.549020 0.850980 0.286275
0.713725 0.843137 0.290196
0.870588 0.843137 0.294118
0.988235 0.823529 0.298039
1.000000 0.792157 0.298039
0.003922 0.956863 0.290196
0.000000 0.952941 0.294118
0.196078 0.956863 0.305882
0.384314 0.952941 0.305882
0.529412 0.949020 0.298039
0.682353 0.949020 0.301961
0.827451 0.937255 0.294118
0.968627 0.941176 0.290196
1.000000 0.913725 0.282353
0.003922 1.000000 0.309804
0.015686 0.996078 0.298039
0.196078 0.996078 0.294118
0.368627 0.996078 0.298039
0.517647 1.000000 0.298039
0.658824 1.000000 0.290196
0.811765 1.000000 0.286275
0.956863 1.000000 0.286275
1.000000 1.000000 0.301961
0.000000 0.000000 0.533333
0.090196 0.000000 0.537255
0.262745 0.000000 0.533333
0.407843 0.003922 0.533333
0.564706 0.003922 0.529412
0.745098 0.000000 0.549020
0.894118 0.000000 0.537255
1.000000 0.000000 0.509804
0.996078 0.000000 0.490196
0.000000 0.070588 0.521569
0.007843 0.066667 0.525490
0.235294 0.027451 0.545098
0.415686 0.000000 0.537255
0.576471 0.003922 0.533333
0.741176 0.000000 0.541176
0.894118 0.003922 0.529412
0.992157 0.003922 0.517647
0.996078 0.000000 0.498039
0.000000 0.215686 0.541176
0.000000 0.215686 0.541176
0.180392 0.203922 0.549020
0.403922 0.196078 0.549020
0.580392 0.168627 0.541176
0.745098 0.145098 0.537255
0.890196 0.133333 0.529412
1.000000 0.145098 0.513725
1.000000 0.203922 0.494118
0.000000 0.400000 0.541176
0.000000 0.396078 0.537255
0.101961 0.384314 0.533333
0.384314 0.380392 0.552941
0.588235 0.372549 0.537255
0.756863 0.380392 0.529412
0.890196 0.392157 0.529412
0.996078 0.403922 0.533333
0.996078 0.415686 0.521569
0.000000 0.576471 0.537255
0.003922 0.580392 0.541176
0.039216 0.584314 0.541176
0.380392 0.576471 0.529412
0.584314 0.576471 0.529412
0.737255 0.560784 0.533333
0.874510 0.560784 0.525490
1.000000 0.552941 0.521569
1.000000 0.541176 0.513725
0.007843 0.729412 0.517647
0.007843 0.737255 0.521569
0.129412 0.733333 0.521569
0.400000 0.729412 0.517647
0.576471 0.729412 0.513725
0.741176 0.717647 0.513725
0.878431 0.709804 0.513725
0.984314 0.694118 0.525490
1.000000 0.678431 0.525490
0.000000 0.854902 0.513725
0.000000 0.858824 0.505882
0.250980 0.854902 0.517647
0.403922 0.850980 0.509804
0.560784 0.850980 0.509804
0.709804 0.843137 0.501961
0.858824 0.843137 0.501961
0.972549 0.823529 0.498039
1.000000 0.800000 0.513725
0.003922 0.952941 0.509804
0.117647 0.956863 0.509804
0.270588 0.956863 0.521569
0.411765 0.952941 0.505882
0.556863 0.949020 0.509804
0.690196 0.952941 0.509804
0.823529 0.941176 0.501961
0.960784 0.937255 0.490196
1.000000 0.917647 0.509804
0.145098 0.996078 0.513725
0.200000 1.000000 0.505882
0.301961 1.000000 0.501961
0.423529 0.996078 0.498039
0.545098 1.000000 0.501961
0.670588 1.000000 0.498039
0.819608 1.000000 0.501961
0.952941 1.000000 0.498039
1.000000 0.996078 0.501961
0.000000 0.003922 0.694118
0.066667 0.000000 0.701961
0.247059 0.000000 0.694118
0.423529 0.003922 0.701961
0.584314 0.000000 0.701961
0.733333 0.003922 0.698039
0.894118 0.000000 0.686275
1.000000 0.000000 0.674510
0.992157 0.003922 0.643137
0.000000 0.043137 0.694118
0.000000 0.027451 0.694118
0.247059 0.000000 0.709804
0.423529 0.000000 0.698039
0.580392 0.000000 0.701961
0.749020 0.000000 0.709804
0.898039 0.003922 0.698039
1.000000 0.003922 0.666667
0.996078 0.000000 0.650980
0.007843 0.200000 0.701961
0.000000 0.200000 0.698039
0.180392 0.192157 0.705882
0.400000 0.172549 0.705882
0.580392 0.156863 0.705882
0.745098 0.109804 0.701961
0.890196 0.105882 0.694118
1.000000 0.141176 0.674510
1.000000 0.192157 0.654902
0.000000 0.384314 0.701961
0.000000 0.376471 0.705882
0.074510 0.372549 0.705882
0.384314 0.368627 0.701961
0.580392 0.368627 0.705882
0.752941 0.360784 0.705882
0.894118 0.380392 0.686275
0.996078 0.403922 0.674510
1.000000 0.427451 0.670588
0.000000 0.564706 0.701961
0.011765 0.556863 0.701961
0.066667 0.560784 0.698039
0.388235 0.560784 0.698039
0.576471 0.560784 0.698039
0.741176 0.564706 0.694118
0.878431 0.568627 0.690196
0.988235 0.580392 0.686275
0.996078 0.592157 0.678431
0.003922 0.729412 0.698039
0.000000 0.733333 0.690196
0.145098 0.725490 0.694118
0.388235 0.729412 0.686275
0.576471 0.721569 0.682353
0.729412 0.721569 0.674510
0.858824 0.713725 0.682353
0.976471 0.713725 0.690196
1.000000 0.698039 0.682353
0.003922 0.854902 0.670588
0.000000 0.847059 0.662745
0.266667 0.847059 0.674510
0.435294 0.847059 0.678431
0.588235 0.843137 0.678431
0.721569 0.847059 0.686275
0.858824 0.839216 0.682353
0.960784 0.827451 0.690196
0.996078 0.823529 0.686275
0.203922 0.952941 0.670588
0.274510 0.952941 0.670588
0.372549 0.949020 0.666667
0.482353 0.949020 0.682353
0.588235 0.945098 0.674510
0.713725 0.937255 0.670588
0.823529 0.941176 0.666667
0.956863 0.937255 0.670588
1.000000 0.921569 0.658824
0.384314 1.000000 0.694118
0.407843 0.996078 0.686275
0.450980 1.000000 0.674510
0.494118 1.000000 0.678431
0.592157 1.000000 0.666667
0.705882 1.000000 0.666667
0.827451 0.996078 0.674510
0.949020 0.996078 0.666667
1.000000 0.996078 0.678431
0.000000 0.000000 0.831373
0.023529 0.003922 0.843137
0.258824 0.000000 0.839216
0.411765 0.003922 0.839216
0.568627 0.003922 0.831373
0.721569 0.000000 0.831373
0.878431 0.000000 0.831373
1.000000 0.000000 0.815686
0.996078 0.000000 0.784314
0.011765 0.000000 0.835294
0.000000 0.000000 0.831373
0.231373 0.000000 0.831373
0.411765 0.003922 0.839216
0.564706 0.000000 0.831373
0.721569 0.000000 0.831373
0.878431 0.000000 0.835294
0.992157 0.000000 0.811765
0.996078 0.000000 0.784314
0.007843 0.192157 0.839216
0.000000 0.192157 0.839216
0.176471 0.180392 0.831373
0.392157 0.168627 0.831373
0.556863 0.156863 0.839216
0.713725 0.121569 0.831373
0.874510 0.098039 0.839216
1.000000 0.125490 0.815686
1.000000 0.192157 0.788235
0.000000 0.368627 0.843137
0.000000 0.368627 0.831373
0.109804 0.360784 0.835294
0.368627 0.364706 0.831373
0.560784 0.364706 0.839216
0.717647 0.368627 0.839216
0.882353 0.368627 0.835294
0.992157 0.400000 0.819608
0.996078 0.427451 0.792157
0.000000 0.541176 0.815686
0.000000 0.541176 0.827451
0.152941 0.545098 0.827451
0.396078 0.549020 0.843137
0.560784 0.556863 0.831373
0.717647 0.556863 0.823529
0.870588 0.560784 0.827451
0.980392 0.572549 0.811765
0.992157 0.580392 0.800000
0.000000 0.701961 0.811765
0.003922 0.705882 0.823529
0.200000 0.705882 0.827451
0.411765 0.713725 0.831373
0.576471 0.709804 0.819608
0.725490 0.713725 0.827451
0.866667 0.713725 0.827451
0.968627 0.717647 0.811765
1.000000 0.721569 0.815686
0.015686 0.847059 0.827451
0.027451 0.854902 0.811765
0.278431 0.847059 0.819608
0.450980 0.854902 0.819608
0.592157 0.847059 0.815686
0.737255 0.843137 0.823529
0.843137 0.839216 0.823529
0.956863 0.835294 0.823529
0.992157 0.839216 0.811765
0.250980 0.949020 0.784314
0.305882 0.945098 0.792157
0.388235 0.941176 0.803922
0.498039 0.945098 0.796078
0.627451 0.945098 0.807843
0.737255 0.937255 0.807843
0.831373 0.937255 0.807843
0.956863 0.937255 0.811765
0.992157 0.933333 0.803922
0.400000 0.996078 0.796078
0.427451 1.000000 0.788235
0.478431 0.996078 0.792157
0.568627 0.996078 0.803922
0.662745 0.996078 0.823529
0.733333 1.000000 0.807843
0.843137 1.000000 0.803922
0.952941 1.000000 0.811765
1.000000 1.000000 0.811765
0.000000 0.000000 0.933333
0.000000 0.000000 0.933333
0.231373 0.000000 0.933333
0.396078 0.000000 0.949020
0.541176 0.000000 0.941176
0.690196 0.000000 0.945098
0.843137 0.003922 0.945098
0.980392 0.007843 0.945098
1.000000 0.003922 0.929412
0.003922 0.000000 0.952941
0.000000 0.000000 0.941176
0.215686 0.003922 0.937255
0.384314 0.000000 0.937255
0.545098 0.000000 0.945098
0.686275 0.000000 0.945098
0.839216 0.000000 0.949020
0.992157 0.000000 0.952941
0.996078 0.000000 0.925490
0.007843 0.192157 0.945098
0.003922 0.188235 0.941176
0.176471 0.176471 0.945098
0.372549 0.176471 0.949020
0.529412 0.160784 0.945098
0.686275 0.149020 0.941176
0.843137 0.141176 0.945098
0.984314 0.145098 0.945098
1.000000 0.180392 0.925490
0.000000 0.368627 0.941176
0.003922 0.364706 0.941176
0.145098 0.364706 0.949020
0.360784 0.368627 0.945098
0.537255 0.372549 0.945098
0.690196 0.368627 0.941176
0.843137 0.384314 0.945098
0.980392 0.388235 0.941176
1.000000 0.415686 0.925490
0.000000 0.529412 0.960784
0.000000 0.537255 0.952941
0.215686 0.533333 0.937255
0.407843 0.545098 0.945098
0.556863 0.549020 0.937255
0.698039 0.549020 0.945098
0.847059 0.556863 0.945098
0.976471 0.564706 0.937255
1.000000 0.580392 0.913725
0.000000 0.682353 0.921569
0.011765 0.690196 0.941176
0.274510 0.686275 0.933333
0.435294 0.694118 0.933333
0.584314 0.701961 0.937255
0.717647 0.701961 0.933333
0.843137 0.713725 0.929412
0.968627 0.717647 0.925490
1.000000 0.717647 0.913725
0.145098 0.823529 0.921569
0.215686 0.823529 0.941176
0.333333 0.827451 0.925490
0.478431 0.831373 0.933333
0.603922 0.827451 0.925490
0.733333 0.835294 0.925490
0.839216 0.839216 0.933333
0.952941 0.839216 0.925490
1.000000 0.839216 0.917647
0.274510 0.949020 0.933333
0.301961 0.952941 0.929412
0.396078 0.949020 0.925490
0.498039 0.949020 0.921569
0.611765 0.945098 0.921569
0.745098 0.937255 0.921569
0.850980 0.937255 0.925490
0.949020 0.933333 0.921569
0.996078 0.945098 0.913725
0.431373 0.992157 0.905882
0.450980 1.000000 0.905882
0.494118 1.000000 0.909804
0.576471 1.000000 0.905882
0.670588 0.996078 0.909804
0.768627 1.000000 0.913725
0.870588 1.000000 0.933333
0.952941 1.000000 0.933333
1.000000 1.000000 0.949020
0.000000 0.000000 0.996078
0.000000 0.003922 0.996078
0.219608 0.000000 1.000000
0.372549 0.000000 1.000000
0.513725 0.000000 0.996078
0.658824 0.003922 1.000000
0.803922 0.000000 1.000000
0.945098 0.000000 1.000000
1.000000 0.003922 1.000000
0.003922 0.003922 1.000000
0.003922 0.000000 0.996078
0.200000 0.003922 1.000000
0.364706 0.000000 1.000000
0.521569 0.000000 1.000000
0.654902 0.000000 1.000000
0.803922 0.000000 1.000000
0.945098 0.000000 1.000000
1.000000 0.000000 0.988235
0.003922 0.188235 1.000000
0.000000 0.188235 1.000000
0.172549 0.180392 1.000000
0.352941 0.180392 1.000000
0.513725 0.176471 1.000000
0.658824 0.180392 1.000000
0.800000 0.180392 0.996078
0.941176 0.196078 0.996078
0.996078 0.215686 0.996078
0.000000 0.368627 1.000000
0.000000 0.368627 0.996078
0.180392 0.368627 1.000000
0.368627 0.364706 1.000000
0.525490 0.380392 1.000000
0.658824 0.380392 1.000000
0.803922 0.392157 1.000000
0.937255 0.403922 1.000000
1.000000 0.415686 1.000000
0.003922 0.529412 1.000000
0.121569 0.529412 1.000000
0.274510 0.537255 0.996078
0.415686 0.545098 0.996078
0.549020 0.549020 0.996078
0.682353 0.552941 1.000000
0.811765 0.560784 1.000000
0.937255 0.572549 0.992157
0.996078 0.572549 1.000000
0.094118 0.666667 1.000000
0.180392 0.674510 0.996078
0.321569 0.674510 1.000000
0.454902 0.682353 1.000000
0.592157 0.690196 1.000000
0.709804 0.701961 0.996078
0.831373 0.705882 1.000000
0.937255 0.709804 1.000000
1.000000 0.713725 0.992157
0.250980 0.803922 1.000000
0.286275 0.803922 0.996078
0.388235 0.803922 1.000000
0.494118 0.807843 1.000000
0.615686 0.811765 1.000000
0.729412 0.823529 0.996078
0.835294 0.831373 0.996078
0.925490 0.839216 0.992157
1.000000 0.839216 0.996078
0.341176 0.921569 1.000000
0.368627 0.921569 0.996078
0.439216 0.917647 0.992157
0.529412 0.925490 1.000000
0.631373 0.925490 1.000000
0.745098 0.929412 0.992157
0.843137 0.925490 0.992157
0.941176 0.937255 1.000000
1.000000 0.945098 0.996078
0.447059 1.000000 1.000000
0.458824 0.996078 1.000000
0.509804 1.000000 1.000000
0.584314 0.996078 1.000000
0.686275 1.000000 1.000000
0.788235 1.000000 1.000000
0.890196 1.000000 1.000000
0.976471 1.000000 1.000000
1.000000 1.000000 1.000000
