lut_library_archive/removed_20260629/50个风景lut/50个风景lut41.cube
# 版权归凌孟成所有，侵权必究
TITLE "Jungle LUT #41"
#LUT size
LUT_3D_SIZE 9
#LUT data points
0.000000 0.003922 0.007843
0.058824 0.003922 0.000000
0.156863 0.000000 0.000000
0.258824 0.000000 0.000000
0.376471 0.000000 0.003922
0.513725 0.000000 0.000000
0.658824 0.003922 0.000000
0.811765 0.000000 0.007843
0.960784 0.000000 0.000000
0.003922 0.070588 0.000000
0.070588 0.062745 0.003922
0.149020 0.062745 0.003922
0.254902 0.074510 0.011765
0.376471 0.070588 0.019608
0.513725 0.070588 0.007843
0.662745 0.062745 0.000000
0.815686 0.039216 0.000000
0.960784 0.023529 0.003922
0.000000 0.164706 0.000000
0.062745 0.168627 0.007843
0.172549 0.164706 0.003922
0.262745 0.164706 0.015686
0.372549 0.176471 0.031373
0.509804 0.192157 0.015686
0.662745 0.200000 0.019608
0.815686 0.207843 0.003922
0.964706 0.207843 0.007843
0.000000 0.274510 0.000000
0.039216 0.282353 0.000000
0.180392 0.282353 0.003922
0.282353 0.290196 0.003922
0.400000 0.294118 0.000000
0.517647 0.301961 0.050980
0.666667 0.325490 0.062745
0.815686 0.337255 0.058824
0.960784 0.352941 0.070588
0.000000 0.419608 0.011765
0.000000 0.419608 0.003922
0.168627 0.415686 0.000000
0.298039 0.423529 0.000000
0.423529 0.419608 0.000000
0.552941 0.427451 0.000000
0.682353 0.443137 0.023529
0.823529 0.466667 0.121569
0.960784 0.486275 0.145098
0.000000 0.564706 0.000000
0.000000 0.572549 0.000000
0.141176 0.568627 0.000000
0.298039 0.568627 0.007843
0.454902 0.564706 0.000000
0.576471 0.572549 0.007843
0.713725 0.580392 0.000000
0.839216 0.592157 0.000000
0.980392 0.607843 0.145098
0.000000 0.721569 0.000000
0.007843 0.721569 0.000000
0.082353 0.713725 0.003922
0.294118 0.717647 0.000000
0.443137 0.717647 0.000000
0.596078 0.721569 0.000000
0.725490 0.721569 0.000000
0.862745 0.721569 0.000000
0.992157 0.725490 0.003922
0.000000 0.862745 0.000000
0.000000 0.866667 0.003922
0.000000 0.870588 0.000000
0.282353 0.870588 0.003922
0.447059 0.870588 0.000000
0.596078 0.870588 0.000000
0.737255 0.874510 0.000000
0.870588 0.870588 0.000000
1.000000 0.866667 0.000000
0.000000 1.000000 0.000000
0.011765 0.996078 0.000000
0.000000 0.996078 0.000000
0.258824 1.000000 0.000000
0.439216 1.000000 0.000000
0.588235 1.000000 0.000000
0.737255 1.000000 0.000000
0.870588 1.000000 0.003922
0.996078 0.996078 0.000000
0.000000 0.000000 0.078431
0.062745 0.003922 0.078431
0.168627 0.000000 0.078431
0.270588 0.000000 0.098039
0.388235 0.000000 0.082353
0.529412 0.007843 0.090196
0.674510 0.000000 0.090196
0.819608 0.000000 0.086275
0.968627 0.000000 0.090196
0.000000 0.062745 0.090196
0.066667 0.070588 0.090196
0.160784 0.062745 0.086275
0.274510 0.050980 0.086275
0.396078 0.035294 0.094118
0.525490 0.011765 0.090196
0.670588 0.000000 0.094118
0.815686 0.003922 0.086275
0.964706 0.007843 0.086275
0.000000 0.164706 0.078431
0.058824 0.168627 0.078431
0.172549 0.160784 0.086275
0.258824 0.168627 0.098039
0.392157 0.176471 0.105882
0.525490 0.180392 0.094118
0.670588 0.180392 0.101961
0.819608 0.184314 0.094118
0.964706 0.192157 0.098039
0.000000 0.282353 0.066667
0.000000 0.282353 0.074510
0.164706 0.286275 0.062745
0.286275 0.282353 0.062745
0.400000 0.290196 0.101961
0.517647 0.305882 0.125490
0.674510 0.321569 0.133333
0.823529 0.333333 0.129412
0.964706 0.345098 0.137255
0.000000 0.419608 0.015686
0.000000 0.415686 0.023529
0.152941 0.419608 0.023529
0.294118 0.423529 0.015686
0.427451 0.423529 0.007843
0.552941 0.427451 0.031373
0.686275 0.443137 0.125490
0.823529 0.462745 0.168627
0.964706 0.482353 0.188235
0.003922 0.564706 0.000000
0.007843 0.560784 0.000000
0.101961 0.564706 0.000000
0.298039 0.568627 0.000000
0.439216 0.572549 0.000000
0.572549 0.572549 0.000000
0.717647 0.580392 0.000000
0.843137 0.592157 0.078431
0.972549 0.607843 0.211765
0.003922 0.713725 0.003922
0.000000 0.721569 0.000000
0.000000 0.717647 0.000000
0.282353 0.713725 0.000000
0.443137 0.725490 0.000000
0.584314 0.717647 0.000000
0.729412 0.729412 0.007843
0.866667 0.725490 0.003922
0.992157 0.737255 0.031373
0.011765 0.862745 0.000000
0.000000 0.862745 0.000000
0.003922 0.866667 0.000000
0.274510 0.858824 0.003922
0.439216 0.870588 0.003922
0.592157 0.866667 0.003922
0.733333 0.870588 0.000000
0.874510 0.866667 0.000000
1.000000 0.870588 0.011765
0.003922 1.000000 0.000000
0.000000 1.000000 0.000000
0.000000 0.996078 0.000000
0.247059 0.996078 0.003922
0.435294 0.992157 0.003922
0.584314 1.000000 0.000000
0.733333 0.996078 0.000000
0.870588 1.000000 0.000000
1.000000 1.000000 0.003922
0.000000 0.003922 0.192157
0.066667 0.000000 0.192157
0.180392 0.000000 0.200000
0.274510 0.000000 0.203922
0.396078 0.003922 0.215686
0.529412 0.000000 0.219608
0.682353 0.003922 0.215686
0.831373 0.000000 0.192157
0.976471 0.007843 0.200000
0.000000 0.058824 0.192157
0.054902 0.054902 0.188235
0.160784 0.050980 0.207843
0.270588 0.043137 0.200000
0.403922 0.000000 0.207843
0.537255 0.000000 0.211765
0.682353 0.000000 0.207843
0.839216 0.003922 0.196078
0.984314 0.000000 0.196078
0.007843 0.164706 0.200000
0.019608 0.168627 0.207843
0.160784 0.160784 0.207843
0.282353 0.164706 0.203922
0.411765 0.152941 0.207843
0.549020 0.129412 0.200000
0.682353 0.113725 0.203922
0.839216 0.101961 0.200000
0.980392 0.101961 0.207843
0.000000 0.286275 0.207843
0.000000 0.290196 0.200000
0.133333 0.290196 0.196078
0.286275 0.282353 0.196078
0.400000 0.286275 0.215686
0.537255 0.298039 0.223529
0.686275 0.301961 0.219608
0.831373 0.305882 0.223529
0.976471 0.317647 0.235294
0.000000 0.427451 0.192157
0.000000 0.419608 0.176471
0.078431 0.423529 0.184314
0.286275 0.419608 0.184314
0.427451 0.419608 0.180392
0.549020 0.423529 0.192157
0.686275 0.443137 0.250980
0.827451 0.462745 0.262745
0.964706 0.474510 0.254902
0.003922 0.568627 0.156863
0.000000 0.576471 0.156863
0.011765 0.572549 0.156863
0.266667 0.568627 0.160784
0.435294 0.576471 0.160784
0.576471 0.576471 0.141176
0.709804 0.576471 0.152941
0.843137 0.592157 0.250980
0.968627 0.619608 0.329412
0.000000 0.717647 0.105882
0.000000 0.725490 0.105882
0.003922 0.717647 0.113725
0.254902 0.713725 0.094118
0.427451 0.717647 0.101961
0.580392 0.721569 0.086275
0.733333 0.725490 0.086275
0.874510 0.725490 0.098039
0.996078 0.733333 0.215686
0.000000 0.870588 0.000000
0.007843 0.858824 0.000000
0.000000 0.870588 0.000000
0.227451 0.866667 0.000000
0.423529 0.870588 0.000000
0.584314 0.866667 0.000000
0.729412 0.870588 0.007843
0.878431 0.870588 0.000000
1.000000 0.870588 0.000000
0.000000 1.000000 0.015686
0.011765 1.000000 0.000000
0.007843 0.996078 0.003922
0.207843 1.000000 0.000000
0.423529 1.000000 0.000000
0.576471 0.996078 0.000000
0.729412 1.000000 0.000000
0.866667 0.996078 0.000000
1.000000 1.000000 0.003922
0.000000 0.000000 0.321569
0.066667 0.000000 0.325490
0.180392 0.003922 0.325490
0.298039 0.003922 0.329412
0.407843 0.000000 0.337255
0.537255 0.003922 0.349020
0.686275 0.003922 0.356863
0.831373 0.000000 0.360784
0.984314 0.003922 0.352941
0.000000 0.050980 0.337255
0.039216 0.047059 0.341176
0.160784 0.027451 0.325490
0.298039 0.007843 0.349020
0.392157 0.003922 0.329412
0.541176 0.000000 0.345098
0.686275 0.000000 0.364706
0.847059 0.007843 0.360784
0.984314 0.000000 0.349020
0.003922 0.164706 0.345098
0.000000 0.156863 0.337255
0.160784 0.152941 0.349020
0.286275 0.145098 0.341176
0.411765 0.137255 0.341176
0.552941 0.105882 0.345098
0.701961 0.047059 0.356863
0.858824 0.003922 0.352941
0.992157 0.000000 0.317647
0.003922 0.290196 0.349020
0.003922 0.286275 0.341176
0.105882 0.286275 0.349020
0.278431 0.274510 0.329412
0.419608 0.274510 0.341176
0.556863 0.266667 0.333333
0.705882 0.254902 0.337255
0.854902 0.250980 0.345098
1.000000 0.266667 0.349020
0.000000 0.423529 0.349020
0.000000 0.419608 0.341176
0.003922 0.423529 0.345098
0.250980 0.423529 0.333333
0.427451 0.419608 0.333333
0.552941 0.423529 0.364706
0.694118 0.439216 0.368627
0.843137 0.447059 0.376471
0.976471 0.466667 0.376471
0.000000 0.568627 0.337255
0.000000 0.568627 0.337255
0.003922 0.572549 0.333333
0.211765 0.572549 0.317647
0.415686 0.572549 0.325490
0.576471 0.572549 0.321569
0.713725 0.572549 0.337255
0.843137 0.592157 0.403922
0.972549 0.615686 0.443137
0.003922 0.721569 0.305882
0.003922 0.725490 0.325490
0.003922 0.721569 0.305882
0.184314 0.729412 0.309804
0.411765 0.721569 0.294118
0.576471 0.725490 0.298039
0.729412 0.729412 0.294118
0.870588 0.725490 0.309804
0.992157 0.725490 0.392157
0.000000 0.870588 0.270588
0.000000 0.870588 0.270588
0.007843 0.870588 0.282353
0.164706 0.870588 0.286275
0.396078 0.866667 0.274510
0.576471 0.866667 0.274510
0.725490 0.866667 0.270588
0.874510 0.870588 0.266667
1.000000 0.858824 0.258824
0.003922 0.992157 0.243137
0.000000 1.000000 0.227451
0.000000 1.000000 0.235294
0.168627 1.000000 0.235294
0.407843 1.000000 0.235294
0.580392 1.000000 0.239216
0.725490 1.000000 0.239216
0.870588 1.000000 0.235294
1.000000 1.000000 0.231373
0.000000 0.000000 0.478431
0.066667 0.003922 0.490196
0.196078 0.000000 0.482353
0.321569 0.000000 0.486275
0.427451 0.000000 0.478431
0.552941 0.000000 0.490196
0.690196 0.000000 0.498039
0.843137 0.000000 0.509804
0.992157 0.003922 0.509804
0.007843 0.019608 0.478431
0.000000 0.019608 0.478431
0.188235 0.000000 0.486275
0.313725 0.000000 0.490196
0.431373 0.000000 0.498039
0.552941 0.000000 0.482353
0.694118 0.003922 0.501961
0.847059 0.000000 0.505882
0.988235 0.000000 0.498039
0.000000 0.149020 0.494118
0.003922 0.141176 0.494118
0.141176 0.141176 0.494118
0.298039 0.129412 0.490196
0.431373 0.098039 0.494118
0.560784 0.070588 0.486275
0.701961 0.003922 0.501961
0.850980 0.003922 0.509804
0.988235 0.003922 0.490196
0.003922 0.290196 0.490196
0.007843 0.286275 0.490196
0.000000 0.274510 0.501961
0.262745 0.262745 0.498039
0.431373 0.250980 0.505882
0.568627 0.247059 0.498039
0.713725 0.239216 0.501961
0.862745 0.215686 0.494118
0.996078 0.180392 0.486275
0.000000 0.427451 0.501961
0.003922 0.427451 0.505882
0.000000 0.423529 0.505882
0.235294 0.419608 0.498039
0.411765 0.415686 0.501961
0.572549 0.407843 0.494118
0.721569 0.411765 0.494118
0.870588 0.411765 0.494118
1.000000 0.423529 0.498039
0.000000 0.576471 0.505882
0.007843 0.572549 0.505882
0.003922 0.568627 0.498039
0.176471 0.572549 0.501961
0.403922 0.568627 0.490196
0.576471 0.564706 0.490196
0.709804 0.580392 0.521569
0.847059 0.600000 0.541176
0.976471 0.611765 0.541176
0.003922 0.725490 0.490196
0.000000 0.725490 0.490196
0.000000 0.729412 0.482353
0.074510 0.725490 0.474510
0.388235 0.725490 0.486275
0.568627 0.725490 0.478431
0.729412 0.725490 0.474510
0.866667 0.725490 0.498039
0.988235 0.745098 0.560784
0.000000 0.870588 0.450980
0.000000 0.866667 0.450980
0.000000 0.870588 0.450980
0.070588 0.870588 0.458824
0.392157 0.866667 0.447059
0.568627 0.870588 0.447059
0.725490 0.870588 0.454902
0.874510 0.870588 0.454902
1.000000 0.866667 0.474510
0.000000 1.000000 0.439216
0.000000 0.996078 0.439216
0.000000 0.996078 0.435294
0.133333 0.996078 0.439216
0.396078 0.996078 0.427451
0.564706 1.000000 0.431373
0.717647 1.000000 0.435294
0.862745 0.992157 0.431373
1.000000 0.996078 0.439216
0.003922 0.000000 0.635294
0.035294 0.003922 0.643137
0.211765 0.000000 0.635294
0.329412 0.000000 0.635294
0.450980 0.000000 0.639216
0.572549 0.000000 0.631373
0.709804 0.000000 0.647059
0.839216 0.000000 0.650980
0.992157 0.003922 0.658824
0.000000 0.000000 0.635294
0.000000 0.000000 0.639216
0.180392 0.000000 0.647059
0.321569 0.000000 0.647059
0.435294 0.003922 0.635294
0.580392 0.000000 0.643137
0.701961 0.003922 0.647059
0.854902 0.000000 0.654902
0.992157 0.003922 0.658824
0.000000 0.133333 0.643137
0.000000 0.129412 0.635294
0.121569 0.121569 0.631373
0.298039 0.098039 0.643137
0.439216 0.074510 0.643137
0.572549 0.000000 0.647059
0.709804 0.000000 0.647059
0.854902 0.000000 0.650980
0.984314 0.003922 0.647059
0.000000 0.266667 0.647059
0.003922 0.262745 0.639216
0.007843 0.250980 0.639216
0.270588 0.250980 0.654902
0.423529 0.247059 0.658824
0.568627 0.231373 0.650980
0.713725 0.211765 0.654902
0.870588 0.192157 0.654902
1.000000 0.160784 0.647059
0.007843 0.415686 0.654902
0.000000 0.415686 0.643137
0.000000 0.415686 0.650980
0.192157 0.403922 0.654902
0.403922 0.403922 0.654902
0.568627 0.392157 0.654902
0.725490 0.392157 0.658824
0.870588 0.392157 0.654902
0.996078 0.380392 0.619608
0.003922 0.564706 0.658824
0.003922 0.560784 0.647059
0.003922 0.564706 0.658824
0.164706 0.560784 0.662745
0.392157 0.556863 0.650980
0.556863 0.560784 0.647059
0.721569 0.556863 0.643137
0.862745 0.572549 0.639216
1.000000 0.584314 0.635294
0.000000 0.721569 0.658824
0.007843 0.729412 0.658824
0.003922 0.725490 0.654902
0.003922 0.725490 0.647059
0.356863 0.729412 0.650980
0.560784 0.725490 0.639216
0.717647 0.725490 0.643137
0.847059 0.741176 0.674510
0.976471 0.752941 0.686275
0.000000 0.874510 0.631373
0.000000 0.878431 0.627451
0.000000 0.866667 0.623529
0.000000 0.870588 0.615686
0.341176 0.874510 0.615686
0.564706 0.870588 0.627451
0.721569 0.874510 0.627451
0.874510 0.870588 0.619608
0.996078 0.870588 0.639216
0.007843 0.996078 0.600000
0.007843 0.996078 0.592157
0.007843 1.000000 0.576471
0.058824 1.000000 0.592157
0.403922 1.000000 0.607843
0.576471 0.996078 0.611765
0.725490 1.000000 0.603922
0.862745 1.000000 0.607843
0.996078 1.000000 0.603922
0.003922 0.000000 0.768627
0.007843 0.003922 0.788235
0.188235 0.000000 0.776471
0.325490 0.003922 0.780392
0.458824 0.003922 0.784314
0.580392 0.000000 0.784314
0.713725 0.000000 0.788235
0.839216 0.000000 0.792157
0.992157 0.003922 0.800000
0.007843 0.003922 0.784314
0.000000 0.003922 0.784314
0.164706 0.000000 0.776471
0.321569 0.000000 0.788235
0.439216 0.003922 0.792157
0.580392 0.000000 0.784314
0.705882 0.000000 0.788235
0.835294 0.003922 0.780392
0.992157 0.000000 0.811765
0.000000 0.109804 0.784314
0.003922 0.105882 0.780392
0.090196 0.090196 0.780392
0.290196 0.074510 0.788235
0.431373 0.027451 0.792157
0.576471 0.000000 0.792157
0.701961 0.003922 0.788235
0.850980 0.003922 0.792157
0.992157 0.000000 0.803922
0.000000 0.254902 0.784314
0.011765 0.243137 0.792157
0.003922 0.247059 0.776471
0.243137 0.239216 0.788235
0.415686 0.227451 0.800000
0.564706 0.219608 0.792157
0.705882 0.196078 0.784314
0.854902 0.164706 0.796078
0.996078 0.109804 0.807843
0.000000 0.403922 0.784314
0.003922 0.403922 0.803922
0.000000 0.396078 0.788235
0.145098 0.384314 0.800000
0.380392 0.388235 0.792157
0.556863 0.376471 0.800000
0.701961 0.376471 0.792157
0.870588 0.364706 0.800000
1.000000 0.356863 0.819608
0.000000 0.552941 0.800000
0.000000 0.552941 0.800000
0.000000 0.552941 0.792157
0.105882 0.552941 0.796078
0.364706 0.545098 0.788235
0.549020 0.541176 0.788235
0.713725 0.549020 0.800000
0.874510 0.545098 0.796078
0.996078 0.545098 0.768627
0.003922 0.698039 0.792157
0.000000 0.705882 0.788235
0.007843 0.698039 0.788235
0.035294 0.701961 0.784314
0.372549 0.701961 0.796078
0.564706 0.713725 0.796078
0.709804 0.713725 0.792157
0.878431 0.717647 0.788235
1.000000 0.737255 0.776471
0.003922 0.866667 0.796078
0.000000 0.870588 0.803922
0.000000 0.874510 0.800000
0.003922 0.866667 0.800000
0.325490 0.870588 0.788235
0.541176 0.878431 0.772549
0.721569 0.870588 0.780392
0.874510 0.866667 0.780392
0.988235 0.874510 0.803922
0.000000 0.996078 0.780392
0.000000 0.996078 0.768627
0.000000 1.000000 0.764706
0.000000 1.000000 0.756863
0.349020 1.000000 0.752941
0.568627 1.000000 0.760784
0.741176 0.996078 0.768627
0.874510 0.996078 0.764706
1.000000 0.996078 0.772549
0.007843 0.000000 0.913725
0.000000 0.000000 0.913725
0.172549 0.000000 0.913725
0.305882 0.000000 0.913725
0.439216 0.000000 0.917647
0.572549 0.000000 0.913725
0.709804 0.000000 0.913725
0.831373 0.000000 0.917647
0.964706 0.003922 0.933333
0.000000 0.003922 0.901961
0.000000 0.000000 0.901961
0.133333 0.000000 0.925490
0.309804 0.000000 0.917647
0.443137 0.000000 0.901961
0.576471 0.000000 0.913725
0.701961 0.003922 0.921569
0.831373 0.000000 0.929412
0.964706 0.003922 0.933333
0.000000 0.078431 0.913725
0.003922 0.082353 0.909804
0.031373 0.062745 0.925490
0.266667 0.019608 0.913725
0.419608 0.003922 0.921569
0.564706 0.000000 0.921569
0.701961 0.003922 0.921569
0.839216 0.003922 0.921569
0.964706 0.003922 0.925490
0.000000 0.235294 0.917647
0.007843 0.231373 0.925490
0.003922 0.227451 0.929412
0.223529 0.227451 0.917647
0.407843 0.215686 0.921569
0.552941 0.203922 0.917647
0.698039 0.180392 0.925490
0.843137 0.152941 0.925490
0.976471 0.117647 0.925490
0.003922 0.392157 0.929412
0.007843 0.388235 0.929412
0.003922 0.376471 0.929412
0.105882 0.376471 0.925490
0.376471 0.368627 0.929412
0.537255 0.368627 0.929412
0.698039 0.364706 0.933333
0.839216 0.364706 0.921569
0.988235 0.345098 0.929412
0.000000 0.545098 0.925490
0.000000 0.549020 0.929412
0.000000 0.541176 0.929412
0.094118 0.537255 0.929412
0.368627 0.541176 0.921569
0.537255 0.537255 0.929412
0.694118 0.537255 0.917647
0.850980 0.537255 0.933333
1.000000 0.521569 0.937255
0.007843 0.690196 0.917647
0.000000 0.686275 0.925490
0.000000 0.690196 0.913725
0.070588 0.698039 0.933333
0.376471 0.698039 0.925490
0.552941 0.705882 0.921569
0.709804 0.705882 0.933333
0.858824 0.705882 0.921569
1.000000 0.705882 0.925490
0.000000 0.835294 0.921569
0.000000 0.835294 0.921569
0.003922 0.835294 0.917647
0.109804 0.839216 0.929412
0.384314 0.847059 0.917647
0.564706 0.850980 0.917647
0.725490 0.854902 0.921569
0.874510 0.866667 0.917647
1.000000 0.878431 0.901961
0.015686 0.992157 0.929412
0.003922 1.000000 0.937255
0.015686 0.992157 0.929412
0.011765 1.000000 0.929412
0.364706 1.000000 0.913725
0.560784 1.000000 0.905882
0.741176 0.996078 0.901961
0.890196 0.988235 0.913725
1.000000 0.996078 0.925490
0.000000 0.007843 0.996078
0.000000 0.000000 0.996078
0.145098 0.000000 1.000000
0.298039 0.003922 0.996078
0.431373 0.003922 0.996078
0.560784 0.000000 1.000000
0.690196 0.000000 1.000000
0.819608 0.003922 1.000000
0.972549 0.000000 1.000000
0.000000 0.003922 0.996078
0.000000 0.003922 0.988235
0.101961 0.000000 1.000000
0.286275 0.000000 0.992157
0.431373 0.003922 0.996078
0.556863 0.000000 1.000000
0.690196 0.003922 0.996078
0.827451 0.000000 0.992157
0.964706 0.007843 0.988235
0.003922 0.054902 0.992157
0.000000 0.043137 1.000000
0.000000 0.019608 0.996078
0.254902 0.000000 1.000000
0.419608 0.003922 1.000000
0.549020 0.000000 1.000000
0.678431 0.000000 1.000000
0.827451 0.000000 1.000000
0.968627 0.000000 1.000000
0.000000 0.231373 1.000000
0.003922 0.223529 1.000000
0.000000 0.219608 0.996078
0.219608 0.215686 1.000000
0.392157 0.207843 0.992157
0.541176 0.200000 0.996078
0.682353 0.180392 1.000000
0.823529 0.145098 1.000000
0.968627 0.101961 1.000000
0.000000 0.392157 0.988235
0.000000 0.364706 1.000000
0.003922 0.364706 1.000000
0.117647 0.360784 1.000000
0.364706 0.364706 0.992157
0.513725 0.364706 0.996078
0.674510 0.356863 1.000000
0.835294 0.356863 1.000000
0.992157 0.333333 1.000000
0.000000 0.541176 1.000000
0.007843 0.545098 1.000000
0.003922 0.545098 1.000000
0.207843 0.541176 1.000000
0.352941 0.529412 0.996078
0.525490 0.525490 0.996078
0.682353 0.529412 0.996078
0.843137 0.533333 1.000000
0.992157 0.521569 1.000000
0.007843 0.690196 1.000000
0.000000 0.678431 0.996078
0.007843 0.690196 1.000000
0.243137 0.686275 0.984314
0.427451 0.698039 1.000000
0.572549 0.701961 1.000000
0.698039 0.694118 0.992157
0.858824 0.698039 0.996078
1.000000 0.694118 1.000000
0.000000 0.823529 0.984314
0.003922 0.819608 1.000000
0.000000 0.823529 1.000000
0.286275 0.827451 1.000000
0.439216 0.835294 1.000000
0.600000 0.850980 1.000000
0.756863 0.854902 1.000000
0.886275 0.866667 0.996078
1.000000 0.878431 1.000000
0.007843 0.945098 1.000000
0.015686 0.945098 1.000000
0.227451 0.952941 1.000000
0.364706 0.949020 0.996078
0.513725 0.952941 1.000000
0.670588 0.960784 0.996078
0.819608 0.972549 1.000000
0.937255 0.992157 1.000000
1.000000 0.996078 1.000000
