lut_library_archive/removed_20260629/50个风景lut/50个风景lut27.cube
# 版权归凌孟成所有，侵权必究
TITLE "Jungle LUT #27"
#LUT size
LUT_3D_SIZE 5
#LUT data points
0.000000 0.000000 0.000000
0.286275 0.000000 0.000000
0.588235 0.003922 0.000000
0.788235 0.000000 0.000000
0.988235 0.003922 0.000000
0.000000 0.301961 0.000000
0.298039 0.309804 0.000000
0.592157 0.294118 0.000000
0.788235 0.266667 0.003922
0.996078 0.247059 0.003922
0.000000 0.556863 0.007843
0.282353 0.560784 0.003922
0.556863 0.545098 0.000000
0.772549 0.509804 0.000000
0.996078 0.501961 0.000000
0.137255 0.760784 0.000000
0.294118 0.764706 0.000000
0.521569 0.756863 0.000000
0.760784 0.749020 0.000000
1.000000 0.752941 0.000000
0.121569 1.000000 0.000000
0.298039 0.996078 0.000000
0.541176 1.000000 0.000000
0.815686 1.000000 0.003922
1.000000 1.000000 0.000000
0.000000 0.000000 0.282353
0.290196 0.003922 0.274510
0.592157 0.000000 0.262745
0.784314 0.117647 0.254902
1.000000 0.117647 0.250980
0.011765 0.298039 0.262745
0.298039 0.301961 0.270588
0.576471 0.301961 0.270588
0.760784 0.290196 0.254902
1.000000 0.282353 0.250980
0.078431 0.549020 0.258824
0.305882 0.549020 0.262745
0.549020 0.541176 0.250980
0.756863 0.517647 0.270588
1.000000 0.509804 0.250980
0.207843 0.749020 0.270588
0.321569 0.752941 0.270588
0.529412 0.749020 0.266667
0.756863 0.749020 0.266667
1.000000 0.756863 0.243137
0.105882 1.000000 0.200000
0.282353 1.000000 0.200000
0.533333 1.000000 0.192157
0.811765 1.000000 0.168627
1.000000 1.000000 0.149020
0.003922 0.000000 0.541176
0.258824 0.000000 0.533333
0.564706 0.003922 0.537255
0.776471 0.141176 0.505882
0.992157 0.211765 0.498039
0.000000 0.290196 0.537255
0.282353 0.301961 0.529412
0.560784 0.305882 0.533333
0.756863 0.337255 0.509804
1.000000 0.341176 0.509804
0.203922 0.541176 0.529412
0.345098 0.552941 0.521569
0.545098 0.545098 0.513725
0.749020 0.533333 0.513725
1.000000 0.525490 0.490196
0.231373 0.760784 0.501961
0.325490 0.752941 0.490196
0.529412 0.749020 0.494118
0.760784 0.749020 0.486275
1.000000 0.752941 0.482353
0.003922 0.992157 0.439216
0.109804 1.000000 0.439216
0.478431 0.996078 0.423529
0.796078 1.000000 0.423529
1.000000 1.000000 0.411765
0.000000 0.015686 0.741176
0.239216 0.023529 0.733333
0.505882 0.062745 0.729412
0.764706 0.137255 0.725490
1.000000 0.203922 0.737255
0.105882 0.286275 0.729412
0.282353 0.290196 0.725490
0.525490 0.305882 0.733333
0.760784 0.325490 0.733333
1.000000 0.329412 0.737255
0.215686 0.533333 0.717647
0.325490 0.529412 0.725490
0.521569 0.521569 0.725490
0.764706 0.517647 0.733333
0.996078 0.505882 0.741176
0.176471 0.752941 0.713725
0.282353 0.756863 0.729412
0.509804 0.752941 0.733333
0.760784 0.749020 0.729412
1.000000 0.737255 0.725490
0.000000 1.000000 0.717647
0.000000 0.996078 0.717647
0.415686 1.000000 0.713725
0.752941 0.996078 0.694118
1.000000 0.996078 0.694118
0.000000 0.011765 0.996078
0.243137 0.023529 1.000000
0.525490 0.062745 0.996078
0.784314 0.113725 1.000000
0.996078 0.125490 1.000000
0.074510 0.286275 1.000000
0.286275 0.294118 1.000000
0.529412 0.298039 1.000000
0.796078 0.298039 0.992157
1.000000 0.274510 0.992157
0.000000 0.517647 0.992157
0.235294 0.513725 1.000000
0.509804 0.509804 0.996078
0.776471 0.498039 1.000000
0.996078 0.474510 1.000000
0.000000 0.764706 1.000000
0.000000 0.760784 1.000000
0.419608 0.745098 1.000000
0.741176 0.729412 1.000000
1.000000 0.725490 1.000000
0.007843 0.988235 1.000000
0.000000 1.000000 0.992157
0.384314 1.000000 0.996078
0.780392 0.996078 1.000000
1.000000 1.000000 1.000000
