lut_library_archive/removed_20260629/50个风景lut/50个风景lut49.cube
# 版权归凌孟成所有，侵权必究
TITLE "Jungle LUT #49"
#LUT size
LUT_3D_SIZE 25
#LUT data points
0.050980 0.054902 0.062745
0.058824 0.050980 0.054902
0.090196 0.050980 0.054902
0.125490 0.047059 0.050980
0.160784 0.043137 0.050980
0.196078 0.047059 0.047059
0.235294 0.043137 0.054902
0.262745 0.043137 0.047059
0.301961 0.047059 0.039216
0.333333 0.043137 0.039216
0.368627 0.050980 0.039216
0.411765 0.054902 0.043137
0.447059 0.058824 0.039216
0.494118 0.066667 0.047059
0.533333 0.070588 0.035294
0.568627 0.070588 0.043137
0.615686 0.074510 0.035294
0.662745 0.082353 0.043137
0.709804 0.086275 0.035294
0.749020 0.086275 0.027451
0.803922 0.086275 0.031373
0.850980 0.090196 0.023529
0.898039 0.086275 0.015686
0.937255 0.090196 0.011765
0.996078 0.086275 0.000000
0.039216 0.074510 0.054902
0.062745 0.070588 0.050980
0.094118 0.078431 0.043137
0.129412 0.070588 0.050980
0.164706 0.066667 0.047059
0.200000 0.070588 0.050980
0.227451 0.070588 0.043137
0.262745 0.070588 0.043137
0.298039 0.074510 0.047059
0.337255 0.074510 0.043137
0.368627 0.078431 0.043137
0.411765 0.082353 0.043137
0.450980 0.082353 0.043137
0.494118 0.086275 0.043137
0.529412 0.090196 0.043137
0.572549 0.094118 0.043137
0.619608 0.098039 0.047059
0.658824 0.098039 0.035294
0.705882 0.101961 0.031373
0.756863 0.101961 0.031373
0.800000 0.109804 0.027451
0.850980 0.105882 0.019608
0.894118 0.109804 0.019608
0.945098 0.109804 0.007843
0.984314 0.113725 0.000000
0.035294 0.098039 0.047059
0.066667 0.101961 0.035294
0.094118 0.101961 0.047059
0.129412 0.101961 0.039216
0.168627 0.098039 0.043137
0.200000 0.098039 0.043137
0.223529 0.098039 0.039216
0.262745 0.098039 0.043137
0.294118 0.101961 0.043137
0.329412 0.105882 0.039216
0.364706 0.101961 0.039216
0.407843 0.105882 0.043137
0.447059 0.105882 0.039216
0.490196 0.109804 0.047059
0.525490 0.113725 0.039216
0.568627 0.117647 0.043137
0.615686 0.117647 0.043137
0.658824 0.117647 0.035294
0.709804 0.121569 0.027451
0.752941 0.125490 0.023529
0.800000 0.129412 0.019608
0.843137 0.129412 0.015686
0.894118 0.133333 0.003922
0.937255 0.137255 0.007843
0.980392 0.137255 0.000000
0.043137 0.137255 0.043137
0.062745 0.133333 0.047059
0.094118 0.133333 0.031373
0.133333 0.133333 0.039216
0.156863 0.125490 0.043137
0.196078 0.133333 0.043137
0.231373 0.137255 0.043137
0.266667 0.129412 0.043137
0.294118 0.129412 0.035294
0.337255 0.133333 0.047059
0.368627 0.133333 0.039216
0.411765 0.137255 0.039216
0.450980 0.137255 0.047059
0.482353 0.141176 0.035294
0.537255 0.145098 0.050980
0.576471 0.145098 0.039216
0.615686 0.149020 0.031373
0.658824 0.145098 0.027451
0.709804 0.160784 0.039216
0.749020 0.152941 0.027451
0.788235 0.152941 0.023529
0.843137 0.156863 0.011765
0.890196 0.164706 0.011765
0.941176 0.160784 0.000000
0.976471 0.164706 0.000000
0.043137 0.156863 0.031373
0.066667 0.164706 0.043137
0.098039 0.164706 0.039216
0.125490 0.168627 0.035294
0.160784 0.164706 0.039216
0.196078 0.172549 0.047059
0.227451 0.160784 0.043137
0.258824 0.160784 0.039216
0.298039 0.160784 0.043137
0.337255 0.168627 0.043137
0.372549 0.164706 0.039216
0.411765 0.164706 0.043137
0.447059 0.172549 0.039216
0.486275 0.172549 0.043137
0.537255 0.176471 0.035294
0.580392 0.180392 0.039216
0.619608 0.180392 0.035294
0.666667 0.184314 0.031373
0.705882 0.184314 0.023529
0.752941 0.184314 0.023529
0.803922 0.192157 0.011765
0.843137 0.192157 0.011765
0.890196 0.192157 0.003922
0.945098 0.196078 0.000000
0.984314 0.196078 0.000000
0.054902 0.196078 0.039216
0.070588 0.196078 0.035294
0.098039 0.203922 0.043137
0.137255 0.200000 0.047059
0.168627 0.200000 0.047059
0.196078 0.200000 0.043137
0.235294 0.200000 0.039216
0.258824 0.200000 0.039216
0.298039 0.200000 0.043137
0.337255 0.200000 0.050980
0.372549 0.203922 0.047059
0.411765 0.203922 0.039216
0.454902 0.207843 0.039216
0.494118 0.207843 0.039216
0.537255 0.215686 0.031373
0.580392 0.219608 0.043137
0.635294 0.219608 0.035294
0.674510 0.219608 0.027451
0.717647 0.227451 0.023529
0.760784 0.223529 0.011765
0.803922 0.223529 0.011765
0.847059 0.227451 0.003922
0.898039 0.231373 0.000000
0.937255 0.231373 0.000000
0.996078 0.235294 0.000000
0.047059 0.227451 0.035294
0.078431 0.231373 0.047059
0.105882 0.235294 0.050980
0.121569 0.231373 0.043137
0.160784 0.231373 0.043137
0.188235 0.235294 0.047059
0.223529 0.231373 0.047059
0.262745 0.231373 0.039216
0.301961 0.231373 0.043137
0.337255 0.235294 0.043137
0.376471 0.235294 0.039216
0.419608 0.239216 0.047059
0.450980 0.243137 0.047059
0.494118 0.247059 0.039216
0.533333 0.247059 0.047059
0.580392 0.247059 0.031373
0.623529 0.250980 0.031373
0.670588 0.254902 0.027451
0.713725 0.258824 0.019608
0.756863 0.258824 0.011765
0.800000 0.266667 0.007843
0.847059 0.262745 0.000000
0.894118 0.266667 0.000000
0.952941 0.270588 0.003922
0.992157 0.266667 0.011765
0.050980 0.266667 0.043137
0.078431 0.262745 0.047059
0.109804 0.270588 0.050980
0.137255 0.266667 0.043137
0.160784 0.270588 0.043137
0.188235 0.262745 0.035294
0.227451 0.266667 0.031373
0.270588 0.266667 0.043137
0.313725 0.274510 0.043137
0.345098 0.270588 0.043137
0.384314 0.270588 0.043137
0.415686 0.274510 0.039216
0.458824 0.278431 0.043137
0.498039 0.278431 0.047059
0.541176 0.286275 0.035294
0.580392 0.286275 0.031373
0.631373 0.290196 0.027451
0.674510 0.294118 0.023529
0.717647 0.294118 0.011765
0.756863 0.294118 0.003922
0.803922 0.298039 0.000000
0.854902 0.301961 0.000000
0.901961 0.301961 0.003922
0.945098 0.305882 0.003922
1.000000 0.305882 0.000000
0.050980 0.305882 0.031373
0.082353 0.305882 0.035294
0.101961 0.298039 0.043137
0.137255 0.305882 0.035294
0.164706 0.309804 0.035294
0.200000 0.305882 0.035294
0.239216 0.305882 0.039216
0.270588 0.309804 0.035294
0.301961 0.305882 0.031373
0.345098 0.313725 0.031373
0.380392 0.313725 0.031373
0.419608 0.317647 0.027451
0.454902 0.313725 0.023529
0.501961 0.321569 0.035294
0.545098 0.325490 0.035294
0.588235 0.321569 0.027451
0.627451 0.325490 0.019608
0.670588 0.329412 0.011765
0.709804 0.333333 0.003922
0.752941 0.333333 0.000000
0.792157 0.333333 0.000000
0.843137 0.345098 0.003922
0.898039 0.337255 0.000000
0.941176 0.341176 0.007843
0.992157 0.345098 0.000000
0.062745 0.341176 0.043137
0.090196 0.345098 0.023529
0.101961 0.349020 0.039216
0.137255 0.345098 0.039216
0.160784 0.345098 0.023529
0.200000 0.352941 0.035294
0.235294 0.349020 0.027451
0.266667 0.352941 0.031373
0.305882 0.352941 0.031373
0.341176 0.356863 0.027451
0.376471 0.352941 0.023529
0.415686 0.349020 0.027451
0.458824 0.356863 0.015686
0.498039 0.356863 0.019608
0.541176 0.356863 0.011765
0.584314 0.360784 0.011765
0.623529 0.360784 0.011765
0.666667 0.368627 0.003922
0.713725 0.364706 0.000000
0.760784 0.372549 0.003922
0.807843 0.376471 0.003922
0.854902 0.376471 0.003922
0.898039 0.380392 0.007843
0.952941 0.384314 0.003922
0.984314 0.380392 0.003922
0.062745 0.392157 0.019608
0.078431 0.388235 0.019608
0.113725 0.392157 0.023529
0.141176 0.388235 0.023529
0.172549 0.388235 0.019608
0.207843 0.392157 0.023529
0.247059 0.392157 0.019608
0.274510 0.396078 0.027451
0.317647 0.396078 0.015686
0.356863 0.396078 0.019608
0.396078 0.396078 0.019608
0.427451 0.396078 0.007843
0.474510 0.396078 0.007843
0.513725 0.400000 0.003922
0.556863 0.392157 0.000000
0.603922 0.400000 0.003922
0.647059 0.407843 0.000000
0.686275 0.407843 0.000000
0.729412 0.411765 0.000000
0.768627 0.411765 0.000000
0.815686 0.411765 0.000000
0.858824 0.419608 0.000000
0.905882 0.419608 0.003922
0.949020 0.423529 0.003922
1.000000 0.419608 0.003922
0.066667 0.431373 0.011765
0.086275 0.423529 0.003922
0.109804 0.431373 0.007843
0.137255 0.435294 0.011765
0.168627 0.435294 0.000000
0.200000 0.435294 0.000000
0.243137 0.435294 0.007843
0.278431 0.435294 0.000000
0.317647 0.431373 0.000000
0.356863 0.435294 0.000000
0.396078 0.435294 0.000000
0.439216 0.439216 0.003922
0.478431 0.439216 0.003922
0.517647 0.439216 0.000000
0.560784 0.443137 0.003922
0.600000 0.443137 0.000000
0.643137 0.447059 0.003922
0.686275 0.447059 0.000000
0.729412 0.450980 0.003922
0.768627 0.450980 0.000000
0.811765 0.454902 0.003922
0.858824 0.458824 0.000000
0.901961 0.462745 0.000000
0.952941 0.466667 0.000000
0.996078 0.462745 0.000000
0.054902 0.478431 0.000000
0.082353 0.474510 0.000000
0.101961 0.470588 0.000000
0.141176 0.478431 0.000000
0.172549 0.478431 0.007843
0.207843 0.482353 0.003922
0.243137 0.478431 0.000000
0.282353 0.478431 0.003922
0.321569 0.478431 0.000000
0.356863 0.482353 0.000000
0.396078 0.482353 0.000000
0.435294 0.478431 0.000000
0.474510 0.482353 0.000000
0.513725 0.482353 0.000000
0.552941 0.482353 0.000000
0.596078 0.486275 0.000000
0.643137 0.486275 0.000000
0.682353 0.490196 0.000000
0.729412 0.490196 0.003922
0.768627 0.490196 0.003922
0.811765 0.494118 0.003922
0.862745 0.494118 0.007843
0.901961 0.494118 0.003922
0.952941 0.509804 0.007843
0.992157 0.505882 0.000000
0.062745 0.521569 0.011765
0.074510 0.517647 0.000000
0.117647 0.521569 0.007843
0.137255 0.521569 0.000000
0.176471 0.517647 0.000000
0.211765 0.513725 0.000000
0.247059 0.521569 0.000000
0.286275 0.521569 0.000000
0.321569 0.517647 0.000000
0.364706 0.521569 0.003922
0.400000 0.517647 0.000000
0.439216 0.517647 0.000000
0.478431 0.517647 0.003922
0.517647 0.517647 0.000000
0.560784 0.521569 0.000000
0.596078 0.517647 0.000000
0.647059 0.529412 0.003922
0.690196 0.525490 0.000000
0.737255 0.533333 0.003922
0.772549 0.529412 0.000000
0.819608 0.529412 0.000000
0.858824 0.541176 0.000000
0.913725 0.537255 0.003922
0.956863 0.541176 0.000000
1.000000 0.541176 0.000000
0.054902 0.560784 0.003922
0.074510 0.556863 0.000000
0.098039 0.564706 0.000000
0.137255 0.564706 0.003922
0.180392 0.560784 0.000000
0.211765 0.560784 0.003922
0.250980 0.560784 0.000000
0.290196 0.560784 0.000000
0.329412 0.560784 0.003922
0.368627 0.560784 0.000000
0.407843 0.560784 0.000000
0.447059 0.560784 0.000000
0.486275 0.560784 0.000000
0.525490 0.560784 0.000000
0.564706 0.560784 0.000000
0.607843 0.564706 0.000000
0.650980 0.560784 0.003922
0.694118 0.568627 0.000000
0.733333 0.568627 0.000000
0.788235 0.572549 0.003922
0.819608 0.576471 0.000000
0.870588 0.580392 0.000000
0.909804 0.584314 0.000000
0.956863 0.584314 0.000000
0.992157 0.584314 0.007843
0.062745 0.615686 0.000000
0.078431 0.615686 0.000000
0.117647 0.615686 0.000000
0.145098 0.611765 0.000000
0.180392 0.607843 0.000000
0.215686 0.611765 0.000000
0.254902 0.611765 0.000000
0.294118 0.611765 0.003922
0.337255 0.615686 0.011765
0.368627 0.619608 0.007843
0.415686 0.615686 0.007843
0.447059 0.619608 0.003922
0.494118 0.615686 0.003922
0.533333 0.615686 0.000000
0.572549 0.611765 0.000000
0.615686 0.615686 0.000000
0.658824 0.619608 0.003922
0.698039 0.619608 0.003922
0.737255 0.619608 0.000000
0.780392 0.623529 0.000000
0.827451 0.623529 0.000000
0.866667 0.623529 0.000000
0.913725 0.623529 0.000000
0.956863 0.627451 0.000000
0.992157 0.631373 0.007843
0.054902 0.654902 0.000000
0.082353 0.658824 0.000000
0.113725 0.658824 0.000000
0.137255 0.650980 0.000000
0.180392 0.654902 0.000000
0.219608 0.662745 0.003922
0.247059 0.658824 0.003922
0.294118 0.658824 0.000000
0.333333 0.658824 0.000000
0.372549 0.658824 0.000000
0.411765 0.658824 0.000000
0.454902 0.654902 0.000000
0.501961 0.654902 0.000000
0.545098 0.658824 0.000000
0.584314 0.658824 0.000000
0.623529 0.658824 0.003922
0.662745 0.658824 0.000000
0.705882 0.654902 0.000000
0.745098 0.654902 0.000000
0.788235 0.658824 0.003922
0.831373 0.662745 0.007843
0.874510 0.662745 0.000000
0.917647 0.666667 0.007843
0.968627 0.670588 0.000000
0.996078 0.666667 0.000000
0.054902 0.694118 0.000000
0.090196 0.701961 0.007843
0.105882 0.705882 0.007843
0.145098 0.705882 0.007843
0.176471 0.698039 0.003922
0.215686 0.698039 0.000000
0.258824 0.701961 0.000000
0.298039 0.701961 0.000000
0.337255 0.701961 0.000000
0.372549 0.698039 0.000000
0.423529 0.698039 0.000000
0.462745 0.701961 0.000000
0.505882 0.698039 0.000000
0.545098 0.698039 0.003922
0.580392 0.701961 0.000000
0.623529 0.705882 0.000000
0.666667 0.701961 0.000000
0.705882 0.701961 0.000000
0.749020 0.698039 0.003922
0.792157 0.701961 0.003922
0.839216 0.701961 0.000000
0.878431 0.701961 0.000000
0.937255 0.705882 0.003922
0.964706 0.709804 0.003922
1.000000 0.705882 0.003922
0.054902 0.741176 0.000000
0.090196 0.741176 0.000000
0.105882 0.741176 0.000000
0.149020 0.745098 0.007843
0.180392 0.745098 0.015686
0.215686 0.745098 0.000000
0.254902 0.745098 0.000000
0.294118 0.745098 0.000000
0.337255 0.749020 0.000000
0.384314 0.749020 0.000000
0.423529 0.745098 0.000000
0.466667 0.745098 0.000000
0.505882 0.745098 0.000000
0.545098 0.745098 0.000000
0.584314 0.745098 0.000000
0.631373 0.745098 0.000000
0.670588 0.745098 0.000000
0.713725 0.749020 0.007843
0.749020 0.745098 0.003922
0.796078 0.745098 0.000000
0.835294 0.745098 0.000000
0.874510 0.745098 0.003922
0.925490 0.749020 0.000000
0.972549 0.745098 0.007843
0.996078 0.749020 0.000000
0.050980 0.788235 0.000000
0.074510 0.792157 0.000000
0.105882 0.788235 0.000000
0.149020 0.784314 0.000000
0.184314 0.788235 0.000000
0.223529 0.788235 0.000000
0.262745 0.788235 0.000000
0.305882 0.792157 0.000000
0.345098 0.788235 0.000000
0.388235 0.792157 0.000000
0.431373 0.788235 0.000000
0.470588 0.788235 0.000000
0.505882 0.792157 0.000000
0.549020 0.788235 0.000000
0.588235 0.788235 0.000000
0.627451 0.788235 0.000000
0.674510 0.788235 0.000000
0.717647 0.788235 0.003922
0.760784 0.788235 0.000000
0.803922 0.792157 0.003922
0.843137 0.792157 0.000000
0.894118 0.792157 0.003922
0.929412 0.792157 0.000000
0.976471 0.792157 0.000000
1.000000 0.792157 0.000000
0.066667 0.847059 0.003922
0.090196 0.843137 0.000000
0.117647 0.839216 0.000000
0.152941 0.839216 0.000000
0.192157 0.835294 0.000000
0.231373 0.843137 0.000000
0.270588 0.835294 0.003922
0.305882 0.839216 0.000000
0.352941 0.835294 0.000000
0.392157 0.835294 0.000000
0.435294 0.839216 0.000000
0.474510 0.839216 0.003922
0.513725 0.839216 0.000000
0.552941 0.839216 0.000000
0.600000 0.839216 0.000000
0.639216 0.835294 0.000000
0.682353 0.843137 0.003922
0.725490 0.839216 0.000000
0.764706 0.839216 0.000000
0.815686 0.839216 0.000000
0.854902 0.839216 0.003922
0.894118 0.835294 0.000000
0.937255 0.831373 0.000000
0.976471 0.831373 0.000000
0.988235 0.847059 0.000000
0.062745 0.874510 0.003922
0.090196 0.878431 0.007843
0.121569 0.882353 0.000000
0.164706 0.882353 0.003922
0.200000 0.878431 0.007843
0.227451 0.878431 0.000000
0.266667 0.886275 0.000000
0.313725 0.882353 0.000000
0.352941 0.882353 0.000000
0.392157 0.882353 0.000000
0.431373 0.882353 0.000000
0.482353 0.882353 0.003922
0.521569 0.882353 0.000000
0.560784 0.882353 0.000000
0.600000 0.886275 0.000000
0.639216 0.882353 0.000000
0.686275 0.882353 0.007843
0.725490 0.886275 0.000000
0.772549 0.882353 0.000000
0.815686 0.886275 0.007843
0.858824 0.886275 0.000000
0.901961 0.882353 0.000000
0.941176 0.882353 0.000000
0.968627 0.882353 0.000000
1.000000 0.882353 0.000000
0.074510 0.917647 0.000000
0.101961 0.925490 0.000000
0.121569 0.929412 0.000000
0.164706 0.925490 0.000000
0.200000 0.929412 0.000000
0.239216 0.929412 0.000000
0.282353 0.925490 0.000000
0.321569 0.925490 0.007843
0.360784 0.925490 0.003922
0.396078 0.921569 0.000000
0.439216 0.925490 0.000000
0.478431 0.925490 0.000000
0.525490 0.925490 0.000000
0.564706 0.925490 0.003922
0.600000 0.921569 0.003922
0.650980 0.921569 0.007843
0.690196 0.925490 0.003922
0.729412 0.925490 0.003922
0.776471 0.925490 0.003922
0.819608 0.925490 0.003922
0.866667 0.921569 0.000000
0.905882 0.921569 0.000000
0.949020 0.921569 0.000000
0.988235 0.925490 0.000000
1.000000 0.921569 0.000000
0.098039 0.964706 0.003922
0.105882 0.968627 0.000000
0.145098 0.968627 0.000000
0.176471 0.964706 0.000000
0.215686 0.964706 0.000000
0.243137 0.972549 0.003922
0.278431 0.964706 0.003922
0.317647 0.964706 0.003922
0.360784 0.972549 0.003922
0.403922 0.968627 0.000000
0.443137 0.968627 0.007843
0.482353 0.968627 0.003922
0.521569 0.968627 0.003922
0.568627 0.964706 0.000000
0.611765 0.964706 0.000000
0.650980 0.964706 0.000000
0.694118 0.968627 0.000000
0.733333 0.960784 0.000000
0.788235 0.968627 0.003922
0.831373 0.964706 0.000000
0.870588 0.968627 0.000000
0.921569 0.960784 0.000000
0.956863 0.964706 0.000000
0.980392 0.964706 0.000000
1.000000 0.964706 0.007843
0.125490 1.000000 0.000000
0.149020 0.996078 0.011765
0.164706 0.996078 0.003922
0.192157 0.996078 0.003922
0.223529 1.000000 0.000000
0.258824 0.996078 0.003922
0.298039 0.996078 0.000000
0.329412 1.000000 0.000000
0.368627 1.000000 0.003922
0.407843 1.000000 0.000000
0.450980 0.996078 0.003922
0.490196 0.996078 0.003922
0.541176 1.000000 0.000000
0.584314 0.996078 0.003922
0.623529 1.000000 0.000000
0.674510 1.000000 0.003922
0.717647 0.996078 0.000000
0.756863 0.996078 0.000000
0.803922 1.000000 0.000000
0.847059 1.000000 0.000000
0.905882 0.996078 0.000000
0.949020 1.000000 0.000000
0.976471 1.000000 0.011765
1.000000 1.000000 0.043137
1.000000 1.000000 0.078431
0.050980 0.054902 0.070588
0.070588 0.050980 0.066667
0.098039 0.050980 0.066667
0.125490 0.043137 0.062745
0.160784 0.047059 0.062745
0.200000 0.047059 0.066667
0.235294 0.043137 0.058824
0.266667 0.050980 0.070588
0.294118 0.058824 0.066667
0.333333 0.058824 0.070588
0.372549 0.062745 0.074510
0.411765 0.066667 0.070588
0.447059 0.062745 0.066667
0.490196 0.066667 0.066667
0.533333 0.070588 0.070588
0.576471 0.074510 0.078431
0.619608 0.070588 0.066667
0.658824 0.074510 0.058824
0.705882 0.078431 0.054902
0.749020 0.082353 0.054902
0.800000 0.086275 0.050980
0.847059 0.086275 0.047059
0.890196 0.086275 0.035294
0.933333 0.090196 0.039216
0.996078 0.082353 0.027451
0.043137 0.066667 0.050980
0.070588 0.062745 0.066667
0.101961 0.070588 0.070588
0.125490 0.070588 0.066667
0.160784 0.066667 0.066667
0.196078 0.074510 0.066667
0.235294 0.070588 0.074510
0.258824 0.082353 0.070588
0.294118 0.078431 0.070588
0.333333 0.078431 0.070588
0.372549 0.086275 0.070588
0.411765 0.082353 0.074510
0.450980 0.086275 0.066667
0.494118 0.090196 0.070588
0.533333 0.090196 0.066667
0.572549 0.094118 0.058824
0.619608 0.094118 0.058824
0.662745 0.098039 0.062745
0.709804 0.101961 0.054902
0.760784 0.101961 0.058824
0.800000 0.101961 0.054902
0.847059 0.105882 0.050980
0.894118 0.105882 0.047059
0.941176 0.109804 0.027451
0.980392 0.101961 0.031373
0.035294 0.105882 0.058824
0.062745 0.101961 0.066667
0.094118 0.105882 0.078431
0.133333 0.105882 0.082353
0.160784 0.105882 0.070588
0.192157 0.098039 0.058824
0.219608 0.101961 0.062745
0.262745 0.105882 0.070588
0.301961 0.105882 0.070588
0.333333 0.105882 0.062745
0.372549 0.105882 0.070588
0.407843 0.105882 0.066667
0.450980 0.113725 0.070588
0.490196 0.113725 0.066667
0.529412 0.113725 0.058824
0.572549 0.117647 0.058824
0.619608 0.121569 0.062745
0.662745 0.125490 0.054902
0.705882 0.125490 0.054902
0.749020 0.129412 0.054902
0.800000 0.133333 0.050980
0.843137 0.129412 0.047059
0.898039 0.129412 0.035294
0.925490 0.133333 0.023529
0.980392 0.129412 0.031373
0.035294 0.129412 0.066667
0.074510 0.129412 0.070588
0.094118 0.137255 0.074510
0.141176 0.137255 0.058824
0.160784 0.133333 0.062745
0.192157 0.133333 0.058824
0.223529 0.133333 0.062745
0.262745 0.133333 0.066667
0.294118 0.133333 0.062745
0.333333 0.133333 0.066667
0.372549 0.133333 0.062745
0.403922 0.137255 0.062745
0.447059 0.137255 0.070588
0.490196 0.145098 0.066667
0.525490 0.141176 0.058824
0.580392 0.145098 0.066667
0.615686 0.145098 0.058824
0.666667 0.149020 0.062745
0.705882 0.149020 0.054902
0.756863 0.156863 0.062745
0.792157 0.152941 0.054902
0.843137 0.156863 0.043137
0.886275 0.156863 0.027451
0.945098 0.160784 0.039216
0.976471 0.160784 0.027451
0.062745 0.160784 0.074510
0.070588 0.164706 0.062745
0.101961 0.164706 0.062745
0.133333 0.168627 0.062745
0.164706 0.164706 0.070588
0.196078 0.164706 0.074510
0.231373 0.160784 0.066667
0.258824 0.164706 0.062745
0.298039 0.164706 0.066667
0.333333 0.172549 0.070588
0.372549 0.168627 0.074510
0.411765 0.168627 0.070588
0.447059 0.172549 0.070588
0.486275 0.172549 0.066667
0.533333 0.176471 0.070588
0.572549 0.176471 0.058824
0.623529 0.180392 0.062745
0.666667 0.180392 0.050980
0.713725 0.180392 0.047059
0.756863 0.184314 0.050980
0.792157 0.184314 0.043137
0.847059 0.184314 0.039216
0.890196 0.188235 0.031373
0.937255 0.192157 0.027451
0.972549 0.196078 0.023529
0.050980 0.196078 0.066667
0.066667 0.200000 0.066667
0.101961 0.203922 0.066667
0.133333 0.200000 0.066667
0.160784 0.200000 0.066667
0.196078 0.200000 0.066667
0.231373 0.196078 0.066667
0.262745 0.200000 0.066667
0.294118 0.200000 0.066667
0.333333 0.196078 0.070588
0.376471 0.200000 0.070588
0.411765 0.207843 0.062745
0.454902 0.203922 0.062745
0.494118 0.211765 0.062745
0.541176 0.211765 0.062745
0.580392 0.211765 0.062745
0.619608 0.215686 0.054902
0.666667 0.219608 0.047059
0.705882 0.219608 0.039216
0.756863 0.223529 0.039216
0.803922 0.223529 0.043137
0.843137 0.227451 0.035294
0.890196 0.227451 0.027451
0.941176 0.231373 0.031373
0.984314 0.231373 0.015686
0.050980 0.235294 0.070588
0.082353 0.231373 0.070588
0.105882 0.231373 0.070588
0.129412 0.235294 0.074510
0.160784 0.235294 0.058824
0.188235 0.231373 0.062745
0.231373 0.235294 0.070588
0.262745 0.235294 0.062745
0.301961 0.235294 0.062745
0.333333 0.239216 0.066667
0.372549 0.239216 0.062745
0.411765 0.239216 0.062745
0.447059 0.243137 0.058824
0.490196 0.247059 0.054902
0.529412 0.247059 0.050980
0.588235 0.250980 0.058824
0.627451 0.250980 0.054902
0.670588 0.250980 0.047059
0.713725 0.254902 0.043137
0.756863 0.254902 0.031373
0.800000 0.262745 0.027451
0.850980 0.262745 0.023529
0.898039 0.266667 0.023529
0.949020 0.262745 0.007843
0.992157 0.266667 0.015686
0.054902 0.270588 0.054902
0.082353 0.266667 0.054902
0.101961 0.270588 0.062745
0.133333 0.266667 0.058824
0.164706 0.270588 0.070588
0.192157 0.270588 0.062745
0.227451 0.266667 0.058824
0.270588 0.270588 0.066667
0.301961 0.274510 0.062745
0.341176 0.274510 0.070588
0.376471 0.278431 0.066667
0.415686 0.278431 0.062745
0.458824 0.282353 0.066667
0.498039 0.282353 0.062745
0.541176 0.282353 0.054902
0.580392 0.282353 0.054902
0.631373 0.286275 0.047059
0.674510 0.290196 0.043137
0.717647 0.290196 0.035294
0.756863 0.290196 0.023529
0.803922 0.294118 0.019608
0.847059 0.298039 0.019608
0.894118 0.298039 0.011765
0.937255 0.298039 0.003922
0.984314 0.301961 0.000000
0.054902 0.305882 0.066667
0.074510 0.309804 0.066667
0.105882 0.305882 0.066667
0.125490 0.305882 0.050980
0.160784 0.313725 0.066667
0.192157 0.309804 0.058824
0.231373 0.309804 0.062745
0.270588 0.309804 0.062745
0.301961 0.309804 0.054902
0.341176 0.309804 0.054902
0.372549 0.313725 0.050980
0.415686 0.317647 0.054902
0.454902 0.317647 0.050980
0.501961 0.317647 0.050980
0.541176 0.317647 0.047059
0.580392 0.317647 0.043137
0.627451 0.329412 0.043137
0.670588 0.325490 0.035294
0.713725 0.333333 0.027451
0.756863 0.333333 0.019608
0.800000 0.337255 0.015686
0.850980 0.341176 0.011765
0.894118 0.341176 0.000000
0.945098 0.337255 0.000000
0.992157 0.345098 0.000000
0.054902 0.341176 0.054902
0.074510 0.349020 0.062745
0.105882 0.349020 0.054902
0.129412 0.352941 0.050980
0.164706 0.345098 0.050980
0.203922 0.345098 0.054902
0.235294 0.345098 0.047059
0.270588 0.352941 0.058824
0.309804 0.352941 0.054902
0.341176 0.352941 0.050980
0.380392 0.352941 0.047059
0.419608 0.349020 0.050980
0.458824 0.352941 0.035294
0.498039 0.352941 0.035294
0.541176 0.360784 0.035294
0.584314 0.364706 0.039216
0.627451 0.360784 0.027451
0.670588 0.368627 0.023529
0.721569 0.372549 0.019608
0.764706 0.376471 0.019608
0.807843 0.376471 0.003922
0.854902 0.380392 0.000000
0.901961 0.376471 0.000000
0.949020 0.380392 0.000000
0.992157 0.384314 0.000000
0.058824 0.388235 0.043137
0.078431 0.392157 0.043137
0.105882 0.392157 0.035294
0.141176 0.392157 0.043137
0.176471 0.396078 0.047059
0.203922 0.396078 0.039216
0.243137 0.396078 0.047059
0.278431 0.396078 0.043137
0.317647 0.392157 0.043137
0.349020 0.388235 0.039216
