lut_library_archive/removed_20260629/50个风景lut/50个风景lut48.cube
# 版权归凌孟成所有，侵权必究
TITLE "Jungle LUT #48"
#LUT size
LUT_3D_SIZE 25
#LUT data points
0.149020 0.149020 0.149020
0.156863 0.149020 0.152941
0.152941 0.149020 0.141176
0.168627 0.145098 0.145098
0.200000 0.141176 0.152941
0.219608 0.141176 0.149020
0.235294 0.133333 0.145098
0.266667 0.129412 0.152941
0.290196 0.125490 0.141176
0.325490 0.121569 0.141176
0.364706 0.121569 0.141176
0.403922 0.121569 0.137255
0.450980 0.117647 0.137255
0.498039 0.121569 0.137255
0.552941 0.121569 0.125490
0.596078 0.121569 0.125490
0.654902 0.117647 0.117647
0.705882 0.113725 0.117647
0.756863 0.109804 0.105882
0.807843 0.101961 0.105882
0.858824 0.090196 0.098039
0.913725 0.086275 0.090196
0.960784 0.078431 0.078431
0.996078 0.066667 0.066667
1.000000 0.047059 0.047059
0.149020 0.152941 0.160784
0.141176 0.149020 0.145098
0.156863 0.149020 0.152941
0.184314 0.145098 0.149020
0.192157 0.145098 0.152941
0.219608 0.141176 0.145098
0.239216 0.145098 0.152941
0.258824 0.141176 0.141176
0.298039 0.141176 0.145098
0.333333 0.137255 0.149020
0.368627 0.133333 0.141176
0.411765 0.129412 0.145098
0.450980 0.129412 0.137255
0.505882 0.129412 0.133333
0.549020 0.137255 0.125490
0.607843 0.141176 0.125490
0.654902 0.133333 0.113725
0.701961 0.129412 0.109804
0.756863 0.125490 0.113725
0.811765 0.121569 0.101961
0.862745 0.117647 0.094118
0.909804 0.109804 0.082353
0.956863 0.101961 0.066667
1.000000 0.090196 0.050980
0.996078 0.086275 0.047059
0.141176 0.156863 0.152941
0.141176 0.160784 0.145098
0.152941 0.160784 0.149020
0.176471 0.156863 0.145098
0.196078 0.160784 0.141176
0.219608 0.149020 0.141176
0.231373 0.149020 0.145098
0.266667 0.149020 0.149020
0.301961 0.152941 0.149020
0.329412 0.152941 0.141176
0.364706 0.149020 0.141176
0.403922 0.149020 0.141176
0.454902 0.149020 0.133333
0.494118 0.152941 0.133333
0.552941 0.149020 0.121569
0.600000 0.152941 0.121569
0.654902 0.152941 0.117647
0.705882 0.149020 0.109804
0.764706 0.145098 0.109804
0.815686 0.141176 0.101961
0.862745 0.137255 0.090196
0.909804 0.133333 0.090196
0.956863 0.129412 0.070588
1.000000 0.121569 0.054902
1.000000 0.109804 0.043137
0.133333 0.176471 0.145098
0.141176 0.168627 0.141176
0.152941 0.172549 0.149020
0.168627 0.168627 0.137255
0.192157 0.172549 0.149020
0.215686 0.172549 0.149020
0.243137 0.168627 0.141176
0.266667 0.168627 0.149020
0.286275 0.164706 0.145098
0.329412 0.172549 0.145098
0.376471 0.168627 0.145098
0.419608 0.168627 0.133333
0.458824 0.168627 0.133333
0.501961 0.176471 0.121569
0.552941 0.176471 0.121569
0.600000 0.172549 0.113725
0.654902 0.180392 0.117647
0.701961 0.176471 0.109804
0.756863 0.176471 0.105882
0.815686 0.172549 0.098039
0.858824 0.164706 0.094118
0.898039 0.164706 0.074510
0.956863 0.160784 0.066667
1.000000 0.145098 0.066667
1.000000 0.149020 0.050980
0.133333 0.184314 0.145098
0.141176 0.196078 0.137255
0.149020 0.192157 0.137255
0.168627 0.192157 0.145098
0.188235 0.192157 0.137255
0.219608 0.196078 0.149020
0.235294 0.188235 0.133333
0.262745 0.188235 0.133333
0.298039 0.188235 0.137255
0.333333 0.184314 0.133333
0.372549 0.184314 0.129412
0.411765 0.192157 0.133333
0.458824 0.196078 0.129412
0.501961 0.200000 0.121569
0.556863 0.200000 0.125490
0.603922 0.203922 0.117647
0.654902 0.200000 0.109804
0.709804 0.200000 0.109804
0.760784 0.200000 0.105882
0.811765 0.196078 0.090196
0.862745 0.192157 0.082353
0.909804 0.196078 0.074510
0.960784 0.192157 0.058824
0.996078 0.192157 0.047059
1.000000 0.184314 0.035294
0.141176 0.215686 0.141176
0.141176 0.207843 0.133333
0.149020 0.215686 0.141176
0.168627 0.211765 0.145098
0.192157 0.211765 0.133333
0.215686 0.211765 0.133333
0.239216 0.215686 0.129412
0.274510 0.215686 0.133333
0.301961 0.215686 0.133333
0.333333 0.211765 0.133333
0.376471 0.219608 0.129412
0.411765 0.223529 0.133333
0.462745 0.227451 0.133333
0.509804 0.231373 0.129412
0.564706 0.231373 0.121569
0.607843 0.227451 0.121569
0.662745 0.239216 0.105882
0.717647 0.239216 0.101961
0.764706 0.235294 0.090196
0.815686 0.235294 0.086275
0.862745 0.231373 0.078431
0.913725 0.231373 0.054902
0.960784 0.231373 0.043137
0.996078 0.227451 0.039216
1.000000 0.227451 0.011765
0.141176 0.227451 0.129412
0.145098 0.239216 0.137255
0.168627 0.243137 0.129412
0.164706 0.235294 0.141176
0.200000 0.231373 0.133333
0.211765 0.231373 0.137255
0.235294 0.235294 0.125490
0.274510 0.235294 0.129412
0.301961 0.235294 0.133333
0.337255 0.239216 0.129412
0.376471 0.247059 0.125490
0.419608 0.250980 0.125490
0.458824 0.250980 0.125490
0.517647 0.258824 0.121569
0.568627 0.262745 0.113725
0.615686 0.266667 0.109804
0.666667 0.270588 0.105882
0.717647 0.270588 0.098039
0.768627 0.270588 0.094118
0.815686 0.270588 0.078431
0.866667 0.274510 0.066667
0.917647 0.270588 0.054902
0.956863 0.266667 0.035294
1.000000 0.258824 0.011765
0.992157 0.262745 0.000000
0.141176 0.262745 0.141176
0.152941 0.258824 0.121569
0.168627 0.270588 0.133333
0.180392 0.262745 0.133333
0.200000 0.266667 0.141176
0.219608 0.262745 0.137255
0.243137 0.258824 0.121569
0.278431 0.266667 0.129412
0.305882 0.266667 0.129412
0.333333 0.270588 0.129412
0.376471 0.278431 0.129412
0.419608 0.282353 0.125490
0.474510 0.282353 0.113725
0.525490 0.286275 0.113725
0.564706 0.298039 0.105882
0.615686 0.301961 0.109804
0.666667 0.301961 0.098039
0.713725 0.301961 0.078431
0.768627 0.301961 0.074510
0.815686 0.305882 0.062745
0.870588 0.309804 0.050980
0.917647 0.313725 0.047059
0.956863 0.313725 0.003922
1.000000 0.301961 0.011765
1.000000 0.301961 0.000000
0.133333 0.298039 0.141176
0.156863 0.301961 0.129412
0.156863 0.294118 0.125490
0.180392 0.301961 0.137255
0.200000 0.301961 0.113725
0.227451 0.298039 0.133333
0.243137 0.305882 0.129412
0.278431 0.305882 0.133333
0.313725 0.301961 0.133333
0.349020 0.298039 0.121569
0.372549 0.309804 0.117647
0.419608 0.317647 0.125490
0.466667 0.321569 0.109804
0.525490 0.325490 0.101961
0.572549 0.329412 0.105882
0.623529 0.333333 0.094118
0.674510 0.341176 0.086275
0.721569 0.341176 0.070588
0.768627 0.345098 0.054902
0.823529 0.349020 0.039216
0.862745 0.345098 0.023529
0.909804 0.349020 0.003922
0.960784 0.345098 0.000000
1.000000 0.349020 0.003922
1.000000 0.337255 0.000000
0.137255 0.345098 0.125490
0.145098 0.337255 0.117647
0.164706 0.341176 0.125490
0.172549 0.341176 0.121569
0.203922 0.333333 0.125490
0.235294 0.341176 0.133333
0.258824 0.341176 0.121569
0.282353 0.341176 0.117647
0.321569 0.341176 0.121569
0.352941 0.345098 0.121569
0.388235 0.349020 0.117647
0.427451 0.349020 0.109804
0.478431 0.356863 0.101961
0.521569 0.364706 0.094118
0.576471 0.372549 0.086275
0.623529 0.376471 0.074510
0.674510 0.380392 0.062745
0.717647 0.380392 0.039216
0.772549 0.384314 0.027451
0.819608 0.388235 0.015686
0.862745 0.388235 0.000000
0.913725 0.388235 0.000000
0.968627 0.388235 0.003922
0.996078 0.388235 0.003922
1.000000 0.384314 0.003922
0.137255 0.384314 0.105882
0.141176 0.380392 0.105882
0.164706 0.388235 0.117647
0.172549 0.388235 0.121569
0.200000 0.376471 0.113725
0.223529 0.384314 0.109804
0.270588 0.388235 0.113725
0.301961 0.388235 0.105882
0.329412 0.392157 0.105882
0.364706 0.388235 0.098039
0.400000 0.392157 0.098039
0.439216 0.392157 0.094118
0.482353 0.400000 0.082353
0.533333 0.407843 0.074510
0.588235 0.411765 0.054902
0.631373 0.415686 0.050980
0.678431 0.423529 0.031373
0.733333 0.423529 0.027451
0.780392 0.423529 0.003922
0.823529 0.431373 0.000000
0.870588 0.431373 0.000000
0.913725 0.431373 0.000000
0.960784 0.427451 0.000000
1.000000 0.431373 0.003922
0.992157 0.431373 0.000000
0.121569 0.427451 0.098039
0.141176 0.431373 0.082353
0.160784 0.427451 0.094118
0.176471 0.435294 0.086275
0.196078 0.431373 0.078431
0.235294 0.435294 0.074510
0.266667 0.435294 0.086275
0.298039 0.435294 0.074510
0.337255 0.431373 0.086275
0.372549 0.435294 0.086275
0.403922 0.439216 0.082353
0.450980 0.439216 0.074510
0.490196 0.443137 0.058824
0.537255 0.447059 0.039216
0.584314 0.450980 0.027451
0.635294 0.454902 0.015686
0.682353 0.458824 0.007843
0.733333 0.462745 0.000000
0.784314 0.470588 0.000000
0.827451 0.470588 0.000000
0.870588 0.474510 0.000000
0.921569 0.474510 0.000000
0.964706 0.470588 0.000000
0.996078 0.466667 0.007843
1.000000 0.470588 0.011765
0.109804 0.486275 0.054902
0.133333 0.482353 0.058824
0.137255 0.478431 0.058824
0.180392 0.490196 0.062745
0.200000 0.482353 0.043137
0.239216 0.482353 0.047059
0.266667 0.478431 0.039216
0.309804 0.482353 0.039216
0.341176 0.486275 0.039216
0.380392 0.486275 0.035294
0.419608 0.486275 0.031373
0.454902 0.490196 0.023529
0.498039 0.490196 0.015686
0.533333 0.490196 0.003922
0.588235 0.498039 0.000000
0.635294 0.498039 0.000000
0.690196 0.505882 0.000000
0.733333 0.509804 0.000000
0.780392 0.509804 0.003922
0.827451 0.513725 0.000000
0.878431 0.513725 0.000000
0.917647 0.513725 0.000000
0.964706 0.509804 0.003922
1.000000 0.509804 0.007843
1.000000 0.513725 0.000000
0.094118 0.533333 0.000000
0.125490 0.533333 0.000000
0.137255 0.537255 0.003922
0.168627 0.533333 0.003922
0.207843 0.537255 0.000000
0.227451 0.533333 0.000000
0.274510 0.533333 0.000000
0.309804 0.529412 0.000000
0.345098 0.533333 0.000000
0.384314 0.545098 0.003922
0.427451 0.537255 0.000000
0.466667 0.529412 0.000000
0.509804 0.537255 0.000000
0.541176 0.533333 0.000000
0.588235 0.533333 0.003922
0.643137 0.541176 0.003922
0.686275 0.545098 0.003922
0.729412 0.549020 0.003922
0.780392 0.556863 0.003922
0.819608 0.552941 0.000000
0.870588 0.552941 0.000000
0.921569 0.556863 0.003922
0.972549 0.545098 0.000000
0.992157 0.549020 0.000000
1.000000 0.556863 0.007843
0.070588 0.580392 0.000000
0.098039 0.584314 0.000000
0.121569 0.584314 0.000000
0.156863 0.580392 0.000000
0.196078 0.580392 0.000000
0.223529 0.584314 0.000000
0.270588 0.584314 0.000000
0.313725 0.580392 0.000000
0.349020 0.584314 0.000000
0.380392 0.588235 0.000000
0.427451 0.584314 0.000000
0.462745 0.592157 0.000000
0.509804 0.580392 0.000000
0.552941 0.588235 0.000000
0.603922 0.588235 0.000000
0.643137 0.588235 0.000000
0.690196 0.592157 0.000000
0.733333 0.596078 0.000000
0.788235 0.596078 0.000000
0.831373 0.600000 0.000000
0.878431 0.600000 0.000000
0.929412 0.603922 0.000000
0.972549 0.600000 0.003922
0.992157 0.596078 0.007843
1.000000 0.592157 0.007843
0.039216 0.643137 0.000000
0.074510 0.643137 0.000000
0.113725 0.643137 0.000000
0.156863 0.635294 0.000000
0.184314 0.643137 0.000000
0.223529 0.639216 0.000000
0.258824 0.643137 0.003922
0.301961 0.631373 0.011765
0.349020 0.643137 0.003922
0.396078 0.639216 0.000000
0.435294 0.639216 0.000000
0.478431 0.639216 0.000000
0.525490 0.635294 0.000000
0.568627 0.639216 0.003922
0.611765 0.639216 0.000000
0.650980 0.639216 0.000000
0.698039 0.639216 0.007843
0.749020 0.639216 0.000000
0.792157 0.639216 0.000000
0.835294 0.643137 0.000000
0.886275 0.643137 0.003922
0.929412 0.643137 0.000000
0.968627 0.643137 0.000000
1.000000 0.643137 0.003922
0.992157 0.643137 0.000000
0.000000 0.690196 0.000000
0.039216 0.686275 0.003922
0.082353 0.686275 0.000000
0.125490 0.690196 0.000000
0.188235 0.682353 0.007843
0.219608 0.690196 0.000000
0.262745 0.690196 0.000000
0.301961 0.690196 0.000000
0.349020 0.690196 0.003922
0.400000 0.690196 0.003922
0.439216 0.690196 0.000000
0.490196 0.686275 0.000000
0.529412 0.686275 0.003922
0.576471 0.690196 0.000000
0.615686 0.690196 0.000000
0.658824 0.686275 0.000000
0.698039 0.686275 0.000000
0.745098 0.682353 0.000000
0.792157 0.686275 0.000000
0.843137 0.686275 0.000000
0.882353 0.686275 0.000000
0.925490 0.682353 0.003922
0.972549 0.686275 0.000000
1.000000 0.682353 0.000000
1.000000 0.678431 0.000000
0.007843 0.729412 0.000000
0.007843 0.737255 0.000000
0.050980 0.741176 0.007843
0.113725 0.721569 0.000000
0.156863 0.741176 0.000000
0.200000 0.733333 0.000000
0.254902 0.729412 0.003922
0.298039 0.737255 0.007843
0.341176 0.733333 0.000000
0.388235 0.737255 0.000000
0.435294 0.733333 0.000000
0.482353 0.737255 0.000000
0.533333 0.729412 0.000000
0.576471 0.733333 0.000000
0.615686 0.729412 0.000000
0.658824 0.733333 0.000000
0.709804 0.733333 0.003922
0.749020 0.733333 0.000000
0.792157 0.733333 0.000000
0.831373 0.729412 0.003922
0.882353 0.733333 0.000000
0.921569 0.733333 0.000000
0.976471 0.725490 0.000000
0.992157 0.725490 0.000000
1.000000 0.725490 0.007843
0.003922 0.780392 0.000000
0.003922 0.784314 0.011765
0.007843 0.776471 0.000000
0.078431 0.780392 0.003922
0.137255 0.776471 0.003922
0.192157 0.780392 0.003922
0.243137 0.784314 0.000000
0.294118 0.780392 0.003922
0.337255 0.776471 0.000000
0.388235 0.772549 0.000000
0.435294 0.772549 0.000000
0.490196 0.776471 0.003922
0.521569 0.784314 0.000000
0.572549 0.776471 0.000000
0.611765 0.780392 0.000000
0.666667 0.776471 0.000000
0.709804 0.780392 0.000000
0.749020 0.772549 0.000000
0.792157 0.780392 0.000000
0.843137 0.772549 0.000000
0.882353 0.772549 0.000000
0.921569 0.768627 0.000000
0.976471 0.772549 0.000000
0.992157 0.772549 0.000000
0.988235 0.768627 0.000000
0.003922 0.827451 0.000000
0.003922 0.819608 0.003922
0.000000 0.823529 0.000000
0.027451 0.827451 0.000000
0.105882 0.835294 0.000000
0.180392 0.823529 0.000000
0.239216 0.823529 0.007843
0.286275 0.827451 0.003922
0.341176 0.827451 0.011765
0.388235 0.827451 0.011765
0.435294 0.827451 0.003922
0.478431 0.811765 0.000000
0.525490 0.819608 0.007843
0.572549 0.823529 0.000000
0.615686 0.819608 0.000000
0.654902 0.819608 0.003922
0.705882 0.823529 0.003922
0.749020 0.819608 0.003922
0.800000 0.819608 0.003922
0.847059 0.823529 0.000000
0.878431 0.823529 0.000000
0.925490 0.823529 0.003922
0.976471 0.819608 0.000000
1.000000 0.811765 0.000000
1.000000 0.807843 0.000000
0.007843 0.870588 0.007843
0.000000 0.874510 0.007843
0.000000 0.874510 0.000000
0.003922 0.874510 0.000000
0.086275 0.870588 0.000000
0.156863 0.874510 0.003922
0.223529 0.874510 0.000000
0.270588 0.878431 0.000000
0.333333 0.866667 0.000000
0.372549 0.866667 0.000000
0.419608 0.866667 0.000000
0.470588 0.870588 0.000000
0.525490 0.866667 0.000000
0.568627 0.870588 0.007843
0.607843 0.866667 0.000000
0.650980 0.862745 0.000000
0.694118 0.870588 0.000000
0.745098 0.870588 0.000000
0.796078 0.866667 0.000000
0.839216 0.870588 0.003922
0.882353 0.866667 0.007843
0.925490 0.862745 0.003922
0.964706 0.862745 0.000000
1.000000 0.858824 0.000000
1.000000 0.847059 0.007843
0.003922 0.913725 0.000000
0.007843 0.905882 0.000000
0.000000 0.921569 0.011765
0.000000 0.917647 0.000000
0.003922 0.917647 0.011765
0.125490 0.905882 0.000000
0.196078 0.913725 0.003922
0.270588 0.909804 0.003922
0.317647 0.909804 0.003922
0.368627 0.913725 0.000000
0.411765 0.913725 0.000000
0.466667 0.909804 0.000000
0.513725 0.909804 0.007843
0.564706 0.913725 0.003922
0.603922 0.913725 0.000000
0.654902 0.913725 0.003922
0.701961 0.913725 0.000000
0.745098 0.909804 0.000000
0.796078 0.909804 0.007843
0.839216 0.905882 0.003922
0.882353 0.913725 0.007843
0.933333 0.905882 0.003922
0.972549 0.909804 0.000000
0.992157 0.905882 0.000000
1.000000 0.905882 0.003922
0.007843 0.949020 0.003922
0.000000 0.949020 0.000000
0.003922 0.956863 0.007843
0.003922 0.956863 0.007843
0.003922 0.949020 0.000000
0.090196 0.952941 0.011765
0.180392 0.949020 0.000000
0.231373 0.956863 0.003922
0.294118 0.956863 0.003922
0.356863 0.960784 0.003922
0.407843 0.952941 0.000000
0.454902 0.956863 0.003922
0.501961 0.952941 0.000000
0.545098 0.956863 0.003922
0.600000 0.949020 0.007843
0.643137 0.945098 0.003922
0.694118 0.949020 0.000000
0.737255 0.945098 0.000000
0.792157 0.945098 0.007843
0.839216 0.945098 0.007843
0.886275 0.945098 0.000000
0.929412 0.941176 0.000000
0.968627 0.945098 0.000000
0.992157 0.952941 0.000000
0.992157 0.941176 0.003922
0.007843 1.000000 0.000000
0.000000 0.988235 0.000000
0.000000 0.996078 0.000000
0.007843 1.000000 0.000000
0.007843 0.988235 0.007843
0.007843 0.992157 0.000000
0.125490 0.996078 0.011765
0.215686 0.984314 0.000000
0.274510 0.992157 0.000000
0.333333 1.000000 0.000000
0.396078 0.996078 0.000000
0.443137 0.988235 0.000000
0.490196 0.996078 0.011765
0.541176 0.992157 0.000000
0.592157 0.996078 0.003922
0.639216 0.988235 0.000000
0.690196 0.992157 0.003922
0.741176 0.984314 0.000000
0.784314 0.984314 0.000000
0.843137 0.984314 0.003922
0.882353 0.980392 0.000000
0.933333 0.980392 0.007843
0.976471 0.980392 0.000000
1.000000 0.972549 0.000000
1.000000 0.980392 0.000000
0.007843 0.992157 0.000000
0.007843 0.996078 0.011765
0.000000 0.996078 0.007843
0.003922 1.000000 0.007843
0.000000 1.000000 0.003922
0.000000 1.000000 0.000000
0.062745 1.000000 0.000000
0.180392 0.996078 0.000000
0.262745 0.996078 0.003922
0.309804 0.996078 0.003922
0.372549 1.000000 0.000000
0.431373 1.000000 0.000000
0.490196 1.000000 0.000000
0.537255 0.996078 0.000000
0.596078 1.000000 0.000000
0.643137 1.000000 0.000000
0.698039 1.000000 0.000000
0.745098 1.000000 0.000000
0.800000 1.000000 0.000000
0.843137 1.000000 0.000000
0.905882 0.996078 0.000000
0.949020 1.000000 0.000000
0.988235 1.000000 0.000000
1.000000 0.996078 0.000000
0.996078 0.996078 0.000000
0.145098 0.152941 0.149020
0.145098 0.145098 0.145098
0.149020 0.149020 0.141176
0.168627 0.145098 0.145098
0.188235 0.141176 0.149020
0.219608 0.141176 0.149020
0.235294 0.141176 0.149020
0.270588 0.133333 0.156863
0.294118 0.137255 0.149020
0.329412 0.133333 0.145098
0.368627 0.133333 0.141176
0.407843 0.133333 0.137255
0.458824 0.129412 0.137255
0.501961 0.125490 0.133333
0.552941 0.121569 0.125490
0.596078 0.121569 0.125490
0.658824 0.117647 0.137255
0.705882 0.109804 0.121569
0.760784 0.105882 0.113725
0.811765 0.098039 0.113725
0.862745 0.086275 0.105882
0.917647 0.074510 0.098039
0.960784 0.066667 0.086275
0.992157 0.058824 0.082353
1.000000 0.039216 0.070588
0.137255 0.152941 0.156863
0.152941 0.152941 0.152941
0.168627 0.145098 0.145098
0.176471 0.141176 0.152941
0.196078 0.133333 0.137255
0.223529 0.145098 0.149020
0.239216 0.145098 0.145098
0.258824 0.149020 0.145098
0.286275 0.145098 0.145098
0.325490 0.145098 0.145098
0.364706 0.149020 0.141176
0.411765 0.145098 0.145098
0.454902 0.141176 0.145098
0.505882 0.137255 0.137255
0.552941 0.141176 0.137255
0.603922 0.133333 0.137255
0.654902 0.129412 0.125490
0.701961 0.125490 0.117647
0.764706 0.121569 0.117647
0.807843 0.113725 0.105882
0.866667 0.105882 0.101961
0.913725 0.101961 0.101961
0.960784 0.094118 0.090196
1.000000 0.086275 0.070588
0.996078 0.066667 0.058824
0.141176 0.156863 0.152941
0.141176 0.164706 0.149020
0.160784 0.156863 0.149020
0.188235 0.156863 0.149020
0.192157 0.156863 0.137255
0.223529 0.152941 0.145098
0.235294 0.152941 0.133333
0.274510 0.152941 0.141176
0.301961 0.152941 0.141176
0.333333 0.156863 0.145098
0.368627 0.152941 0.145098
0.407843 0.152941 0.145098
0.458824 0.152941 0.145098
0.501961 0.156863 0.149020
0.556863 0.152941 0.133333
0.600000 0.152941 0.121569
0.654902 0.149020 0.125490
0.705882 0.145098 0.113725
0.756863 0.145098 0.117647
0.807843 0.141176 0.113725
0.858824 0.137255 0.105882
0.898039 0.129412 0.098039
0.960784 0.121569 0.082353
1.000000 0.105882 0.070588
1.000000 0.098039 0.058824
0.133333 0.172549 0.141176
0.149020 0.176471 0.149020
0.156863 0.176471 0.149020
0.172549 0.172549 0.133333
0.192157 0.172549 0.149020
0.219608 0.168627 0.145098
0.239216 0.172549 0.141176
0.262745 0.172549 0.149020
0.298039 0.168627 0.149020
0.333333 0.164706 0.141176
0.360784 0.168627 0.141176
0.403922 0.172549 0.141176
0.447059 0.172549 0.133333
0.498039 0.168627 0.129412
0.552941 0.172549 0.137255
0.600000 0.168627 0.125490
0.658824 0.172549 0.125490
0.709804 0.168627 0.125490
0.752941 0.168627 0.113725
0.811765 0.164706 0.109804
0.854902 0.160784 0.101961
0.909804 0.160784 0.090196
0.949020 0.149020 0.082353
1.000000 0.149020 0.082353
0.996078 0.149020 0.058824
0.141176 0.196078 0.145098
0.145098 0.192157 0.137255
0.164706 0.196078 0.145098
0.168627 0.192157 0.145098
0.200000 0.192157 0.145098
0.215686 0.192157 0.145098
0.231373 0.192157 0.145098
0.262745 0.192157 0.137255
0.301961 0.192157 0.141176
0.329412 0.196078 0.149020
0.360784 0.196078 0.141176
0.407843 0.188235 0.129412
0.458824 0.200000 0.137255
0.501961 0.200000 0.129412
0.549020 0.203922 0.129412
0.603922 0.203922 0.125490
0.658824 0.203922 0.121569
0.709804 0.196078 0.117647
0.760784 0.196078 0.113725
0.807843 0.196078 0.105882
0.858824 0.196078 0.090196
0.909804 0.196078 0.082353
0.960784 0.192157 0.066667
0.992157 0.184314 0.058824
0.996078 0.180392 0.047059
0.137255 0.207843 0.145098
0.141176 0.207843 0.137255
0.164706 0.215686 0.149020
0.172549 0.215686 0.149020
0.200000 0.211765 0.145098
0.207843 0.211765 0.141176
0.239216 0.211765 0.141176
0.262745 0.211765 0.141176
0.298039 0.215686 0.149020
0.329412 0.215686 0.145098
0.368627 0.219608 0.137255
0.403922 0.223529 0.133333
0.454902 0.231373 0.133333
0.509804 0.227451 0.133333
0.564706 0.227451 0.129412
0.611765 0.231373 0.133333
0.666667 0.231373 0.117647
0.713725 0.231373 0.109804
0.764706 0.231373 0.105882
0.811765 0.231373 0.098039
0.862745 0.231373 0.090196
0.913725 0.227451 0.074510
0.960784 0.227451 0.058824
0.996078 0.223529 0.050980
0.996078 0.223529 0.027451
0.145098 0.239216 0.152941
0.149020 0.243137 0.149020
0.160784 0.239216 0.141176
0.176471 0.235294 0.145098
0.188235 0.243137 0.152941
0.219608 0.235294 0.141176
0.243137 0.243137 0.141176
0.270588 0.239216 0.149020
0.301961 0.239216 0.141176
0.337255 0.243137 0.133333
0.368627 0.247059 0.125490
0.411765 0.254902 0.125490
0.462745 0.254902 0.129412
0.513725 0.254902 0.121569
0.568627 0.262745 0.121569
0.619608 0.270588 0.121569
0.666667 0.266667 0.109804
0.717647 0.266667 0.105882
0.768627 0.270588 0.101961
0.811765 0.266667 0.082353
0.862745 0.266667 0.074510
0.905882 0.266667 0.066667
0.956863 0.262745 0.050980
1.000000 0.258824 0.031373
1.000000 0.262745 0.011765
0.141176 0.258824 0.149020
0.149020 0.266667 0.133333
0.160784 0.258824 0.133333
0.184314 0.266667 0.145098
0.200000 0.262745 0.149020
0.215686 0.266667 0.149020
0.239216 0.266667 0.137255
0.270588 0.266667 0.145098
0.305882 0.266667 0.137255
0.337255 0.274510 0.141176
0.376471 0.274510 0.137255
0.419608 0.282353 0.125490
0.462745 0.286275 0.121569
0.509804 0.298039 0.117647
0.564706 0.298039 0.113725
0.615686 0.298039 0.113725
0.662745 0.305882 0.101961
0.717647 0.305882 0.090196
0.772549 0.305882 0.086275
0.815686 0.305882 0.070588
0.870588 0.309804 0.058824
0.913725 0.305882 0.054902
0.956863 0.305882 0.031373
1.000000 0.294118 0.015686
1.000000 0.298039 0.000000
0.133333 0.298039 0.141176
0.149020 0.301961 0.129412
0.152941 0.294118 0.145098
0.180392 0.298039 0.149020
0.200000 0.301961 0.125490
0.223529 0.294118 0.129412
0.243137 0.301961 0.133333
0.274510 0.301961 0.137255
0.305882 0.298039 0.137255
0.349020 0.305882 0.137255
0.380392 0.309804 0.129412
0.423529 0.313725 0.129412
0.466667 0.325490 0.129412
0.521569 0.329412 0.109804
0.568627 0.329412 0.113725
0.615686 0.333333 0.101961
0.670588 0.341176 0.090196
0.721569 0.341176 0.074510
0.764706 0.341176 0.058824
0.823529 0.345098 0.050980
0.866667 0.345098 0.043137
0.909804 0.349020 0.011765
0.956863 0.349020 0.003922
0.996078 0.341176 0.003922
1.000000 0.341176 0.000000
0.141176 0.337255 0.129412
0.149020 0.341176 0.125490
0.156863 0.341176 0.129412
0.164706 0.341176 0.125490
0.203922 0.337255 0.129412
0.227451 0.341176 0.129412
0.258824 0.341176 0.121569
0.282353 0.341176 0.117647
0.305882 0.341176 0.117647
0.345098 0.341176 0.121569
0.388235 0.341176 0.113725
0.431373 0.352941 0.117647
0.474510 0.356863 0.113725
0.521569 0.360784 0.101961
0.572549 0.364706 0.098039
0.615686 0.372549 0.086275
0.674510 0.380392 0.070588
0.721569 0.384314 0.058824
0.776471 0.384314 0.047059
0.819608 0.384314 0.031373
0.874510 0.380392 0.007843
0.917647 0.388235 0.000000
0.972549 0.384314 0.003922
0.996078 0.388235 0.003922
1.000000 0.384314 0.003922
0.125490 0.380392 0.105882
0.145098 0.384314 0.113725
0.156863 0.392157 0.117647
0.172549 0.388235 0.121569
0.203922 0.388235 0.121569
0.227451 0.388235 0.113725
0.262745 0.384314 0.109804
0.301961 0.384314 0.113725
0.325490 0.388235 0.101961
0.364706 0.388235 0.105882
