lut_library_archive/removed_20260629/50个风景lut/50个风景lut15.cube
# 版权归凌孟成所有，侵权必究
TITLE "Jungle LUT #15"
#LUT size
LUT_3D_SIZE 25
#LUT data points
0.000000 0.000000 0.000000
0.003922 0.000000 0.000000
0.039216 0.000000 0.000000
0.078431 0.000000 0.003922
0.113725 0.000000 0.000000
0.152941 0.000000 0.000000
0.180392 0.000000 0.000000
0.211765 0.000000 0.000000
0.254902 0.000000 0.000000
0.305882 0.000000 0.000000
0.356863 0.000000 0.000000
0.407843 0.000000 0.000000
0.466667 0.000000 0.000000
0.525490 0.000000 0.000000
0.584314 0.000000 0.000000
0.631373 0.000000 0.000000
0.694118 0.000000 0.000000
0.745098 0.000000 0.000000
0.800000 0.003922 0.000000
0.850980 0.000000 0.000000
0.898039 0.000000 0.000000
0.941176 0.003922 0.000000
0.984314 0.000000 0.000000
0.996078 0.000000 0.000000
0.996078 0.000000 0.000000
0.000000 0.019608 0.000000
0.011765 0.015686 0.000000
0.047059 0.015686 0.003922
0.086275 0.019608 0.000000
0.098039 0.015686 0.000000
0.145098 0.015686 0.000000
0.180392 0.019608 0.003922
0.215686 0.023529 0.000000
0.258824 0.023529 0.000000
0.305882 0.031373 0.000000
0.356863 0.031373 0.000000
0.411765 0.031373 0.003922
0.462745 0.031373 0.003922
0.525490 0.027451 0.000000
0.576471 0.027451 0.000000
0.635294 0.023529 0.003922
0.686275 0.019608 0.000000
0.749020 0.007843 0.000000
0.803922 0.007843 0.000000
0.850980 0.000000 0.000000
0.901961 0.003922 0.000000
0.945098 0.000000 0.003922
0.984314 0.000000 0.003922
0.996078 0.003922 0.000000
0.996078 0.000000 0.000000
0.000000 0.054902 0.003922
0.011765 0.054902 0.000000
0.043137 0.058824 0.003922
0.070588 0.047059 0.000000
0.117647 0.047059 0.000000
0.137255 0.050980 0.000000
0.172549 0.058824 0.003922
0.211765 0.058824 0.000000
0.262745 0.062745 0.000000
0.305882 0.066667 0.000000
0.352941 0.066667 0.000000
0.407843 0.074510 0.003922
0.466667 0.070588 0.000000
0.517647 0.074510 0.003922
0.584314 0.070588 0.000000
0.635294 0.074510 0.003922
0.690196 0.070588 0.000000
0.745098 0.058824 0.000000
0.800000 0.058824 0.003922
0.854902 0.050980 0.000000
0.898039 0.039216 0.000000
0.941176 0.023529 0.000000
0.988235 0.003922 0.000000
0.992157 0.000000 0.000000
0.988235 0.011765 0.003922
0.000000 0.082353 0.007843
0.000000 0.086275 0.000000
0.027451 0.086275 0.000000
0.066667 0.086275 0.000000
0.105882 0.090196 0.000000
0.137255 0.090196 0.000000
0.188235 0.094118 0.000000
0.219608 0.094118 0.000000
0.258824 0.101961 0.000000
0.305882 0.105882 0.000000
0.352941 0.113725 0.000000
0.407843 0.113725 0.000000
0.466667 0.113725 0.000000
0.533333 0.117647 0.000000
0.584314 0.117647 0.000000
0.635294 0.117647 0.000000
0.694118 0.121569 0.000000
0.749020 0.113725 0.000000
0.800000 0.113725 0.000000
0.854902 0.105882 0.000000
0.894118 0.098039 0.000000
0.937255 0.090196 0.000000
0.980392 0.090196 0.000000
1.000000 0.078431 0.000000
0.996078 0.066667 0.003922
0.000000 0.121569 0.000000
0.007843 0.121569 0.003922
0.023529 0.121569 0.000000
0.062745 0.121569 0.000000
0.101961 0.121569 0.000000
0.141176 0.129412 0.000000
0.176471 0.125490 0.000000
0.219608 0.129412 0.003922
0.258824 0.141176 0.000000
0.309804 0.145098 0.003922
0.360784 0.145098 0.000000
0.415686 0.149020 0.000000
0.478431 0.156863 0.000000
0.525490 0.160784 0.000000
0.584314 0.164706 0.000000
0.647059 0.164706 0.000000
0.698039 0.160784 0.000000
0.752941 0.164706 0.000000
0.807843 0.160784 0.003922
0.854902 0.160784 0.000000
0.901961 0.152941 0.007843
0.949020 0.152941 0.003922
0.984314 0.141176 0.000000
0.996078 0.137255 0.000000
0.992157 0.129412 0.000000
0.000000 0.156863 0.011765
0.007843 0.156863 0.003922
0.027451 0.164706 0.000000
0.058824 0.164706 0.000000
0.101961 0.160784 0.000000
0.137255 0.164706 0.000000
0.172549 0.168627 0.000000
0.223529 0.172549 0.007843
0.266667 0.180392 0.000000
0.313725 0.180392 0.000000
0.360784 0.192157 0.000000
0.415686 0.196078 0.003922
0.474510 0.200000 0.000000
0.533333 0.207843 0.003922
0.596078 0.203922 0.000000
0.647059 0.211765 0.003922
0.705882 0.207843 0.000000
0.752941 0.211765 0.000000
0.807843 0.207843 0.003922
0.854902 0.207843 0.000000
0.901961 0.200000 0.003922
0.949020 0.200000 0.003922
0.988235 0.192157 0.003922
1.000000 0.192157 0.007843
1.000000 0.180392 0.003922
0.000000 0.203922 0.000000
0.003922 0.200000 0.000000
0.019608 0.200000 0.007843
0.062745 0.196078 0.000000
0.109804 0.203922 0.007843
0.145098 0.200000 0.000000
0.180392 0.196078 0.000000
0.223529 0.211765 0.003922
0.266667 0.215686 0.007843
0.317647 0.219608 0.000000
0.364706 0.227451 0.000000
0.415686 0.235294 0.000000
0.474510 0.239216 0.000000
0.541176 0.247059 0.000000
0.596078 0.243137 0.000000
0.647059 0.250980 0.000000
0.701961 0.250980 0.003922
0.756863 0.250980 0.000000
0.807843 0.254902 0.003922
0.858824 0.250980 0.000000
0.901961 0.254902 0.003922
0.941176 0.247059 0.000000
0.988235 0.247059 0.000000
0.992157 0.243137 0.000000
1.000000 0.231373 0.003922
0.000000 0.243137 0.000000
0.000000 0.247059 0.000000
0.000000 0.243137 0.000000
0.062745 0.239216 0.007843
0.105882 0.247059 0.003922
0.145098 0.247059 0.000000
0.188235 0.243137 0.003922
0.231373 0.247059 0.007843
0.274510 0.254902 0.000000
0.321569 0.262745 0.000000
0.364706 0.270588 0.000000
0.423529 0.270588 0.000000
0.486275 0.282353 0.000000
0.545098 0.282353 0.003922
0.596078 0.294118 0.000000
0.658824 0.298039 0.003922
0.705882 0.301961 0.000000
0.756863 0.298039 0.000000
0.803922 0.298039 0.000000
0.854902 0.301961 0.000000
0.905882 0.301961 0.000000
0.949020 0.290196 0.003922
0.984314 0.286275 0.000000
1.000000 0.290196 0.000000
1.000000 0.274510 0.003922
0.003922 0.294118 0.000000
0.000000 0.286275 0.000000
0.000000 0.298039 0.003922
0.054902 0.290196 0.000000
0.117647 0.298039 0.011765
0.152941 0.298039 0.000000
0.203922 0.298039 0.000000
0.235294 0.298039 0.003922
0.274510 0.301961 0.000000
0.329412 0.298039 0.003922
0.380392 0.305882 0.003922
0.431373 0.321569 0.003922
0.486275 0.325490 0.003922
0.552941 0.333333 0.000000
0.600000 0.333333 0.000000
0.658824 0.337255 0.000000
0.713725 0.345098 0.003922
0.756863 0.341176 0.003922
0.803922 0.345098 0.003922
0.858824 0.345098 0.000000
0.898039 0.337255 0.000000
0.949020 0.337255 0.003922
0.996078 0.329412 0.000000
1.000000 0.325490 0.000000
0.996078 0.325490 0.011765
0.000000 0.345098 0.000000
0.000000 0.349020 0.000000
0.000000 0.349020 0.000000
0.043137 0.341176 0.000000
0.109804 0.345098 0.003922
0.156863 0.345098 0.000000
0.211765 0.345098 0.003922
0.258824 0.349020 0.003922
0.294118 0.345098 0.000000
0.337255 0.349020 0.000000
0.392157 0.352941 0.003922
0.435294 0.356863 0.007843
0.498039 0.368627 0.000000
0.549020 0.376471 0.000000
0.603922 0.376471 0.000000
0.658824 0.384314 0.000000
0.709804 0.388235 0.000000
0.756863 0.388235 0.003922
0.803922 0.392157 0.000000
0.850980 0.388235 0.003922
0.894118 0.388235 0.000000
0.937255 0.384314 0.000000
0.984314 0.380392 0.000000
1.000000 0.372549 0.000000
1.000000 0.372549 0.003922
0.000000 0.407843 0.003922
0.000000 0.403922 0.000000
0.003922 0.403922 0.003922
0.031373 0.403922 0.003922
0.105882 0.396078 0.007843
0.172549 0.400000 0.007843
0.203922 0.403922 0.000000
0.262745 0.407843 0.000000
0.313725 0.403922 0.000000
0.356863 0.407843 0.000000
0.403922 0.411765 0.000000
0.454902 0.411765 0.000000
0.505882 0.415686 0.000000
0.556863 0.423529 0.000000
0.615686 0.427451 0.000000
0.666667 0.431373 0.000000
0.721569 0.435294 0.000000
0.772549 0.435294 0.000000
0.815686 0.435294 0.000000
0.862745 0.431373 0.000000
0.898039 0.431373 0.000000
0.937255 0.431373 0.000000
0.984314 0.427451 0.000000
0.992157 0.431373 0.000000
0.992157 0.415686 0.003922
0.003922 0.454902 0.000000
0.000000 0.462745 0.000000
0.000000 0.454902 0.003922
0.011765 0.462745 0.000000
0.105882 0.454902 0.000000
0.156863 0.462745 0.000000
0.223529 0.462745 0.000000
0.266667 0.458824 0.000000
0.313725 0.458824 0.003922
0.368627 0.458824 0.000000
0.415686 0.458824 0.000000
0.466667 0.462745 0.000000
0.513725 0.466667 0.003922
0.568627 0.470588 0.003922
0.615686 0.474510 0.003922
0.670588 0.474510 0.000000
0.721569 0.478431 0.003922
0.772549 0.482353 0.000000
0.811765 0.482353 0.000000
0.854902 0.482353 0.000000
0.905882 0.482353 0.003922
0.945098 0.474510 0.000000
0.984314 0.466667 0.000000
1.000000 0.470588 0.007843
1.000000 0.466667 0.003922
0.000000 0.513725 0.000000
0.011765 0.501961 0.000000
0.000000 0.509804 0.007843
0.000000 0.513725 0.000000
0.094118 0.505882 0.000000
0.164706 0.517647 0.000000
0.219608 0.513725 0.000000
0.270588 0.517647 0.000000
0.329412 0.513725 0.000000
0.372549 0.513725 0.000000
0.427451 0.509804 0.000000
0.470588 0.513725 0.000000
0.513725 0.513725 0.000000
0.556863 0.517647 0.000000
0.615686 0.521569 0.000000
0.670588 0.525490 0.003922
0.721569 0.529412 0.000000
0.760784 0.525490 0.000000
0.811765 0.521569 0.000000
0.850980 0.521569 0.000000
0.909804 0.525490 0.003922
0.949020 0.521569 0.015686
0.972549 0.521569 0.000000
0.996078 0.509804 0.000000
1.000000 0.505882 0.000000
0.003922 0.568627 0.000000
0.007843 0.568627 0.003922
0.003922 0.556863 0.003922
0.000000 0.568627 0.007843
0.090196 0.564706 0.007843
0.164706 0.572549 0.000000
0.235294 0.568627 0.000000
0.282353 0.564706 0.000000
0.325490 0.568627 0.000000
0.376471 0.572549 0.000000
0.431373 0.568627 0.000000
0.474510 0.568627 0.000000
0.529412 0.568627 0.000000
0.576471 0.568627 0.000000
0.627451 0.568627 0.000000
0.678431 0.568627 0.000000
0.721569 0.572549 0.000000
0.768627 0.572549 0.000000
0.815686 0.572549 0.000000
0.862745 0.572549 0.000000
0.901961 0.564706 0.000000
0.945098 0.568627 0.003922
0.980392 0.560784 0.003922
0.996078 0.552941 0.003922
0.996078 0.549020 0.000000
0.011765 0.619608 0.000000
0.003922 0.619608 0.000000
0.000000 0.619608 0.011765
0.003922 0.615686 0.015686
0.086275 0.615686 0.000000
0.160784 0.619608 0.000000
0.223529 0.619608 0.000000
0.278431 0.619608 0.000000
0.333333 0.623529 0.000000
0.384314 0.619608 0.000000
0.439216 0.615686 0.007843
0.490196 0.623529 0.007843
0.533333 0.619608 0.000000
0.580392 0.619608 0.000000
0.635294 0.619608 0.000000
0.678431 0.615686 0.000000
0.729412 0.615686 0.003922
0.776471 0.619608 0.003922
0.819608 0.611765 0.000000
0.866667 0.611765 0.007843
0.905882 0.611765 0.003922
0.945098 0.607843 0.000000
0.988235 0.600000 0.000000
1.000000 0.592157 0.000000
1.000000 0.588235 0.000000
0.000000 0.674510 0.000000
0.007843 0.670588 0.000000
0.000000 0.674510 0.000000
0.000000 0.674510 0.000000
0.070588 0.670588 0.000000
0.160784 0.666667 0.000000
0.227451 0.674510 0.000000
0.286275 0.674510 0.003922
0.333333 0.670588 0.000000
0.388235 0.670588 0.003922
0.443137 0.666667 0.003922
0.490196 0.670588 0.003922
0.537255 0.666667 0.003922
0.584314 0.670588 0.003922
0.631373 0.666667 0.000000
0.678431 0.670588 0.003922
0.725490 0.670588 0.000000
0.772549 0.670588 0.000000
0.815686 0.666667 0.000000
0.866667 0.662745 0.000000
0.901961 0.654902 0.000000
0.945098 0.654902 0.000000
0.988235 0.647059 0.000000
1.000000 0.643137 0.003922
1.000000 0.639216 0.000000
0.003922 0.713725 0.003922
0.003922 0.713725 0.000000
0.003922 0.713725 0.003922
0.007843 0.717647 0.000000
0.054902 0.717647 0.000000
0.145098 0.713725 0.000000
0.223529 0.717647 0.000000
0.286275 0.717647 0.000000
0.333333 0.717647 0.007843
0.388235 0.717647 0.000000
0.435294 0.713725 0.000000
0.486275 0.713725 0.000000
0.537255 0.713725 0.003922
0.580392 0.713725 0.000000
0.631373 0.713725 0.000000
0.682353 0.713725 0.000000
0.729412 0.709804 0.003922
0.772549 0.709804 0.000000
0.811765 0.709804 0.000000
0.858824 0.705882 0.000000
0.901961 0.701961 0.000000
0.941176 0.698039 0.000000
0.988235 0.694118 0.000000
1.000000 0.678431 0.003922
1.000000 0.682353 0.000000
0.007843 0.756863 0.007843
0.000000 0.760784 0.003922
0.003922 0.760784 0.003922
0.000000 0.756863 0.000000
0.031373 0.764706 0.000000
0.137255 0.760784 0.000000
0.215686 0.752941 0.000000
0.278431 0.760784 0.000000
0.325490 0.764706 0.000000
0.384314 0.760784 0.000000
0.435294 0.760784 0.000000
0.486275 0.760784 0.000000
0.525490 0.760784 0.000000
0.572549 0.756863 0.000000
0.631373 0.752941 0.003922
0.678431 0.752941 0.007843
0.725490 0.752941 0.000000
0.772549 0.752941 0.007843
0.823529 0.756863 0.007843
0.866667 0.752941 0.000000
0.905882 0.749020 0.000000
0.945098 0.737255 0.000000
0.988235 0.733333 0.003922
1.000000 0.725490 0.000000
1.000000 0.717647 0.000000
0.000000 0.803922 0.003922
0.000000 0.803922 0.000000
0.000000 0.811765 0.000000
0.003922 0.807843 0.000000
0.007843 0.803922 0.000000
0.121569 0.803922 0.007843
0.203922 0.803922 0.003922
0.270588 0.796078 0.000000
0.321569 0.803922 0.000000
0.380392 0.803922 0.000000
0.431373 0.803922 0.000000
0.474510 0.800000 0.000000
0.521569 0.800000 0.000000
0.568627 0.800000 0.000000
0.615686 0.800000 0.000000
0.670588 0.800000 0.003922
0.717647 0.800000 0.003922
0.768627 0.796078 0.003922
0.815686 0.792157 0.007843
0.862745 0.796078 0.007843
0.901961 0.788235 0.003922
0.937255 0.784314 0.003922
0.968627 0.776471 0.000000
0.996078 0.768627 0.000000
1.000000 0.768627 0.000000
0.007843 0.835294 0.007843
0.003922 0.843137 0.003922
0.003922 0.847059 0.000000
0.007843 0.839216 0.000000
0.000000 0.843137 0.000000
0.117647 0.839216 0.000000
0.203922 0.839216 0.003922
0.243137 0.843137 0.000000
0.309804 0.839216 0.000000
0.372549 0.843137 0.003922
0.415686 0.843137 0.000000
0.474510 0.839216 0.000000
0.521569 0.835294 0.007843
0.568627 0.835294 0.007843
0.615686 0.835294 0.000000
0.662745 0.839216 0.000000
0.705882 0.835294 0.000000
0.756863 0.835294 0.000000
0.800000 0.835294 0.000000
0.850980 0.835294 0.000000
0.898039 0.831373 0.003922
0.945098 0.827451 0.003922
0.984314 0.819608 0.003922
0.996078 0.815686 0.003922
0.996078 0.807843 0.000000
0.000000 0.882353 0.000000
0.003922 0.878431 0.003922
0.003922 0.878431 0.011765
0.000000 0.882353 0.000000
0.007843 0.878431 0.000000
0.090196 0.882353 0.000000
0.172549 0.878431 0.000000
0.247059 0.882353 0.000000
0.301961 0.882353 0.000000
0.349020 0.878431 0.000000
0.415686 0.878431 0.000000
0.466667 0.874510 0.000000
0.517647 0.878431 0.003922
0.568627 0.874510 0.000000
0.615686 0.874510 0.000000
0.658824 0.870588 0.000000
0.698039 0.874510 0.000000
0.749020 0.874510 0.000000
0.796078 0.878431 0.000000
0.847059 0.870588 0.000000
0.890196 0.870588 0.000000
0.937255 0.866667 0.000000
0.980392 0.862745 0.000000
0.996078 0.862745 0.003922
0.992157 0.850980 0.000000
0.000000 0.913725 0.000000
0.000000 0.921569 0.003922
0.000000 0.921569 0.003922
0.003922 0.913725 0.000000
0.000000 0.913725 0.000000
0.074510 0.909804 0.000000
0.156863 0.921569 0.003922
0.235294 0.917647 0.000000
0.294118 0.917647 0.000000
0.352941 0.917647 0.000000
0.407843 0.913725 0.000000
0.458824 0.913725 0.000000
0.509804 0.913725 0.000000
0.556863 0.917647 0.000000
0.603922 0.913725 0.000000
0.647059 0.913725 0.000000
0.690196 0.909804 0.000000
0.741176 0.905882 0.000000
0.792157 0.905882 0.000000
0.839216 0.909804 0.000000
0.882353 0.905882 0.000000
0.929412 0.901961 0.000000
0.972549 0.901961 0.000000
0.996078 0.901961 0.000000
0.996078 0.890196 0.000000
0.000000 0.952941 0.000000
0.003922 0.949020 0.000000
0.007843 0.952941 0.000000
0.000000 0.956863 0.003922
0.000000 0.949020 0.000000
0.027451 0.949020 0.000000
0.152941 0.949020 0.000000
0.211765 0.952941 0.000000
0.286275 0.949020 0.003922
0.333333 0.952941 0.000000
0.403922 0.941176 0.000000
0.447059 0.945098 0.000000
0.501961 0.945098 0.000000
0.552941 0.945098 0.003922
0.592157 0.941176 0.000000
0.639216 0.945098 0.000000
0.690196 0.945098 0.000000
0.733333 0.941176 0.000000
0.780392 0.941176 0.000000
0.823529 0.945098 0.000000
0.870588 0.945098 0.003922
0.913725 0.941176 0.007843
0.972549 0.937255 0.000000
1.000000 0.933333 0.000000
1.000000 0.937255 0.007843
0.007843 0.980392 0.000000
0.000000 0.988235 0.000000
0.000000 0.984314 0.000000
0.007843 0.988235 0.007843
0.000000 0.988235 0.000000
0.011765 0.984314 0.000000
0.117647 0.980392 0.000000
0.215686 0.984314 0.003922
0.278431 0.984314 0.003922
0.329412 0.980392 0.000000
0.384314 0.980392 0.000000
0.431373 0.980392 0.003922
0.490196 0.984314 0.007843
0.537255 0.976471 0.000000
0.584314 0.976471 0.000000
0.631373 0.980392 0.000000
0.686275 0.980392 0.000000
0.733333 0.976471 0.000000
0.776471 0.972549 0.003922
0.823529 0.976471 0.000000
0.870588 0.972549 0.003922
0.925490 0.964706 0.000000
0.960784 0.968627 0.000000
1.000000 0.968627 0.000000
1.000000 0.956863 0.000000
0.003922 1.000000 0.000000
0.000000 1.000000 0.000000
0.000000 1.000000 0.003922
0.000000 1.000000 0.000000
0.000000 0.996078 0.007843
0.000000 1.000000 0.000000
0.086275 1.000000 0.000000
0.196078 1.000000 0.007843
0.262745 1.000000 0.007843
0.321569 1.000000 0.000000
0.380392 0.996078 0.003922
0.427451 1.000000 0.000000
0.482353 0.996078 0.000000
0.529412 1.000000 0.000000
0.584314 0.996078 0.003922
0.639216 1.000000 0.000000
0.686275 1.000000 0.000000
0.741176 1.000000 0.003922
0.796078 1.000000 0.000000
0.839216 1.000000 0.000000
0.894118 1.000000 0.000000
0.933333 1.000000 0.000000
0.976471 1.000000 0.000000
0.996078 0.996078 0.000000
0.996078 0.996078 0.000000
0.000000 0.003922 0.019608
0.007843 0.000000 0.011765
0.054902 0.000000 0.007843
0.086275 0.000000 0.011765
0.109804 0.000000 0.003922
0.141176 0.000000 0.007843
0.180392 0.000000 0.011765
0.227451 0.000000 0.019608
0.258824 0.000000 0.007843
0.309804 0.000000 0.011765
0.352941 0.000000 0.000000
0.407843 0.000000 0.000000
0.462745 0.000000 0.000000
0.517647 0.003922 0.000000
0.576471 0.000000 0.000000
0.635294 0.003922 0.000000
0.701961 0.000000 0.000000
0.749020 0.000000 0.000000
0.800000 0.003922 0.000000
0.850980 0.000000 0.000000
0.898039 0.000000 0.000000
0.941176 0.003922 0.000000
0.988235 0.003922 0.000000
1.000000 0.003922 0.003922
1.000000 0.003922 0.011765
0.011765 0.011765 0.003922
0.011765 0.019608 0.007843
0.035294 0.019608 0.007843
0.078431 0.019608 0.007843
0.105882 0.023529 0.019608
0.141176 0.019608 0.011765
0.184314 0.019608 0.023529
0.223529 0.023529 0.003922
0.262745 0.023529 0.003922
0.309804 0.035294 0.003922
0.356863 0.031373 0.000000
0.407843 0.027451 0.000000
0.466667 0.023529 0.000000
0.529412 0.023529 0.000000
0.584314 0.015686 0.000000
0.639216 0.007843 0.000000
0.694118 0.003922 0.011765
0.749020 0.000000 0.000000
0.800000 0.000000 0.003922
0.850980 0.000000 0.000000
0.890196 0.000000 0.000000
0.941176 0.003922 0.000000
0.988235 0.003922 0.007843
0.996078 0.000000 0.000000
1.000000 0.003922 0.003922
0.000000 0.050980 0.011765
0.011765 0.050980 0.007843
0.043137 0.054902 0.011765
0.070588 0.054902 0.007843
0.109804 0.062745 0.015686
0.145098 0.058824 0.015686
0.184314 0.058824 0.011765
0.223529 0.058824 0.011765
0.258824 0.066667 0.007843
0.309804 0.070588 0.000000
0.352941 0.074510 0.003922
0.411765 0.070588 0.003922
0.466667 0.070588 0.000000
0.525490 0.074510 0.003922
0.588235 0.062745 0.000000
0.643137 0.058824 0.000000
0.698039 0.050980 0.000000
0.752941 0.050980 0.003922
0.807843 0.039216 0.007843
0.854902 0.031373 0.003922
0.901961 0.015686 0.000000
0.941176 0.003922 0.000000
0.976471 0.007843 0.011765
0.996078 0.000000 0.007843
0.996078 0.000000 0.000000
0.000000 0.094118 0.007843
0.011765 0.086275 0.007843
0.047059 0.090196 0.023529
0.070588 0.074510 0.011765
0.117647 0.094118 0.007843
0.141176 0.090196 0.019608
0.188235 0.090196 0.011765
0.215686 0.090196 0.000000
0.247059 0.101961 0.000000
0.298039 0.101961 0.000000
0.360784 0.109804 0.000000
0.411765 0.109804 0.000000
0.462745 0.113725 0.000000
0.529412 0.109804 0.000000
0.580392 0.113725 0.003922
0.639216 0.109804 0.000000
0.698039 0.113725 0.003922
0.752941 0.105882 0.000000
0.803922 0.098039 0.000000
0.854902 0.098039 0.000000
0.905882 0.094118 0.000000
0.945098 0.082353 0.000000
0.980392 0.070588 0.000000
1.000000 0.054902 0.000000
0.992157 0.043137 0.000000
0.003922 0.121569 0.011765
0.003922 0.125490 0.003922
0.031373 0.121569 0.003922
0.074510 0.113725 0.007843
0.101961 0.121569 0.003922
0.137255 0.125490 0.003922
0.180392 0.129412 0.003922
0.223529 0.133333 0.007843
0.254902 0.137255 0.000000
0.305882 0.141176 0.000000
0.360784 0.145098 0.000000
0.419608 0.149020 0.000000
0.478431 0.152941 0.000000
0.525490 0.152941 0.000000
0.596078 0.156863 0.000000
0.650980 0.164706 0.000000
0.701961 0.156863 0.003922
0.756863 0.156863 0.003922
0.807843 0.152941 0.000000
0.854902 0.152941 0.003922
0.901961 0.141176 0.000000
0.945098 0.141176 0.000000
0.988235 0.133333 0.000000
0.996078 0.129412 0.000000
1.000000 0.121569 0.000000
0.003922 0.152941 0.000000
0.000000 0.156863 0.000000
0.023529 0.160784 0.000000
0.066667 0.164706 0.007843
0.109804 0.156863 0.000000
0.149020 0.156863 0.000000
0.180392 0.164706 0.000000
0.223529 0.164706 0.000000
0.266667 0.176471 0.003922
0.313725 0.180392 0.003922
0.368627 0.184314 0.003922
0.419608 0.192157 0.003922
0.478431 0.196078 0.000000
0.537255 0.200000 0.000000
0.596078 0.203922 0.000000
0.647059 0.203922 0.000000
0.698039 0.207843 0.000000
0.749020 0.207843 0.000000
0.800000 0.207843 0.000000
0.850980 0.200000 0.003922
0.898039 0.196078 0.000000
0.945098 0.196078 0.000000
0.984314 0.188235 0.000000
1.000000 0.184314 0.003922
0.996078 0.180392 0.007843
0.000000 0.200000 0.000000
0.007843 0.200000 0.011765
0.015686 0.203922 0.007843
0.062745 0.196078 0.000000
0.101961 0.207843 0.000000
0.145098 0.200000 0.000000
0.184314 0.203922 0.000000
0.215686 0.211765 0.000000
0.262745 0.211765 0.003922
0.317647 0.219608 0.000000
0.368627 0.227451 0.000000
0.423529 0.231373 0.003922
0.478431 0.235294 0.003922
0.537255 0.239216 0.003922
0.596078 0.243137 0.000000
0.654902 0.247059 0.000000
0.701961 0.250980 0.003922
0.760784 0.254902 0.000000
0.803922 0.250980 0.000000
0.854902 0.247059 0.000000
0.901961 0.247059 0.000000
0.945098 0.243137 0.000000
0.992157 0.243137 0.000000
0.992157 0.231373 0.000000
1.000000 0.231373 0.011765
0.000000 0.243137 0.000000
0.003922 0.247059 0.000000
0.000000 0.243137 0.000000
0.058824 0.247059 0.011765
0.117647 0.239216 0.007843
0.145098 0.247059 0.000000
0.192157 0.247059 0.007843
0.231373 0.250980 0.000000
0.282353 0.250980 0.000000
0.329412 0.262745 0.000000
0.380392 0.266667 0.000000
0.427451 0.278431 0.000000
0.486275 0.282353 0.000000
0.537255 0.286275 0.000000
0.596078 0.290196 0.000000
0.654902 0.294118 0.000000
0.709804 0.294118 0.000000
0.756863 0.294118 0.003922
0.811765 0.294118 0.003922
0.854902 0.294118 0.000000
0.909804 0.294118 0.000000
0.952941 0.286275 0.011765
0.996078 0.282353 0.003922
1.000000 0.278431 0.000000
1.000000 0.278431 0.003922
0.003922 0.294118 0.000000
0.000000 0.298039 0.003922
0.000000 0.298039 0.000000
0.047059 0.298039 0.000000
0.101961 0.301961 0.000000
0.145098 0.294118 0.000000
0.196078 0.301961 0.000000
0.243137 0.298039 0.003922
0.278431 0.305882 0.003922
0.329412 0.301961 0.000000
0.380392 0.305882 0.000000
0.439216 0.317647 0.003922
0.498039 0.321569 0.000000
0.556863 0.329412 0.000000
0.607843 0.333333 0.000000
0.654902 0.333333 0.000000
0.709804 0.341176 0.000000
0.756863 0.341176 0.003922
0.800000 0.341176 0.000000
0.854902 0.341176 0.000000
0.894118 0.341176 0.000000
0.937255 0.337255 0.003922
0.988235 0.333333 0.000000
0.996078 0.329412 0.000000
0.996078 0.329412 0.003922
0.000000 0.345098 0.000000
0.000000 0.345098 0.003922
0.000000 0.349020 0.003922
0.023529 0.345098 0.003922
0.098039 0.349020 0.000000
0.156863 0.352941 0.003922
0.207843 0.349020 0.003922
0.250980 0.345098 0.000000
0.294118 0.352941 0.000000
0.341176 0.352941 0.000000
0.392157 0.356863 0.000000
0.443137 0.360784 0.000000
0.501961 0.364706 0.003922
0.552941 0.372549 0.000000
0.607843 0.380392 0.000000
0.666667 0.380392 0.007843
0.713725 0.384314 0.000000
0.760784 0.388235 0.003922
0.807843 0.384314 0.000000
0.854902 0.384314 0.003922
0.901961 0.388235 0.003922
0.945098 0.380392 0.000000
0.988235 0.376471 0.003922
1.000000 0.372549 0.003922
0.996078 0.368627 0.000000
0.003922 0.396078 0.003922
0.000000 0.400000 0.000000
0.000000 0.400000 0.000000
0.023529 0.400000 0.000000
0.098039 0.403922 0.003922
0.164706 0.403922 0.000000
0.203922 0.403922 0.000000
0.262745 0.407843 0.000000
0.305882 0.403922 0.003922
0.352941 0.400000 0.000000
