lut_library_archive/removed_20260629/50个风景lut/50个风景lut32.cube
# 版权归凌孟成所有，侵权必究
TITLE "Jungle LUT #32"
#LUT size
LUT_3D_SIZE 25
#LUT data points
0.003922 0.000000 0.000000
0.043137 0.000000 0.000000
0.090196 0.007843 0.000000
0.152941 0.003922 0.003922
0.203922 0.003922 0.000000
0.250980 0.000000 0.000000
0.298039 0.000000 0.000000
0.345098 0.000000 0.000000
0.396078 0.000000 0.000000
0.439216 0.003922 0.000000
0.494118 0.003922 0.000000
0.537255 0.000000 0.000000
0.592157 0.000000 0.000000
0.643137 0.000000 0.000000
0.694118 0.000000 0.000000
0.745098 0.000000 0.000000
0.788235 0.000000 0.000000
0.827451 0.000000 0.000000
0.870588 0.003922 0.000000
0.909804 0.011765 0.000000
0.949020 0.011765 0.000000
0.984314 0.019608 0.000000
0.996078 0.023529 0.000000
1.000000 0.027451 0.000000
1.000000 0.035294 0.000000
0.003922 0.043137 0.007843
0.039216 0.050980 0.007843
0.109804 0.047059 0.000000
0.152941 0.050980 0.000000
0.203922 0.054902 0.003922
0.258824 0.050980 0.000000
0.290196 0.058824 0.003922
0.352941 0.047059 0.000000
0.400000 0.050980 0.003922
0.454902 0.054902 0.007843
0.498039 0.054902 0.000000
0.552941 0.050980 0.000000
0.596078 0.050980 0.000000
0.647059 0.050980 0.000000
0.694118 0.054902 0.003922
0.749020 0.050980 0.003922
0.792157 0.050980 0.003922
0.835294 0.054902 0.000000
0.874510 0.062745 0.000000
0.917647 0.066667 0.000000
0.949020 0.070588 0.000000
0.988235 0.070588 0.000000
1.000000 0.066667 0.000000
0.996078 0.070588 0.000000
0.996078 0.078431 0.003922
0.003922 0.098039 0.003922
0.047059 0.098039 0.000000
0.101961 0.101961 0.007843
0.156863 0.094118 0.000000
0.207843 0.101961 0.000000
0.258824 0.101961 0.003922
0.301961 0.101961 0.000000
0.356863 0.105882 0.000000
0.407843 0.105882 0.003922
0.454902 0.101961 0.000000
0.501961 0.105882 0.003922
0.556863 0.101961 0.003922
0.603922 0.105882 0.007843
0.650980 0.101961 0.003922
0.698039 0.105882 0.000000
0.745098 0.105882 0.000000
0.792157 0.105882 0.000000
0.831373 0.105882 0.000000
0.878431 0.105882 0.000000
0.921569 0.109804 0.000000
0.956863 0.109804 0.000000
0.996078 0.105882 0.000000
1.000000 0.109804 0.003922
1.000000 0.113725 0.000000
1.000000 0.113725 0.000000
0.007843 0.156863 0.000000
0.054902 0.152941 0.000000
0.117647 0.145098 0.011765
0.160784 0.145098 0.000000
0.203922 0.149020 0.011765
0.266667 0.160784 0.000000
0.305882 0.160784 0.000000
0.356863 0.152941 0.000000
0.403922 0.156863 0.000000
0.458824 0.152941 0.000000
0.505882 0.156863 0.000000
0.556863 0.152941 0.000000
0.603922 0.152941 0.007843
0.654902 0.152941 0.000000
0.701961 0.156863 0.003922
0.745098 0.152941 0.000000
0.796078 0.156863 0.003922
0.839216 0.152941 0.000000
0.878431 0.152941 0.000000
0.925490 0.152941 0.000000
0.964706 0.149020 0.007843
0.996078 0.152941 0.000000
0.996078 0.152941 0.000000
0.996078 0.160784 0.003922
1.000000 0.156863 0.003922
0.015686 0.200000 0.000000
0.066667 0.200000 0.000000
0.113725 0.203922 0.000000
0.152941 0.203922 0.000000
0.211765 0.200000 0.000000
0.258824 0.207843 0.003922
0.309804 0.207843 0.007843
0.360784 0.203922 0.000000
0.403922 0.203922 0.000000
0.462745 0.203922 0.000000
0.505882 0.203922 0.000000
0.556863 0.207843 0.000000
0.615686 0.203922 0.000000
0.662745 0.203922 0.000000
0.709804 0.203922 0.000000
0.760784 0.207843 0.000000
0.803922 0.203922 0.000000
0.843137 0.203922 0.000000
0.882353 0.207843 0.000000
0.933333 0.207843 0.003922
0.956863 0.200000 0.000000
0.996078 0.200000 0.003922
1.000000 0.203922 0.003922
0.996078 0.200000 0.003922
1.000000 0.203922 0.015686
0.027451 0.247059 0.007843
0.066667 0.247059 0.003922
0.121569 0.243137 0.007843
0.164706 0.243137 0.003922
0.207843 0.239216 0.003922
0.250980 0.247059 0.000000
0.305882 0.243137 0.000000
0.356863 0.247059 0.000000
0.407843 0.247059 0.000000
0.458824 0.247059 0.003922
0.505882 0.250980 0.000000
0.552941 0.247059 0.000000
0.600000 0.250980 0.000000
0.647059 0.250980 0.000000
0.698039 0.254902 0.000000
0.741176 0.250980 0.000000
0.788235 0.250980 0.000000
0.827451 0.250980 0.007843
0.878431 0.247059 0.003922
0.917647 0.247059 0.003922
0.952941 0.243137 0.000000
0.992157 0.243137 0.000000
1.000000 0.239216 0.000000
1.000000 0.239216 0.000000
0.992157 0.243137 0.000000
0.047059 0.298039 0.000000
0.094118 0.290196 0.000000
0.129412 0.294118 0.000000
0.168627 0.298039 0.011765
0.207843 0.290196 0.000000
0.270588 0.294118 0.003922
0.294118 0.298039 0.000000
0.360784 0.298039 0.000000
0.407843 0.301961 0.000000
0.454902 0.301961 0.000000
0.501961 0.301961 0.000000
0.556863 0.298039 0.000000
0.603922 0.301961 0.003922
0.647059 0.298039 0.000000
0.698039 0.298039 0.000000
0.741176 0.298039 0.000000
0.788235 0.298039 0.000000
0.835294 0.298039 0.000000
0.878431 0.294118 0.003922
0.913725 0.290196 0.000000
0.952941 0.290196 0.000000
0.992157 0.290196 0.000000
1.000000 0.286275 0.000000
1.000000 0.286275 0.000000
0.988235 0.286275 0.000000
0.070588 0.337255 0.003922
0.105882 0.352941 0.003922
0.129412 0.341176 0.003922
0.176471 0.352941 0.000000
0.211765 0.352941 0.000000
0.250980 0.349020 0.000000
0.317647 0.341176 0.000000
0.360784 0.345098 0.000000
0.411765 0.349020 0.003922
0.454902 0.349020 0.000000
0.509804 0.349020 0.003922
0.560784 0.349020 0.000000
0.607843 0.352941 0.000000
0.650980 0.349020 0.000000
0.705882 0.349020 0.000000
0.745098 0.349020 0.000000
0.792157 0.345098 0.000000
0.835294 0.341176 0.007843
0.874510 0.341176 0.003922
0.913725 0.345098 0.000000
0.952941 0.337255 0.000000
0.992157 0.337255 0.000000
0.984314 0.333333 0.000000
0.996078 0.325490 0.011765
1.000000 0.333333 0.019608
0.074510 0.396078 0.003922
0.113725 0.396078 0.007843
0.145098 0.396078 0.007843
0.172549 0.396078 0.000000
0.231373 0.396078 0.000000
0.274510 0.392157 0.007843
0.325490 0.396078 0.007843
0.368627 0.392157 0.000000
0.407843 0.392157 0.000000
0.462745 0.392157 0.000000
0.509804 0.396078 0.000000
0.560784 0.400000 0.000000
0.600000 0.396078 0.000000
0.654902 0.400000 0.000000
0.701961 0.396078 0.003922
0.745098 0.396078 0.000000
0.792157 0.392157 0.000000
0.835294 0.392157 0.000000
0.874510 0.392157 0.000000
0.913725 0.392157 0.000000
0.952941 0.392157 0.000000
0.992157 0.384314 0.000000
1.000000 0.384314 0.003922
1.000000 0.372549 0.019608
1.000000 0.368627 0.031373
0.098039 0.443137 0.000000
0.125490 0.450980 0.003922
0.156863 0.439216 0.000000
0.196078 0.439216 0.000000
0.231373 0.443137 0.000000
0.278431 0.447059 0.000000
0.321569 0.450980 0.000000
0.368627 0.447059 0.000000
0.419608 0.447059 0.003922
0.470588 0.447059 0.007843
0.513725 0.447059 0.000000
0.564706 0.447059 0.007843
0.611765 0.450980 0.000000
0.650980 0.450980 0.000000
0.701961 0.447059 0.000000
0.749020 0.447059 0.000000
0.796078 0.443137 0.003922
0.835294 0.435294 0.000000
0.874510 0.439216 0.000000
0.921569 0.439216 0.000000
0.952941 0.431373 0.000000
0.992157 0.427451 0.007843
1.000000 0.427451 0.015686
1.000000 0.419608 0.027451
1.000000 0.419608 0.043137
0.098039 0.486275 0.000000
0.129412 0.482353 0.000000
0.164706 0.478431 0.000000
0.200000 0.478431 0.000000
0.231373 0.486275 0.000000
0.270588 0.482353 0.003922
0.317647 0.482353 0.000000
0.368627 0.486275 0.007843
0.411765 0.486275 0.000000
0.450980 0.486275 0.000000
0.505882 0.490196 0.000000
0.549020 0.490196 0.000000
0.603922 0.486275 0.000000
0.647059 0.486275 0.000000
0.694118 0.482353 0.000000
0.741176 0.486275 0.000000
0.788235 0.482353 0.000000
0.827451 0.482353 0.000000
0.874510 0.474510 0.000000
0.913725 0.474510 0.003922
0.949020 0.470588 0.003922
0.988235 0.470588 0.007843
1.000000 0.466667 0.019608
0.996078 0.462745 0.023529
0.996078 0.462745 0.035294
0.121569 0.537255 0.003922
0.145098 0.537255 0.011765
0.168627 0.537255 0.000000
0.203922 0.533333 0.000000
0.235294 0.533333 0.000000
0.290196 0.529412 0.011765
0.325490 0.529412 0.000000
0.368627 0.533333 0.000000
0.411765 0.533333 0.000000
0.466667 0.537255 0.003922
0.509804 0.533333 0.000000
0.560784 0.537255 0.003922
0.607843 0.537255 0.003922
0.658824 0.533333 0.000000
0.705882 0.533333 0.003922
0.737255 0.533333 0.000000
0.784314 0.537255 0.000000
0.827451 0.529412 0.000000
0.870588 0.525490 0.003922
0.905882 0.521569 0.007843
0.949020 0.517647 0.003922
0.988235 0.513725 0.015686
1.000000 0.513725 0.019608
1.000000 0.498039 0.039216
0.992157 0.501961 0.039216
0.141176 0.588235 0.003922
0.156863 0.580392 0.000000
0.184314 0.584314 0.011765
0.219608 0.580392 0.003922
0.254902 0.576471 0.003922
0.294118 0.584314 0.000000
0.325490 0.584314 0.000000
0.372549 0.584314 0.011765
0.419608 0.584314 0.003922
0.466667 0.584314 0.000000
0.513725 0.588235 0.000000
0.560784 0.584314 0.000000
0.611765 0.584314 0.000000
0.654902 0.588235 0.000000
0.705882 0.584314 0.000000
0.745098 0.580392 0.000000
0.788235 0.576471 0.000000
0.831373 0.572549 0.000000
0.870588 0.564706 0.000000
0.909804 0.564706 0.003922
0.949020 0.560784 0.015686
0.992157 0.552941 0.023529
1.000000 0.552941 0.027451
1.000000 0.552941 0.062745
1.000000 0.541176 0.058824
0.156863 0.635294 0.003922
0.176471 0.631373 0.007843
0.188235 0.627451 0.000000
0.243137 0.623529 0.007843
0.258824 0.627451 0.007843
0.298039 0.631373 0.000000
0.337255 0.627451 0.000000
0.388235 0.631373 0.000000
0.423529 0.627451 0.000000
0.470588 0.627451 0.003922
0.513725 0.631373 0.003922
0.560784 0.631373 0.000000
0.603922 0.627451 0.007843
0.658824 0.627451 0.000000
0.701961 0.631373 0.000000
0.745098 0.627451 0.000000
0.792157 0.623529 0.003922
0.835294 0.619608 0.011765
0.870588 0.615686 0.011765
0.909804 0.615686 0.015686
0.952941 0.611765 0.019608
0.988235 0.603922 0.043137
1.000000 0.600000 0.058824
0.988235 0.600000 0.070588
1.000000 0.592157 0.090196
0.164706 0.670588 0.000000
0.192157 0.674510 0.003922
0.207843 0.674510 0.000000
0.231373 0.674510 0.007843
0.266667 0.670588 0.007843
0.305882 0.670588 0.007843
0.341176 0.666667 0.000000
0.380392 0.666667 0.000000
0.423529 0.666667 0.000000
0.466667 0.670588 0.000000
0.517647 0.674510 0.000000
0.564706 0.674510 0.000000
0.607843 0.670588 0.000000
0.654902 0.670588 0.000000
0.701961 0.670588 0.000000
0.745098 0.678431 0.000000
0.792157 0.674510 0.000000
0.831373 0.662745 0.007843
0.870588 0.662745 0.019608
0.909804 0.654902 0.027451
0.949020 0.654902 0.047059
0.984314 0.650980 0.054902
1.000000 0.647059 0.074510
1.000000 0.635294 0.082353
1.000000 0.627451 0.094118
0.180392 0.701961 0.007843
0.196078 0.701961 0.000000
0.211765 0.701961 0.000000
0.235294 0.701961 0.000000
0.270588 0.701961 0.007843
0.298039 0.701961 0.000000
0.337255 0.701961 0.000000
0.388235 0.705882 0.000000
0.427451 0.701961 0.003922
0.462745 0.701961 0.000000
0.509804 0.701961 0.000000
0.549020 0.701961 0.000000
0.596078 0.705882 0.000000
0.647059 0.705882 0.003922
0.690196 0.705882 0.000000
0.741176 0.705882 0.003922
0.784314 0.709804 0.000000
0.823529 0.709804 0.003922
0.862745 0.701961 0.011765
0.898039 0.701961 0.027451
0.933333 0.694118 0.043137
0.976471 0.686275 0.062745
1.000000 0.686275 0.078431
1.000000 0.670588 0.082353
1.000000 0.670588 0.090196
0.200000 0.752941 0.000000
0.215686 0.745098 0.000000
0.235294 0.745098 0.007843
0.239216 0.745098 0.003922
0.290196 0.745098 0.011765
0.313725 0.741176 0.000000
0.352941 0.749020 0.003922
0.384314 0.745098 0.003922
0.423529 0.745098 0.000000
0.470588 0.749020 0.003922
0.509804 0.749020 0.000000
0.549020 0.749020 0.000000
0.596078 0.749020 0.000000
0.643137 0.749020 0.000000
0.686275 0.752941 0.000000
0.737255 0.749020 0.000000
0.780392 0.749020 0.007843
0.819608 0.749020 0.019608
0.858824 0.745098 0.031373
0.898039 0.741176 0.050980
0.937255 0.733333 0.062745
0.976471 0.725490 0.070588
0.996078 0.725490 0.086275
1.000000 0.713725 0.098039
0.996078 0.709804 0.098039
0.211765 0.792157 0.015686
0.223529 0.796078 0.023529
0.247059 0.784314 0.015686
0.274510 0.792157 0.019608
0.286275 0.788235 0.007843
0.317647 0.780392 0.003922
0.352941 0.792157 0.015686
0.388235 0.788235 0.011765
0.427451 0.788235 0.015686
0.466667 0.788235 0.011765
0.509804 0.788235 0.027451
0.549020 0.788235 0.031373
0.596078 0.792157 0.035294
0.643137 0.788235 0.039216
0.682353 0.788235 0.039216
0.721569 0.788235 0.043137
0.768627 0.788235 0.039216
0.811765 0.792157 0.047059
0.858824 0.788235 0.058824
0.898039 0.784314 0.070588
0.937255 0.776471 0.078431
0.972549 0.768627 0.094118
1.000000 0.764706 0.101961
1.000000 0.756863 0.101961
1.000000 0.752941 0.137255
0.235294 0.831373 0.050980
0.247059 0.827451 0.050980
0.258824 0.831373 0.058824
0.274510 0.831373 0.047059
0.294118 0.827451 0.043137
0.325490 0.827451 0.047059
0.364706 0.827451 0.050980
0.403922 0.827451 0.054902
0.435294 0.827451 0.054902
0.474510 0.827451 0.058824
0.513725 0.827451 0.062745
0.552941 0.827451 0.058824
0.592157 0.827451 0.066667
0.639216 0.823529 0.070588
0.682353 0.827451 0.070588
0.725490 0.823529 0.070588
0.768627 0.827451 0.078431
0.815686 0.823529 0.082353
0.854902 0.823529 0.090196
0.901961 0.823529 0.098039
0.937255 0.819608 0.098039
0.972549 0.811765 0.113725
0.996078 0.811765 0.129412
1.000000 0.803922 0.129412
0.992157 0.792157 0.129412
0.258824 0.870588 0.094118
0.258824 0.862745 0.078431
0.262745 0.858824 0.078431
0.286275 0.858824 0.078431
0.305882 0.866667 0.070588
0.337255 0.862745 0.074510
0.368627 0.866667 0.078431
0.403922 0.866667 0.082353
0.435294 0.870588 0.086275
0.474510 0.866667 0.094118
0.513725 0.866667 0.090196
0.549020 0.862745 0.090196
0.600000 0.862745 0.098039
0.639216 0.862745 0.105882
0.682353 0.862745 0.101961
0.725490 0.866667 0.105882
0.764706 0.866667 0.101961
0.803922 0.866667 0.105882
0.847059 0.870588 0.109804
0.886275 0.870588 0.113725
0.925490 0.866667 0.117647
0.968627 0.858824 0.125490
0.988235 0.854902 0.137255
1.000000 0.843137 0.156863
1.000000 0.831373 0.160784
0.243137 0.890196 0.074510
0.258824 0.890196 0.078431
0.266667 0.894118 0.070588
0.282353 0.890196 0.078431
0.309804 0.890196 0.074510
0.337255 0.890196 0.094118
0.368627 0.890196 0.078431
0.403922 0.894118 0.090196
0.435294 0.894118 0.090196
0.470588 0.890196 0.090196
0.513725 0.894118 0.090196
0.545098 0.894118 0.094118
0.588235 0.898039 0.101961
0.627451 0.894118 0.105882
0.666667 0.898039 0.105882
0.713725 0.898039 0.113725
0.752941 0.894118 0.117647
0.792157 0.894118 0.121569
0.839216 0.894118 0.121569
0.882353 0.894118 0.129412
0.925490 0.890196 0.133333
0.968627 0.890196 0.137255
1.000000 0.886275 0.145098
1.000000 0.878431 0.149020
0.996078 0.870588 0.168627
0.274510 0.925490 0.141176
0.286275 0.933333 0.117647
0.290196 0.929412 0.125490
0.301961 0.933333 0.121569
0.325490 0.933333 0.121569
0.341176 0.929412 0.101961
0.376471 0.933333 0.125490
0.407843 0.929412 0.117647
0.443137 0.929412 0.113725
0.486275 0.929412 0.121569
0.521569 0.933333 0.125490
0.549020 0.929412 0.125490
0.584314 0.933333 0.133333
0.627451 0.929412 0.129412
0.670588 0.933333 0.137255
0.717647 0.929412 0.137255
0.756863 0.929412 0.141176
0.796078 0.929412 0.141176
0.835294 0.929412 0.145098
0.874510 0.929412 0.149020
0.917647 0.925490 0.145098
0.972549 0.921569 0.160784
0.996078 0.929412 0.172549
1.000000 0.913725 0.164706
0.992157 0.917647 0.180392
0.282353 0.964706 0.145098
0.301961 0.964706 0.152941
0.298039 0.972549 0.137255
0.317647 0.956863 0.145098
0.337255 0.968627 0.149020
0.364706 0.964706 0.156863
0.388235 0.968627 0.152941
0.419608 0.964706 0.152941
0.454902 0.960784 0.149020
0.486275 0.964706 0.152941
0.517647 0.960784 0.152941
0.556863 0.968627 0.160784
0.592157 0.964706 0.156863
0.635294 0.968627 0.164706
0.670588 0.964706 0.164706
0.709804 0.960784 0.168627
0.749020 0.960784 0.168627
0.788235 0.960784 0.172549
0.831373 0.960784 0.172549
0.874510 0.960784 0.180392
0.913725 0.960784 0.184314
0.952941 0.960784 0.196078
0.992157 0.952941 0.188235
1.000000 0.956863 0.188235
1.000000 0.952941 0.207843
0.313725 1.000000 0.196078
0.313725 1.000000 0.188235
0.313725 1.000000 0.180392
0.321569 1.000000 0.184314
0.356863 0.996078 0.184314
0.356863 1.000000 0.176471
0.392157 0.992157 0.180392
0.427451 0.996078 0.176471
0.454902 0.996078 0.176471
0.490196 0.996078 0.184314
0.517647 1.000000 0.188235
0.552941 0.996078 0.188235
0.592157 0.996078 0.192157
0.627451 1.000000 0.196078
0.666667 1.000000 0.196078
0.709804 0.996078 0.192157
0.752941 1.000000 0.203922
0.792157 0.992157 0.203922
0.831373 0.992157 0.207843
0.874510 0.996078 0.215686
0.917647 0.984314 0.223529
0.956863 0.988235 0.215686
0.988235 0.988235 0.227451
1.000000 0.980392 0.235294
1.000000 0.988235 0.231373
0.333333 0.996078 0.231373
0.325490 1.000000 0.215686
0.325490 1.000000 0.207843
0.345098 1.000000 0.207843
0.356863 1.000000 0.211765
0.384314 1.000000 0.211765
0.411765 0.992157 0.207843
0.435294 1.000000 0.211765
0.462745 0.996078 0.211765
0.498039 1.000000 0.219608
0.529412 1.000000 0.223529
0.564706 1.000000 0.215686
0.596078 1.000000 0.223529
0.639216 1.000000 0.227451
0.678431 1.000000 0.231373
0.717647 0.996078 0.235294
0.760784 1.000000 0.243137
0.800000 1.000000 0.243137
0.843137 1.000000 0.239216
0.882353 1.000000 0.247059
0.929412 0.996078 0.243137
0.976471 1.000000 0.254902
0.992157 1.000000 0.258824
1.000000 1.000000 0.270588
1.000000 1.000000 0.270588
0.007843 0.000000 0.043137
0.047059 0.000000 0.047059
0.101961 0.000000 0.050980
0.152941 0.000000 0.039216
0.203922 0.000000 0.050980
0.250980 0.003922 0.039216
0.301961 0.003922 0.050980
0.352941 0.000000 0.039216
0.403922 0.000000 0.043137
0.443137 0.000000 0.039216
0.498039 0.000000 0.035294
0.541176 0.000000 0.031373
0.596078 0.003922 0.039216
0.650980 0.003922 0.031373
0.694118 0.000000 0.031373
0.737255 0.000000 0.027451
0.792157 0.007843 0.027451
0.831373 0.007843 0.023529
0.878431 0.007843 0.027451
0.921569 0.019608 0.031373
0.956863 0.027451 0.035294
0.992157 0.031373 0.031373
1.000000 0.035294 0.039216
1.000000 0.039216 0.039216
1.000000 0.043137 0.043137
0.003922 0.050980 0.043137
0.050980 0.050980 0.050980
0.109804 0.047059 0.050980
0.160784 0.050980 0.039216
0.203922 0.050980 0.039216
0.254902 0.054902 0.043137
0.298039 0.047059 0.039216
0.352941 0.047059 0.039216
0.400000 0.050980 0.043137
0.450980 0.054902 0.039216
0.501961 0.058824 0.035294
0.552941 0.054902 0.031373
0.600000 0.054902 0.035294
0.654902 0.054902 0.031373
0.701961 0.058824 0.031373
0.749020 0.058824 0.031373
0.800000 0.058824 0.035294
0.843137 0.066667 0.035294
0.882353 0.066667 0.035294
0.913725 0.070588 0.031373
0.952941 0.078431 0.027451
0.988235 0.078431 0.031373
0.996078 0.082353 0.035294
0.996078 0.082353 0.035294
1.000000 0.078431 0.054902
0.000000 0.098039 0.023529
0.070588 0.101961 0.058824
0.094118 0.109804 0.054902
0.160784 0.098039 0.047059
0.211765 0.101961 0.047059
0.250980 0.105882 0.035294
0.309804 0.101961 0.047059
0.360784 0.101961 0.047059
0.407843 0.105882 0.043137
0.454902 0.105882 0.043137
0.505882 0.101961 0.035294
0.556863 0.105882 0.035294
0.603922 0.105882 0.031373
0.650980 0.109804 0.031373
0.709804 0.105882 0.027451
0.749020 0.105882 0.031373
0.796078 0.105882 0.023529
0.839216 0.109804 0.027451
0.878431 0.109804 0.031373
0.921569 0.113725 0.031373
0.960784 0.113725 0.035294
1.000000 0.109804 0.043137
1.000000 0.121569 0.043137
0.984314 0.117647 0.047059
1.000000 0.117647 0.062745
0.000000 0.152941 0.047059
0.078431 0.149020 0.047059
0.113725 0.156863 0.039216
0.156863 0.160784 0.039216
0.215686 0.149020 0.047059
0.270588 0.152941 0.043137
0.309804 0.156863 0.043137
0.352941 0.152941 0.039216
0.400000 0.152941 0.031373
0.454902 0.156863 0.031373
0.505882 0.156863 0.031373
0.549020 0.156863 0.023529
0.600000 0.156863 0.031373
0.662745 0.152941 0.027451
0.701961 0.152941 0.023529
0.749020 0.156863 0.019608
0.800000 0.156863 0.019608
0.839216 0.156863 0.019608
0.886275 0.160784 0.019608
0.925490 0.156863 0.023529
0.964706 0.156863 0.031373
0.988235 0.156863 0.039216
1.000000 0.160784 0.047059
0.992157 0.156863 0.054902
0.992157 0.164706 0.066667
0.023529 0.203922 0.023529
0.066667 0.203922 0.035294
0.113725 0.203922 0.031373
0.172549 0.203922 0.043137
0.215686 0.196078 0.031373
0.258824 0.200000 0.039216
0.313725 0.207843 0.047059
0.360784 0.207843 0.039216
0.411765 0.203922 0.039216
0.458824 0.207843 0.031373
0.513725 0.207843 0.027451
0.560784 0.203922 0.031373
0.611765 0.203922 0.019608
0.658824 0.200000 0.027451
0.705882 0.203922 0.019608
0.752941 0.211765 0.027451
0.796078 0.207843 0.031373
0.843137 0.207843 0.027451
0.882353 0.207843 0.035294
0.921569 0.203922 0.039216
0.960784 0.196078 0.039216
1.000000 0.203922 0.047059
1.000000 0.207843 0.050980
1.000000 0.203922 0.054902
1.000000 0.203922 0.066667
0.027451 0.239216 0.035294
0.070588 0.243137 0.035294
0.125490 0.243137 0.039216
0.168627 0.239216 0.035294
0.211765 0.247059 0.031373
0.258824 0.247059 0.031373
0.305882 0.247059 0.023529
0.360784 0.247059 0.023529
0.415686 0.250980 0.031373
0.454902 0.250980 0.027451
0.505882 0.247059 0.019608
0.549020 0.250980 0.023529
0.603922 0.250980 0.023529
0.650980 0.250980 0.019608
0.701961 0.254902 0.011765
0.749020 0.258824 0.015686
0.788235 0.250980 0.015686
0.827451 0.247059 0.019608
0.882353 0.247059 0.023529
0.917647 0.250980 0.027451
0.956863 0.247059 0.031373
0.988235 0.250980 0.035294
1.000000 0.243137 0.043137
0.996078 0.247059 0.050980
1.000000 0.250980 0.054902
0.039216 0.294118 0.027451
0.101961 0.309804 0.035294
0.133333 0.294118 0.027451
0.176471 0.298039 0.031373
0.211765 0.301961 0.019608
0.270588 0.290196 0.031373
0.313725 0.301961 0.039216
0.364706 0.298039 0.027451
0.407843 0.301961 0.031373
0.454902 0.298039 0.023529
0.505882 0.298039 0.023529
0.552941 0.301961 0.023529
0.603922 0.301961 0.027451
0.650980 0.298039 0.019608
0.701961 0.301961 0.019608
0.737255 0.309804 0.019608
0.788235 0.301961 0.019608
0.831373 0.298039 0.023529
0.878431 0.294118 0.027451
0.917647 0.294118 0.035294
0.956863 0.294118 0.039216
0.996078 0.294118 0.043137
1.000000 0.290196 0.050980
0.996078 0.290196 0.062745
0.996078 0.282353 0.054902
0.070588 0.349020 0.043137
0.094118 0.345098 0.035294
0.141176 0.345098 0.023529
0.180392 0.349020 0.027451
0.219608 0.341176 0.027451
0.274510 0.349020 0.027451
0.317647 0.349020 0.015686
0.360784 0.352941 0.027451
0.415686 0.352941 0.019608
0.458824 0.349020 0.019608
0.505882 0.349020 0.015686
0.556863 0.352941 0.015686
0.611765 0.352941 0.015686
0.658824 0.356863 0.019608
0.705882 0.345098 0.019608
0.749020 0.349020 0.019608
0.796078 0.345098 0.019608
0.831373 0.349020 0.015686
0.878431 0.345098 0.023529
0.921569 0.345098 0.039216
0.956863 0.341176 0.039216
0.996078 0.337255 0.050980
1.000000 0.329412 0.047059
1.000000 0.337255 0.066667
0.996078 0.329412 0.054902
0.074510 0.403922 0.031373
0.113725 0.392157 0.023529
0.141176 0.407843 0.019608
0.184314 0.396078 0.019608
0.231373 0.403922 0.023529
0.274510 0.396078 0.027451
0.317647 0.396078 0.023529
0.368627 0.396078 0.019608
0.415686 0.400000 0.019608
0.466667 0.392157 0.019608
0.517647 0.400000 0.015686
0.564706 0.400000 0.015686
0.611765 0.400000 0.015686
0.666667 0.400000 0.019608
0.705882 0.400000 0.015686
0.749020 0.396078 0.015686
0.800000 0.396078 0.031373
0.835294 0.392157 0.031373
0.870588 0.392157 0.035294
0.917647 0.388235 0.039216
0.956863 0.384314 0.050980
0.996078 0.384314 0.054902
1.000000 0.380392 0.054902
1.000000 0.380392 0.062745
0.996078 0.372549 0.082353
0.101961 0.450980 0.027451
0.125490 0.450980 0.035294
0.156863 0.443137 0.023529
0.196078 0.443137 0.015686
0.239216 0.447059 0.023529
0.278431 0.447059 0.023529
0.321569 0.447059 0.019608
0.372549 0.450980 0.015686
0.419608 0.450980 0.015686
0.462745 0.450980 0.007843
0.517647 0.447059 0.007843
0.568627 0.450980 0.011765
0.615686 0.454902 0.000000
0.658824 0.450980 0.003922
0.705882 0.447059 0.007843
0.752941 0.447059 0.015686
0.800000 0.443137 0.027451
0.839216 0.443137 0.035294
0.882353 0.439216 0.031373
0.921569 0.439216 0.035294
0.956863 0.431373 0.050980
0.996078 0.431373 0.062745
0.996078 0.431373 0.062745
0.992157 0.423529 0.074510
0.992157 0.423529 0.078431
0.105882 0.478431 0.007843
0.129412 0.478431 0.007843
0.156863 0.486275 0.011765
0.192157 0.486275 0.011765
0.235294 0.482353 0.015686
0.274510 0.486275 0.015686
0.321569 0.482353 0.011765
0.372549 0.486275 0.015686
0.407843 0.486275 0.003922
0.454902 0.486275 0.007843
