lut_library_archive/removed_20260629/50个风景lut/50个风景lut09.cube
# 版权归凌孟成所有，侵权必究
TITLE "Jungle LUT #9"
#LUT size
LUT_3D_SIZE 5
#LUT data points
0.000000 0.003922 0.000000
0.270588 0.003922 0.000000
0.568627 0.000000 0.000000
0.882353 0.003922 0.007843
0.992157 0.007843 0.105882
0.058824 0.247059 0.003922
0.290196 0.243137 0.007843
0.576471 0.247059 0.003922
0.882353 0.258824 0.003922
1.000000 0.262745 0.066667
0.125490 0.552941 0.000000
0.321569 0.549020 0.003922
0.592157 0.549020 0.000000
0.862745 0.537255 0.000000
1.000000 0.521569 0.000000
0.141176 0.831373 0.000000
0.321569 0.823529 0.000000
0.588235 0.823529 0.000000
0.850980 0.819608 0.007843
0.988235 0.784314 0.003922
0.090196 0.996078 0.000000
0.290196 1.000000 0.000000
0.545098 1.000000 0.000000
0.831373 1.000000 0.000000
1.000000 1.000000 0.003922
0.000000 0.000000 0.235294
0.274510 0.000000 0.247059
0.580392 0.000000 0.258824
0.886275 0.003922 0.278431
1.000000 0.125490 0.309804
0.023529 0.243137 0.231373
0.298039 0.243137 0.231373
0.580392 0.250980 0.243137
0.874510 0.266667 0.258824
1.000000 0.286275 0.301961
0.058824 0.549020 0.188235
0.313725 0.549020 0.196078
0.600000 0.549020 0.180392
0.866667 0.533333 0.180392
1.000000 0.517647 0.211765
0.074510 0.815686 0.109804
0.309804 0.823529 0.113725
0.580392 0.819608 0.101961
0.858824 0.823529 0.082353
0.996078 0.792157 0.090196
0.031373 1.000000 0.000000
0.270588 1.000000 0.003922
0.541176 0.996078 0.000000
0.823529 1.000000 0.000000
0.996078 1.000000 0.003922
0.007843 0.003922 0.513725
0.274510 0.000000 0.517647
0.572549 0.000000 0.521569
0.874510 0.003922 0.509804
0.992157 0.184314 0.537255
0.003922 0.231373 0.517647
0.290196 0.227451 0.521569
0.592157 0.211765 0.521569
0.878431 0.239216 0.525490
1.000000 0.396078 0.592157
0.003922 0.549020 0.505882
0.294118 0.552941 0.513725
0.600000 0.545098 0.509804
0.866667 0.552941 0.525490
0.996078 0.572549 0.560784
0.054902 0.831373 0.490196
0.294118 0.823529 0.490196
0.576471 0.827451 0.482353
0.858824 0.819608 0.470588
1.000000 0.780392 0.462745
0.007843 0.996078 0.458824
0.258824 0.996078 0.454902
0.525490 1.000000 0.454902
0.815686 1.000000 0.450980
0.996078 1.000000 0.458824
0.011765 0.000000 0.796078
0.282353 0.003922 0.788235
0.576471 0.000000 0.800000
0.870588 0.000000 0.796078
1.000000 0.000000 0.764706
0.000000 0.223529 0.788235
0.282353 0.211765 0.792157
0.580392 0.192157 0.792157
0.878431 0.149020 0.792157
0.992157 0.192157 0.745098
0.000000 0.533333 0.792157
0.274510 0.529412 0.796078
0.584314 0.525490 0.796078
0.870588 0.533333 0.788235
0.996078 0.576471 0.788235
0.003922 0.835294 0.780392
0.294118 0.835294 0.784314
0.580392 0.827451 0.784314
0.847059 0.819608 0.788235
0.992157 0.831373 0.815686
0.345098 1.000000 0.760784
0.431373 1.000000 0.768627
0.635294 0.996078 0.796078
0.827451 0.996078 0.776471
1.000000 1.000000 0.788235
0.003922 0.007843 0.992157
0.278431 0.000000 1.000000
0.556863 0.003922 1.000000
0.831373 0.000000 1.000000
1.000000 0.000000 0.996078
0.003922 0.203922 1.000000
0.274510 0.207843 1.000000
0.549020 0.200000 1.000000
0.827451 0.180392 1.000000
0.996078 0.156863 0.988235
0.000000 0.509804 1.000000
0.282353 0.517647 1.000000
0.556863 0.509804 0.996078
0.827451 0.521569 1.000000
0.996078 0.525490 1.000000
0.086275 0.796078 0.996078
0.298039 0.796078 1.000000
0.572549 0.796078 1.000000
0.823529 0.807843 1.000000
1.000000 0.819608 1.000000
0.301961 0.996078 0.996078
0.407843 0.996078 0.992157
0.639216 1.000000 0.996078
0.886275 1.000000 0.992157
0.996078 1.000000 1.000000
