lut_library_archive/removed_20260629/50个风景lut/50个风景lut11.cube
# 版权归凌孟成所有，侵权必究
TITLE "Jungle LUT #11"
#LUT size
LUT_3D_SIZE 5
#LUT data points
0.000000 0.000000 0.000000
0.239216 0.000000 0.000000
0.513725 0.000000 0.000000
0.792157 0.003922 0.003922
0.996078 0.000000 0.000000
0.000000 0.235294 0.000000
0.262745 0.227451 0.003922
0.521569 0.231373 0.000000
0.796078 0.223529 0.000000
0.996078 0.180392 0.000000
0.000000 0.505882 0.011765
0.262745 0.498039 0.003922
0.537255 0.501961 0.003922
0.800000 0.490196 0.000000
1.000000 0.466667 0.003922
0.000000 0.752941 0.000000
0.262745 0.752941 0.007843
0.537255 0.741176 0.000000
0.800000 0.741176 0.000000
0.996078 0.729412 0.003922
0.007843 0.972549 0.000000
0.235294 0.964706 0.000000
0.517647 0.964706 0.000000
0.803922 0.952941 0.000000
1.000000 0.917647 0.000000
0.000000 0.000000 0.231373
0.239216 0.000000 0.231373
0.525490 0.003922 0.231373
0.796078 0.000000 0.215686
0.996078 0.000000 0.203922
0.000000 0.235294 0.235294
0.239216 0.235294 0.227451
0.521569 0.223529 0.231373
0.792157 0.196078 0.207843
0.992157 0.149020 0.188235
0.003922 0.505882 0.203922
0.239216 0.505882 0.203922
0.533333 0.498039 0.196078
0.803922 0.482353 0.196078
1.000000 0.458824 0.176471
0.003922 0.745098 0.168627
0.239216 0.749020 0.160784
0.529412 0.741176 0.160784
0.800000 0.741176 0.141176
1.000000 0.721569 0.105882
0.011765 0.968627 0.039216
0.207843 0.968627 0.003922
0.509804 0.964706 0.000000
0.807843 0.956863 0.003922
1.000000 0.917647 0.003922
0.003922 0.000000 0.505882
0.247059 0.003922 0.501961
0.525490 0.000000 0.501961
0.803922 0.000000 0.505882
1.000000 0.000000 0.501961
0.000000 0.227451 0.505882
0.219608 0.219608 0.509804
0.525490 0.203922 0.501961
0.800000 0.176471 0.498039
0.996078 0.113725 0.490196
0.000000 0.501961 0.501961
0.203922 0.513725 0.501961
0.533333 0.494118 0.498039
0.803922 0.482353 0.498039
0.992157 0.447059 0.482353
0.000000 0.749020 0.478431
0.184314 0.752941 0.482353
0.513725 0.749020 0.474510
0.796078 0.737255 0.466667
0.996078 0.717647 0.458824
0.000000 0.960784 0.443137
0.176471 0.964706 0.447059
0.501961 0.960784 0.443137
0.803922 0.949020 0.431373
0.996078 0.921569 0.419608
0.000000 0.000000 0.776471
0.243137 0.000000 0.772549
0.525490 0.003922 0.776471
0.796078 0.000000 0.776471
0.992157 0.011765 0.756863
0.000000 0.207843 0.776471
0.211765 0.203922 0.776471
0.517647 0.188235 0.776471
0.803922 0.137255 0.776471
1.000000 0.070588 0.760784
0.000000 0.478431 0.780392
0.160784 0.482353 0.772549
0.517647 0.474510 0.784314
0.811765 0.462745 0.776471
1.000000 0.450980 0.760784
0.000000 0.756863 0.776471
0.133333 0.756863 0.772549
0.517647 0.749020 0.772549
0.803922 0.737255 0.768627
0.992157 0.729412 0.768627
0.003922 0.960784 0.741176
0.243137 0.960784 0.737255
0.545098 0.964706 0.760784
0.823529 0.949020 0.756863
1.000000 0.917647 0.764706
0.000000 0.000000 0.996078
0.243137 0.003922 0.996078
0.513725 0.000000 0.996078
0.780392 0.003922 1.000000
1.000000 0.000000 1.000000
0.000000 0.196078 1.000000
0.219608 0.184314 1.000000
0.513725 0.168627 0.996078
0.788235 0.117647 1.000000
1.000000 0.000000 1.000000
0.000000 0.458824 0.992157
0.207843 0.466667 1.000000
0.505882 0.466667 0.996078
0.792157 0.450980 1.000000
1.000000 0.431373 1.000000
0.003922 0.717647 1.000000
0.145098 0.713725 1.000000
0.521569 0.717647 1.000000
0.807843 0.721569 1.000000
1.000000 0.709804 1.000000
0.000000 0.968627 0.996078
0.160784 0.968627 1.000000
0.549020 0.956863 1.000000
0.862745 0.937255 1.000000
1.000000 0.913725 0.996078
