lut_library_archive/removed_20260629/50个风景lut/50个风景lut16.cube
# 版权归凌孟成所有，侵权必究
TITLE "Jungle LUT #16"
#LUT size
LUT_3D_SIZE 5
#LUT data points
0.000000 0.000000 0.000000
0.231373 0.003922 0.000000
0.490196 0.000000 0.000000
0.760784 0.000000 0.000000
1.000000 0.007843 0.000000
0.000000 0.227451 0.007843
0.239216 0.219608 0.000000
0.494118 0.215686 0.003922
0.760784 0.207843 0.000000
1.000000 0.164706 0.000000
0.000000 0.482353 0.003922
0.247059 0.474510 0.003922
0.509804 0.470588 0.000000
0.768627 0.470588 0.003922
1.000000 0.454902 0.011765
0.000000 0.725490 0.000000
0.247059 0.721569 0.000000
0.517647 0.717647 0.000000
0.772549 0.717647 0.000000
1.000000 0.709804 0.000000
0.003922 0.956863 0.000000
0.211765 0.952941 0.000000
0.505882 0.952941 0.000000
0.803922 0.941176 0.000000
1.000000 0.921569 0.000000
0.003922 0.000000 0.219608
0.231373 0.000000 0.219608
0.498039 0.000000 0.219608
0.760784 0.000000 0.207843
0.992157 0.000000 0.184314
0.000000 0.215686 0.223529
0.227451 0.223529 0.207843
0.494118 0.215686 0.215686
0.760784 0.188235 0.192157
0.996078 0.137255 0.184314
0.000000 0.482353 0.196078
0.227451 0.474510 0.188235
0.505882 0.474510 0.188235
0.768627 0.462745 0.180392
0.992157 0.447059 0.145098
0.003922 0.725490 0.145098
0.227451 0.729412 0.160784
0.509804 0.725490 0.125490
0.772549 0.721569 0.117647
0.996078 0.705882 0.074510
0.003922 0.956863 0.015686
0.188235 0.952941 0.003922
0.501961 0.952941 0.000000
0.796078 0.941176 0.000000
1.000000 0.921569 0.000000
0.000000 0.000000 0.501961
0.239216 0.000000 0.478431
0.494118 0.003922 0.482353
0.768627 0.003922 0.482353
0.996078 0.000000 0.458824
0.000000 0.215686 0.470588
0.211765 0.207843 0.482353
0.509804 0.196078 0.490196
0.776471 0.160784 0.478431
1.000000 0.066667 0.470588
0.000000 0.474510 0.478431
0.196078 0.474510 0.474510
0.498039 0.474510 0.474510
0.776471 0.462745 0.474510
0.996078 0.427451 0.454902
0.000000 0.733333 0.462745
0.129412 0.729412 0.454902
0.490196 0.725490 0.450980
0.776471 0.717647 0.447059
1.000000 0.701961 0.427451
0.011765 0.949020 0.419608
0.035294 0.952941 0.407843
0.466667 0.952941 0.403922
0.784314 0.945098 0.396078
1.000000 0.921569 0.368627
0.003922 0.000000 0.752941
0.239216 0.000000 0.756863
0.505882 0.000000 0.749020
0.772549 0.000000 0.756863
0.996078 0.000000 0.741176
0.011765 0.192157 0.760784
0.203922 0.192157 0.745098
0.501961 0.172549 0.752941
0.784314 0.117647 0.749020
1.000000 0.003922 0.737255
0.000000 0.470588 0.749020
0.125490 0.462745 0.756863
0.490196 0.447059 0.756863
0.772549 0.443137 0.749020
1.000000 0.423529 0.741176
0.007843 0.729412 0.752941
0.031373 0.733333 0.749020
0.486275 0.725490 0.745098
0.780392 0.713725 0.752941
1.000000 0.701961 0.749020
0.003922 0.956863 0.725490
0.070588 0.952941 0.709804
0.490196 0.949020 0.725490
0.788235 0.941176 0.733333
1.000000 0.913725 0.717647
0.000000 0.003922 0.996078
0.223529 0.000000 0.992157
0.505882 0.000000 0.992157
0.772549 0.000000 1.000000
0.996078 0.003922 1.000000
0.003922 0.180392 1.000000
0.200000 0.164706 1.000000
0.498039 0.145098 1.000000
0.768627 0.062745 1.000000
0.988235 0.007843 0.988235
0.003922 0.439216 1.000000
0.129412 0.435294 1.000000
0.470588 0.435294 1.000000
0.768627 0.415686 1.000000
0.996078 0.396078 0.996078
0.007843 0.709804 1.000000
0.000000 0.701961 0.996078
0.466667 0.698039 0.996078
0.780392 0.698039 1.000000
1.000000 0.694118 1.000000
0.003922 0.968627 0.996078
0.007843 0.956863 1.000000
0.450980 0.952941 0.996078
0.811765 0.937255 0.996078
1.000000 0.909804 0.996078
