lut_library_archive/removed_20260629/50个风景lut/50个风景lut42.cube
# 版权归凌孟成所有，侵权必究
TITLE "Jungle LUT #42"
#LUT size
LUT_3D_SIZE 9
#LUT data points
0.000000 0.000000 0.000000
0.094118 0.000000 0.000000
0.200000 0.000000 0.000000
0.309804 0.000000 0.000000
0.431373 0.000000 0.003922
0.564706 0.000000 0.007843
0.678431 0.000000 0.035294
0.796078 0.000000 0.043137
0.933333 0.000000 0.062745
0.000000 0.094118 0.000000
0.082353 0.090196 0.000000
0.192157 0.086275 0.011765
0.313725 0.098039 0.019608
0.431373 0.090196 0.015686
0.560784 0.098039 0.027451
0.674510 0.086275 0.050980
0.792157 0.094118 0.054902
0.937255 0.101961 0.090196
0.000000 0.203922 0.000000
0.078431 0.203922 0.007843
0.207843 0.200000 0.000000
0.313725 0.203922 0.019608
0.423529 0.215686 0.058824
0.560784 0.215686 0.066667
0.682353 0.219608 0.078431
0.796078 0.223529 0.090196
0.925490 0.235294 0.113725
0.000000 0.329412 0.000000
0.070588 0.317647 0.000000
0.211765 0.325490 0.000000
0.337255 0.329412 0.003922
0.450980 0.329412 0.007843
0.549020 0.337255 0.101961
0.662745 0.337255 0.133333
0.792157 0.349020 0.145098
0.925490 0.368627 0.156863
0.000000 0.450980 0.000000
0.015686 0.458824 0.000000
0.203922 0.450980 0.000000
0.337255 0.454902 0.000000
0.458824 0.454902 0.000000
0.580392 0.447059 0.015686
0.678431 0.450980 0.129412
0.784314 0.470588 0.200000
0.929412 0.486275 0.219608
0.000000 0.580392 0.000000
0.007843 0.576471 0.007843
0.188235 0.580392 0.000000
0.329412 0.580392 0.007843
0.458824 0.576471 0.000000
0.580392 0.572549 0.003922
0.694118 0.576471 0.003922
0.811765 0.576471 0.137255
0.941176 0.607843 0.243137
0.007843 0.698039 0.007843
0.003922 0.698039 0.000000
0.168627 0.698039 0.000000
0.313725 0.701961 0.003922
0.450980 0.698039 0.003922
0.584314 0.698039 0.000000
0.701961 0.698039 0.007843
0.827451 0.698039 0.003922
0.964706 0.713725 0.129412
0.007843 0.839216 0.000000
0.011765 0.843137 0.003922
0.141176 0.843137 0.000000
0.313725 0.847059 0.000000
0.454902 0.843137 0.000000
0.603922 0.843137 0.000000
0.721569 0.854902 0.000000
0.854902 0.854902 0.000000
0.988235 0.862745 0.000000
0.000000 0.996078 0.007843
0.003922 1.000000 0.007843
0.074510 1.000000 0.000000
0.305882 1.000000 0.000000
0.470588 1.000000 0.007843
0.607843 1.000000 0.000000
0.745098 1.000000 0.000000
0.882353 1.000000 0.000000
1.000000 1.000000 0.003922
0.000000 0.000000 0.109804
0.082353 0.003922 0.109804
0.196078 0.007843 0.109804
0.317647 0.003922 0.117647
0.447059 0.000000 0.109804
0.572549 0.000000 0.121569
0.686275 0.003922 0.113725
0.803922 0.000000 0.137255
0.933333 0.003922 0.152941
0.011765 0.082353 0.121569
0.086275 0.090196 0.109804
0.203922 0.082353 0.113725
0.317647 0.070588 0.105882
0.443137 0.066667 0.113725
0.568627 0.054902 0.117647
0.682353 0.054902 0.133333
0.800000 0.058824 0.137255
0.933333 0.078431 0.145098
0.000000 0.203922 0.109804
0.066667 0.203922 0.109804
0.203922 0.203922 0.101961
0.313725 0.203922 0.121569
0.435294 0.211765 0.145098
0.560784 0.215686 0.137255
0.682353 0.219608 0.149020
0.800000 0.215686 0.152941
0.929412 0.227451 0.168627
0.000000 0.325490 0.098039
0.019608 0.333333 0.094118
0.200000 0.333333 0.094118
0.333333 0.325490 0.094118
0.447059 0.321569 0.121569
0.549020 0.333333 0.180392
0.674510 0.341176 0.188235
0.796078 0.345098 0.192157
0.929412 0.360784 0.207843
0.000000 0.450980 0.086275
0.003922 0.447059 0.078431
0.184314 0.454902 0.090196
0.333333 0.454902 0.078431
0.466667 0.454902 0.090196
0.572549 0.447059 0.113725
0.678431 0.450980 0.200000
0.792157 0.470588 0.235294
0.937255 0.478431 0.266667
0.000000 0.576471 0.074510
0.007843 0.580392 0.090196
0.168627 0.580392 0.078431
0.317647 0.572549 0.078431
0.447059 0.572549 0.074510
0.588235 0.572549 0.078431
0.694118 0.568627 0.101961
0.811765 0.576471 0.207843
0.937255 0.603922 0.290196
0.000000 0.701961 0.047059
0.000000 0.698039 0.062745
0.141176 0.698039 0.054902
0.317647 0.698039 0.050980
0.450980 0.698039 0.047059
0.576471 0.698039 0.047059
0.701961 0.709804 0.047059
0.835294 0.701961 0.039216
0.972549 0.721569 0.200000
0.000000 0.847059 0.003922
0.000000 0.847059 0.011765
0.117647 0.847059 0.003922
0.313725 0.843137 0.000000
0.450980 0.839216 0.000000
0.584314 0.847059 0.000000
0.725490 0.847059 0.000000
0.862745 0.850980 0.003922
0.996078 0.854902 0.007843
0.003922 1.000000 0.000000
0.011765 0.996078 0.000000
0.047059 1.000000 0.000000
0.301961 1.000000 0.003922
0.462745 1.000000 0.003922
0.607843 1.000000 0.000000
0.741176 0.996078 0.000000
0.882353 1.000000 0.003922
1.000000 1.000000 0.015686
0.000000 0.000000 0.243137
0.090196 0.000000 0.231373
0.215686 0.003922 0.247059
0.321569 0.003922 0.243137
0.447059 0.000000 0.243137
0.572549 0.003922 0.243137
0.694118 0.003922 0.254902
0.811765 0.000000 0.235294
0.945098 0.003922 0.250980
0.007843 0.078431 0.235294
0.078431 0.074510 0.231373
0.207843 0.070588 0.239216
0.321569 0.066667 0.239216
0.447059 0.039216 0.239216
0.572549 0.003922 0.235294
0.694118 0.000000 0.243137
0.815686 0.003922 0.239216
0.945098 0.000000 0.247059
0.000000 0.203922 0.247059
0.039216 0.207843 0.243137
0.203922 0.196078 0.247059
0.321569 0.196078 0.239216
0.454902 0.188235 0.247059
0.572549 0.188235 0.239216
0.686275 0.184314 0.243137
0.807843 0.192157 0.258824
0.941176 0.203922 0.262745
0.000000 0.329412 0.247059
0.000000 0.333333 0.243137
0.172549 0.329412 0.227451
0.333333 0.325490 0.235294
0.439216 0.333333 0.266667
0.556863 0.333333 0.266667
0.682353 0.333333 0.270588
0.803922 0.345098 0.286275
0.937255 0.352941 0.290196
0.000000 0.454902 0.239216
0.003922 0.447059 0.235294
0.149020 0.458824 0.231373
0.317647 0.454902 0.227451
0.462745 0.450980 0.235294
0.572549 0.447059 0.254902
0.666667 0.458824 0.301961
0.796078 0.466667 0.317647
0.929412 0.486275 0.321569
0.000000 0.580392 0.227451
0.003922 0.576471 0.227451
0.145098 0.576471 0.227451
0.317647 0.572549 0.235294
0.447059 0.576471 0.227451
0.584314 0.568627 0.227451
0.694118 0.568627 0.243137
0.811765 0.580392 0.313725
0.933333 0.611765 0.376471
0.000000 0.701961 0.219608
0.007843 0.694118 0.219608
0.129412 0.701961 0.243137
0.309804 0.698039 0.231373
0.443137 0.701961 0.219608
0.576471 0.694118 0.207843
0.705882 0.698039 0.215686
0.850980 0.698039 0.223529
0.964706 0.717647 0.305882
0.000000 0.843137 0.203922
0.003922 0.835294 0.192157
0.086275 0.847059 0.192157
0.290196 0.843137 0.188235
0.450980 0.847059 0.196078
0.580392 0.839216 0.172549
0.721569 0.847059 0.184314
0.854902 0.847059 0.172549
0.988235 0.862745 0.160784
0.007843 1.000000 0.098039
0.003922 1.000000 0.094118
0.003922 1.000000 0.094118
0.282353 0.996078 0.078431
0.454902 1.000000 0.078431
0.607843 1.000000 0.074510
0.745098 1.000000 0.050980
0.882353 1.000000 0.035294
1.000000 0.996078 0.011765
0.000000 0.003922 0.368627
0.082353 0.003922 0.384314
0.215686 0.000000 0.364706
0.333333 0.003922 0.380392
0.454902 0.000000 0.380392
0.584314 0.000000 0.384314
0.694118 0.000000 0.376471
0.811765 0.000000 0.376471
0.945098 0.007843 0.376471
0.007843 0.066667 0.384314
0.062745 0.070588 0.372549
0.196078 0.058824 0.380392
0.333333 0.043137 0.384314
0.454902 0.003922 0.376471
0.576471 0.000000 0.376471
0.690196 0.003922 0.376471
0.819608 0.000000 0.376471
0.949020 0.000000 0.368627
0.011765 0.192157 0.392157
0.000000 0.188235 0.384314
0.184314 0.188235 0.376471
0.337255 0.180392 0.384314
0.462745 0.176471 0.384314
0.584314 0.176471 0.376471
0.698039 0.180392 0.376471
0.811765 0.160784 0.372549
0.945098 0.137255 0.360784
0.003922 0.329412 0.392157
0.007843 0.329412 0.384314
0.180392 0.325490 0.388235
0.325490 0.321569 0.384314
0.450980 0.317647 0.380392
0.576471 0.313725 0.380392
0.694118 0.317647 0.372549
0.807843 0.321569 0.384314
0.952941 0.333333 0.392157
0.000000 0.454902 0.372549
0.000000 0.458824 0.392157
0.141176 0.458824 0.384314
0.309804 0.454902 0.384314
0.454902 0.450980 0.372549
0.564706 0.454902 0.403922
0.678431 0.458824 0.407843
0.807843 0.470588 0.419608
0.929412 0.486275 0.423529
0.000000 0.580392 0.384314
0.000000 0.580392 0.376471
0.125490 0.580392 0.380392
0.301961 0.576471 0.372549
0.447059 0.572549 0.376471
0.576471 0.576471 0.380392
0.694118 0.564706 0.388235
0.807843 0.592157 0.443137
0.937255 0.615686 0.458824
0.000000 0.694118 0.368627
0.003922 0.698039 0.372549
0.094118 0.694118 0.368627
0.294118 0.694118 0.364706
0.443137 0.698039 0.368627
0.572549 0.698039 0.360784
0.705882 0.698039 0.356863
0.831373 0.705882 0.364706
0.968627 0.729412 0.423529
0.000000 0.843137 0.345098
0.000000 0.839216 0.345098
0.011765 0.843137 0.341176
0.294118 0.843137 0.352941
0.435294 0.847059 0.341176
0.584314 0.847059 0.333333
0.713725 0.854902 0.337255
0.850980 0.850980 0.325490
1.000000 0.858824 0.325490
0.007843 0.996078 0.301961
0.003922 0.996078 0.294118
0.000000 0.996078 0.298039
0.250980 0.996078 0.298039
0.435294 0.996078 0.290196
0.588235 1.000000 0.290196
0.733333 1.000000 0.274510
0.882353 1.000000 0.282353
1.000000 1.000000 0.286275
0.000000 0.000000 0.513725
0.070588 0.003922 0.513725
0.207843 0.000000 0.509804
0.341176 0.000000 0.521569
0.458824 0.000000 0.517647
0.576471 0.000000 0.509804
0.698039 0.000000 0.509804
0.811765 0.003922 0.501961
0.952941 0.007843 0.498039
0.003922 0.054902 0.505882
0.043137 0.050980 0.517647
0.211765 0.039216 0.521569
0.333333 0.011765 0.505882
0.454902 0.000000 0.521569
0.584314 0.000000 0.509804
0.690196 0.000000 0.498039
0.807843 0.000000 0.505882
0.956863 0.000000 0.501961
0.000000 0.172549 0.513725
0.000000 0.184314 0.517647
0.176471 0.176471 0.513725
0.329412 0.172549 0.517647
0.454902 0.160784 0.521569
0.580392 0.152941 0.517647
0.690196 0.156863 0.501961
0.815686 0.149020 0.505882
0.956863 0.109804 0.505882
0.000000 0.321569 0.517647
0.000000 0.321569 0.509804
0.145098 0.305882 0.517647
0.309804 0.305882 0.529412
0.450980 0.305882 0.517647
0.580392 0.305882 0.517647
0.698039 0.313725 0.513725
0.823529 0.298039 0.498039
0.952941 0.294118 0.498039
0.003922 0.447059 0.517647
0.007843 0.447059 0.525490
0.117647 0.450980 0.521569
0.301961 0.447059 0.517647
0.450980 0.443137 0.525490
0.568627 0.439216 0.513725
0.694118 0.450980 0.509804
0.811765 0.450980 0.509804
0.956863 0.454902 0.505882
0.000000 0.576471 0.513725
0.000000 0.572549 0.513725
0.125490 0.568627 0.521569
0.298039 0.576471 0.513725
0.443137 0.568627 0.509804
0.572549 0.564706 0.505882
0.682353 0.580392 0.525490
0.811765 0.592157 0.541176
0.964706 0.607843 0.537255
0.000000 0.701961 0.505882
0.003922 0.698039 0.513725
0.011765 0.701961 0.490196
0.278431 0.694118 0.501961
0.435294 0.701961 0.494118
0.572549 0.701961 0.494118
0.705882 0.698039 0.498039
0.831373 0.709804 0.498039
0.960784 0.733333 0.549020
0.000000 0.847059 0.470588
0.003922 0.847059 0.474510
0.000000 0.847059 0.482353
0.235294 0.843137 0.482353
0.423529 0.843137 0.474510
0.572549 0.850980 0.474510
0.713725 0.847059 0.466667
0.858824 0.847059 0.466667
0.988235 0.862745 0.470588
0.003922 1.000000 0.439216
0.000000 0.996078 0.439216
0.000000 0.996078 0.439216
0.137255 0.992157 0.439216
0.396078 0.996078 0.431373
0.572549 1.000000 0.439216
0.725490 0.996078 0.427451
0.874510 1.000000 0.423529
1.000000 1.000000 0.431373
0.007843 0.000000 0.623529
0.054902 0.000000 0.635294
0.200000 0.000000 0.615686
0.333333 0.000000 0.627451
0.450980 0.003922 0.631373
0.564706 0.000000 0.627451
0.690196 0.000000 0.631373
0.815686 0.000000 0.639216
0.952941 0.003922 0.647059
0.011765 0.039216 0.627451
0.023529 0.027451 0.623529
0.188235 0.007843 0.635294
0.325490 0.000000 0.623529
0.439216 0.000000 0.635294
0.572549 0.000000 0.631373
0.690196 0.000000 0.631373
0.819608 0.000000 0.635294
0.956863 0.000000 0.647059
0.003922 0.180392 0.631373
0.000000 0.176471 0.639216
0.168627 0.168627 0.647059
0.313725 0.164706 0.631373
0.447059 0.156863 0.631373
0.564706 0.152941 0.627451
0.694118 0.137255 0.631373
0.827451 0.113725 0.647059
0.952941 0.074510 0.635294
0.000000 0.305882 0.635294
0.003922 0.301961 0.639216
0.125490 0.298039 0.635294
0.305882 0.298039 0.627451
0.435294 0.301961 0.639216
0.560784 0.294118 0.627451
0.694118 0.294118 0.631373
0.831373 0.286275 0.643137
0.964706 0.278431 0.650980
0.007843 0.427451 0.639216
0.000000 0.427451 0.639216
0.113725 0.435294 0.631373
0.301961 0.431373 0.639216
0.431373 0.431373 0.635294
0.560784 0.427451 0.627451
0.701961 0.435294 0.643137
0.831373 0.427451 0.643137
0.972549 0.411765 0.623529
0.003922 0.560784 0.647059
0.000000 0.556863 0.635294
0.109804 0.560784 0.635294
0.301961 0.564706 0.639216
0.423529 0.560784 0.635294
0.560784 0.556863 0.627451
0.705882 0.560784 0.631373
0.831373 0.564706 0.623529
0.980392 0.576471 0.623529
0.000000 0.698039 0.635294
0.003922 0.701961 0.647059
0.003922 0.694118 0.635294
0.243137 0.698039 0.639216
0.411765 0.705882 0.627451
0.552941 0.698039 0.627451
0.698039 0.701961 0.631373
0.835294 0.721569 0.658824
0.964706 0.733333 0.678431
0.007843 0.839216 0.631373
0.000000 0.850980 0.631373
0.000000 0.847059 0.623529
0.066667 0.850980 0.607843
0.356863 0.847059 0.611765
0.549020 0.847059 0.603922
0.701961 0.854902 0.607843
0.854902 0.850980 0.600000
0.996078 0.854902 0.611765
0.007843 1.000000 0.596078
0.007843 0.996078 0.584314
0.000000 1.000000 0.568627
0.000000 0.996078 0.572549
0.337255 1.000000 0.580392
0.541176 1.000000 0.584314
0.709804 0.996078 0.572549
0.870588 1.000000 0.588235
1.000000 0.996078 0.576471
0.000000 0.000000 0.749020
0.027451 0.000000 0.760784
0.188235 0.003922 0.756863
0.321569 0.003922 0.752941
0.443137 0.000000 0.760784
0.560784 0.000000 0.756863
0.694118 0.000000 0.760784
0.811765 0.000000 0.768627
0.960784 0.000000 0.776471
0.003922 0.000000 0.752941
0.000000 0.003922 0.745098
0.184314 0.000000 0.768627
0.317647 0.000000 0.749020
0.439216 0.000000 0.756863
0.568627 0.000000 0.756863
0.678431 0.000000 0.756863
0.807843 0.003922 0.752941
0.964706 0.000000 0.788235
0.000000 0.168627 0.768627
0.003922 0.164706 0.760784
0.156863 0.160784 0.749020
0.305882 0.152941 0.752941
0.443137 0.149020 0.764706
0.564706 0.133333 0.764706
0.686275 0.117647 0.756863
0.815686 0.090196 0.760784
0.964706 0.000000 0.772549
0.007843 0.290196 0.760784
0.003922 0.286275 0.760784
0.105882 0.286275 0.752941
0.290196 0.290196 0.760784
0.431373 0.294118 0.764706
0.556863 0.290196 0.764706
0.690196 0.282353 0.764706
0.823529 0.274510 0.772549
0.972549 0.254902 0.788235
0.000000 0.431373 0.760784
0.003922 0.423529 0.768627
0.066667 0.419608 0.764706
0.278431 0.423529 0.768627
0.419608 0.419608 0.764706
0.556863 0.415686 0.768627
0.686275 0.415686 0.768627
0.819608 0.407843 0.768627
0.980392 0.400000 0.792157
0.003922 0.556863 0.764706
0.003922 0.556863 0.764706
0.015686 0.552941 0.756863
0.262745 0.556863 0.764706
0.411765 0.549020 0.764706
0.552941 0.552941 0.764706
0.694118 0.549020 0.760784
0.839216 0.545098 0.764706
1.000000 0.529412 0.768627
0.003922 0.694118 0.776471
0.003922 0.678431 0.756863
0.000000 0.690196 0.760784
0.231373 0.690196 0.760784
0.403922 0.686275 0.764706
0.549020 0.694118 0.768627
0.690196 0.694118 0.764706
0.847059 0.701961 0.768627
0.996078 0.705882 0.756863
0.000000 0.850980 0.784314
0.000000 0.843137 0.780392
0.000000 0.843137 0.784314
0.000000 0.843137 0.780392
0.321569 0.847059 0.772549
0.509804 0.854902 0.760784
0.690196 0.847059 0.752941
0.858824 0.850980 0.752941
0.992157 0.874510 0.780392
0.007843 0.992157 0.760784
0.003922 0.996078 0.764706
0.000000 0.996078 0.752941
0.003922 1.000000 0.752941
0.176471 1.000000 0.733333
0.470588 1.000000 0.721569
0.701961 1.000000 0.737255
0.862745 1.000000 0.741176
1.000000 1.000000 0.741176
0.003922 0.000000 0.894118
0.007843 0.003922 0.898039
0.188235 0.000000 0.894118
0.313725 0.007843 0.894118
0.439216 0.000000 0.898039
0.568627 0.000000 0.901961
0.694118 0.000000 0.901961
0.819608 0.000000 0.905882
0.945098 0.000000 0.898039
0.000000 0.000000 0.894118
0.003922 0.000000 0.882353
0.168627 0.000000 0.890196
0.313725 0.000000 0.894118
0.439216 0.000000 0.898039
0.572549 0.003922 0.901961
0.686275 0.003922 0.901961
0.819608 0.000000 0.905882
0.941176 0.003922 0.909804
0.000000 0.145098 0.905882
0.011765 0.145098 0.901961
0.133333 0.152941 0.890196
0.298039 0.141176 0.901961
0.447059 0.125490 0.909804
0.568627 0.109804 0.901961
0.690196 0.090196 0.901961
0.819608 0.039216 0.898039
0.964706 0.000000 0.894118
0.000000 0.290196 0.898039
0.011765 0.286275 0.905882
0.050980 0.286275 0.905882
0.282353 0.278431 0.917647
0.431373 0.286275 0.905882
0.560784 0.266667 0.905882
0.694118 0.270588 0.909804
0.823529 0.254902 0.909804
0.956863 0.247059 0.909804
0.000000 0.427451 0.901961
0.003922 0.415686 0.913725
0.000000 0.415686 0.901961
0.239216 0.419608 0.898039
0.411765 0.407843 0.905882
0.549020 0.407843 0.901961
0.690196 0.407843 0.909804
0.827451 0.400000 0.909804
0.976471 0.372549 0.921569
0.003922 0.556863 0.909804
0.000000 0.560784 0.905882
0.000000 0.556863 0.909804
0.215686 0.549020 0.905882
0.388235 0.545098 0.917647
0.541176 0.545098 0.909804
0.690196 0.533333 0.913725
0.835294 0.533333 0.917647
0.996078 0.517647 0.921569
0.007843 0.690196 0.929412
0.000000 0.694118 0.905882
0.000000 0.694118 0.894118
0.156863 0.690196 0.909804
0.368627 0.690196 0.917647
0.533333 0.686275 0.917647
0.686275 0.682353 0.909804
0.850980 0.678431 0.917647
1.000000 0.682353 0.921569
0.003922 0.831373 0.905882
0.000000 0.839216 0.917647
0.000000 0.835294 0.898039
0.000000 0.827451 0.901961
0.329412 0.831373 0.905882
0.517647 0.835294 0.917647
0.690196 0.839216 0.913725
0.858824 0.850980 0.905882
0.996078 0.866667 0.909804
0.003922 1.000000 0.937255
0.007843 0.996078 0.929412
0.003922 1.000000 0.937255
0.000000 0.996078 0.925490
0.141176 1.000000 0.933333
0.466667 1.000000 0.917647
0.670588 1.000000 0.905882
0.866667 0.992157 0.898039
1.000000 1.000000 0.913725
0.000000 0.000000 0.992157
0.000000 0.000000 0.996078
0.168627 0.000000 1.000000
0.317647 0.000000 0.992157
0.454902 0.000000 1.000000
0.572549 0.003922 0.996078
0.709804 0.000000 1.000000
0.835294 0.003922 0.996078
0.976471 0.003922 1.000000
0.000000 0.000000 0.996078
0.000000 0.003922 0.988235
0.160784 0.000000 1.000000
0.301961 0.000000 0.996078
0.439216 0.003922 1.000000
0.572549 0.003922 1.000000
0.701961 0.003922 1.000000
0.843137 0.000000 0.996078
0.984314 0.000000 1.000000
0.000000 0.133333 1.000000
0.000000 0.133333 1.000000
0.109804 0.121569 1.000000
0.282353 0.117647 0.996078
0.435294 0.101961 0.996078
0.564706 0.078431 1.000000
0.705882 0.023529 0.992157
0.847059 0.003922 1.000000
0.984314 0.000000 0.992157
0.003922 0.274510 1.000000
0.003922 0.270588 1.000000
0.000000 0.278431 0.992157
0.266667 0.274510 0.992157
0.411765 0.270588 1.000000
0.560784 0.262745 1.000000
0.701961 0.250980 1.000000
0.843137 0.231373 1.000000
0.992157 0.196078 1.000000
0.000000 0.415686 0.988235
0.000000 0.400000 1.000000
0.000000 0.403922 0.996078
0.207843 0.400000 1.000000
0.396078 0.400000 1.000000
0.552941 0.400000 1.000000
0.694118 0.392157 1.000000
0.847059 0.376471 1.000000
0.992157 0.360784 1.000000
0.003922 0.556863 1.000000
0.000000 0.560784 1.000000
0.000000 0.552941 0.996078
0.176471 0.549020 0.996078
0.352941 0.529412 0.996078
0.529412 0.521569 1.000000
0.686275 0.525490 0.996078
0.850980 0.513725 1.000000
0.992157 0.501961 1.000000
0.000000 0.694118 0.996078
0.011765 0.694118 1.000000
0.000000 0.694118 1.000000
0.152941 0.690196 1.000000
0.364706 0.690196 1.000000
0.529412 0.678431 0.996078
0.678431 0.670588 0.996078
0.854902 0.666667 0.996078
0.996078 0.658824 1.000000
0.007843 0.823529 1.000000
0.000000 0.819608 1.000000
0.000000 0.823529 1.000000
0.125490 0.823529 0.996078
0.372549 0.831373 1.000000
0.541176 0.831373 1.000000
0.717647 0.843137 1.000000
0.878431 0.854902 1.000000
1.000000 0.866667 1.000000
0.011765 0.937255 1.000000
0.007843 0.945098 0.996078
0.000000 0.949020 0.996078
0.254902 0.949020 1.000000
0.443137 0.949020 1.000000
0.619608 0.956863 1.000000
0.803922 0.972549 1.000000
0.968627 0.988235 1.000000
1.000000 0.996078 1.000000
