lut_library_archive/removed_20260629/50个风景lut/50个风景lut21.cube
# 版权归凌孟成所有，侵权必究
TITLE "Jungle LUT #21"
#LUT size
LUT_3D_SIZE 25
#LUT data points
0.000000 0.003922 0.000000
0.035294 0.000000 0.000000
0.078431 0.000000 0.003922
0.113725 0.003922 0.000000
0.172549 0.000000 0.000000
0.211765 0.000000 0.000000
0.243137 0.003922 0.000000
0.294118 0.000000 0.003922
0.333333 0.000000 0.000000
0.384314 0.000000 0.000000
0.435294 0.000000 0.000000
0.490196 0.000000 0.000000
0.549020 0.000000 0.000000
0.603922 0.000000 0.000000
0.666667 0.000000 0.003922
0.721569 0.000000 0.000000
0.776471 0.003922 0.003922
0.827451 0.000000 0.000000
0.886275 0.003922 0.003922
0.929412 0.000000 0.000000
0.976471 0.000000 0.000000
0.996078 0.003922 0.000000
0.996078 0.003922 0.000000
0.996078 0.000000 0.000000
0.996078 0.000000 0.000000
0.000000 0.035294 0.000000
0.031373 0.031373 0.000000
0.086275 0.039216 0.000000
0.113725 0.035294 0.007843
0.164706 0.031373 0.000000
0.200000 0.031373 0.000000
0.239216 0.031373 0.007843
0.290196 0.027451 0.000000
0.337255 0.027451 0.000000
0.380392 0.027451 0.000000
0.431373 0.019608 0.003922
0.486275 0.019608 0.003922
0.541176 0.011765 0.000000
0.600000 0.007843 0.003922
0.650980 0.003922 0.000000
0.721569 0.000000 0.000000
0.772549 0.000000 0.000000
0.827451 0.000000 0.000000
0.882353 0.000000 0.000000
0.929412 0.000000 0.000000
0.972549 0.003922 0.003922
0.996078 0.000000 0.000000
0.996078 0.000000 0.007843
0.988235 0.003922 0.000000
0.996078 0.000000 0.007843
0.003922 0.070588 0.000000
0.027451 0.078431 0.000000
0.066667 0.078431 0.000000
0.109804 0.078431 0.000000
0.156863 0.074510 0.000000
0.200000 0.070588 0.003922
0.243137 0.074510 0.000000
0.294118 0.078431 0.000000
0.333333 0.078431 0.000000
0.380392 0.074510 0.000000
0.443137 0.070588 0.000000
0.490196 0.070588 0.000000
0.541176 0.066667 0.000000
0.596078 0.070588 0.003922
0.654902 0.062745 0.000000
0.713725 0.058824 0.003922
0.768627 0.043137 0.000000
0.823529 0.031373 0.000000
0.878431 0.019608 0.003922
0.925490 0.011765 0.003922
0.964706 0.003922 0.000000
0.996078 0.000000 0.000000
1.000000 0.003922 0.003922
0.996078 0.000000 0.000000
1.000000 0.007843 0.000000
0.007843 0.109804 0.003922
0.031373 0.109804 0.000000
0.074510 0.117647 0.000000
0.105882 0.117647 0.000000
0.160784 0.105882 0.000000
0.196078 0.121569 0.000000
0.247059 0.117647 0.000000
0.282353 0.121569 0.003922
0.337255 0.113725 0.000000
0.388235 0.117647 0.000000
0.435294 0.117647 0.000000
0.486275 0.121569 0.000000
0.537255 0.121569 0.000000
0.592157 0.121569 0.000000
0.650980 0.121569 0.003922
0.709804 0.117647 0.003922
0.764706 0.113725 0.000000
0.815686 0.105882 0.000000
0.870588 0.105882 0.000000
0.917647 0.094118 0.000000
0.956863 0.090196 0.000000
1.000000 0.074510 0.000000
1.000000 0.050980 0.003922
0.996078 0.035294 0.000000
0.988235 0.015686 0.000000
0.007843 0.156863 0.011765
0.019608 0.156863 0.000000
0.074510 0.156863 0.000000
0.113725 0.156863 0.000000
0.152941 0.152941 0.003922
0.192157 0.156863 0.000000
0.235294 0.160784 0.000000
0.282353 0.156863 0.000000
0.329412 0.164706 0.007843
0.384314 0.156863 0.007843
0.431373 0.160784 0.007843
0.474510 0.168627 0.000000
0.537255 0.168627 0.000000
0.592157 0.168627 0.000000
0.650980 0.168627 0.003922
0.709804 0.172549 0.000000
0.764706 0.164706 0.000000
0.811765 0.168627 0.000000
0.866667 0.160784 0.000000
0.913725 0.156863 0.000000
0.964706 0.149020 0.007843
0.996078 0.141176 0.003922
0.996078 0.137255 0.000000
0.996078 0.129412 0.000000
1.000000 0.113725 0.000000
0.007843 0.203922 0.003922
0.019608 0.203922 0.000000
0.070588 0.203922 0.003922
0.113725 0.203922 0.000000
0.152941 0.200000 0.003922
0.207843 0.196078 0.000000
0.247059 0.207843 0.000000
0.294118 0.211765 0.003922
0.337255 0.207843 0.000000
0.388235 0.211765 0.000000
0.443137 0.211765 0.000000
0.494118 0.215686 0.000000
0.556863 0.223529 0.000000
0.611765 0.223529 0.000000
0.674510 0.223529 0.000000
0.729412 0.227451 0.003922
0.784314 0.227451 0.000000
0.835294 0.223529 0.000000
0.890196 0.223529 0.000000
0.933333 0.219608 0.003922
0.976471 0.211765 0.003922
0.996078 0.200000 0.000000
1.000000 0.192157 0.000000
1.000000 0.188235 0.007843
0.996078 0.180392 0.000000
0.000000 0.247059 0.000000
0.007843 0.243137 0.007843
0.058824 0.247059 0.011765
0.105882 0.247059 0.000000
0.160784 0.247059 0.000000
0.203922 0.250980 0.007843
0.243137 0.243137 0.000000
0.286275 0.239216 0.003922
0.341176 0.247059 0.003922
0.384314 0.250980 0.000000
0.435294 0.258824 0.003922
0.498039 0.262745 0.000000
0.552941 0.258824 0.000000
0.615686 0.266667 0.000000
0.666667 0.274510 0.000000
0.725490 0.278431 0.003922
0.772549 0.278431 0.007843
0.827451 0.278431 0.000000
0.882353 0.270588 0.000000
0.933333 0.266667 0.000000
0.972549 0.266667 0.003922
1.000000 0.258824 0.000000
0.996078 0.254902 0.000000
1.000000 0.247059 0.000000
1.000000 0.231373 0.003922
0.000000 0.294118 0.000000
0.007843 0.290196 0.000000
0.050980 0.294118 0.007843
0.109804 0.290196 0.007843
0.160784 0.290196 0.003922
0.203922 0.290196 0.000000
0.247059 0.294118 0.003922
0.282353 0.290196 0.000000
0.333333 0.298039 0.003922
0.392157 0.301961 0.003922
0.443137 0.301961 0.003922
0.490196 0.305882 0.000000
0.552941 0.313725 0.000000
0.607843 0.313725 0.000000
0.662745 0.317647 0.000000
0.721569 0.317647 0.007843
0.776471 0.317647 0.003922
0.823529 0.321569 0.003922
0.874510 0.325490 0.000000
0.917647 0.321569 0.000000
0.960784 0.317647 0.000000
0.996078 0.313725 0.000000
0.988235 0.305882 0.000000
1.000000 0.298039 0.000000
1.000000 0.286275 0.000000
0.000000 0.337255 0.000000
0.003922 0.337255 0.011765
0.031373 0.337255 0.000000
0.094118 0.337255 0.000000
0.160784 0.337255 0.003922
0.203922 0.337255 0.000000
0.262745 0.341176 0.007843
0.294118 0.349020 0.007843
0.341176 0.341176 0.003922
0.388235 0.345098 0.000000
0.443137 0.349020 0.000000
0.490196 0.352941 0.000000
0.549020 0.352941 0.003922
0.603922 0.368627 0.000000
0.658824 0.364706 0.000000
0.717647 0.368627 0.000000
0.772549 0.368627 0.003922
0.819608 0.368627 0.003922
0.870588 0.364706 0.000000
0.917647 0.368627 0.003922
0.956863 0.360784 0.000000
1.000000 0.356863 0.007843
1.000000 0.349020 0.000000
1.000000 0.337255 0.000000
0.992157 0.337255 0.000000
0.007843 0.384314 0.000000
0.000000 0.396078 0.000000
0.000000 0.396078 0.000000
0.074510 0.396078 0.003922
0.145098 0.388235 0.000000
0.211765 0.392157 0.000000
0.254902 0.396078 0.003922
0.294118 0.392157 0.000000
0.345098 0.392157 0.007843
0.392157 0.396078 0.000000
0.443137 0.392157 0.000000
0.494118 0.396078 0.003922
0.549020 0.403922 0.000000
0.600000 0.407843 0.003922
0.658824 0.411765 0.000000
0.717647 0.415686 0.000000
0.760784 0.415686 0.000000
0.811765 0.415686 0.000000
0.858824 0.411765 0.000000
0.909804 0.411765 0.000000
0.964706 0.403922 0.000000
0.992157 0.403922 0.000000
1.000000 0.396078 0.000000
1.000000 0.392157 0.000000
1.000000 0.384314 0.003922
0.007843 0.470588 0.000000
0.000000 0.470588 0.003922
0.000000 0.474510 0.007843
0.078431 0.466667 0.000000
0.137255 0.470588 0.000000
0.203922 0.478431 0.000000
0.266667 0.466667 0.000000
0.321569 0.470588 0.000000
0.372549 0.462745 0.007843
0.411765 0.462745 0.000000
0.466667 0.462745 0.000000
0.509804 0.462745 0.000000
0.564706 0.466667 0.000000
0.615686 0.474510 0.003922
0.670588 0.470588 0.003922
0.729412 0.478431 0.003922
0.776471 0.478431 0.007843
0.827451 0.474510 0.003922
0.878431 0.466667 0.000000
0.925490 0.462745 0.000000
0.972549 0.462745 0.000000
0.996078 0.454902 0.000000
1.000000 0.450980 0.000000
1.000000 0.447059 0.000000
1.000000 0.439216 0.007843
0.000000 0.509804 0.000000
0.000000 0.517647 0.000000
0.000000 0.517647 0.000000
0.035294 0.517647 0.000000
0.125490 0.529412 0.000000
0.200000 0.525490 0.000000
0.250980 0.525490 0.007843
0.309804 0.517647 0.000000
0.360784 0.517647 0.000000
0.415686 0.517647 0.000000
0.466667 0.517647 0.000000
0.517647 0.517647 0.000000
0.564706 0.513725 0.000000
0.619608 0.513725 0.000000
0.670588 0.521569 0.000000
0.733333 0.521569 0.003922
0.780392 0.517647 0.000000
0.827451 0.521569 0.003922
0.870588 0.517647 0.000000
0.917647 0.513725 0.000000
0.960784 0.513725 0.003922
0.996078 0.505882 0.003922
0.996078 0.501961 0.000000
0.996078 0.490196 0.000000
1.000000 0.486275 0.000000
0.000000 0.572549 0.000000
0.000000 0.568627 0.000000
0.007843 0.568627 0.011765
0.007843 0.576471 0.000000
0.113725 0.576471 0.000000
0.188235 0.580392 0.000000
0.250980 0.572549 0.000000
0.309804 0.576471 0.000000
0.364706 0.568627 0.000000
0.407843 0.572549 0.000000
0.458824 0.576471 0.000000
0.513725 0.568627 0.000000
0.572549 0.564706 0.000000
0.607843 0.560784 0.000000
0.662745 0.564706 0.000000
0.717647 0.568627 0.000000
0.772549 0.568627 0.000000
0.819608 0.568627 0.000000
0.870588 0.564706 0.000000
0.917647 0.560784 0.003922
0.964706 0.549020 0.007843
0.996078 0.545098 0.007843
1.000000 0.541176 0.000000
1.000000 0.537255 0.003922
0.996078 0.529412 0.000000
0.003922 0.619608 0.000000
0.000000 0.615686 0.000000
0.000000 0.623529 0.003922
0.003922 0.631373 0.000000
0.074510 0.623529 0.000000
0.164706 0.623529 0.000000
0.250980 0.627451 0.003922
0.294118 0.623529 0.000000
0.356863 0.619608 0.000000
0.407843 0.627451 0.003922
0.458824 0.619608 0.000000
0.513725 0.611765 0.007843
0.572549 0.607843 0.000000
0.615686 0.615686 0.000000
0.662745 0.611765 0.000000
0.713725 0.611765 0.000000
0.764706 0.611765 0.000000
0.819608 0.611765 0.000000
0.862745 0.607843 0.003922
0.901961 0.603922 0.000000
0.945098 0.596078 0.000000
0.984314 0.596078 0.000000
0.996078 0.580392 0.000000
0.996078 0.576471 0.000000
1.000000 0.572549 0.007843
0.000000 0.666667 0.003922
0.000000 0.674510 0.011765
0.003922 0.666667 0.000000
0.003922 0.678431 0.003922
0.011765 0.678431 0.000000
0.145098 0.666667 0.003922
0.227451 0.670588 0.003922
0.294118 0.674510 0.000000
0.345098 0.666667 0.000000
0.419608 0.666667 0.003922
0.450980 0.670588 0.000000
0.509804 0.670588 0.011765
0.560784 0.670588 0.000000
0.603922 0.666667 0.003922
0.654902 0.662745 0.000000
0.709804 0.662745 0.000000
0.756863 0.662745 0.003922
0.807843 0.654902 0.000000
0.850980 0.650980 0.003922
0.898039 0.643137 0.000000
0.941176 0.650980 0.000000
0.984314 0.639216 0.003922
1.000000 0.631373 0.003922
0.996078 0.619608 0.003922
0.992157 0.615686 0.003922
0.000000 0.752941 0.003922
0.000000 0.756863 0.000000
0.003922 0.752941 0.000000
0.003922 0.752941 0.000000
0.003922 0.752941 0.000000
0.117647 0.749020 0.000000
0.211765 0.745098 0.000000
0.294118 0.745098 0.003922
0.349020 0.745098 0.000000
0.403922 0.745098 0.000000
0.466667 0.737255 0.003922
0.517647 0.729412 0.000000
0.576471 0.729412 0.000000
0.627451 0.729412 0.000000
0.678431 0.725490 0.000000
0.725490 0.725490 0.000000
0.768627 0.721569 0.000000
0.819608 0.725490 0.003922
0.866667 0.713725 0.003922
0.909804 0.705882 0.003922
0.952941 0.698039 0.003922
0.988235 0.690196 0.007843
1.000000 0.686275 0.007843
0.996078 0.674510 0.003922
0.996078 0.666667 0.000000
0.000000 0.772549 0.011765
0.003922 0.776471 0.007843
0.000000 0.780392 0.000000
0.000000 0.780392 0.007843
0.003922 0.788235 0.000000
0.082353 0.780392 0.000000
0.196078 0.788235 0.000000
0.270588 0.784314 0.000000
0.337255 0.784314 0.000000
0.400000 0.776471 0.000000
0.454902 0.776471 0.000000
0.501961 0.776471 0.003922
0.549020 0.776471 0.000000
0.607843 0.768627 0.007843
0.666667 0.768627 0.003922
0.713725 0.764706 0.003922
0.760784 0.760784 0.000000
0.811765 0.760784 0.000000
0.862745 0.756863 0.007843
0.898039 0.752941 0.000000
0.937255 0.745098 0.000000
0.996078 0.729412 0.000000
1.000000 0.725490 0.000000
0.996078 0.713725 0.000000
1.000000 0.709804 0.000000
0.000000 0.811765 0.003922
0.015686 0.819608 0.000000
0.000000 0.823529 0.000000
0.000000 0.823529 0.003922
0.000000 0.827451 0.007843
0.003922 0.819608 0.003922
0.156863 0.819608 0.000000
0.250980 0.811765 0.003922
0.313725 0.819608 0.007843
0.372549 0.819608 0.000000
0.439216 0.811765 0.000000
0.486275 0.815686 0.000000
0.545098 0.811765 0.000000
0.592157 0.807843 0.003922
0.650980 0.803922 0.000000
0.698039 0.807843 0.000000
0.756863 0.803922 0.003922
0.803922 0.800000 0.000000
0.854902 0.796078 0.000000
0.898039 0.792157 0.000000
0.937255 0.784314 0.000000
0.972549 0.780392 0.000000
0.984314 0.776471 0.000000
1.000000 0.752941 0.003922
1.000000 0.752941 0.000000
0.003922 0.850980 0.000000
0.003922 0.866667 0.003922
0.007843 0.854902 0.003922
0.000000 0.854902 0.007843
0.000000 0.858824 0.000000
0.000000 0.854902 0.007843
0.129412 0.854902 0.003922
0.223529 0.854902 0.000000
0.301961 0.854902 0.000000
0.364706 0.854902 0.000000
0.431373 0.847059 0.007843
0.482353 0.847059 0.003922
0.521569 0.850980 0.000000
0.592157 0.847059 0.007843
0.635294 0.843137 0.003922
0.686275 0.839216 0.000000
0.741176 0.839216 0.000000
0.784314 0.835294 0.000000
0.835294 0.835294 0.003922
0.886275 0.831373 0.000000
0.925490 0.823529 0.000000
0.968627 0.823529 0.000000
1.000000 0.811765 0.003922
1.000000 0.792157 0.000000
1.000000 0.788235 0.000000
0.000000 0.886275 0.000000
0.007843 0.886275 0.000000
0.000000 0.894118 0.003922
0.000000 0.886275 0.000000
0.000000 0.890196 0.000000
0.000000 0.890196 0.000000
0.070588 0.886275 0.000000
0.196078 0.894118 0.000000
0.278431 0.886275 0.000000
0.341176 0.894118 0.000000
0.403922 0.886275 0.000000
0.458824 0.882353 0.000000
0.525490 0.878431 0.007843
0.572549 0.878431 0.003922
0.623529 0.874510 0.007843
0.674510 0.870588 0.000000
0.721569 0.866667 0.003922
0.768627 0.870588 0.003922
0.819608 0.866667 0.000000
0.866667 0.866667 0.003922
0.917647 0.862745 0.000000
0.968627 0.854902 0.000000
0.988235 0.854902 0.000000
1.000000 0.847059 0.000000
1.000000 0.831373 0.000000
0.000000 0.937255 0.000000
0.007843 0.941176 0.007843
0.000000 0.937255 0.000000
0.007843 0.933333 0.000000
0.003922 0.937255 0.011765
0.007843 0.929412 0.011765
0.007843 0.933333 0.000000
0.168627 0.929412 0.003922
0.262745 0.929412 0.000000
0.317647 0.933333 0.000000
0.388235 0.929412 0.003922
0.447059 0.925490 0.003922
0.505882 0.925490 0.000000
0.560784 0.921569 0.000000
0.611765 0.917647 0.000000
0.654902 0.913725 0.000000
0.721569 0.909804 0.000000
0.764706 0.913725 0.000000
0.803922 0.913725 0.000000
0.847059 0.909804 0.000000
0.905882 0.901961 0.000000
0.952941 0.898039 0.000000
0.988235 0.898039 0.003922
1.000000 0.890196 0.003922
1.000000 0.874510 0.000000
0.003922 0.956863 0.000000
0.000000 0.960784 0.000000
0.000000 0.964706 0.000000
0.000000 0.952941 0.000000
0.003922 0.960784 0.000000
0.003922 0.960784 0.000000
0.000000 0.956863 0.000000
0.133333 0.960784 0.000000
0.211765 0.960784 0.000000
0.305882 0.960784 0.000000
0.376471 0.952941 0.007843
0.427451 0.949020 0.000000
0.482353 0.949020 0.000000
0.541176 0.952941 0.003922
0.592157 0.949020 0.000000
0.639216 0.949020 0.000000
0.694118 0.941176 0.000000
0.749020 0.941176 0.000000
0.792157 0.937255 0.000000
0.839216 0.937255 0.000000
0.886275 0.937255 0.000000
0.945098 0.933333 0.003922
0.972549 0.933333 0.011765
1.000000 0.933333 0.000000
1.000000 0.921569 0.003922
0.011765 0.984314 0.000000
0.000000 0.992157 0.000000
0.000000 0.984314 0.000000
0.003922 0.988235 0.000000
0.000000 0.988235 0.003922
0.000000 0.984314 0.000000
0.000000 0.988235 0.000000
0.039216 0.992157 0.000000
0.188235 0.980392 0.000000
0.286275 0.984314 0.003922
0.341176 0.988235 0.000000
0.423529 0.980392 0.000000
0.454902 0.984314 0.000000
0.521569 0.976471 0.000000
0.568627 0.980392 0.000000
0.623529 0.976471 0.003922
0.674510 0.972549 0.000000
0.717647 0.968627 0.000000
0.764706 0.968627 0.000000
0.815686 0.968627 0.000000
0.866667 0.960784 0.000000
0.905882 0.960784 0.000000
0.972549 0.952941 0.003922
1.000000 0.960784 0.007843
1.000000 0.952941 0.003922
0.000000 1.000000 0.000000
0.003922 0.996078 0.000000
0.007843 1.000000 0.000000
0.007843 1.000000 0.000000
0.000000 0.996078 0.007843
0.000000 1.000000 0.000000
0.000000 0.996078 0.000000
0.007843 1.000000 0.000000
0.117647 1.000000 0.011765
0.243137 0.996078 0.003922
0.325490 0.996078 0.000000
0.380392 0.996078 0.000000
0.439216 1.000000 0.000000
0.494118 1.000000 0.000000
0.541176 1.000000 0.000000
0.603922 1.000000 0.000000
0.647059 1.000000 0.000000
0.701961 1.000000 0.000000
0.752941 1.000000 0.003922
0.803922 0.996078 0.007843
0.847059 0.992157 0.000000
0.898039 0.984314 0.003922
0.933333 0.992157 0.000000
0.984314 0.980392 0.000000
1.000000 0.988235 0.003922
0.000000 1.000000 0.000000
0.000000 1.000000 0.000000
0.007843 0.996078 0.003922
0.007843 1.000000 0.000000
0.007843 0.996078 0.003922
0.007843 0.996078 0.003922
0.007843 0.996078 0.003922
0.000000 1.000000 0.000000
0.011765 1.000000 0.000000
0.172549 1.000000 0.000000
0.286275 0.996078 0.000000
0.345098 0.992157 0.000000
0.411765 0.996078 0.000000
0.466667 0.996078 0.003922
0.525490 1.000000 0.000000
0.580392 1.000000 0.000000
0.635294 1.000000 0.000000
0.682353 1.000000 0.000000
0.737255 1.000000 0.000000
0.784314 1.000000 0.003922
0.827451 0.996078 0.000000
0.878431 0.996078 0.000000
0.917647 1.000000 0.000000
0.956863 1.000000 0.000000
0.992157 0.996078 0.000000
0.003922 0.003922 0.043137
0.035294 0.000000 0.031373
0.082353 0.000000 0.027451
0.121569 0.000000 0.031373
0.149020 0.003922 0.031373
0.215686 0.000000 0.031373
0.247059 0.003922 0.023529
0.301961 0.000000 0.031373
0.337255 0.000000 0.019608
0.388235 0.000000 0.011765
0.439216 0.000000 0.015686
0.494118 0.000000 0.011765
0.549020 0.000000 0.003922
0.603922 0.000000 0.000000
0.654902 0.000000 0.000000
0.709804 0.000000 0.000000
0.768627 0.003922 0.000000
0.823529 0.000000 0.003922
0.882353 0.000000 0.000000
0.933333 0.003922 0.003922
0.980392 0.003922 0.003922
0.996078 0.000000 0.000000
1.000000 0.007843 0.000000
0.996078 0.000000 0.000000
1.000000 0.007843 0.007843
0.000000 0.039216 0.031373
0.031373 0.031373 0.031373
0.078431 0.043137 0.023529
0.113725 0.027451 0.035294
0.156863 0.031373 0.035294
0.196078 0.035294 0.027451
0.243137 0.031373 0.039216
0.290196 0.023529 0.023529
0.337255 0.019608 0.015686
0.392157 0.015686 0.019608
0.439216 0.007843 0.003922
0.486275 0.000000 0.000000
0.545098 0.000000 0.000000
0.607843 0.000000 0.000000
0.654902 0.000000 0.000000
0.721569 0.000000 0.000000
0.768627 0.003922 0.000000
0.823529 0.003922 0.000000
0.878431 0.000000 0.003922
0.925490 0.003922 0.000000
0.964706 0.003922 0.000000
0.996078 0.000000 0.000000
0.996078 0.000000 0.000000
1.000000 0.007843 0.000000
1.000000 0.003922 0.011765
0.000000 0.074510 0.007843
0.031373 0.078431 0.031373
0.070588 0.074510 0.043137
0.121569 0.070588 0.035294
0.156863 0.070588 0.019608
0.207843 0.074510 0.027451
0.250980 0.078431 0.027451
0.282353 0.070588 0.023529
0.337255 0.070588 0.019608
0.380392 0.070588 0.011765
0.431373 0.066667 0.007843
0.486275 0.066667 0.003922
0.529412 0.066667 0.000000
0.607843 0.050980 0.000000
0.650980 0.043137 0.000000
0.709804 0.035294 0.000000
0.776471 0.019608 0.000000
0.827451 0.007843 0.000000
0.878431 0.000000 0.000000
0.921569 0.000000 0.003922
0.964706 0.003922 0.003922
1.000000 0.003922 0.003922
0.996078 0.000000 0.007843
0.996078 0.000000 0.000000
1.000000 0.007843 0.000000
0.000000 0.117647 0.023529
0.023529 0.117647 0.031373
0.078431 0.117647 0.023529
0.101961 0.117647 0.019608
0.164706 0.117647 0.031373
0.196078 0.117647 0.019608
0.254902 0.113725 0.019608
0.290196 0.117647 0.019608
0.337255 0.113725 0.015686
0.376471 0.113725 0.007843
0.427451 0.113725 0.007843
0.482353 0.113725 0.011765
0.541176 0.109804 0.003922
0.600000 0.109804 0.000000
0.654902 0.109804 0.000000
0.705882 0.105882 0.003922
0.768627 0.101961 0.003922
0.819608 0.090196 0.000000
0.870588 0.086275 0.003922
0.921569 0.074510 0.000000
0.960784 0.066667 0.000000
1.000000 0.054902 0.000000
1.000000 0.015686 0.000000
1.000000 0.007843 0.000000
0.996078 0.000000 0.007843
0.003922 0.149020 0.019608
0.019608 0.160784 0.019608
0.062745 0.156863 0.015686
0.105882 0.160784 0.023529
0.152941 0.152941 0.003922
0.196078 0.156863 0.015686
0.250980 0.149020 0.019608
0.286275 0.160784 0.007843
0.329412 0.160784 0.003922
0.380392 0.168627 0.000000
0.419608 0.168627 0.000000
0.482353 0.160784 0.003922
0.533333 0.160784 0.000000
0.588235 0.160784 0.000000
0.650980 0.164706 0.000000
0.705882 0.160784 0.000000
0.760784 0.160784 0.000000
0.815686 0.160784 0.003922
0.870588 0.152941 0.000000
0.913725 0.149020 0.007843
0.964706 0.137255 0.000000
0.996078 0.133333 0.000000
0.992157 0.125490 0.000000
1.000000 0.113725 0.000000
1.000000 0.098039 0.000000
0.000000 0.200000 0.011765
0.011765 0.203922 0.015686
0.070588 0.200000 0.015686
0.109804 0.203922 0.007843
0.149020 0.203922 0.003922
0.203922 0.192157 0.015686
0.243137 0.203922 0.011765
0.290196 0.203922 0.007843
0.333333 0.203922 0.003922
0.388235 0.207843 0.003922
0.443137 0.207843 0.003922
0.490196 0.211765 0.000000
0.549020 0.215686 0.000000
0.607843 0.219608 0.000000
0.670588 0.219608 0.003922
0.725490 0.223529 0.000000
0.772549 0.215686 0.003922
0.827451 0.211765 0.003922
0.882353 0.211765 0.003922
0.925490 0.207843 0.003922
0.968627 0.200000 0.003922
0.992157 0.196078 0.000000
1.000000 0.192157 0.000000
1.000000 0.188235 0.000000
1.000000 0.164706 0.007843
0.003922 0.243137 0.007843
0.007843 0.243137 0.000000
0.062745 0.243137 0.000000
0.109804 0.250980 0.007843
0.156863 0.243137 0.000000
0.200000 0.243137 0.007843
0.247059 0.247059 0.011765
0.290196 0.243137 0.007843
0.329412 0.247059 0.000000
0.372549 0.250980 0.000000
0.423529 0.254902 0.000000
0.490196 0.258824 0.000000
0.549020 0.262745 0.003922
0.603922 0.262745 0.000000
0.658824 0.270588 0.003922
0.729412 0.270588 0.000000
0.776471 0.270588 0.007843
0.831373 0.270588 0.003922
0.886275 0.262745 0.007843
0.937255 0.258824 0.007843
0.972549 0.254902 0.000000
1.000000 0.250980 0.003922
0.996078 0.247059 0.000000
0.992157 0.243137 0.000000
1.000000 0.231373 0.011765
0.003922 0.286275 0.000000
0.003922 0.286275 0.000000
0.047059 0.290196 0.000000
0.101961 0.290196 0.000000
0.156863 0.286275 0.007843
0.203922 0.286275 0.015686
0.243137 0.290196 0.000000
0.305882 0.290196 0.003922
0.345098 0.290196 0.003922
0.384314 0.290196 0.000000
0.443137 0.294118 0.007843
0.494118 0.301961 0.003922
0.560784 0.301961 0.003922
0.603922 0.309804 0.000000
0.658824 0.321569 0.000000
0.713725 0.317647 0.000000
0.768627 0.317647 0.000000
0.815686 0.321569 0.000000
0.866667 0.313725 0.000000
0.917647 0.313725 0.007843
0.964706 0.301961 0.000000
1.000000 0.294118 0.000000
1.000000 0.298039 0.000000
1.000000 0.290196 0.000000
1.000000 0.286275 0.007843
0.000000 0.337255 0.000000
0.000000 0.333333 0.000000
0.015686 0.337255 0.003922
0.090196 0.341176 0.003922
0.145098 0.333333 0.000000
0.188235 0.337255 0.003922
0.247059 0.333333 0.000000
0.286275 0.341176 0.000000
0.341176 0.341176 0.003922
0.388235 0.345098 0.000000
0.443137 0.349020 0.003922
0.494118 0.349020 0.000000
0.552941 0.352941 0.003922
0.611765 0.364706 0.007843
0.654902 0.360784 0.000000
0.713725 0.364706 0.003922
0.760784 0.368627 0.000000
0.815686 0.364706 0.000000
0.858824 0.364706 0.000000
0.913725 0.364706 0.000000
0.956863 0.360784 0.000000
1.000000 0.352941 0.003922
0.996078 0.341176 0.000000
1.000000 0.341176 0.015686
0.992157 0.337255 0.000000
0.007843 0.388235 0.007843
0.000000 0.392157 0.000000
0.000000 0.396078 0.000000
0.074510 0.388235 0.000000
0.145098 0.400000 0.000000
0.196078 0.396078 0.000000
0.235294 0.396078 0.000000
0.309804 0.392157 0.000000
0.349020 0.396078 0.011765
0.388235 0.388235 0.011765
0.435294 0.384314 0.007843
0.501961 0.392157 0.003922
0.545098 0.396078 0.000000
0.596078 0.403922 0.003922
0.654902 0.407843 0.003922
0.713725 0.411765 0.003922
0.756863 0.407843 0.000000
0.807843 0.411765 0.000000
0.858824 0.411765 0.000000
0.913725 0.411765 0.000000
0.952941 0.411765 0.000000
0.988235 0.403922 0.003922
0.992157 0.400000 0.003922
1.000000 0.392157 0.007843
1.000000 0.380392 0.007843
0.000000 0.470588 0.000000
0.003922 0.466667 0.000000
0.003922 0.462745 0.003922
0.058824 0.462745 0.000000
0.141176 0.466667 0.003922
0.200000 0.466667 0.000000
0.266667 0.458824 0.000000
0.305882 0.466667 0.003922
0.352941 0.458824 0.000000
0.407843 0.458824 0.000000
