lut_library_archive/removed_20260629/50个风景lut/50个风景lut19.cube
# 版权归凌孟成所有，侵权必究
TITLE "Jungle LUT #19"
#LUT size
LUT_3D_SIZE 5
#LUT data points
0.000000 0.003922 0.000000
0.149020 0.000000 0.000000
0.356863 0.000000 0.000000
0.643137 0.000000 0.000000
0.968627 0.000000 0.000000
0.000000 0.152941 0.003922
0.160784 0.152941 0.003922
0.360784 0.168627 0.039216
0.650980 0.196078 0.003922
0.980392 0.200000 0.000000
0.000000 0.403922 0.000000
0.164706 0.407843 0.003922
0.403922 0.407843 0.000000
0.674510 0.435294 0.000000
0.968627 0.478431 0.094118
0.007843 0.717647 0.000000
0.039216 0.721569 0.000000
0.447059 0.721569 0.000000
0.717647 0.717647 0.000000
0.992157 0.725490 0.000000
0.000000 1.000000 0.003922
0.003922 0.992157 0.000000
0.427451 0.996078 0.000000
0.737255 1.000000 0.000000
1.000000 1.000000 0.000000
0.000000 0.000000 0.180392
0.152941 0.000000 0.176471
0.368627 0.000000 0.211765
0.666667 0.000000 0.203922
0.992157 0.000000 0.180392
0.000000 0.149020 0.188235
0.152941 0.145098 0.196078
0.392157 0.133333 0.180392
0.666667 0.086275 0.188235
0.984314 0.039216 0.176471
0.000000 0.403922 0.176471
0.054902 0.407843 0.168627
0.403922 0.403922 0.160784
0.670588 0.427451 0.227451
0.968627 0.458824 0.231373
0.000000 0.713725 0.015686
0.000000 0.725490 0.023529
0.419608 0.709804 0.000000
0.721569 0.721569 0.000000
1.000000 0.725490 0.176471
0.000000 1.000000 0.000000
0.000000 1.000000 0.000000
0.403922 1.000000 0.000000
0.725490 1.000000 0.000000
1.000000 1.000000 0.000000
0.000000 0.000000 0.470588
0.196078 0.000000 0.462745
0.419608 0.007843 0.474510
0.682353 0.000000 0.490196
1.000000 0.000000 0.509804
0.000000 0.137255 0.482353
0.125490 0.121569 0.486275
0.411765 0.078431 0.482353
0.686275 0.000000 0.490196
0.996078 0.000000 0.486275
0.000000 0.407843 0.490196
0.003922 0.403922 0.482353
0.396078 0.388235 0.478431
0.713725 0.384314 0.478431
1.000000 0.392157 0.478431
0.000000 0.721569 0.470588
0.000000 0.725490 0.462745
0.360784 0.725490 0.447059
0.725490 0.713725 0.443137
1.000000 0.741176 0.545098
0.000000 1.000000 0.400000
0.003922 1.000000 0.403922
0.360784 0.996078 0.388235
0.713725 1.000000 0.403922
1.000000 0.996078 0.392157
0.003922 0.000000 0.768627
0.188235 0.000000 0.776471
0.450980 0.003922 0.784314
0.705882 0.003922 0.780392
0.996078 0.007843 0.803922
0.003922 0.086275 0.772549
0.058824 0.058824 0.772549
0.423529 0.000000 0.784314
0.698039 0.000000 0.776471
1.000000 0.000000 0.807843
0.000000 0.388235 0.784314
0.000000 0.376471 0.784314
0.360784 0.364706 0.788235
0.701961 0.337255 0.788235
1.000000 0.309804 0.796078
0.003922 0.694118 0.784314
0.000000 0.701961 0.792157
0.329412 0.701961 0.788235
0.717647 0.705882 0.788235
1.000000 0.725490 0.768627
0.000000 1.000000 0.764706
0.000000 0.992157 0.760784
0.294118 1.000000 0.745098
0.733333 1.000000 0.760784
1.000000 0.996078 0.756863
0.000000 0.000000 0.996078
0.137255 0.000000 1.000000
0.431373 0.000000 1.000000
0.690196 0.000000 0.992157
0.968627 0.000000 1.000000
0.003922 0.003922 1.000000
0.003922 0.003922 1.000000
0.415686 0.000000 1.000000
0.682353 0.003922 1.000000
0.980392 0.000000 1.000000
0.000000 0.349020 1.000000
0.000000 0.341176 0.992157
0.325490 0.333333 1.000000
0.670588 0.317647 1.000000
0.988235 0.282353 1.000000
0.003922 0.670588 1.000000
0.007843 0.674510 1.000000
0.388235 0.682353 1.000000
0.686275 0.678431 1.000000
0.996078 0.686275 1.000000
0.011765 0.937255 1.000000
0.129412 0.949020 1.000000
0.501961 0.956863 1.000000
0.815686 0.972549 1.000000
1.000000 1.000000 0.992157
