lut_library_archive/removed_20260629/50个风景lut/50个风景lut46.cube
# 版权归凌孟成所有，侵权必究
TITLE "Jungle LUT #46"
#LUT size
LUT_3D_SIZE 25
#LUT data points
0.003922 0.000000 0.000000
0.000000 0.000000 0.000000
0.054902 0.000000 0.000000
0.101961 0.000000 0.003922
0.141176 0.000000 0.000000
0.192157 0.003922 0.003922
0.231373 0.000000 0.000000
0.270588 0.000000 0.000000
0.325490 0.000000 0.000000
0.368627 0.000000 0.003922
0.415686 0.003922 0.000000
0.462745 0.000000 0.000000
0.509804 0.000000 0.000000
0.552941 0.000000 0.000000
0.603922 0.000000 0.000000
0.650980 0.003922 0.000000
0.705882 0.000000 0.003922
0.749020 0.000000 0.000000
0.792157 0.003922 0.000000
0.847059 0.003922 0.003922
0.890196 0.000000 0.003922
0.941176 0.003922 0.000000
0.996078 0.000000 0.007843
0.996078 0.000000 0.000000
0.996078 0.000000 0.000000
0.011765 0.015686 0.000000
0.011765 0.015686 0.000000
0.047059 0.015686 0.003922
0.098039 0.015686 0.000000
0.141176 0.007843 0.000000
0.184314 0.007843 0.000000
0.227451 0.011765 0.000000
0.274510 0.007843 0.003922
0.317647 0.003922 0.000000
0.368627 0.000000 0.000000
0.415686 0.003922 0.000000
0.462745 0.000000 0.000000
0.505882 0.000000 0.000000
0.552941 0.000000 0.000000
0.603922 0.000000 0.000000
0.650980 0.003922 0.000000
0.698039 0.003922 0.003922
0.745098 0.000000 0.000000
0.800000 0.000000 0.003922
0.847059 0.003922 0.003922
0.890196 0.000000 0.003922
0.945098 0.000000 0.000000
0.996078 0.000000 0.007843
0.996078 0.000000 0.000000
0.996078 0.000000 0.000000
0.000000 0.054902 0.003922
0.011765 0.062745 0.000000
0.062745 0.054902 0.003922
0.105882 0.058824 0.003922
0.137255 0.050980 0.000000
0.188235 0.058824 0.000000
0.231373 0.050980 0.000000
0.278431 0.054902 0.000000
0.325490 0.054902 0.000000
0.372549 0.047059 0.000000
0.411765 0.043137 0.000000
0.462745 0.039216 0.000000
0.505882 0.035294 0.000000
0.552941 0.027451 0.000000
0.603922 0.011765 0.007843
0.647059 0.003922 0.000000
0.694118 0.000000 0.000000
0.745098 0.003922 0.000000
0.800000 0.000000 0.003922
0.843137 0.000000 0.000000
0.890196 0.000000 0.000000
0.937255 0.000000 0.000000
0.972549 0.003922 0.003922
0.996078 0.003922 0.000000
0.996078 0.003922 0.000000
0.003922 0.098039 0.003922
0.019608 0.098039 0.000000
0.050980 0.101961 0.000000
0.113725 0.094118 0.007843
0.145098 0.098039 0.003922
0.188235 0.101961 0.007843
0.235294 0.101961 0.000000
0.278431 0.098039 0.003922
0.321569 0.098039 0.000000
0.372549 0.098039 0.000000
0.419608 0.098039 0.003922
0.466667 0.098039 0.000000
0.505882 0.090196 0.000000
0.560784 0.090196 0.003922
0.603922 0.086275 0.000000
0.654902 0.082353 0.000000
0.694118 0.074510 0.000000
0.749020 0.074510 0.003922
0.788235 0.066667 0.000000
0.839216 0.062745 0.000000
0.890196 0.054902 0.000000
0.925490 0.043137 0.000000
0.980392 0.039216 0.003922
1.000000 0.027451 0.000000
1.000000 0.027451 0.000000
0.003922 0.137255 0.003922
0.023529 0.145098 0.011765
0.058824 0.145098 0.000000
0.101961 0.141176 0.000000
0.141176 0.141176 0.000000
0.196078 0.141176 0.000000
0.243137 0.145098 0.000000
0.278431 0.145098 0.000000
0.325490 0.149020 0.000000
0.364706 0.149020 0.000000
0.411765 0.145098 0.000000
0.466667 0.145098 0.000000
0.509804 0.141176 0.000000
0.552941 0.137255 0.003922
0.600000 0.137255 0.000000
0.650980 0.141176 0.000000
0.698039 0.133333 0.000000
0.745098 0.133333 0.003922
0.796078 0.129412 0.000000
0.839216 0.129412 0.000000
0.894118 0.125490 0.000000
0.933333 0.125490 0.000000
0.980392 0.125490 0.000000
1.000000 0.117647 0.000000
1.000000 0.117647 0.000000
0.000000 0.188235 0.000000
0.023529 0.188235 0.007843
0.066667 0.192157 0.007843
0.117647 0.192157 0.003922
0.156863 0.188235 0.000000
0.192157 0.192157 0.000000
0.235294 0.188235 0.000000
0.282353 0.188235 0.000000
0.333333 0.192157 0.000000
0.376471 0.196078 0.003922
0.423529 0.200000 0.000000
0.470588 0.196078 0.000000
0.521569 0.196078 0.000000
0.560784 0.196078 0.000000
0.611765 0.192157 0.000000
0.658824 0.200000 0.000000
0.709804 0.192157 0.003922
0.752941 0.188235 0.003922
0.800000 0.188235 0.000000
0.847059 0.188235 0.003922
0.890196 0.188235 0.000000
0.941176 0.188235 0.003922
0.984314 0.188235 0.000000
0.996078 0.188235 0.000000
1.000000 0.188235 0.000000
0.000000 0.235294 0.000000
0.019608 0.231373 0.000000
0.070588 0.231373 0.003922
0.117647 0.227451 0.000000
0.156863 0.231373 0.003922
0.196078 0.235294 0.000000
0.247059 0.239216 0.007843
0.282353 0.235294 0.000000
0.333333 0.239216 0.003922
0.376471 0.235294 0.000000
0.427451 0.235294 0.003922
0.474510 0.239216 0.003922
0.513725 0.239216 0.003922
0.568627 0.239216 0.000000
0.611765 0.243137 0.003922
0.662745 0.239216 0.000000
0.709804 0.239216 0.000000
0.756863 0.243137 0.000000
0.803922 0.239216 0.000000
0.850980 0.243137 0.000000
0.898039 0.243137 0.000000
0.945098 0.239216 0.000000
0.992157 0.243137 0.000000
1.000000 0.239216 0.000000
0.996078 0.235294 0.000000
0.003922 0.278431 0.003922
0.000000 0.282353 0.000000
0.066667 0.274510 0.000000
0.113725 0.278431 0.000000
0.152941 0.282353 0.000000
0.196078 0.282353 0.000000
0.239216 0.278431 0.000000
0.290196 0.278431 0.007843
0.333333 0.286275 0.003922
0.384314 0.278431 0.000000
0.419608 0.286275 0.003922
0.470588 0.290196 0.003922
0.517647 0.290196 0.000000
0.560784 0.286275 0.003922
0.611765 0.290196 0.000000
0.658824 0.294118 0.000000
0.705882 0.290196 0.000000
0.752941 0.290196 0.000000
0.796078 0.290196 0.000000
0.847059 0.290196 0.000000
0.894118 0.286275 0.000000
0.945098 0.286275 0.000000
0.992157 0.286275 0.007843
1.000000 0.294118 0.000000
0.996078 0.282353 0.003922
0.007843 0.325490 0.007843
0.000000 0.321569 0.000000
0.054902 0.325490 0.000000
0.086275 0.329412 0.000000
0.156863 0.329412 0.000000
0.200000 0.325490 0.000000
0.243137 0.329412 0.000000
0.294118 0.333333 0.000000
0.333333 0.329412 0.003922
0.372549 0.333333 0.000000
0.419608 0.333333 0.000000
0.474510 0.333333 0.003922
0.529412 0.333333 0.000000
0.568627 0.333333 0.003922
0.611765 0.337255 0.003922
0.662745 0.329412 0.003922
0.709804 0.333333 0.000000
0.756863 0.333333 0.007843
0.796078 0.337255 0.000000
0.850980 0.333333 0.000000
0.894118 0.333333 0.000000
0.949020 0.333333 0.000000
0.988235 0.337255 0.000000
0.996078 0.341176 0.003922
1.000000 0.333333 0.000000
0.000000 0.372549 0.000000
0.000000 0.376471 0.000000
0.027451 0.380392 0.000000
0.086275 0.376471 0.000000
0.145098 0.380392 0.003922
0.196078 0.380392 0.000000
0.239216 0.388235 0.000000
0.290196 0.384314 0.000000
0.349020 0.376471 0.000000
0.388235 0.376471 0.003922
0.427451 0.376471 0.000000
0.478431 0.376471 0.003922
0.529412 0.376471 0.003922
0.568627 0.380392 0.003922
0.615686 0.380392 0.003922
0.658824 0.384314 0.007843
0.701961 0.376471 0.000000
0.749020 0.380392 0.003922
0.796078 0.380392 0.003922
0.839216 0.384314 0.003922
0.894118 0.388235 0.000000
0.941176 0.388235 0.003922
0.988235 0.384314 0.000000
1.000000 0.384314 0.000000
0.996078 0.388235 0.000000
0.000000 0.435294 0.003922
0.003922 0.431373 0.000000
0.007843 0.439216 0.000000
0.074510 0.443137 0.000000
0.160784 0.431373 0.003922
0.192157 0.435294 0.000000
0.247059 0.435294 0.000000
0.305882 0.431373 0.000000
0.341176 0.435294 0.003922
0.388235 0.435294 0.003922
0.439216 0.439216 0.003922
0.478431 0.431373 0.000000
0.525490 0.431373 0.000000
0.576471 0.435294 0.003922
0.619608 0.435294 0.000000
0.670588 0.435294 0.003922
0.717647 0.435294 0.000000
0.760784 0.431373 0.003922
0.811765 0.435294 0.000000
0.858824 0.435294 0.007843
0.901961 0.435294 0.003922
0.945098 0.439216 0.000000
0.992157 0.435294 0.003922
1.000000 0.439216 0.000000
0.996078 0.439216 0.007843
0.000000 0.478431 0.000000
0.003922 0.478431 0.000000
0.000000 0.474510 0.000000
0.066667 0.482353 0.000000
0.133333 0.478431 0.000000
0.196078 0.490196 0.000000
0.247059 0.478431 0.007843
0.294118 0.482353 0.003922
0.341176 0.482353 0.000000
0.388235 0.482353 0.003922
0.439216 0.486275 0.000000
0.482353 0.482353 0.003922
0.529412 0.482353 0.003922
0.576471 0.482353 0.000000
0.623529 0.482353 0.000000
0.666667 0.478431 0.000000
0.713725 0.478431 0.000000
0.760784 0.478431 0.003922
0.803922 0.486275 0.003922
0.850980 0.482353 0.000000
0.898039 0.482353 0.003922
0.945098 0.486275 0.003922
0.992157 0.482353 0.003922
1.000000 0.474510 0.000000
0.996078 0.490196 0.000000
0.000000 0.517647 0.000000
0.000000 0.529412 0.003922
0.000000 0.529412 0.000000
0.054902 0.525490 0.000000
0.125490 0.525490 0.000000
0.196078 0.521569 0.000000
0.243137 0.529412 0.000000
0.290196 0.525490 0.000000
0.341176 0.529412 0.000000
0.392157 0.521569 0.000000
0.435294 0.525490 0.000000
0.482353 0.521569 0.000000
0.525490 0.525490 0.000000
0.576471 0.521569 0.000000
0.619608 0.525490 0.000000
0.666667 0.521569 0.000000
0.717647 0.529412 0.003922
0.756863 0.521569 0.000000
0.811765 0.529412 0.003922
0.850980 0.521569 0.000000
0.905882 0.529412 0.003922
0.949020 0.525490 0.000000
0.992157 0.525490 0.000000
1.000000 0.517647 0.000000
0.988235 0.545098 0.003922
0.000000 0.576471 0.000000
0.011765 0.572549 0.007843
0.000000 0.568627 0.000000
0.035294 0.572549 0.007843
0.129412 0.576471 0.000000
0.188235 0.572549 0.003922
0.239216 0.572549 0.000000
0.290196 0.572549 0.000000
0.345098 0.572549 0.000000
0.396078 0.576471 0.000000
0.439216 0.572549 0.000000
0.482353 0.568627 0.000000
0.521569 0.568627 0.000000
0.580392 0.572549 0.003922
0.619608 0.572549 0.000000
0.670588 0.568627 0.000000
0.713725 0.572549 0.000000
0.760784 0.572549 0.000000
0.807843 0.568627 0.007843
0.850980 0.568627 0.000000
0.894118 0.572549 0.003922
0.937255 0.576471 0.000000
0.988235 0.572549 0.000000
0.996078 0.572549 0.007843
0.996078 0.572549 0.003922
0.000000 0.623529 0.003922
0.000000 0.615686 0.000000
0.000000 0.611765 0.007843
0.031373 0.615686 0.003922
0.113725 0.623529 0.003922
0.176471 0.623529 0.003922
0.239216 0.619608 0.000000
0.290196 0.619608 0.000000
0.341176 0.623529 0.000000
0.380392 0.623529 0.000000
0.427451 0.623529 0.000000
0.482353 0.623529 0.003922
0.529412 0.623529 0.003922
0.576471 0.619608 0.000000
0.619608 0.619608 0.000000
0.666667 0.615686 0.000000
0.709804 0.615686 0.000000
0.752941 0.619608 0.000000
0.796078 0.615686 0.000000
0.847059 0.619608 0.000000
0.905882 0.619608 0.003922
0.945098 0.623529 0.000000
0.988235 0.619608 0.000000
1.000000 0.619608 0.003922
1.000000 0.619608 0.003922
0.000000 0.682353 0.000000
0.007843 0.682353 0.000000
0.000000 0.686275 0.000000
0.027451 0.686275 0.000000
0.113725 0.678431 0.000000
0.184314 0.678431 0.003922
0.239216 0.678431 0.000000
0.294118 0.678431 0.000000
0.349020 0.678431 0.000000
0.396078 0.678431 0.003922
0.443137 0.678431 0.000000
0.486275 0.674510 0.000000
0.541176 0.674510 0.000000
0.580392 0.674510 0.000000
0.631373 0.670588 0.000000
0.678431 0.678431 0.000000
0.721569 0.674510 0.000000
0.764706 0.670588 0.000000
0.815686 0.674510 0.000000
0.858824 0.670588 0.000000
0.905882 0.666667 0.003922
0.952941 0.670588 0.000000
0.992157 0.670588 0.000000
0.996078 0.670588 0.000000
0.996078 0.666667 0.007843
0.007843 0.717647 0.000000
0.000000 0.717647 0.000000
0.000000 0.721569 0.000000
0.000000 0.721569 0.000000
0.113725 0.713725 0.011765
0.180392 0.721569 0.003922
0.227451 0.733333 0.000000
0.294118 0.725490 0.000000
0.337255 0.721569 0.000000
0.392157 0.721569 0.000000
0.443137 0.721569 0.000000
0.494118 0.721569 0.003922
0.541176 0.721569 0.000000
0.584314 0.717647 0.000000
0.631373 0.713725 0.000000
0.678431 0.717647 0.000000
0.721569 0.721569 0.007843
0.772549 0.717647 0.000000
0.815686 0.721569 0.000000
0.858824 0.717647 0.000000
0.905882 0.717647 0.000000
0.952941 0.717647 0.000000
0.996078 0.713725 0.000000
0.996078 0.721569 0.011765
1.000000 0.705882 0.000000
0.007843 0.764706 0.007843
0.003922 0.772549 0.003922
0.007843 0.764706 0.007843
0.000000 0.772549 0.000000
0.094118 0.772549 0.003922
0.176471 0.772549 0.000000
0.235294 0.768627 0.000000
0.286275 0.768627 0.000000
0.337255 0.768627 0.003922
0.388235 0.764706 0.000000
0.431373 0.768627 0.000000
0.482353 0.764706 0.000000
0.529412 0.764706 0.000000
0.576471 0.764706 0.000000
0.623529 0.764706 0.000000
0.674510 0.764706 0.003922
0.717647 0.764706 0.000000
0.764706 0.764706 0.000000
0.807843 0.756863 0.000000
0.858824 0.764706 0.003922
0.905882 0.764706 0.000000
0.952941 0.764706 0.000000
0.992157 0.760784 0.007843
0.992157 0.756863 0.000000
1.000000 0.760784 0.000000
0.007843 0.803922 0.000000
0.000000 0.815686 0.003922
0.000000 0.815686 0.000000
0.000000 0.815686 0.000000
0.078431 0.815686 0.000000
0.164706 0.811765 0.000000
0.219608 0.815686 0.003922
0.274510 0.815686 0.000000
0.325490 0.811765 0.000000
0.388235 0.819608 0.000000
0.431373 0.815686 0.003922
0.478431 0.811765 0.000000
0.525490 0.815686 0.003922
0.580392 0.811765 0.003922
0.623529 0.811765 0.003922
0.674510 0.811765 0.000000
0.717647 0.811765 0.000000
0.764706 0.811765 0.003922
0.811765 0.811765 0.000000
0.854902 0.807843 0.000000
0.901961 0.807843 0.000000
0.945098 0.807843 0.000000
1.000000 0.800000 0.000000
1.000000 0.803922 0.000000
1.000000 0.800000 0.000000
0.000000 0.862745 0.000000
0.003922 0.854902 0.000000
0.000000 0.858824 0.007843
0.007843 0.854902 0.003922
0.066667 0.854902 0.000000
0.152941 0.854902 0.000000
0.227451 0.850980 0.003922
0.274510 0.858824 0.003922
0.333333 0.858824 0.000000
0.384314 0.850980 0.000000
0.435294 0.854902 0.000000
0.474510 0.854902 0.000000
0.525490 0.854902 0.000000
0.564706 0.854902 0.000000
0.619608 0.854902 0.000000
0.670588 0.854902 0.000000
0.713725 0.850980 0.003922
0.756863 0.847059 0.003922
0.807843 0.850980 0.000000
0.854902 0.854902 0.000000
0.901961 0.850980 0.000000
0.945098 0.854902 0.000000
0.992157 0.858824 0.000000
1.000000 0.850980 0.000000
1.000000 0.850980 0.000000
0.000000 0.913725 0.000000
0.000000 0.913725 0.007843
0.000000 0.917647 0.007843
0.000000 0.913725 0.000000
0.058824 0.909804 0.000000
0.152941 0.909804 0.003922
0.215686 0.909804 0.000000
0.274510 0.913725 0.000000
0.333333 0.905882 0.000000
0.384314 0.905882 0.000000
0.431373 0.909804 0.003922
0.482353 0.909804 0.003922
0.529412 0.905882 0.000000
0.572549 0.909804 0.003922
0.623529 0.905882 0.000000
0.666667 0.909804 0.003922
0.713725 0.905882 0.000000
0.764706 0.905882 0.003922
0.803922 0.905882 0.000000
0.858824 0.905882 0.003922
0.905882 0.901961 0.000000
0.952941 0.901961 0.003922
0.996078 0.901961 0.000000
1.000000 0.898039 0.000000
1.000000 0.898039 0.000000
0.000000 0.945098 0.000000
0.015686 0.952941 0.000000
0.000000 0.952941 0.003922
0.007843 0.952941 0.000000
0.019608 0.956863 0.003922
0.133333 0.952941 0.000000
0.215686 0.949020 0.000000
0.270588 0.949020 0.000000
0.321569 0.952941 0.000000
0.372549 0.949020 0.003922
0.423529 0.952941 0.000000
0.478431 0.952941 0.007843
0.521569 0.949020 0.000000
0.568627 0.952941 0.000000
0.619608 0.952941 0.000000
0.662745 0.952941 0.000000
0.713725 0.952941 0.000000
0.760784 0.952941 0.003922
0.803922 0.952941 0.000000
0.850980 0.949020 0.000000
0.898039 0.952941 0.000000
0.949020 0.945098 0.000000
0.988235 0.949020 0.000000
0.992157 0.945098 0.000000
1.000000 0.952941 0.000000
0.003922 0.988235 0.000000
0.003922 0.996078 0.000000
0.003922 0.992157 0.007843
0.007843 0.988235 0.007843
0.015686 0.988235 0.000000
0.125490 0.996078 0.003922
0.207843 0.996078 0.000000
0.262745 0.996078 0.003922
0.317647 0.996078 0.000000
0.368627 0.992157 0.000000
0.419608 0.996078 0.000000
0.474510 0.992157 0.003922
0.517647 0.992157 0.000000
0.572549 0.992157 0.000000
0.619608 0.992157 0.003922
0.666667 0.988235 0.000000
0.713725 0.992157 0.003922
0.752941 0.984314 0.000000
0.811765 0.996078 0.007843
0.850980 0.988235 0.000000
0.901961 0.992157 0.003922
0.941176 0.984314 0.000000
0.996078 0.984314 0.000000
1.000000 0.984314 0.003922
1.000000 0.988235 0.011765
0.000000 1.000000 0.000000
0.007843 0.996078 0.003922
0.003922 0.992157 0.000000
0.007843 0.996078 0.003922
0.000000 1.000000 0.003922
0.113725 1.000000 0.000000
0.184314 1.000000 0.000000
0.250980 1.000000 0.000000
0.309804 0.996078 0.000000
0.372549 1.000000 0.000000
0.427451 0.996078 0.003922
0.474510 0.992157 0.003922
0.513725 0.996078 0.000000
0.568627 1.000000 0.000000
0.607843 1.000000 0.000000
0.662745 0.996078 0.000000
0.705882 1.000000 0.000000
0.752941 1.000000 0.003922
0.800000 1.000000 0.007843
0.847059 1.000000 0.000000
0.890196 0.996078 0.003922
0.925490 1.000000 0.003922
0.972549 0.996078 0.000000
1.000000 1.000000 0.000000
1.000000 0.996078 0.015686
0.000000 1.000000 0.000000
0.003922 0.992157 0.007843
0.000000 1.000000 0.003922
0.003922 0.996078 0.000000
0.011765 1.000000 0.000000
0.117647 1.000000 0.000000
0.203922 0.996078 0.007843
0.254902 1.000000 0.007843
0.305882 1.000000 0.000000
0.360784 1.000000 0.000000
0.411765 0.996078 0.000000
0.462745 1.000000 0.003922
0.517647 1.000000 0.000000
0.556863 1.000000 0.000000
0.600000 0.996078 0.000000
0.643137 1.000000 0.000000
0.686275 1.000000 0.000000
0.725490 1.000000 0.000000
0.768627 1.000000 0.000000
0.815686 1.000000 0.000000
0.854902 1.000000 0.000000
0.898039 1.000000 0.000000
0.949020 1.000000 0.000000
0.976471 1.000000 0.000000
0.992157 1.000000 0.003922
0.003922 0.000000 0.007843
0.015686 0.000000 0.003922
0.058824 0.000000 0.011765
0.098039 0.003922 0.011765
0.149020 0.000000 0.007843
0.196078 0.000000 0.011765
0.235294 0.000000 0.007843
0.278431 0.003922 0.007843
0.321569 0.003922 0.000000
0.360784 0.003922 0.000000
0.415686 0.003922 0.000000
0.462745 0.000000 0.000000
0.509804 0.000000 0.000000
0.556863 0.003922 0.000000
0.603922 0.000000 0.000000
0.650980 0.003922 0.000000
0.698039 0.003922 0.000000
0.745098 0.003922 0.000000
0.792157 0.003922 0.000000
0.843137 0.000000 0.000000
0.890196 0.000000 0.003922
0.941176 0.003922 0.000000
0.984314 0.000000 0.003922
0.996078 0.000000 0.000000
0.996078 0.000000 0.007843
0.007843 0.015686 0.003922
0.011765 0.011765 0.011765
0.070588 0.015686 0.011765
0.098039 0.015686 0.011765
0.149020 0.015686 0.011765
0.188235 0.007843 0.015686
0.231373 0.011765 0.015686
0.278431 0.003922 0.003922
0.321569 0.003922 0.000000
0.372549 0.003922 0.003922
0.415686 0.003922 0.000000
0.462745 0.000000 0.000000
0.505882 0.003922 0.000000
0.556863 0.003922 0.000000
0.596078 0.003922 0.000000
0.650980 0.003922 0.000000
0.698039 0.003922 0.003922
0.749020 0.000000 0.000000
0.800000 0.000000 0.003922
0.843137 0.000000 0.000000
0.890196 0.000000 0.003922
0.941176 0.003922 0.000000
0.984314 0.000000 0.003922
1.000000 0.003922 0.011765
0.996078 0.000000 0.007843
0.007843 0.054902 0.015686
0.011765 0.058824 0.003922
0.070588 0.054902 0.011765
0.098039 0.058824 0.011765
0.145098 0.058824 0.007843
0.188235 0.062745 0.011765
0.227451 0.054902 0.003922
0.274510 0.054902 0.003922
0.325490 0.054902 0.003922
0.376471 0.047059 0.003922
0.419608 0.039216 0.003922
0.466667 0.035294 0.000000
0.509804 0.031373 0.000000
0.552941 0.027451 0.000000
0.607843 0.003922 0.003922
0.650980 0.003922 0.000000
0.701961 0.000000 0.000000
0.749020 0.003922 0.003922
0.800000 0.000000 0.003922
0.847059 0.003922 0.003922
0.890196 0.000000 0.003922
0.941176 0.000000 0.003922
0.988235 0.003922 0.000000
0.988235 0.003922 0.000000
0.996078 0.000000 0.000000
0.000000 0.098039 0.011765
0.027451 0.098039 0.003922
0.062745 0.101961 0.007843
0.105882 0.098039 0.011765
0.149020 0.101961 0.007843
0.188235 0.101961 0.011765
0.239216 0.105882 0.007843
0.282353 0.101961 0.007843
0.321569 0.098039 0.000000
0.372549 0.098039 0.000000
0.415686 0.098039 0.000000
0.462745 0.094118 0.000000
0.513725 0.094118 0.000000
0.556863 0.086275 0.000000
0.603922 0.078431 0.000000
0.654902 0.074510 0.000000
0.698039 0.066667 0.000000
0.741176 0.054902 0.000000
0.792157 0.050980 0.000000
0.843137 0.047059 0.000000
0.886275 0.043137 0.000000
0.941176 0.031373 0.000000
0.980392 0.019608 0.007843
0.996078 0.019608 0.003922
0.992157 0.011765 0.000000
0.000000 0.149020 0.007843
0.023529 0.141176 0.007843
0.062745 0.141176 0.000000
0.113725 0.141176 0.007843
0.149020 0.137255 0.000000
0.200000 0.145098 0.000000
0.235294 0.149020 0.000000
0.274510 0.149020 0.000000
0.321569 0.145098 0.000000
0.368627 0.141176 0.000000
0.419608 0.145098 0.003922
0.474510 0.145098 0.003922
0.509804 0.141176 0.003922
0.552941 0.137255 0.003922
0.603922 0.133333 0.000000
0.650980 0.133333 0.003922
0.701961 0.129412 0.000000
0.749020 0.125490 0.000000
0.792157 0.125490 0.000000
0.839216 0.125490 0.000000
0.898039 0.117647 0.003922
0.945098 0.117647 0.003922
0.984314 0.121569 0.003922
1.000000 0.113725 0.000000
0.996078 0.109804 0.000000
0.000000 0.188235 0.000000
0.023529 0.188235 0.000000
0.074510 0.188235 0.007843
0.117647 0.188235 0.000000
0.152941 0.192157 0.000000
0.192157 0.192157 0.000000
0.235294 0.188235 0.000000
0.282353 0.196078 0.003922
0.333333 0.192157 0.003922
0.380392 0.192157 0.003922
0.427451 0.192157 0.003922
0.470588 0.188235 0.000000
0.513725 0.184314 0.000000
0.568627 0.192157 0.003922
0.611765 0.192157 0.000000
0.662745 0.192157 0.003922
0.705882 0.188235 0.000000
0.749020 0.184314 0.000000
0.800000 0.188235 0.000000
0.847059 0.184314 0.000000
0.894118 0.180392 0.000000
0.941176 0.180392 0.000000
0.988235 0.180392 0.000000
0.996078 0.180392 0.000000
1.000000 0.188235 0.000000
0.000000 0.231373 0.000000
0.011765 0.239216 0.000000
0.062745 0.231373 0.011765
0.113725 0.235294 0.000000
0.152941 0.227451 0.007843
0.200000 0.231373 0.000000
0.243137 0.235294 0.011765
0.290196 0.231373 0.000000
0.329412 0.235294 0.000000
0.384314 0.231373 0.000000
0.423529 0.231373 0.000000
0.470588 0.235294 0.000000
0.513725 0.231373 0.000000
0.564706 0.235294 0.000000
0.611765 0.235294 0.000000
0.662745 0.239216 0.003922
0.709804 0.239216 0.003922
0.760784 0.235294 0.003922
0.803922 0.239216 0.003922
0.847059 0.235294 0.003922
0.894118 0.239216 0.003922
0.945098 0.231373 0.003922
0.988235 0.239216 0.003922
0.996078 0.235294 0.000000
1.000000 0.231373 0.000000
0.000000 0.278431 0.000000
0.003922 0.286275 0.000000
0.050980 0.274510 0.000000
0.113725 0.282353 0.000000
0.152941 0.282353 0.000000
0.200000 0.278431 0.000000
0.243137 0.282353 0.007843
0.290196 0.278431 0.007843
0.333333 0.286275 0.003922
0.384314 0.278431 0.000000
0.427451 0.282353 0.003922
0.470588 0.282353 0.000000
0.517647 0.286275 0.000000
0.568627 0.286275 0.000000
0.611765 0.290196 0.000000
0.654902 0.286275 0.003922
0.705882 0.290196 0.000000
0.749020 0.286275 0.000000
0.800000 0.294118 0.000000
0.843137 0.286275 0.000000
0.890196 0.290196 0.000000
0.937255 0.290196 0.000000
0.980392 0.282353 0.000000
1.000000 0.286275 0.000000
1.000000 0.286275 0.000000
0.003922 0.321569 0.003922
0.000000 0.325490 0.003922
0.039216 0.329412 0.000000
0.098039 0.329412 0.000000
0.152941 0.329412 0.003922
0.196078 0.325490 0.007843
0.243137 0.329412 0.003922
0.294118 0.329412 0.003922
0.337255 0.329412 0.003922
0.380392 0.333333 0.000000
0.431373 0.333333 0.003922
0.474510 0.333333 0.003922
0.513725 0.333333 0.000000
0.568627 0.333333 0.003922
0.611765 0.329412 0.000000
0.662745 0.329412 0.003922
0.705882 0.337255 0.000000
0.749020 0.333333 0.003922
0.792157 0.337255 0.000000
0.847059 0.337255 0.000000
0.890196 0.337255 0.000000
0.933333 0.333333 0.000000
0.980392 0.341176 0.000000
1.000000 0.333333 0.000000
1.000000 0.337255 0.011765
0.007843 0.364706 0.000000
0.000000 0.380392 0.007843
0.023529 0.376471 0.000000
0.094118 0.372549 0.000000
0.141176 0.380392 0.003922
0.196078 0.380392 0.000000
0.243137 0.376471 0.000000
0.294118 0.376471 0.003922
0.349020 0.376471 0.000000
0.388235 0.376471 0.003922
0.419608 0.380392 0.000000
0.474510 0.380392 0.003922
0.517647 0.376471 0.000000
0.564706 0.376471 0.000000
0.611765 0.376471 0.000000
0.654902 0.380392 0.000000
0.705882 0.380392 0.003922
0.749020 0.380392 0.000000
0.796078 0.384314 0.000000
0.847059 0.384314 0.000000
0.890196 0.384314 0.000000
0.937255 0.384314 0.000000
0.988235 0.384314 0.000000
0.996078 0.388235 0.003922
0.996078 0.388235 0.003922
0.003922 0.431373 0.003922
0.000000 0.431373 0.000000
0.000000 0.435294 0.000000
0.074510 0.435294 0.000000
0.149020 0.439216 0.003922
0.188235 0.439216 0.000000
0.247059 0.435294 0.003922
0.305882 0.431373 0.003922
0.341176 0.427451 0.000000
0.384314 0.431373 0.000000
