lut_library_archive/removed_20260629/50个风景lut/50个风景lut20.cube
# 版权归凌孟成所有，侵权必究
TITLE "Jungle LUT #20"
#LUT size
LUT_3D_SIZE 25
#LUT data points
0.058824 0.058824 0.058824
0.058824 0.058824 0.058824
0.082353 0.066667 0.062745
0.113725 0.066667 0.066667
0.145098 0.074510 0.074510
0.180392 0.086275 0.086275
0.211765 0.094118 0.094118
0.231373 0.090196 0.090196
0.266667 0.105882 0.098039
0.309804 0.117647 0.101961
0.341176 0.125490 0.109804
0.372549 0.141176 0.117647
0.411765 0.156863 0.141176
0.450980 0.172549 0.156863
0.494118 0.192157 0.168627
0.533333 0.200000 0.180392
0.572549 0.215686 0.196078
0.623529 0.235294 0.211765
0.674510 0.254902 0.223529
0.713725 0.270588 0.239216
0.760784 0.290196 0.258824
0.807843 0.309804 0.274510
0.850980 0.333333 0.286275
0.898039 0.356863 0.317647
0.933333 0.384314 0.345098
0.050980 0.066667 0.062745
0.062745 0.070588 0.058824
0.105882 0.074510 0.066667
0.121569 0.086275 0.066667
0.156863 0.078431 0.074510
0.180392 0.090196 0.070588
0.215686 0.101961 0.086275
0.239216 0.109804 0.082353
0.270588 0.113725 0.086275
0.313725 0.121569 0.098039
0.345098 0.137255 0.113725
0.380392 0.149020 0.125490
0.415686 0.160784 0.137255
0.450980 0.176471 0.145098
0.498039 0.188235 0.160784
0.537255 0.207843 0.176471
0.576471 0.223529 0.192157
0.619608 0.243137 0.196078
0.666667 0.258824 0.215686
0.721569 0.274510 0.235294
0.764706 0.294118 0.258824
0.811765 0.313725 0.278431
0.854902 0.337255 0.298039
0.898039 0.356863 0.313725
0.945098 0.388235 0.349020
0.035294 0.105882 0.058824
0.066667 0.109804 0.047059
0.098039 0.098039 0.050980
0.137255 0.098039 0.058824
0.164706 0.098039 0.058824
0.192157 0.105882 0.062745
0.215686 0.109804 0.074510
0.247059 0.113725 0.078431
0.282353 0.125490 0.090196
0.313725 0.141176 0.105882
0.345098 0.149020 0.113725
0.372549 0.160784 0.121569
0.415686 0.168627 0.133333
0.458824 0.184314 0.145098
0.501961 0.200000 0.160784
0.541176 0.211765 0.172549
0.580392 0.231373 0.184314
0.627451 0.243137 0.200000
0.670588 0.262745 0.219608
0.713725 0.286275 0.235294
0.760784 0.298039 0.250980
0.815686 0.321569 0.274510
0.843137 0.341176 0.290196
0.898039 0.368627 0.321569
0.949020 0.388235 0.333333
0.035294 0.133333 0.047059
0.062745 0.133333 0.039216
0.101961 0.133333 0.035294
0.133333 0.133333 0.039216
0.172549 0.129412 0.043137
0.196078 0.137255 0.062745
0.235294 0.137255 0.066667
0.258824 0.137255 0.058824
0.290196 0.145098 0.074510
0.325490 0.156863 0.094118
0.356863 0.164706 0.109804
0.396078 0.176471 0.125490
0.427451 0.184314 0.133333
0.462745 0.196078 0.145098
0.505882 0.207843 0.156863
0.545098 0.223529 0.176471
0.584314 0.243137 0.184314
0.623529 0.258824 0.200000
0.674510 0.278431 0.215686
0.717647 0.290196 0.231373
0.764706 0.301961 0.254902
0.803922 0.329412 0.266667
0.858824 0.341176 0.290196
0.890196 0.372549 0.321569
0.941176 0.396078 0.345098
0.035294 0.168627 0.035294
0.070588 0.172549 0.035294
0.090196 0.176471 0.035294
0.141176 0.168627 0.039216
0.164706 0.164706 0.031373
0.203922 0.168627 0.039216
0.227451 0.160784 0.043137
0.254902 0.172549 0.058824
0.294118 0.176471 0.074510
0.325490 0.176471 0.086275
0.352941 0.188235 0.101961
0.384314 0.196078 0.109804
0.427451 0.207843 0.125490
0.474510 0.219608 0.149020
0.513725 0.227451 0.160784
0.549020 0.239216 0.172549
0.588235 0.254902 0.176471
0.631373 0.266667 0.196078
0.674510 0.290196 0.207843
0.725490 0.301961 0.223529
0.760784 0.317647 0.247059
0.803922 0.341176 0.270588
0.850980 0.360784 0.282353
0.898039 0.384314 0.313725
0.941176 0.403922 0.341176
0.043137 0.203922 0.031373
0.066667 0.203922 0.035294
0.101961 0.200000 0.035294
0.133333 0.200000 0.027451
0.160784 0.203922 0.035294
0.200000 0.203922 0.039216
0.247059 0.200000 0.050980
0.282353 0.203922 0.066667
0.301961 0.207843 0.074510
0.341176 0.211765 0.082353
0.376471 0.215686 0.098039
0.407843 0.223529 0.113725
0.447059 0.231373 0.121569
0.482353 0.243137 0.133333
0.529412 0.254902 0.152941
0.568627 0.262745 0.172549
0.603922 0.282353 0.196078
0.643137 0.290196 0.188235
0.686275 0.305882 0.200000
0.729412 0.321569 0.223529
0.780392 0.341176 0.254902
0.819608 0.356863 0.270588
0.866667 0.372549 0.278431
0.909804 0.392157 0.301961
0.956863 0.423529 0.337255
0.047059 0.243137 0.043137
0.070588 0.239216 0.031373
0.105882 0.239216 0.039216
0.137255 0.231373 0.043137
0.160784 0.231373 0.035294
0.203922 0.243137 0.039216
0.239216 0.231373 0.031373
0.278431 0.239216 0.047059
0.309804 0.239216 0.050980
0.349020 0.243137 0.066667
0.380392 0.243137 0.078431
0.423529 0.254902 0.098039
0.454902 0.258824 0.113725
0.498039 0.270588 0.125490
0.537255 0.278431 0.141176
0.576471 0.290196 0.160784
0.619608 0.305882 0.176471
0.654902 0.317647 0.196078
0.698039 0.333333 0.211765
0.745098 0.341176 0.223529
0.784314 0.356863 0.235294
0.827451 0.376471 0.254902
0.870588 0.396078 0.282353
0.909804 0.411765 0.298039
0.952941 0.431373 0.341176
0.047059 0.278431 0.027451
0.082353 0.270588 0.035294
0.109804 0.274510 0.027451
0.137255 0.270588 0.031373
0.172549 0.274510 0.035294
0.211765 0.274510 0.031373
0.239216 0.274510 0.027451
0.274510 0.266667 0.027451
0.317647 0.274510 0.027451
0.352941 0.274510 0.039216
0.396078 0.274510 0.054902
0.427451 0.282353 0.070588
0.462745 0.294118 0.090196
0.501961 0.298039 0.105882
0.541176 0.313725 0.129412
0.584314 0.321569 0.145098
0.619608 0.329412 0.160784
0.662745 0.341176 0.184314
0.701961 0.352941 0.203922
0.741176 0.368627 0.211765
0.788235 0.384314 0.227451
0.835294 0.396078 0.250980
0.866667 0.411765 0.282353
0.921569 0.427451 0.301961
0.956863 0.450980 0.325490
0.058824 0.305882 0.027451
0.074510 0.309804 0.027451
0.090196 0.309804 0.023529
0.141176 0.313725 0.019608
0.164706 0.313725 0.027451
0.200000 0.309804 0.019608
0.243137 0.309804 0.027451
0.282353 0.313725 0.027451
0.309804 0.309804 0.019608
0.349020 0.309804 0.027451
0.384314 0.313725 0.031373
0.427451 0.321569 0.050980
0.458824 0.321569 0.062745
0.509804 0.337255 0.098039
0.549020 0.345098 0.117647
0.596078 0.352941 0.129412
0.635294 0.360784 0.156863
0.670588 0.364706 0.172549
0.705882 0.376471 0.192157
0.749020 0.388235 0.196078
0.796078 0.403922 0.211765
0.839216 0.415686 0.243137
0.878431 0.431373 0.258824
0.913725 0.447059 0.282353
0.952941 0.470588 0.317647
0.050980 0.345098 0.011765
0.074510 0.345098 0.019608
0.101961 0.345098 0.011765
0.137255 0.349020 0.003922
0.168627 0.345098 0.011765
0.215686 0.352941 0.023529
0.243137 0.352941 0.019608
0.278431 0.349020 0.011765
0.325490 0.349020 0.011765
0.364706 0.349020 0.007843
0.403922 0.349020 0.003922
0.431373 0.345098 0.007843
0.466667 0.356863 0.039216
0.509804 0.364706 0.058824
0.552941 0.372549 0.078431
0.592157 0.380392 0.098039
0.639216 0.392157 0.129412
0.678431 0.400000 0.149020
0.721569 0.407843 0.168627
0.768627 0.419608 0.192157
0.815686 0.427451 0.203922
0.854902 0.443137 0.235294
0.894118 0.454902 0.258824
0.929412 0.474510 0.282353
0.964706 0.486275 0.301961
0.039216 0.400000 0.000000
0.062745 0.396078 0.000000
0.105882 0.400000 0.003922
0.145098 0.396078 0.007843
0.176471 0.396078 0.000000
0.211765 0.392157 0.000000
0.250980 0.396078 0.000000
0.278431 0.400000 0.000000
0.329412 0.403922 0.000000
0.364706 0.396078 0.000000
0.396078 0.400000 0.000000
0.435294 0.400000 0.000000
0.474510 0.400000 0.000000
0.521569 0.407843 0.011765
0.568627 0.411765 0.039216
0.611765 0.415686 0.074510
0.650980 0.431373 0.105882
0.694118 0.439216 0.125490
0.737255 0.450980 0.152941
0.784314 0.458824 0.184314
0.819608 0.466667 0.200000
0.854902 0.470588 0.215686
0.901961 0.486275 0.250980
0.941176 0.501961 0.274510
0.984314 0.517647 0.305882
0.035294 0.435294 0.003922
0.074510 0.435294 0.000000
0.098039 0.427451 0.000000
0.141176 0.439216 0.003922
0.168627 0.435294 0.000000
0.207843 0.435294 0.000000
0.247059 0.443137 0.000000
0.286275 0.435294 0.000000
0.321569 0.435294 0.003922
0.364706 0.435294 0.003922
0.403922 0.435294 0.000000
0.447059 0.439216 0.003922
0.482353 0.435294 0.000000
0.521569 0.435294 0.000000
0.564706 0.439216 0.003922
0.607843 0.447059 0.023529
0.650980 0.458824 0.058824
0.698039 0.466667 0.098039
0.741176 0.478431 0.129412
0.788235 0.490196 0.156863
0.827451 0.505882 0.180392
0.870588 0.513725 0.207843
0.909804 0.521569 0.227451
0.945098 0.525490 0.258824
0.976471 0.549020 0.294118
0.031373 0.478431 0.003922
0.050980 0.474510 0.000000
0.086275 0.470588 0.003922
0.133333 0.478431 0.000000
0.164706 0.482353 0.007843
0.207843 0.474510 0.000000
0.243137 0.478431 0.000000
0.282353 0.478431 0.000000
0.321569 0.478431 0.000000
0.360784 0.478431 0.000000
0.396078 0.474510 0.000000
0.439216 0.478431 0.000000
0.482353 0.474510 0.000000
0.521569 0.474510 0.000000
0.568627 0.470588 0.003922
0.607843 0.486275 0.000000
0.650980 0.498039 0.000000
0.694118 0.501961 0.031373
0.745098 0.509804 0.078431
0.788235 0.521569 0.125490
0.835294 0.529412 0.152941
0.878431 0.541176 0.176471
0.913725 0.556863 0.207843
0.949020 0.564706 0.239216
0.988235 0.572549 0.278431
0.000000 0.513725 0.003922
0.047059 0.525490 0.000000
0.086275 0.513725 0.003922
0.117647 0.521569 0.000000
0.160784 0.521569 0.000000
0.203922 0.525490 0.000000
0.247059 0.521569 0.000000
0.282353 0.517647 0.000000
0.313725 0.521569 0.000000
0.360784 0.525490 0.000000
0.403922 0.521569 0.000000
0.450980 0.517647 0.000000
0.490196 0.517647 0.011765
0.521569 0.521569 0.000000
0.560784 0.521569 0.007843
0.607843 0.517647 0.007843
0.654902 0.529412 0.000000
0.698039 0.537255 0.000000
0.737255 0.545098 0.003922
0.788235 0.549020 0.058824
0.835294 0.556863 0.109804
0.870588 0.572549 0.145098
0.913725 0.580392 0.192157
0.960784 0.592157 0.219608
0.988235 0.607843 0.258824
0.003922 0.556863 0.000000
0.027451 0.564706 0.000000
0.066667 0.568627 0.000000
0.105882 0.564706 0.003922
0.160784 0.564706 0.000000
0.200000 0.564706 0.000000
0.235294 0.560784 0.000000
0.274510 0.560784 0.000000
0.321569 0.560784 0.003922
0.360784 0.564706 0.000000
0.407843 0.560784 0.000000
0.450980 0.564706 0.007843
0.494118 0.564706 0.000000
0.529412 0.556863 0.000000
0.568627 0.560784 0.000000
0.611765 0.564706 0.000000
0.658824 0.560784 0.000000
0.701961 0.564706 0.000000
0.745098 0.572549 0.000000
0.792157 0.576471 0.007843
0.827451 0.596078 0.047059
0.874510 0.603922 0.090196
0.921569 0.611765 0.145098
0.960784 0.623529 0.196078
0.992157 0.635294 0.219608
0.003922 0.619608 0.003922
0.007843 0.623529 0.000000
0.050980 0.627451 0.007843
0.105882 0.619608 0.007843
0.156863 0.615686 0.003922
0.192157 0.623529 0.000000
0.243137 0.623529 0.000000
0.282353 0.619608 0.000000
0.337255 0.615686 0.000000
0.372549 0.611765 0.003922
0.411765 0.611765 0.003922
0.454902 0.615686 0.003922
0.498039 0.615686 0.000000
0.541176 0.619608 0.000000
0.576471 0.615686 0.000000
0.619608 0.615686 0.011765
0.670588 0.615686 0.000000
0.705882 0.615686 0.003922
0.749020 0.619608 0.003922
0.792157 0.627451 0.000000
0.835294 0.635294 0.000000
0.874510 0.639216 0.011765
0.925490 0.647059 0.082353
0.964706 0.647059 0.149020
1.000000 0.670588 0.211765
0.003922 0.658824 0.003922
0.007843 0.650980 0.000000
0.027451 0.666667 0.003922
0.078431 0.654902 0.003922
0.152941 0.658824 0.000000
0.196078 0.662745 0.000000
0.247059 0.658824 0.011765
0.282353 0.666667 0.000000
0.321569 0.658824 0.000000
0.364706 0.662745 0.000000
0.411765 0.658824 0.000000
0.454902 0.654902 0.000000
0.494118 0.654902 0.000000
0.545098 0.658824 0.000000
0.588235 0.662745 0.000000
0.631373 0.658824 0.000000
0.674510 0.658824 0.003922
0.709804 0.650980 0.003922
0.749020 0.650980 0.003922
0.792157 0.658824 0.000000
0.835294 0.670588 0.000000
0.882353 0.674510 0.000000
0.925490 0.678431 0.000000
0.972549 0.682353 0.098039
1.000000 0.698039 0.149020
0.011765 0.694118 0.000000
0.003922 0.705882 0.000000
0.000000 0.705882 0.011765
0.074510 0.701961 0.011765
0.125490 0.705882 0.000000
0.184314 0.705882 0.011765
0.227451 0.698039 0.000000
0.278431 0.705882 0.003922
0.321569 0.705882 0.000000
0.372549 0.705882 0.000000
0.415686 0.701961 0.000000
0.454902 0.701961 0.000000
0.494118 0.701961 0.000000
0.533333 0.701961 0.003922
0.584314 0.698039 0.000000
0.627451 0.701961 0.000000
0.666667 0.701961 0.000000
0.709804 0.698039 0.003922
0.756863 0.698039 0.003922
0.800000 0.701961 0.000000
0.839216 0.701961 0.000000
0.882353 0.705882 0.003922
0.929412 0.709804 0.000000
0.964706 0.713725 0.000000
1.000000 0.737255 0.066667
0.000000 0.749020 0.000000
0.007843 0.745098 0.000000
0.007843 0.745098 0.000000
0.039216 0.745098 0.007843
0.109804 0.745098 0.003922
0.176471 0.745098 0.003922
0.219608 0.749020 0.003922
0.270588 0.749020 0.000000
0.313725 0.749020 0.000000
0.368627 0.749020 0.000000
0.407843 0.749020 0.000000
0.450980 0.745098 0.003922
0.490196 0.745098 0.000000
0.541176 0.745098 0.000000
0.588235 0.749020 0.003922
0.623529 0.745098 0.000000
0.670588 0.745098 0.007843
0.717647 0.741176 0.003922
0.752941 0.741176 0.000000
0.796078 0.745098 0.000000
0.835294 0.741176 0.003922
0.878431 0.741176 0.003922
0.921569 0.745098 0.003922
0.972549 0.760784 0.000000
0.996078 0.760784 0.000000
0.007843 0.792157 0.000000
0.000000 0.788235 0.003922
0.000000 0.792157 0.000000
0.011765 0.788235 0.000000
0.090196 0.796078 0.000000
0.164706 0.792157 0.007843
0.227451 0.792157 0.011765
0.270588 0.796078 0.007843
0.309804 0.788235 0.000000
0.356863 0.792157 0.000000
0.407843 0.796078 0.000000
0.447059 0.796078 0.000000
0.490196 0.792157 0.000000
0.529412 0.792157 0.003922
0.576471 0.788235 0.003922
0.623529 0.792157 0.003922
0.666667 0.788235 0.003922
0.713725 0.784314 0.000000
0.756863 0.792157 0.000000
0.800000 0.788235 0.000000
0.839216 0.788235 0.000000
0.890196 0.788235 0.007843
0.933333 0.788235 0.003922
0.972549 0.788235 0.000000
1.000000 0.792157 0.000000
0.000000 0.847059 0.000000
0.003922 0.843137 0.003922
0.000000 0.843137 0.000000
0.003922 0.847059 0.000000
0.058824 0.850980 0.003922
0.137255 0.843137 0.000000
0.211765 0.839216 0.000000
0.258824 0.847059 0.007843
0.309804 0.839216 0.000000
0.352941 0.843137 0.000000
0.400000 0.843137 0.003922
0.450980 0.843137 0.003922
0.498039 0.835294 0.000000
0.545098 0.839216 0.000000
0.588235 0.835294 0.000000
0.631373 0.839216 0.000000
0.678431 0.839216 0.000000
0.717647 0.839216 0.000000
0.764706 0.839216 0.000000
0.811765 0.835294 0.003922
0.854902 0.831373 0.007843
0.890196 0.831373 0.000000
0.933333 0.835294 0.000000
0.972549 0.843137 0.000000
0.996078 0.835294 0.003922
0.003922 0.882353 0.000000
0.000000 0.886275 0.015686
0.000000 0.886275 0.000000
0.007843 0.882353 0.007843
0.000000 0.890196 0.007843
0.113725 0.886275 0.000000
0.172549 0.886275 0.000000
0.250980 0.882353 0.000000
0.294118 0.882353 0.003922
0.349020 0.890196 0.007843
0.392157 0.886275 0.007843
0.447059 0.886275 0.007843
0.490196 0.882353 0.007843
0.537255 0.882353 0.000000
0.580392 0.886275 0.003922
0.623529 0.886275 0.000000
0.666667 0.890196 0.003922
0.717647 0.882353 0.003922
0.756863 0.882353 0.000000
0.807843 0.878431 0.000000
0.850980 0.882353 0.000000
0.894118 0.882353 0.000000
0.937255 0.878431 0.003922
0.984314 0.874510 0.000000
1.000000 0.878431 0.000000
0.007843 0.929412 0.007843
0.003922 0.925490 0.003922
0.000000 0.929412 0.003922
0.000000 0.933333 0.000000
0.000000 0.929412 0.007843
0.070588 0.925490 0.000000
0.164706 0.925490 0.000000
0.215686 0.929412 0.000000
0.282353 0.933333 0.000000
0.333333 0.929412 0.000000
0.388235 0.921569 0.000000
0.439216 0.925490 0.000000
0.490196 0.921569 0.000000
0.533333 0.925490 0.000000
0.572549 0.925490 0.000000
0.619608 0.925490 0.000000
0.662745 0.925490 0.000000
0.713725 0.925490 0.000000
0.760784 0.917647 0.000000
0.803922 0.921569 0.000000
0.850980 0.921569 0.000000
0.890196 0.921569 0.007843
0.945098 0.921569 0.011765
0.988235 0.925490 0.003922
0.988235 0.921569 0.000000
0.000000 0.968627 0.000000
0.000000 0.968627 0.000000
0.003922 0.972549 0.000000
0.003922 0.972549 0.003922
0.003922 0.972549 0.000000
0.007843 0.972549 0.000000
0.109804 0.972549 0.000000
0.207843 0.968627 0.003922
0.270588 0.964706 0.000000
0.325490 0.968627 0.000000
0.376471 0.972549 0.000000
0.427451 0.968627 0.003922
0.474510 0.968627 0.000000
0.525490 0.964706 0.000000
0.568627 0.964706 0.000000
0.615686 0.968627 0.000000
0.662745 0.968627 0.003922
0.713725 0.964706 0.000000
0.764706 0.960784 0.000000
0.811765 0.964706 0.000000
0.858824 0.960784 0.000000
0.905882 0.960784 0.000000
0.949020 0.964706 0.003922
0.992157 0.956863 0.003922
1.000000 0.960784 0.000000
0.011765 1.000000 0.023529
0.000000 1.000000 0.000000
0.000000 0.996078 0.000000
0.007843 0.996078 0.003922
0.000000 1.000000 0.011765
0.000000 1.000000 0.000000
0.047059 1.000000 0.000000
0.152941 1.000000 0.003922
0.247059 0.996078 0.003922
0.305882 1.000000 0.003922
0.360784 1.000000 0.000000
0.427451 0.996078 0.003922
0.482353 0.996078 0.000000
0.521569 0.996078 0.000000
0.580392 1.000000 0.003922
0.627451 1.000000 0.003922
0.678431 0.996078 0.000000
0.733333 0.996078 0.000000
0.784314 1.000000 0.003922
0.831373 1.000000 0.000000
0.886275 1.000000 0.000000
0.933333 1.000000 0.003922
0.972549 1.000000 0.003922
1.000000 1.000000 0.003922
1.000000 1.000000 0.000000
0.058824 0.054902 0.074510
0.066667 0.058824 0.070588
0.094118 0.050980 0.066667
0.117647 0.054902 0.058824
0.149020 0.070588 0.074510
0.172549 0.090196 0.086275
0.211765 0.101961 0.098039
0.243137 0.109804 0.113725
0.266667 0.117647 0.117647
0.305882 0.125490 0.125490
0.349020 0.137255 0.129412
0.376471 0.149020 0.137255
0.411765 0.160784 0.152941
0.450980 0.180392 0.168627
0.490196 0.196078 0.184314
0.525490 0.207843 0.196078
0.572549 0.223529 0.207843
0.619608 0.235294 0.223529
0.666667 0.254902 0.239216
0.709804 0.278431 0.250980
0.760784 0.294118 0.270588
0.800000 0.313725 0.282353
0.847059 0.337255 0.298039
0.901961 0.360784 0.321569
0.945098 0.388235 0.349020
0.047059 0.070588 0.070588
0.070588 0.070588 0.070588
0.105882 0.074510 0.074510
0.121569 0.090196 0.082353
0.145098 0.082353 0.082353
0.176471 0.101961 0.086275
0.211765 0.101961 0.098039
0.235294 0.113725 0.101961
0.274510 0.117647 0.117647
0.309804 0.133333 0.121569
0.341176 0.141176 0.129412
0.380392 0.152941 0.141176
0.411765 0.172549 0.152941
0.450980 0.188235 0.164706
0.494118 0.200000 0.180392
0.533333 0.215686 0.200000
0.576471 0.227451 0.203922
0.623529 0.243137 0.215686
0.666667 0.266667 0.227451
0.709804 0.278431 0.250980
0.756863 0.298039 0.270588
0.803922 0.317647 0.286275
0.858824 0.337255 0.309804
0.894118 0.364706 0.321569
0.921569 0.392157 0.349020
0.035294 0.101961 0.062745
0.066667 0.113725 0.074510
0.105882 0.105882 0.066667
0.129412 0.101961 0.070588
0.164706 0.105882 0.078431
0.172549 0.113725 0.086275
0.211765 0.117647 0.086275
0.254902 0.125490 0.098039
0.286275 0.133333 0.105882
0.313725 0.145098 0.113725
0.349020 0.156863 0.133333
0.376471 0.168627 0.145098
0.415686 0.180392 0.149020
0.462745 0.196078 0.160784
0.494118 0.207843 0.180392
0.533333 0.219608 0.184314
0.580392 0.235294 0.200000
0.631373 0.250980 0.223529
0.670588 0.266667 0.239216
0.713725 0.282353 0.247059
0.760784 0.305882 0.262745
0.803922 0.317647 0.278431
0.847059 0.349020 0.290196
0.898039 0.356863 0.317647
0.929412 0.388235 0.349020
0.039216 0.133333 0.070588
0.078431 0.129412 0.062745
0.101961 0.137255 0.062745
0.129412 0.133333 0.062745
0.172549 0.137255 0.070588
0.200000 0.137255 0.078431
0.227451 0.141176 0.090196
0.254902 0.145098 0.094118
0.282353 0.149020 0.101961
0.321569 0.156863 0.109804
0.349020 0.168627 0.117647
0.384314 0.180392 0.137255
0.415686 0.188235 0.145098
0.466667 0.203922 0.168627
0.501961 0.211765 0.176471
0.541176 0.227451 0.184314
0.576471 0.247059 0.203922
0.619608 0.258824 0.215686
0.662745 0.278431 0.227451
0.713725 0.298039 0.247059
0.756863 0.313725 0.258824
0.803922 0.329412 0.266667
0.847059 0.352941 0.298039
0.894118 0.372549 0.321569
0.933333 0.403922 0.349020
0.043137 0.160784 0.058824
0.078431 0.172549 0.070588
0.105882 0.168627 0.058824
0.129412 0.168627 0.062745
0.168627 0.160784 0.062745
0.203922 0.160784 0.074510
0.231373 0.168627 0.078431
0.270588 0.172549 0.086275
0.301961 0.172549 0.098039
0.329412 0.184314 0.109804
0.356863 0.196078 0.117647
0.388235 0.196078 0.129412
0.431373 0.215686 0.145098
0.466667 0.219608 0.152941
0.509804 0.231373 0.168627
0.549020 0.247059 0.184314
0.584314 0.258824 0.196078
0.623529 0.278431 0.203922
0.674510 0.294118 0.227451
0.721569 0.309804 0.243137
0.760784 0.325490 0.258824
0.807843 0.345098 0.274510
0.858824 0.360784 0.294118
0.898039 0.384314 0.313725
0.929412 0.403922 0.337255
0.050980 0.207843 0.062745
0.066667 0.200000 0.062745
0.105882 0.200000 0.066667
0.145098 0.200000 0.070588
0.176471 0.196078 0.070588
0.203922 0.203922 0.070588
0.243137 0.203922 0.074510
0.278431 0.203922 0.078431
0.301961 0.211765 0.090196
0.333333 0.211765 0.098039
0.372549 0.215686 0.113725
0.403922 0.223529 0.121569
0.447059 0.235294 0.141176
0.482353 0.247059 0.152941
0.521569 0.254902 0.164706
0.560784 0.266667 0.184314
0.596078 0.278431 0.196078
0.635294 0.294118 0.196078
0.686275 0.309804 0.211765
0.725490 0.325490 0.235294
0.772549 0.341176 0.250980
0.815686 0.360784 0.278431
0.854902 0.376471 0.294118
0.909804 0.396078 0.325490
0.952941 0.415686 0.345098
0.047059 0.239216 0.062745
0.074510 0.243137 0.062745
0.109804 0.235294 0.074510
0.133333 0.239216 0.062745
0.172549 0.235294 0.058824
0.203922 0.231373 0.066667
0.243137 0.239216 0.058824
0.270588 0.235294 0.066667
0.309804 0.235294 0.078431
0.349020 0.239216 0.086275
0.384314 0.243137 0.101961
0.419608 0.254902 0.113725
0.454902 0.258824 0.129412
0.498039 0.266667 0.141176
0.537255 0.278431 0.152941
0.576471 0.290196 0.172549
0.615686 0.305882 0.188235
0.650980 0.317647 0.203922
0.698039 0.329412 0.219608
0.737255 0.341176 0.231373
0.776471 0.356863 0.247059
0.823529 0.376471 0.266667
0.870588 0.396078 0.290196
0.901961 0.419608 0.305882
0.949020 0.431373 0.341176
0.054902 0.266667 0.062745
0.074510 0.274510 0.050980
0.105882 0.262745 0.054902
0.141176 0.278431 0.058824
0.164706 0.270588 0.054902
0.207843 0.274510 0.062745
0.235294 0.274510 0.066667
0.274510 0.274510 0.070588
0.317647 0.274510 0.066667
0.352941 0.274510 0.074510
0.384314 0.278431 0.078431
0.427451 0.286275 0.098039
0.462745 0.298039 0.117647
0.505882 0.305882 0.129412
0.541176 0.313725 0.137255
0.584314 0.321569 0.156863
0.619608 0.325490 0.172549
0.662745 0.341176 0.196078
0.705882 0.352941 0.211765
0.741176 0.368627 0.219608
0.788235 0.380392 0.243137
0.827451 0.392157 0.274510
0.874510 0.407843 0.290196
0.909804 0.419608 0.301961
0.956863 0.450980 0.329412
0.039216 0.309804 0.054902
0.074510 0.309804 0.066667
0.094118 0.313725 0.058824
0.149020 0.309804 0.050980
0.160784 0.313725 0.058824
0.207843 0.313725 0.050980
0.247059 0.309804 0.054902
0.278431 0.313725 0.050980
0.313725 0.317647 0.050980
0.352941 0.309804 0.050980
0.392157 0.309804 0.054902
0.427451 0.317647 0.070588
0.462745 0.329412 0.090196
0.501961 0.337255 0.109804
0.541176 0.341176 0.117647
0.584314 0.352941 0.133333
0.627451 0.364706 0.156863
0.666667 0.368627 0.176471
0.705882 0.376471 0.196078
0.752941 0.392157 0.215686
0.796078 0.400000 0.235294
0.835294 0.415686 0.258824
0.874510 0.431373 0.274510
0.917647 0.450980 0.301961
0.952941 0.466667 0.333333
0.050980 0.352941 0.031373
0.070588 0.349020 0.043137
0.101961 0.345098 0.043137
0.133333 0.345098 0.039216
0.164706 0.352941 0.047059
0.203922 0.349020 0.047059
0.239216 0.345098 0.043137
0.282353 0.349020 0.043137
0.317647 0.345098 0.039216
0.356863 0.345098 0.035294
0.392157 0.349020 0.035294
0.431373 0.360784 0.039216
0.462745 0.360784 0.070588
0.509804 0.364706 0.086275
0.545098 0.372549 0.101961
0.592157 0.384314 0.125490
0.639216 0.388235 0.145098
0.674510 0.400000 0.164706
0.725490 0.411765 0.180392
0.772549 0.423529 0.203922
0.803922 0.431373 0.211765
0.847059 0.443137 0.235294
0.882353 0.462745 0.266667
0.921569 0.474510 0.290196
0.964706 0.490196 0.321569
0.039216 0.388235 0.019608
0.062745 0.396078 0.023529
0.094118 0.396078 0.027451
0.133333 0.396078 0.023529
0.176471 0.400000 0.027451
0.211765 0.396078 0.019608
0.247059 0.392157 0.015686
0.278431 0.400000 0.023529
0.329412 0.392157 0.007843
0.360784 0.388235 0.011765
