lut_library_archive/removed_20260629/50个风景lut/50个风景lut22.cube
# 版权归凌孟成所有，侵权必究
TITLE "Jungle LUT #22"
#LUT size
LUT_3D_SIZE 9
#LUT data points
0.000000 0.000000 0.000000
0.101961 0.000000 0.000000
0.239216 0.011765 0.007843
0.364706 0.019608 0.011765
0.498039 0.023529 0.011765
0.631373 0.039216 0.035294
0.768627 0.074510 0.066667
0.894118 0.113725 0.094118
1.000000 0.164706 0.149020
0.000000 0.129412 0.015686
0.109804 0.121569 0.007843
0.235294 0.133333 0.011765
0.368627 0.129412 0.007843
0.505882 0.137255 0.027451
0.631373 0.145098 0.043137
0.760784 0.160784 0.066667
0.886275 0.192157 0.098039
0.996078 0.227451 0.141176
0.000000 0.250980 0.011765
0.109804 0.262745 0.007843
0.239216 0.262745 0.011765
0.380392 0.262745 0.027451
0.509804 0.270588 0.054902
0.647059 0.270588 0.070588
0.772549 0.290196 0.090196
0.901961 0.305882 0.113725
1.000000 0.321569 0.164706
0.000000 0.396078 0.047059
0.109804 0.396078 0.047059
0.258824 0.400000 0.054902
0.392157 0.400000 0.070588
0.521569 0.400000 0.078431
0.643137 0.403922 0.098039
0.764706 0.411765 0.133333
0.894118 0.423529 0.149020
0.996078 0.431373 0.188235
0.015686 0.541176 0.090196
0.133333 0.537255 0.109804
0.270588 0.537255 0.094118
0.396078 0.537255 0.105882
0.533333 0.541176 0.121569
0.654902 0.541176 0.133333
0.776471 0.541176 0.156863
0.901961 0.545098 0.196078
1.000000 0.560784 0.239216
0.129412 0.674510 0.164706
0.200000 0.674510 0.160784
0.301961 0.674510 0.164706
0.419608 0.674510 0.172549
0.549020 0.674510 0.184314
0.666667 0.670588 0.200000
0.792157 0.670588 0.215686
0.898039 0.670588 0.239216
1.000000 0.674510 0.298039
0.203922 0.796078 0.219608
0.254902 0.792157 0.227451
0.341176 0.792157 0.231373
0.447059 0.796078 0.231373
0.549020 0.788235 0.243137
0.670588 0.788235 0.262745
0.784314 0.784314 0.266667
0.905882 0.792157 0.294118
1.000000 0.780392 0.345098
0.294118 0.901961 0.321569
0.337255 0.901961 0.325490
0.403922 0.894118 0.321569
0.490196 0.901961 0.329412
0.572549 0.898039 0.341176
0.674510 0.898039 0.345098
0.788235 0.898039 0.364706
0.898039 0.901961 0.392157
1.000000 0.901961 0.435294
0.423529 0.996078 0.458824
0.443137 1.000000 0.458824
0.494118 0.996078 0.458824
0.545098 1.000000 0.478431
0.619608 1.000000 0.474510
0.717647 1.000000 0.498039
0.803922 1.000000 0.517647
0.901961 0.996078 0.549020
0.996078 1.000000 0.592157
0.003922 0.003922 0.113725
0.113725 0.000000 0.117647
0.243137 0.011765 0.121569
0.364706 0.015686 0.125490
0.494118 0.031373 0.133333
0.635294 0.054902 0.149020
0.760784 0.082353 0.160784
0.894118 0.125490 0.180392
0.996078 0.168627 0.211765
0.007843 0.117647 0.121569
0.117647 0.121569 0.129412
0.239216 0.129412 0.125490
0.364706 0.137255 0.133333
0.498039 0.141176 0.137255
0.627451 0.152941 0.149020
0.756863 0.172549 0.164706
0.894118 0.192157 0.176471
1.000000 0.227451 0.196078
0.000000 0.254902 0.137255
0.105882 0.262745 0.129412
0.247059 0.258824 0.137255
0.380392 0.266667 0.149020
0.509804 0.270588 0.156863
0.631373 0.274510 0.160784
0.756863 0.282353 0.168627
0.894118 0.301961 0.196078
1.000000 0.313725 0.211765
0.003922 0.388235 0.149020
0.113725 0.396078 0.145098
0.254902 0.396078 0.152941
0.380392 0.400000 0.149020
0.517647 0.400000 0.164706
0.639216 0.403922 0.176471
0.768627 0.411765 0.196078
0.898039 0.423529 0.219608
0.996078 0.435294 0.239216
0.003922 0.533333 0.164706
0.129412 0.533333 0.176471
0.270588 0.529412 0.176471
0.400000 0.537255 0.184314
0.525490 0.537255 0.196078
0.647059 0.541176 0.200000
0.776471 0.537255 0.219608
0.898039 0.549020 0.243137
1.000000 0.560784 0.274510
0.117647 0.666667 0.207843
0.188235 0.670588 0.211765
0.298039 0.666667 0.215686
0.419608 0.670588 0.231373
0.541176 0.666667 0.231373
0.662745 0.670588 0.235294
0.780392 0.670588 0.243137
0.901961 0.666667 0.282353
1.000000 0.670588 0.317647
0.200000 0.780392 0.270588
0.247059 0.784314 0.258824
0.333333 0.788235 0.266667
0.431373 0.780392 0.270588
0.552941 0.784314 0.274510
0.666667 0.784314 0.290196
0.788235 0.788235 0.309804
0.909804 0.788235 0.333333
1.000000 0.792157 0.376471
0.305882 0.894118 0.341176
0.329412 0.905882 0.349020
0.396078 0.901961 0.337255
0.478431 0.894118 0.356863
0.568627 0.898039 0.360784
0.674510 0.898039 0.376471
0.784314 0.898039 0.392157
0.898039 0.898039 0.411765
0.996078 0.894118 0.450980
0.427451 1.000000 0.454902
0.443137 1.000000 0.466667
0.486275 0.996078 0.470588
0.549020 1.000000 0.486275
0.619608 1.000000 0.494118
0.717647 1.000000 0.509804
0.811765 0.996078 0.537255
0.905882 1.000000 0.568627
1.000000 1.000000 0.607843
0.003922 0.000000 0.235294
0.105882 0.003922 0.243137
0.235294 0.007843 0.247059
0.368627 0.015686 0.258824
0.498039 0.027451 0.266667
0.631373 0.058824 0.274510
0.768627 0.090196 0.278431
0.898039 0.129412 0.294118
0.996078 0.176471 0.309804
0.007843 0.121569 0.239216
0.101961 0.121569 0.247059
0.231373 0.125490 0.254902
0.368627 0.137255 0.262745
0.498039 0.149020 0.274510
0.627451 0.156863 0.266667
0.764706 0.168627 0.282353
0.898039 0.192157 0.298039
1.000000 0.223529 0.329412
0.003922 0.254902 0.262745
0.105882 0.254902 0.258824
0.239216 0.262745 0.262745
0.376471 0.262745 0.270588
0.513725 0.270588 0.282353
0.631373 0.278431 0.278431
0.760784 0.286275 0.290196
0.894118 0.301961 0.305882
0.996078 0.333333 0.329412
0.000000 0.396078 0.262745
0.094118 0.392157 0.274510
0.254902 0.396078 0.278431
0.388235 0.403922 0.274510
0.513725 0.400000 0.282353
0.639216 0.407843 0.294118
0.772549 0.415686 0.309804
0.894118 0.427451 0.317647
0.996078 0.435294 0.333333
0.007843 0.533333 0.294118
0.113725 0.529412 0.278431
0.262745 0.537255 0.294118
0.384314 0.537255 0.290196
0.529412 0.533333 0.298039
0.650980 0.541176 0.301961
0.772549 0.541176 0.321569
0.890196 0.549020 0.341176
0.992157 0.552941 0.364706
0.098039 0.670588 0.321569
0.180392 0.666667 0.313725
0.290196 0.666667 0.317647
0.411765 0.670588 0.317647
0.537255 0.662745 0.325490
0.658824 0.666667 0.337255
0.784314 0.666667 0.337255
0.894118 0.670588 0.360784
1.000000 0.666667 0.396078
0.180392 0.792157 0.333333
0.243137 0.788235 0.352941
0.325490 0.788235 0.349020
0.427451 0.788235 0.352941
0.549020 0.780392 0.356863
0.670588 0.784314 0.368627
0.784314 0.788235 0.380392
0.901961 0.784314 0.407843
1.000000 0.780392 0.423529
0.301961 0.894118 0.411765
0.329412 0.901961 0.403922
0.384314 0.894118 0.407843
0.482353 0.898039 0.411765
0.568627 0.898039 0.423529
0.678431 0.894118 0.427451
0.784314 0.890196 0.439216
0.898039 0.898039 0.458824
1.000000 0.890196 0.498039
0.439216 1.000000 0.517647
0.454902 1.000000 0.525490
0.490196 1.000000 0.513725
0.552941 1.000000 0.525490
0.619608 1.000000 0.529412
0.717647 1.000000 0.552941
0.811765 0.996078 0.572549
0.909804 0.996078 0.600000
0.996078 1.000000 0.623529
0.011765 0.000000 0.384314
0.082353 0.003922 0.392157
0.227451 0.000000 0.392157
0.364706 0.003922 0.392157
0.505882 0.019608 0.396078
0.635294 0.047059 0.400000
0.760784 0.082353 0.403922
0.898039 0.125490 0.407843
1.000000 0.168627 0.431373
0.007843 0.113725 0.384314
0.082353 0.117647 0.372549
0.227451 0.121569 0.392157
0.368627 0.121569 0.396078
0.498039 0.137255 0.392157
0.627451 0.149020 0.400000
0.760784 0.168627 0.407843
0.894118 0.192157 0.419608
1.000000 0.219608 0.435294
0.003922 0.254902 0.403922
0.062745 0.254902 0.384314
0.239216 0.254902 0.392157
0.376471 0.258824 0.407843
0.505882 0.266667 0.400000
0.643137 0.278431 0.400000
0.764706 0.290196 0.411765
0.894118 0.305882 0.423529
0.992157 0.325490 0.439216
0.000000 0.400000 0.403922
0.078431 0.396078 0.400000
0.243137 0.396078 0.407843
0.376471 0.396078 0.407843
0.513725 0.400000 0.407843
0.635294 0.407843 0.403922
0.764706 0.419608 0.415686
0.894118 0.423529 0.431373
1.000000 0.439216 0.447059
0.000000 0.533333 0.415686
0.101961 0.533333 0.419608
0.258824 0.537255 0.411765
0.384314 0.537255 0.415686
0.521569 0.533333 0.411765
0.650980 0.533333 0.423529
0.768627 0.545098 0.439216
0.890196 0.549020 0.443137
1.000000 0.556863 0.454902
0.074510 0.666667 0.427451
0.160784 0.666667 0.435294
0.278431 0.678431 0.431373
0.403922 0.670588 0.431373
0.533333 0.666667 0.427451
0.666667 0.670588 0.443137
0.784314 0.670588 0.443137
0.894118 0.670588 0.462745
0.996078 0.674510 0.478431
0.180392 0.780392 0.454902
0.231373 0.784314 0.443137
0.317647 0.788235 0.447059
0.435294 0.784314 0.454902
0.537255 0.788235 0.450980
0.662745 0.788235 0.454902
0.784314 0.788235 0.474510
0.898039 0.792157 0.490196
1.000000 0.792157 0.501961
0.305882 0.901961 0.505882
0.345098 0.894118 0.498039
0.400000 0.894118 0.501961
0.482353 0.898039 0.505882
0.576471 0.894118 0.513725
0.678431 0.898039 0.509804
0.788235 0.894118 0.521569
0.894118 0.898039 0.533333
1.000000 0.898039 0.556863
0.454902 1.000000 0.580392
0.458824 0.996078 0.580392
0.501961 1.000000 0.572549
0.556863 1.000000 0.584314
0.623529 0.996078 0.596078
0.717647 1.000000 0.607843
0.815686 1.000000 0.623529
0.905882 1.000000 0.647059
0.992157 1.000000 0.674510
0.000000 0.000000 0.505882
0.062745 0.000000 0.517647
0.223529 0.000000 0.513725
0.364706 0.000000 0.521569
0.498039 0.007843 0.517647
0.639216 0.027451 0.525490
0.764706 0.074510 0.533333
0.890196 0.117647 0.541176
1.000000 0.172549 0.545098
0.000000 0.117647 0.509804
0.058824 0.117647 0.513725
0.223529 0.121569 0.517647
0.368627 0.125490 0.521569
0.501961 0.129412 0.529412
0.635294 0.141176 0.529412
0.764706 0.168627 0.533333
0.898039 0.192157 0.549020
0.996078 0.215686 0.541176
0.011765 0.247059 0.521569
0.043137 0.258824 0.513725
0.235294 0.254902 0.521569
0.376471 0.262745 0.525490
0.509804 0.262745 0.537255
0.643137 0.270588 0.537255
0.772549 0.286275 0.537255
0.894118 0.301961 0.541176
0.996078 0.325490 0.560784
0.000000 0.392157 0.533333
0.058824 0.396078 0.533333
0.235294 0.392157 0.533333
0.372549 0.396078 0.537255
0.509804 0.392157 0.525490
0.639216 0.407843 0.533333
0.768627 0.411765 0.541176
0.894118 0.419608 0.549020
1.000000 0.439216 0.549020
0.007843 0.537255 0.541176
0.098039 0.533333 0.549020
0.254902 0.533333 0.541176
0.388235 0.537255 0.541176
0.521569 0.537255 0.541176
0.639216 0.537255 0.541176
0.772549 0.541176 0.549020
0.901961 0.549020 0.556863
0.996078 0.556863 0.572549
0.050980 0.674510 0.556863
0.156863 0.674510 0.560784
0.282353 0.670588 0.556863
0.400000 0.670588 0.556863
0.533333 0.662745 0.549020
0.654902 0.666667 0.552941
0.776471 0.670588 0.556863
0.890196 0.670588 0.580392
1.000000 0.678431 0.592157
0.164706 0.788235 0.556863
0.223529 0.792157 0.560784
0.317647 0.792157 0.568627
0.423529 0.788235 0.564706
0.541176 0.788235 0.564706
0.666667 0.788235 0.564706
0.780392 0.792157 0.576471
0.886275 0.796078 0.584314
1.000000 0.792157 0.619608
0.313725 0.894118 0.588235
0.337255 0.894118 0.588235
0.396078 0.898039 0.603922
0.482353 0.898039 0.603922
0.576471 0.898039 0.600000
0.678431 0.898039 0.603922
0.788235 0.898039 0.607843
0.894118 0.898039 0.623529
1.000000 0.901961 0.643137
0.450980 0.992157 0.647059
0.466667 1.000000 0.654902
0.501961 0.996078 0.639216
0.556863 0.996078 0.658824
0.627451 0.996078 0.650980
0.717647 1.000000 0.670588
0.811765 1.000000 0.678431
0.905882 1.000000 0.701961
1.000000 1.000000 0.725490
0.000000 0.000000 0.639216
0.047059 0.000000 0.643137
0.227451 0.000000 0.643137
0.368627 0.000000 0.647059
0.501961 0.000000 0.647059
0.631373 0.011765 0.658824
0.764706 0.054902 0.662745
0.886275 0.109804 0.662745
1.000000 0.160784 0.666667
0.000000 0.109804 0.631373
0.035294 0.113725 0.643137
0.219608 0.117647 0.647059
0.376471 0.117647 0.643137
0.505882 0.125490 0.647059
0.635294 0.137255 0.658824
0.768627 0.156863 0.658824
0.886275 0.180392 0.662745
1.000000 0.219608 0.678431
0.000000 0.254902 0.650980
0.011765 0.254902 0.650980
0.219608 0.247059 0.654902
0.372549 0.250980 0.658824
0.501961 0.258824 0.654902
0.643137 0.266667 0.666667
0.768627 0.274510 0.662745
0.901961 0.294118 0.670588
1.000000 0.317647 0.666667
0.003922 0.384314 0.650980
0.003922 0.384314 0.654902
0.227451 0.384314 0.658824
0.364706 0.392157 0.658824
0.513725 0.392157 0.666667
0.643137 0.396078 0.670588
0.772549 0.400000 0.658824
0.898039 0.419608 0.670588
1.000000 0.439216 0.678431
0.000000 0.533333 0.658824
0.058824 0.521569 0.662745
0.239216 0.529412 0.666667
0.372549 0.521569 0.666667
0.509804 0.525490 0.662745
0.647059 0.529412 0.670588
0.776471 0.541176 0.674510
0.890196 0.552941 0.674510
0.996078 0.564706 0.678431
0.023529 0.666667 0.670588
0.133333 0.662745 0.678431
0.270588 0.666667 0.682353
0.396078 0.666667 0.686275
0.525490 0.662745 0.678431
0.647059 0.666667 0.678431
0.768627 0.662745 0.682353
0.890196 0.674510 0.694118
1.000000 0.682353 0.701961
0.156863 0.792157 0.678431
0.215686 0.780392 0.678431
0.305882 0.788235 0.678431
0.415686 0.784314 0.682353
0.537255 0.788235 0.686275
0.670588 0.788235 0.694118
0.776471 0.784314 0.690196
0.894118 0.792157 0.701961
0.996078 0.796078 0.729412
0.298039 0.894118 0.701961
0.337255 0.901961 0.694118
0.396078 0.894118 0.686275
0.486275 0.894118 0.694118
0.576471 0.898039 0.701961
0.674510 0.894118 0.709804
0.784314 0.894118 0.705882
0.890196 0.898039 0.713725
0.996078 0.901961 0.721569
0.462745 0.996078 0.745098
0.470588 1.000000 0.729412
0.501961 1.000000 0.729412
0.568627 1.000000 0.745098
0.631373 1.000000 0.745098
0.717647 0.992157 0.745098
0.819608 1.000000 0.749020
0.905882 1.000000 0.772549
1.000000 1.000000 0.780392
0.003922 0.003922 0.772549
0.047059 0.000000 0.776471
0.227451 0.000000 0.776471
0.368627 0.000000 0.776471
0.513725 0.000000 0.784314
0.639216 0.003922 0.784314
0.764706 0.050980 0.788235
0.894118 0.101961 0.784314
0.996078 0.168627 0.792157
0.000000 0.117647 0.768627
0.039216 0.109804 0.776471
0.227451 0.113725 0.772549
0.376471 0.117647 0.776471
0.501961 0.121569 0.784314
0.639216 0.137255 0.784314
0.764706 0.152941 0.792157
0.886275 0.172549 0.780392
1.000000 0.223529 0.784314
0.003922 0.247059 0.784314
0.007843 0.250980 0.780392
0.231373 0.243137 0.788235
0.368627 0.250980 0.784314
0.509804 0.250980 0.784314
0.639216 0.254902 0.784314
0.764706 0.274510 0.792157
0.894118 0.286275 0.788235
1.000000 0.321569 0.788235
0.000000 0.376471 0.800000
0.000000 0.384314 0.788235
0.219608 0.380392 0.792157
0.368627 0.388235 0.788235
0.509804 0.392157 0.784314
0.639216 0.396078 0.792157
0.772549 0.403922 0.788235
0.901961 0.415686 0.800000
1.000000 0.439216 0.800000
0.000000 0.521569 0.780392
0.027451 0.513725 0.796078
0.211765 0.521569 0.784314
0.368627 0.521569 0.792157
0.509804 0.521569 0.792157
0.643137 0.529412 0.792157
0.772549 0.533333 0.796078
0.890196 0.541176 0.800000
0.996078 0.560784 0.800000
0.000000 0.647059 0.792157
0.125490 0.658824 0.792157
0.254902 0.654902 0.796078
0.388235 0.654902 0.800000
0.521569 0.654902 0.800000
0.647059 0.658824 0.796078
0.768627 0.666667 0.803922
0.886275 0.670588 0.796078
0.992157 0.686275 0.788235
0.188235 0.776471 0.800000
0.219608 0.780392 0.796078
0.313725 0.780392 0.803922
0.427451 0.784314 0.796078
0.549020 0.780392 0.796078
0.666667 0.788235 0.800000
0.772549 0.788235 0.800000
0.882353 0.796078 0.807843
0.992157 0.800000 0.823529
0.317647 0.886275 0.788235
0.345098 0.894118 0.796078
0.403922 0.894118 0.807843
0.486275 0.890196 0.803922
0.580392 0.901961 0.811765
0.690196 0.898039 0.811765
0.784314 0.894118 0.803922
0.890196 0.898039 0.807843
0.992157 0.901961 0.831373
0.470588 1.000000 0.811765
0.478431 0.992157 0.819608
0.509804 0.992157 0.811765
0.572549 1.000000 0.823529
0.635294 1.000000 0.827451
0.729412 0.996078 0.827451
0.815686 1.000000 0.827451
0.909804 0.996078 0.843137
1.000000 1.000000 0.858824
0.007843 0.000000 0.894118
0.082353 0.000000 0.898039
0.231373 0.000000 0.894118
0.380392 0.000000 0.905882
0.505882 0.003922 0.894118
0.635294 0.031373 0.901961
0.764706 0.082353 0.901961
0.882353 0.125490 0.898039
1.000000 0.176471 0.909804
0.007843 0.109804 0.898039
0.078431 0.113725 0.894118
0.235294 0.113725 0.898039
0.372549 0.121569 0.898039
0.505882 0.129412 0.898039
0.639216 0.145098 0.909804
0.756863 0.168627 0.894118
0.886275 0.200000 0.909804
0.996078 0.231373 0.898039
0.000000 0.239216 0.898039
0.070588 0.247059 0.894118
0.231373 0.250980 0.894118
0.376471 0.250980 0.890196
0.509804 0.254902 0.905882
0.639216 0.266667 0.901961
0.756863 0.282353 0.898039
0.890196 0.298039 0.905882
1.000000 0.317647 0.886275
0.007843 0.376471 0.894118
0.035294 0.376471 0.890196
0.227451 0.376471 0.898039
0.372549 0.384314 0.898039
0.509804 0.384314 0.905882
0.635294 0.396078 0.909804
0.760784 0.407843 0.901961
0.886275 0.415686 0.901961
1.000000 0.435294 0.917647
0.000000 0.513725 0.905882
0.062745 0.517647 0.898039
0.223529 0.513725 0.901961
0.372549 0.509804 0.901961
0.505882 0.513725 0.905882
0.627451 0.521569 0.901961
0.764706 0.533333 0.901961
0.882353 0.545098 0.901961
1.000000 0.560784 0.901961
0.074510 0.650980 0.894118
0.156863 0.647059 0.898039
0.266667 0.650980 0.898039
0.396078 0.650980 0.901961
0.517647 0.650980 0.901961
0.635294 0.654902 0.909804
0.764706 0.662745 0.901961
0.886275 0.666667 0.905882
0.996078 0.670588 0.898039
0.243137 0.776471 0.909804
0.270588 0.776471 0.901961
0.341176 0.776471 0.894118
0.443137 0.776471 0.898039
0.556863 0.776471 0.905882
0.666667 0.780392 0.898039
0.772549 0.784314 0.913725
0.886275 0.788235 0.901961
0.996078 0.800000 0.913725
0.352941 0.886275 0.901961
0.368627 0.890196 0.917647
0.415686 0.890196 0.894118
0.501961 0.890196 0.901961
0.588235 0.894118 0.909804
0.686275 0.898039 0.905882
0.792157 0.890196 0.905882
0.894118 0.890196 0.909804
1.000000 0.901961 0.913725
0.474510 1.000000 0.913725
0.486275 1.000000 0.905882
0.517647 1.000000 0.909804
0.572549 1.000000 0.909804
0.639216 1.000000 0.917647
0.725490 0.996078 0.913725
0.811765 1.000000 0.913725
0.909804 1.000000 0.921569
1.000000 0.996078 0.937255
0.039216 0.000000 1.000000
0.145098 0.007843 1.000000
0.266667 0.023529 1.000000
0.392157 0.031373 1.000000
0.509804 0.062745 0.996078
0.635294 0.105882 1.000000
0.756863 0.141176 1.000000
0.878431 0.180392 0.996078
1.000000 0.231373 1.000000
0.035294 0.133333 1.000000
0.137255 0.129412 1.000000
0.254902 0.137255 1.000000
0.380392 0.141176 1.000000
0.513725 0.156863 1.000000
0.635294 0.172549 1.000000
0.756863 0.200000 1.000000
0.874510 0.235294 1.000000
1.000000 0.266667 1.000000
0.019608 0.247059 1.000000
0.133333 0.254902 0.992157
0.262745 0.258824 1.000000
0.384314 0.258824 1.000000
0.513725 0.270588 0.996078
0.639216 0.278431 1.000000
0.760784 0.301961 1.000000
0.878431 0.321569 0.996078
1.000000 0.349020 1.000000
0.003922 0.380392 0.996078
0.121569 0.380392 1.000000
0.254902 0.380392 1.000000
0.388235 0.388235 1.000000
0.509804 0.396078 1.000000
0.631373 0.400000 0.996078
0.760784 0.415686 0.996078
0.878431 0.427451 1.000000
0.992157 0.450980 1.000000
0.000000 0.513725 1.000000
0.105882 0.509804 1.000000
0.250980 0.505882 0.992157
0.376471 0.517647 1.000000
0.501961 0.517647 1.000000
0.627451 0.529412 1.000000
0.752941 0.537255 1.000000
0.874510 0.549020 0.996078
0.988235 0.556863 1.000000
0.168627 0.647059 1.000000
0.211765 0.639216 0.992157
0.294118 0.643137 0.996078
0.407843 0.639216 1.000000
0.525490 0.639216 1.000000
0.643137 0.647059 1.000000
0.760784 0.658824 1.000000
0.882353 0.670588 1.000000
0.988235 0.678431 1.000000
0.298039 0.772549 1.000000
0.321569 0.768627 1.000000
0.380392 0.772549 1.000000
0.458824 0.768627 0.992157
0.560784 0.776471 1.000000
0.662745 0.776471 1.000000
0.772549 0.780392 1.000000
0.894118 0.788235 1.000000
1.000000 0.792157 1.000000
0.407843 0.886275 1.000000
0.415686 0.890196 0.992157
0.462745 0.894118 1.000000
0.533333 0.890196 0.996078
0.611765 0.890196 1.000000
0.694118 0.894118 1.000000
0.792157 0.890196 1.000000
0.894118 0.894118 0.996078
1.000000 0.898039 0.996078
0.505882 0.996078 1.000000
0.513725 1.000000 1.000000
0.549020 1.000000 1.000000
0.592157 1.000000 0.996078
0.654902 1.000000 1.000000
0.733333 1.000000 1.000000
0.823529 1.000000 0.996078
0.917647 1.000000 1.000000
1.000000 0.996078 1.000000
