lut_library_archive/removed_20260629/50个风景lut/50个风景lut08.cube
# 版权归凌孟成所有，侵权必究
TITLE "Jungle LUT #8"
#LUT size
LUT_3D_SIZE 9
#LUT data points
0.039216 0.043137 0.050980
0.129412 0.027451 0.039216
0.305882 0.000000 0.027451
0.439216 0.000000 0.015686
0.588235 0.000000 0.000000
0.745098 0.003922 0.000000
0.874510 0.000000 0.000000
0.996078 0.000000 0.000000
0.996078 0.000000 0.000000
0.000000 0.145098 0.078431
0.113725 0.152941 0.007843
0.309804 0.137255 0.000000
0.427451 0.137255 0.007843
0.588235 0.133333 0.003922
0.733333 0.129412 0.000000
0.870588 0.121569 0.007843
0.988235 0.105882 0.003922
0.996078 0.086275 0.000000
0.000000 0.298039 0.117647
0.003922 0.298039 0.043137
0.243137 0.290196 0.000000
0.435294 0.278431 0.000000
0.592157 0.290196 0.015686
0.752941 0.282353 0.003922
0.866667 0.278431 0.000000
1.000000 0.266667 0.000000
1.000000 0.247059 0.007843
0.000000 0.447059 0.196078
0.000000 0.447059 0.176471
0.003922 0.450980 0.003922
0.372549 0.435294 0.007843
0.596078 0.431373 0.000000
0.733333 0.427451 0.000000
0.858824 0.411765 0.000000
0.984314 0.407843 0.000000
0.996078 0.396078 0.000000
0.000000 0.607843 0.258824
0.011765 0.603922 0.278431
0.007843 0.611765 0.172549
0.000000 0.603922 0.000000
0.490196 0.592157 0.000000
0.733333 0.576471 0.000000
0.862745 0.560784 0.003922
0.992157 0.549020 0.000000
1.000000 0.529412 0.007843
0.000000 0.749020 0.352941
0.000000 0.756863 0.337255
0.007843 0.749020 0.317647
0.003922 0.752941 0.003922
0.003922 0.741176 0.000000
0.607843 0.725490 0.000000
0.862745 0.705882 0.000000
0.980392 0.686275 0.000000
1.000000 0.670588 0.003922
0.003922 0.862745 0.392157
0.003922 0.870588 0.396078
0.003922 0.870588 0.388235
0.007843 0.874510 0.298039
0.007843 0.870588 0.000000
0.164706 0.858824 0.000000
0.698039 0.839216 0.007843
0.976471 0.819608 0.000000
1.000000 0.800000 0.000000
0.011765 0.972549 0.454902
0.000000 0.984314 0.458824
0.003922 0.984314 0.431373
0.000000 0.992157 0.423529
0.007843 0.988235 0.180392
0.000000 0.992157 0.000000
0.345098 0.972549 0.007843
0.807843 0.945098 0.000000
1.000000 0.937255 0.007843
0.000000 1.000000 0.501961
0.003922 1.000000 0.501961
0.003922 0.992157 0.486275
0.000000 1.000000 0.474510
0.007843 0.996078 0.396078
0.000000 0.996078 0.000000
0.011765 0.996078 0.003922
0.623529 1.000000 0.011765
0.952941 0.996078 0.000000
0.000000 0.047059 0.137255
0.133333 0.019608 0.145098
0.305882 0.003922 0.145098
0.443137 0.000000 0.125490
0.584314 0.000000 0.125490
0.741176 0.003922 0.109804
0.870588 0.003922 0.094118
0.992157 0.000000 0.074510
1.000000 0.000000 0.039216
0.011765 0.137255 0.133333
0.149020 0.141176 0.145098
0.282353 0.145098 0.121569
0.435294 0.129412 0.113725
0.580392 0.129412 0.109804
0.729412 0.121569 0.105882
0.866667 0.109804 0.082353
0.992157 0.090196 0.058824
1.000000 0.062745 0.043137
0.003922 0.290196 0.184314
0.000000 0.301961 0.168627
0.258824 0.290196 0.105882
0.431373 0.278431 0.109804
0.592157 0.286275 0.098039
0.737255 0.274510 0.086275
0.870588 0.270588 0.066667
0.992157 0.262745 0.043137
1.000000 0.250980 0.007843
0.000000 0.443137 0.219608
0.000000 0.447059 0.207843
0.000000 0.450980 0.003922
0.368627 0.427451 0.054902
0.592157 0.435294 0.054902
0.729412 0.431373 0.062745
0.870588 0.415686 0.035294
0.992157 0.407843 0.000000
0.996078 0.396078 0.000000
0.007843 0.592157 0.301961
0.000000 0.600000 0.278431
0.000000 0.607843 0.239216
0.003922 0.600000 0.000000
0.498039 0.588235 0.000000
0.725490 0.568627 0.000000
0.866667 0.556863 0.011765
0.988235 0.545098 0.000000
1.000000 0.533333 0.011765
0.000000 0.745098 0.360784
0.003922 0.737255 0.356863
0.000000 0.749020 0.333333
0.000000 0.749020 0.098039
0.003922 0.737255 0.003922
0.611765 0.721569 0.007843
0.858824 0.698039 0.000000
0.976471 0.678431 0.000000
0.988235 0.666667 0.000000
0.000000 0.854902 0.423529
0.000000 0.854902 0.411765
0.007843 0.854902 0.396078
0.003922 0.862745 0.321569
0.000000 0.870588 0.003922
0.152941 0.862745 0.011765
0.713725 0.843137 0.000000
0.976471 0.811765 0.000000
0.996078 0.796078 0.000000
0.007843 0.980392 0.478431
0.007843 0.980392 0.478431
0.000000 0.980392 0.466667
0.003922 0.984314 0.431373
0.000000 0.992157 0.239216
0.007843 0.980392 0.000000
0.337255 0.968627 0.003922
0.815686 0.945098 0.000000
1.000000 0.933333 0.003922
0.003922 0.996078 0.521569
0.011765 0.996078 0.509804
0.000000 0.996078 0.505882
0.007843 0.996078 0.490196
0.003922 1.000000 0.411765
0.000000 1.000000 0.000000
0.000000 1.000000 0.000000
0.627451 1.000000 0.003922
0.960784 1.000000 0.003922
0.003922 0.023529 0.278431
0.133333 0.003922 0.274510
0.294118 0.000000 0.278431
0.443137 0.003922 0.270588
0.592157 0.000000 0.258824
0.741176 0.003922 0.262745
0.878431 0.000000 0.254902
0.996078 0.000000 0.243137
1.000000 0.000000 0.235294
0.000000 0.141176 0.274510
0.145098 0.129412 0.274510
0.286275 0.129412 0.274510
0.435294 0.133333 0.266667
0.596078 0.117647 0.270588
0.729412 0.098039 0.262745
0.870588 0.094118 0.254902
0.996078 0.078431 0.239216
1.000000 0.043137 0.223529
0.000000 0.290196 0.270588
0.133333 0.286275 0.266667
0.301961 0.282353 0.266667
0.435294 0.282353 0.262745
0.600000 0.286275 0.258824
0.737255 0.278431 0.250980
0.874510 0.262745 0.243137
0.988235 0.258824 0.239216
1.000000 0.243137 0.215686
0.000000 0.427451 0.313725
0.000000 0.435294 0.305882
0.000000 0.454902 0.278431
0.403922 0.427451 0.239216
0.592157 0.427451 0.247059
0.737255 0.419608 0.235294
0.862745 0.415686 0.239216
0.992157 0.407843 0.219608
0.996078 0.392157 0.211765
0.003922 0.588235 0.368627
0.000000 0.588235 0.349020
0.000000 0.600000 0.317647
0.000000 0.603922 0.156863
0.517647 0.588235 0.196078
0.717647 0.564706 0.207843
0.866667 0.552941 0.219608
0.984314 0.549020 0.207843
0.996078 0.525490 0.188235
0.000000 0.733333 0.407843
0.000000 0.737255 0.407843
0.000000 0.737255 0.388235
0.003922 0.741176 0.290196
0.003922 0.737255 0.121569
0.619608 0.709804 0.145098
0.854902 0.698039 0.172549
0.972549 0.678431 0.172549
1.000000 0.658824 0.168627
0.000000 0.850980 0.462745
0.000000 0.854902 0.454902
0.003922 0.862745 0.439216
0.003922 0.858824 0.415686
0.003922 0.866667 0.035294
0.176471 0.850980 0.003922
0.725490 0.847059 0.066667
0.984314 0.815686 0.133333
0.992157 0.788235 0.113725
0.000000 0.976471 0.505882
0.007843 0.972549 0.505882
0.003922 0.972549 0.490196
0.000000 0.980392 0.466667
0.003922 0.984314 0.356863
0.003922 0.984314 0.003922
0.349020 0.960784 0.000000
0.819608 0.949020 0.003922
0.996078 0.929412 0.000000
0.003922 0.992157 0.541176
0.003922 1.000000 0.545098
0.003922 0.996078 0.537255
0.000000 1.000000 0.513725
0.011765 0.996078 0.482353
0.000000 0.996078 0.101961
0.000000 0.996078 0.000000
0.643137 0.996078 0.000000
0.956863 1.000000 0.000000
0.000000 0.000000 0.415686
0.141176 0.000000 0.415686
0.286275 0.000000 0.411765
0.431373 0.007843 0.411765
0.596078 0.000000 0.411765
0.737255 0.000000 0.411765
0.874510 0.000000 0.403922
0.996078 0.003922 0.392157
1.000000 0.000000 0.384314
0.000000 0.133333 0.415686
0.133333 0.133333 0.407843
0.290196 0.125490 0.415686
0.439216 0.117647 0.415686
0.584314 0.105882 0.400000
0.737255 0.074510 0.400000
0.866667 0.062745 0.396078
0.996078 0.054902 0.380392
0.984314 0.047059 0.380392
0.000000 0.282353 0.411765
0.141176 0.274510 0.419608
0.298039 0.278431 0.407843
0.439216 0.274510 0.419608
0.596078 0.274510 0.423529
0.745098 0.258824 0.403922
0.870588 0.262745 0.396078
0.992157 0.258824 0.388235
0.996078 0.239216 0.376471
0.000000 0.427451 0.423529
0.109804 0.431373 0.415686
0.286275 0.427451 0.411765
0.439216 0.419608 0.396078
0.592157 0.423529 0.400000
0.725490 0.419608 0.403922
0.870588 0.419608 0.400000
0.992157 0.403922 0.380392
1.000000 0.396078 0.372549
0.000000 0.588235 0.450980
0.003922 0.588235 0.462745
0.019608 0.592157 0.447059
0.000000 0.600000 0.388235
0.549020 0.576471 0.376471
0.729412 0.564706 0.376471
0.866667 0.560784 0.372549
0.980392 0.545098 0.368627
1.000000 0.525490 0.380392
0.003922 0.729412 0.501961
0.003922 0.729412 0.501961
0.000000 0.737255 0.478431
0.003922 0.733333 0.447059
0.003922 0.737255 0.309804
0.650980 0.717647 0.349020
0.854902 0.701961 0.345098
0.984314 0.686275 0.360784
1.000000 0.658824 0.349020
0.000000 0.850980 0.525490
0.007843 0.850980 0.525490
0.000000 0.854902 0.509804
0.003922 0.862745 0.486275
0.000000 0.866667 0.380392
0.196078 0.854902 0.270588
0.745098 0.839216 0.298039
0.964706 0.815686 0.329412
0.992157 0.796078 0.313725
0.003922 0.968627 0.572549
0.007843 0.976471 0.556863
0.000000 0.976471 0.556863
0.003922 0.976471 0.537255
0.000000 0.984314 0.509804
0.003922 0.984314 0.184314
0.368627 0.964706 0.215686
0.827451 0.945098 0.254902
1.000000 0.921569 0.305882
0.000000 0.996078 0.596078
0.003922 1.000000 0.592157
0.003922 1.000000 0.592157
0.003922 0.996078 0.560784
0.003922 0.996078 0.537255
0.003922 0.996078 0.368627
0.000000 0.996078 0.101961
0.639216 1.000000 0.180392
0.980392 0.992157 0.227451
0.000000 0.000000 0.556863
0.141176 0.003922 0.560784
0.301961 0.000000 0.560784
0.439216 0.003922 0.556863
0.584314 0.000000 0.564706
0.741176 0.003922 0.556863
0.862745 0.000000 0.552941
0.992157 0.000000 0.537255
0.992157 0.003922 0.509804
0.000000 0.125490 0.545098
0.141176 0.133333 0.560784
0.294118 0.121569 0.564706
0.439216 0.117647 0.552941
0.584314 0.094118 0.556863
0.721569 0.062745 0.560784
0.858824 0.047059 0.541176
1.000000 0.035294 0.533333
0.992157 0.050980 0.517647
0.000000 0.274510 0.549020
0.117647 0.270588 0.564706
0.282353 0.266667 0.564706
0.450980 0.270588 0.564706
0.596078 0.254902 0.564706
0.737255 0.250980 0.549020
0.858824 0.258824 0.533333
1.000000 0.250980 0.525490
1.000000 0.270588 0.533333
0.000000 0.427451 0.549020
0.094118 0.423529 0.556863
0.270588 0.427451 0.556863
0.427451 0.411765 0.556863
0.596078 0.411765 0.552941
0.729412 0.411765 0.537255
0.862745 0.419608 0.537255
0.976471 0.419608 0.537255
1.000000 0.415686 0.533333
0.003922 0.576471 0.556863
0.007843 0.580392 0.568627
0.258824 0.584314 0.545098
0.447059 0.576471 0.549020
0.588235 0.568627 0.545098
0.725490 0.564706 0.549020
0.862745 0.556863 0.541176
0.976471 0.556863 0.533333
1.000000 0.537255 0.521569
0.000000 0.729412 0.576471
0.003922 0.721569 0.580392
0.113725 0.721569 0.588235
0.321569 0.717647 0.576471
0.235294 0.733333 0.525490
0.686275 0.713725 0.513725
0.847059 0.701961 0.525490
0.972549 0.686275 0.521569
1.000000 0.666667 0.517647
0.000000 0.839216 0.627451
0.000000 0.847059 0.611765
0.007843 0.843137 0.623529
0.003922 0.850980 0.596078
0.000000 0.862745 0.552941
0.235294 0.850980 0.431373
0.764706 0.843137 0.470588
0.972549 0.811765 0.498039
1.000000 0.796078 0.498039
0.000000 0.964706 0.662745
0.003922 0.956863 0.658824
0.000000 0.960784 0.654902
0.000000 0.968627 0.631373
0.003922 0.972549 0.596078
0.007843 0.976471 0.486275
0.400000 0.956863 0.407843
0.843137 0.945098 0.447059
1.000000 0.917647 0.490196
0.003922 1.000000 0.682353
0.003922 1.000000 0.682353
0.000000 0.996078 0.658824
0.000000 1.000000 0.654902
0.007843 0.996078 0.631373
0.003922 0.996078 0.560784
0.000000 1.000000 0.356863
0.670588 1.000000 0.403922
0.980392 1.000000 0.435294
0.000000 0.000000 0.698039
0.145098 0.000000 0.690196
0.294118 0.003922 0.698039
0.435294 0.000000 0.705882
0.588235 0.000000 0.701961
0.725490 0.000000 0.690196
0.862745 0.003922 0.678431
0.996078 0.000000 0.670588
1.000000 0.000000 0.658824
0.003922 0.121569 0.701961
0.137255 0.129412 0.698039
0.294118 0.117647 0.686275
0.435294 0.109804 0.698039
0.576471 0.086275 0.690196
0.721569 0.054902 0.694118
0.874510 0.003922 0.690196
1.000000 0.015686 0.682353
1.000000 0.050980 0.647059
0.000000 0.274510 0.690196
0.109804 0.270588 0.694118
0.274510 0.266667 0.694118
0.423529 0.258824 0.690196
0.580392 0.258824 0.694118
0.725490 0.247059 0.690196
0.870588 0.247059 0.682353
0.996078 0.247059 0.670588
1.000000 0.254902 0.662745
0.003922 0.407843 0.705882
0.086275 0.415686 0.698039
0.262745 0.407843 0.686275
0.419608 0.411765 0.698039
0.592157 0.403922 0.701961
0.729412 0.403922 0.694118
0.854902 0.415686 0.674510
0.980392 0.415686 0.666667
0.996078 0.419608 0.666667
0.000000 0.568627 0.690196
0.043137 0.560784 0.682353
0.266667 0.564706 0.690196
0.431373 0.560784 0.690196
0.580392 0.560784 0.678431
0.733333 0.556863 0.678431
0.850980 0.564706 0.670588
0.976471 0.556863 0.682353
1.000000 0.556863 0.666667
0.000000 0.717647 0.686275
0.066667 0.713725 0.686275
0.274510 0.717647 0.686275
0.431373 0.709804 0.678431
0.576471 0.701961 0.682353
0.725490 0.694118 0.682353
0.843137 0.698039 0.666667
0.972549 0.686275 0.670588
1.000000 0.682353 0.666667
0.003922 0.839216 0.682353
0.000000 0.835294 0.694118
0.141176 0.835294 0.701961
0.341176 0.831373 0.698039
0.498039 0.835294 0.713725
0.435294 0.850980 0.658824
0.800000 0.835294 0.650980
0.968627 0.815686 0.654902
0.996078 0.800000 0.662745
0.000000 0.952941 0.733333
0.000000 0.960784 0.745098
0.000000 0.949020 0.745098
0.211765 0.949020 0.752941
0.141176 0.949020 0.725490
0.000000 0.960784 0.686275
0.462745 0.956863 0.600000
0.874510 0.941176 0.627451
1.000000 0.913725 0.639216
0.003922 1.000000 0.784314
0.000000 1.000000 0.788235
0.000000 0.996078 0.792157
0.000000 1.000000 0.764706
0.000000 1.000000 0.741176
0.007843 1.000000 0.717647
0.003922 1.000000 0.576471
0.701961 0.996078 0.592157
0.996078 1.000000 0.623529
0.000000 0.000000 0.827451
0.133333 0.007843 0.827451
0.286275 0.003922 0.827451
0.427451 0.003922 0.823529
0.572549 0.003922 0.823529
0.709804 0.000000 0.819608
0.862745 0.000000 0.823529
0.992157 0.000000 0.811765
0.996078 0.000000 0.784314
0.000000 0.121569 0.823529
0.133333 0.121569 0.823529
0.282353 0.109804 0.819608
0.427451 0.109804 0.827451
0.564706 0.094118 0.823529
0.717647 0.058824 0.815686
0.862745 0.000000 0.823529
0.984314 0.000000 0.819608
0.996078 0.035294 0.792157
0.000000 0.254902 0.819608
0.109804 0.270588 0.835294
0.274510 0.270588 0.819608
0.427451 0.258824 0.823529
0.572549 0.250980 0.823529
0.701961 0.231373 0.815686
0.854902 0.235294 0.819608
0.992157 0.231373 0.811765
0.996078 0.254902 0.796078
0.003922 0.415686 0.815686
0.070588 0.411765 0.823529
0.270588 0.403922 0.823529
0.419608 0.407843 0.819608
0.572549 0.403922 0.827451
0.717647 0.396078 0.827451
0.862745 0.403922 0.819608
0.980392 0.407843 0.803922
1.000000 0.415686 0.796078
0.003922 0.549020 0.811765
0.074510 0.556863 0.827451
0.262745 0.556863 0.811765
0.423529 0.560784 0.819608
0.564706 0.556863 0.819608
0.705882 0.552941 0.815686
0.858824 0.549020 0.815686
0.976471 0.552941 0.796078
0.992157 0.564706 0.796078
0.007843 0.701961 0.811765
0.090196 0.701961 0.823529
0.274510 0.690196 0.815686
0.423529 0.694118 0.815686
0.572549 0.694118 0.815686
0.709804 0.698039 0.819608
0.858824 0.690196 0.807843
0.968627 0.694118 0.803922
1.000000 0.698039 0.800000
0.007843 0.835294 0.807843
0.066667 0.839216 0.803922
0.266667 0.835294 0.807843
0.419608 0.831373 0.803922
0.576471 0.831373 0.800000
0.713725 0.835294 0.811765
0.831373 0.831373 0.800000
0.964706 0.815686 0.803922
0.996078 0.819608 0.807843
0.000000 0.941176 0.796078
0.066667 0.952941 0.803922
0.247059 0.941176 0.800000
0.388235 0.949020 0.807843
0.529412 0.945098 0.827451
0.654902 0.945098 0.839216
0.631373 0.952941 0.792157
0.917647 0.933333 0.788235
0.984314 0.921569 0.780392
0.003922 1.000000 0.835294
0.007843 0.996078 0.835294
0.227451 0.996078 0.847059
0.372549 1.000000 0.858824
0.513725 1.000000 0.858824
0.545098 1.000000 0.854902
0.513725 0.996078 0.815686
0.756863 0.996078 0.760784
1.000000 1.000000 0.780392
0.000000 0.000000 0.941176
0.137255 0.000000 0.949020
0.278431 0.003922 0.945098
0.423529 0.003922 0.945098
0.560784 0.000000 0.941176
0.701961 0.000000 0.945098
0.839216 0.000000 0.933333
0.976471 0.003922 0.937255
0.996078 0.000000 0.933333
0.007843 0.125490 0.941176
0.133333 0.121569 0.949020
0.274510 0.117647 0.941176
0.419608 0.109804 0.945098
0.560784 0.094118 0.941176
0.701961 0.066667 0.941176
0.843137 0.031373 0.941176
0.992157 0.000000 0.941176
0.992157 0.000000 0.929412
0.000000 0.258824 0.925490
0.117647 0.258824 0.941176
0.278431 0.250980 0.941176
0.415686 0.258824 0.941176
0.556863 0.250980 0.933333
0.705882 0.247059 0.941176
0.843137 0.235294 0.945098
0.972549 0.231373 0.937255
0.992157 0.239216 0.925490
0.000000 0.403922 0.925490
0.098039 0.396078 0.937255
0.270588 0.400000 0.945098
0.411765 0.403922 0.941176
0.556863 0.396078 0.937255
0.701961 0.396078 0.937255
0.839216 0.400000 0.933333
0.972549 0.400000 0.929412
1.000000 0.411765 0.917647
0.000000 0.541176 0.945098
0.121569 0.541176 0.941176
0.282353 0.537255 0.937255
0.419608 0.549020 0.929412
0.564706 0.545098 0.937255
0.701961 0.545098 0.933333
0.839216 0.549020 0.937255
0.976471 0.545098 0.933333
1.000000 0.549020 0.917647
0.000000 0.678431 0.929412
0.117647 0.686275 0.933333
0.274510 0.678431 0.937255
0.415686 0.682353 0.929412
0.564706 0.686275 0.937255
0.698039 0.690196 0.937255
0.831373 0.690196 0.933333
0.968627 0.686275 0.933333
1.000000 0.690196 0.913725
0.007843 0.819608 0.929412
0.149020 0.819608 0.917647
0.282353 0.819608 0.921569
0.427451 0.815686 0.929412
0.568627 0.819608 0.929412
0.705882 0.823529 0.933333
0.835294 0.823529 0.929412
0.964706 0.815686 0.917647
0.996078 0.831373 0.917647
0.078431 0.952941 0.917647
0.172549 0.949020 0.921569
0.301961 0.949020 0.925490
0.443137 0.945098 0.925490
0.572549 0.945098 0.921569
0.709804 0.941176 0.917647
0.831373 0.929412 0.917647
0.949020 0.929412 0.917647
0.996078 0.937255 0.925490
0.321569 0.992157 0.898039
0.341176 1.000000 0.901961
0.411765 0.996078 0.901961
0.498039 1.000000 0.909804
0.600000 0.996078 0.917647
0.729412 0.996078 0.929412
0.843137 1.000000 0.949020
0.870588 1.000000 0.933333
0.996078 1.000000 0.937255
0.000000 0.000000 0.996078
0.129412 0.000000 1.000000
0.266667 0.003922 0.996078
0.403922 0.000000 1.000000
0.537255 0.000000 0.996078
0.678431 0.000000 1.000000
0.803922 0.000000 1.000000
0.937255 0.003922 1.000000
1.000000 0.000000 1.000000
0.000000 0.133333 1.000000
0.133333 0.125490 1.000000
0.266667 0.125490 0.996078
0.403922 0.121569 0.996078
0.537255 0.113725 1.000000
0.674510 0.105882 1.000000
0.807843 0.090196 1.000000
0.945098 0.074510 0.996078
0.988235 0.062745 0.996078
0.011765 0.258824 1.000000
0.133333 0.262745 1.000000
0.270588 0.258824 1.000000
0.403922 0.258824 1.000000
0.541176 0.258824 1.000000
0.674510 0.258824 1.000000
0.811765 0.250980 1.000000
0.941176 0.247059 1.000000
0.996078 0.247059 1.000000
0.043137 0.407843 1.000000
0.149020 0.396078 0.996078
0.278431 0.400000 1.000000
0.415686 0.403922 1.000000
0.545098 0.403922 1.000000
0.670588 0.400000 1.000000
0.807843 0.403922 1.000000
0.937255 0.403922 1.000000
1.000000 0.400000 0.996078
0.094118 0.533333 0.992157
0.192157 0.541176 1.000000
0.301961 0.541176 1.000000
0.423529 0.545098 1.000000
0.552941 0.541176 0.992157
0.682353 0.545098 1.000000
0.807843 0.545098 1.000000
0.933333 0.552941 1.000000
1.000000 0.552941 1.000000
0.125490 0.662745 1.000000
0.192157 0.662745 1.000000
0.313725 0.666667 1.000000
0.443137 0.670588 1.000000
0.576471 0.678431 1.000000
0.690196 0.678431 0.996078
0.811765 0.682353 1.000000
0.933333 0.686275 0.996078
1.000000 0.678431 1.000000
0.192157 0.788235 1.000000
0.239216 0.792157 1.000000
0.341176 0.792157 1.000000
0.458824 0.796078 0.996078
0.584314 0.803922 1.000000
0.705882 0.807843 1.000000
0.823529 0.815686 1.000000
0.925490 0.815686 1.000000
0.992157 0.823529 1.000000
0.247059 0.913725 1.000000
0.298039 0.909804 1.000000
0.380392 0.913725 1.000000
0.486275 0.909804 1.000000
0.600000 0.917647 1.000000
0.721569 0.921569 0.996078
0.835294 0.925490 0.996078
0.937255 0.933333 0.996078
1.000000 0.933333 0.996078
0.337255 1.000000 1.000000
0.372549 0.996078 1.000000
0.443137 0.996078 1.000000
0.537255 1.000000 1.000000
0.643137 1.000000 1.000000
0.760784 1.000000 1.000000
0.878431 1.000000 1.000000
0.964706 0.996078 1.000000
1.000000 0.996078 1.000000
