lut_library_archive/removed_20260629/50个风景lut/50个风景lut09.cube
# 版权归凌孟成所有，侵权必究
TITLE "Jungle LUT #9"
#LUT size
LUT_3D_SIZE 9
#LUT data points
0.000000 0.003922 0.000000
0.117647 0.000000 0.000000
0.270588 0.003922 0.000000
0.407843 0.000000 0.000000
0.568627 0.000000 0.000000
0.729412 0.003922 0.003922
0.882353 0.003922 0.007843
0.996078 0.003922 0.054902
0.992157 0.007843 0.105882
0.011765 0.113725 0.000000
0.141176 0.113725 0.003922
0.274510 0.113725 0.003922
0.423529 0.109804 0.003922
0.568627 0.109804 0.003922
0.729412 0.101961 0.000000
0.874510 0.101961 0.000000
0.996078 0.109804 0.031373
1.000000 0.129412 0.094118
0.058824 0.247059 0.003922
0.152941 0.250980 0.000000
0.290196 0.243137 0.007843
0.423529 0.247059 0.000000
0.576471 0.247059 0.003922
0.729412 0.254902 0.000000
0.882353 0.258824 0.003922
0.992157 0.262745 0.000000
1.000000 0.262745 0.066667
0.105882 0.388235 0.000000
0.184314 0.388235 0.000000
0.309804 0.388235 0.000000
0.443137 0.396078 0.003922
0.584314 0.396078 0.003922
0.721569 0.392157 0.003922
0.862745 0.396078 0.000000
0.992157 0.392157 0.000000
1.000000 0.400000 0.003922
0.125490 0.552941 0.000000
0.200000 0.556863 0.003922
0.321569 0.549020 0.003922
0.454902 0.549020 0.000000
0.592157 0.549020 0.000000
0.729412 0.545098 0.000000
0.862745 0.537255 0.000000
0.980392 0.529412 0.000000
1.000000 0.521569 0.000000
0.133333 0.698039 0.007843
0.211765 0.701961 0.000000
0.325490 0.698039 0.000000
0.458824 0.698039 0.000000
0.596078 0.690196 0.000000
0.733333 0.690196 0.000000
0.866667 0.686275 0.007843
0.988235 0.674510 0.000000
0.996078 0.654902 0.007843
0.141176 0.831373 0.000000
0.200000 0.827451 0.000000
0.321569 0.823529 0.000000
0.454902 0.831373 0.003922
0.588235 0.823529 0.000000
0.721569 0.823529 0.003922
0.850980 0.819608 0.007843
0.984314 0.800000 0.000000
0.988235 0.784314 0.003922
0.113725 0.937255 0.000000
0.196078 0.945098 0.000000
0.298039 0.941176 0.003922
0.439216 0.945098 0.003922
0.560784 0.941176 0.000000
0.705882 0.937255 0.000000
0.835294 0.933333 0.000000
0.976471 0.933333 0.000000
1.000000 0.917647 0.011765
0.090196 0.996078 0.000000
0.176471 1.000000 0.000000
0.290196 1.000000 0.000000
0.415686 1.000000 0.003922
0.545098 1.000000 0.000000
0.690196 1.000000 0.003922
0.831373 1.000000 0.000000
0.968627 0.996078 0.003922
1.000000 1.000000 0.003922
0.000000 0.000000 0.109804
0.121569 0.003922 0.113725
0.270588 0.003922 0.109804
0.411765 0.000000 0.117647
0.572549 0.000000 0.129412
0.733333 0.000000 0.137255
0.882353 0.000000 0.141176
0.996078 0.003922 0.156863
0.996078 0.043137 0.192157
0.011765 0.113725 0.109804
0.145098 0.113725 0.105882
0.270588 0.113725 0.113725
0.423529 0.109804 0.113725
0.572549 0.105882 0.121569
0.733333 0.105882 0.121569
0.874510 0.109804 0.133333
0.992157 0.125490 0.152941
0.996078 0.152941 0.184314
0.054902 0.243137 0.090196
0.160784 0.247059 0.094118
0.290196 0.243137 0.086275
0.427451 0.243137 0.078431
0.576471 0.250980 0.086275
0.737255 0.247059 0.098039
0.870588 0.254902 0.098039
1.000000 0.262745 0.133333
1.000000 0.266667 0.160784
0.086275 0.392157 0.062745
0.176471 0.388235 0.054902
0.301961 0.392157 0.047059
0.435294 0.392157 0.039216
0.592157 0.396078 0.015686
0.725490 0.400000 0.000000
0.870588 0.400000 0.023529
1.000000 0.396078 0.074510
1.000000 0.396078 0.121569
0.109804 0.552941 0.000000
0.200000 0.545098 0.000000
0.321569 0.545098 0.000000
0.458824 0.549020 0.000000
0.596078 0.545098 0.000000
0.729412 0.545098 0.000000
0.862745 0.537255 0.000000
0.992157 0.529412 0.003922
1.000000 0.521569 0.000000
0.117647 0.694118 0.000000
0.192157 0.698039 0.000000
0.321569 0.694118 0.000000
0.458824 0.694118 0.003922
0.596078 0.690196 0.000000
0.733333 0.686275 0.003922
0.866667 0.678431 0.003922
0.980392 0.662745 0.000000
1.000000 0.647059 0.000000
0.117647 0.819608 0.003922
0.196078 0.831373 0.000000
0.313725 0.823529 0.000000
0.447059 0.819608 0.003922
0.584314 0.819608 0.000000
0.721569 0.823529 0.003922
0.858824 0.819608 0.000000
0.980392 0.803922 0.000000
1.000000 0.788235 0.000000
0.109804 0.941176 0.023529
0.184314 0.941176 0.003922
0.305882 0.945098 0.000000
0.435294 0.941176 0.000000
0.560784 0.941176 0.000000
0.705882 0.937255 0.003922
0.831373 0.937255 0.000000
0.972549 0.929412 0.000000
0.996078 0.909804 0.000000
0.074510 0.996078 0.000000
0.164706 0.996078 0.003922
0.282353 1.000000 0.000000
0.411765 0.996078 0.000000
0.545098 1.000000 0.000000
0.686275 1.000000 0.000000
0.831373 1.000000 0.000000
0.976471 1.000000 0.003922
0.996078 1.000000 0.003922
0.000000 0.000000 0.235294
0.125490 0.000000 0.247059
0.274510 0.000000 0.247059
0.415686 0.000000 0.243137
0.580392 0.000000 0.258824
0.737255 0.000000 0.266667
0.886275 0.003922 0.278431
0.992157 0.066667 0.290196
1.000000 0.125490 0.309804
0.000000 0.113725 0.247059
0.129412 0.109804 0.235294
0.278431 0.098039 0.239216
0.419608 0.101961 0.239216
0.572549 0.113725 0.258824
0.733333 0.121569 0.266667
0.882353 0.137255 0.278431
0.992157 0.164706 0.294118
1.000000 0.188235 0.298039
0.023529 0.243137 0.231373
0.152941 0.250980 0.239216
0.298039 0.243137 0.231373
0.435294 0.247059 0.239216
0.580392 0.250980 0.243137
0.733333 0.258824 0.254902
0.874510 0.266667 0.258824
1.000000 0.278431 0.286275
1.000000 0.286275 0.301961
0.011765 0.392157 0.223529
0.152941 0.392157 0.219608
0.301961 0.392157 0.211765
0.447059 0.392157 0.215686
0.592157 0.392157 0.215686
0.733333 0.392157 0.215686
0.878431 0.396078 0.231373
1.000000 0.400000 0.247059
0.996078 0.400000 0.274510
0.058824 0.549020 0.188235
0.172549 0.549020 0.196078
0.313725 0.549020 0.196078
0.450980 0.549020 0.188235
0.600000 0.549020 0.180392
0.733333 0.541176 0.180392
0.866667 0.533333 0.180392
0.988235 0.529412 0.188235
1.000000 0.517647 0.211765
0.082353 0.698039 0.168627
0.184314 0.698039 0.156863
0.309804 0.694118 0.156863
0.450980 0.694118 0.156863
0.588235 0.694118 0.149020
0.729412 0.694118 0.149020
0.866667 0.682353 0.137255
0.984314 0.674510 0.141176
1.000000 0.647059 0.137255
0.074510 0.815686 0.109804
0.176471 0.823529 0.117647
0.309804 0.823529 0.113725
0.447059 0.819608 0.105882
0.580392 0.819608 0.101961
0.717647 0.819608 0.094118
0.858824 0.823529 0.082353
0.984314 0.803922 0.086275
0.996078 0.792157 0.090196
0.062745 0.941176 0.054902
0.168627 0.945098 0.062745
0.298039 0.941176 0.054902
0.427451 0.941176 0.047059
0.564706 0.941176 0.031373
0.690196 0.937255 0.003922
0.839216 0.937255 0.000000
0.976471 0.933333 0.000000
1.000000 0.913725 0.000000
0.031373 1.000000 0.000000
0.141176 1.000000 0.000000
0.270588 1.000000 0.003922
0.407843 1.000000 0.000000
0.541176 0.996078 0.000000
0.686275 1.000000 0.000000
0.823529 1.000000 0.000000
0.972549 1.000000 0.003922
0.996078 1.000000 0.003922
0.000000 0.000000 0.384314
0.137255 0.000000 0.372549
0.278431 0.000000 0.376471
0.419608 0.000000 0.376471
0.576471 0.000000 0.384314
0.733333 0.003922 0.392157
0.882353 0.000000 0.396078
1.000000 0.117647 0.423529
1.000000 0.258824 0.454902
0.000000 0.101961 0.364706
0.141176 0.094118 0.376471
0.282353 0.086275 0.372549
0.423529 0.066667 0.380392
0.568627 0.019608 0.376471
0.733333 0.035294 0.388235
0.878431 0.121569 0.407843
1.000000 0.215686 0.431373
1.000000 0.282353 0.454902
0.000000 0.247059 0.376471
0.141176 0.243137 0.380392
0.290196 0.235294 0.372549
0.431373 0.231373 0.368627
0.592157 0.239216 0.380392
0.741176 0.266667 0.396078
0.874510 0.301961 0.415686
0.992157 0.325490 0.431373
1.000000 0.333333 0.439216
0.015686 0.392157 0.376471
0.149020 0.392157 0.388235
0.294118 0.392157 0.376471
0.439216 0.388235 0.364706
0.600000 0.392157 0.368627
0.733333 0.400000 0.380392
0.882353 0.415686 0.392157
0.992157 0.423529 0.411765
1.000000 0.439216 0.423529
0.000000 0.545098 0.352941
0.105882 0.552941 0.352941
0.290196 0.549020 0.352941
0.447059 0.552941 0.352941
0.596078 0.545098 0.341176
0.737255 0.541176 0.345098
0.866667 0.537255 0.356863
0.984314 0.537255 0.364706
1.000000 0.537255 0.396078
0.000000 0.698039 0.329412
0.149020 0.701961 0.333333
0.298039 0.701961 0.341176
0.447059 0.694118 0.337255
0.592157 0.698039 0.333333
0.733333 0.690196 0.329412
0.870588 0.678431 0.317647
0.988235 0.666667 0.329412
1.000000 0.643137 0.325490
0.007843 0.823529 0.313725
0.141176 0.827451 0.313725
0.290196 0.827451 0.317647
0.431373 0.827451 0.317647
0.580392 0.819608 0.313725
0.717647 0.823529 0.301961
0.858824 0.819608 0.305882
0.980392 0.803922 0.313725
1.000000 0.780392 0.298039
0.000000 0.941176 0.301961
0.137255 0.945098 0.298039
0.270588 0.945098 0.309804
0.423529 0.941176 0.298039
0.552941 0.937255 0.290196
0.701961 0.929412 0.294118
0.831373 0.929412 0.278431
0.976471 0.933333 0.278431
1.000000 0.909804 0.274510
0.003922 1.000000 0.298039
0.109804 1.000000 0.282353
0.254902 0.996078 0.282353
0.396078 1.000000 0.278431
0.533333 0.996078 0.274510
0.686275 1.000000 0.274510
0.823529 1.000000 0.262745
0.964706 1.000000 0.266667
1.000000 1.000000 0.282353
0.007843 0.003922 0.513725
0.145098 0.000000 0.517647
0.274510 0.000000 0.517647
0.423529 0.003922 0.521569
0.572549 0.000000 0.521569
0.733333 0.000000 0.529412
0.874510 0.003922 0.509804
1.000000 0.000000 0.545098
0.992157 0.184314 0.537255
0.000000 0.094118 0.517647
0.129412 0.094118 0.505882
0.286275 0.074510 0.521569
0.435294 0.043137 0.529412
0.568627 0.000000 0.513725
0.729412 0.003922 0.521569
0.874510 0.003922 0.517647
1.000000 0.125490 0.513725
0.996078 0.266667 0.560784
0.003922 0.231373 0.517647
0.129412 0.231373 0.525490
0.290196 0.227451 0.521569
0.435294 0.223529 0.521569
0.592157 0.211765 0.521569
0.741176 0.196078 0.513725
0.878431 0.239216 0.525490
0.992157 0.305882 0.545098
1.000000 0.396078 0.592157
0.000000 0.396078 0.525490
0.129412 0.388235 0.513725
0.290196 0.384314 0.517647
0.443137 0.380392 0.521569
0.592157 0.372549 0.509804
0.741176 0.403922 0.525490
0.866667 0.450980 0.552941
0.988235 0.498039 0.584314
1.000000 0.521569 0.603922
0.003922 0.549020 0.505882
0.117647 0.545098 0.521569
0.294118 0.552941 0.513725
0.443137 0.552941 0.505882
0.600000 0.545098 0.509804
0.733333 0.541176 0.513725
0.866667 0.552941 0.525490
0.980392 0.572549 0.545098
0.996078 0.572549 0.560784
0.003922 0.705882 0.509804
0.113725 0.701961 0.494118
0.282353 0.701961 0.498039
0.435294 0.698039 0.490196
0.584314 0.694118 0.494118
0.741176 0.690196 0.486275
0.866667 0.678431 0.498039
0.988235 0.670588 0.494118
0.996078 0.666667 0.517647
0.054902 0.831373 0.490196
0.168627 0.827451 0.482353
0.294118 0.823529 0.490196
0.423529 0.827451 0.478431
0.576471 0.827451 0.482353
0.717647 0.819608 0.470588
0.858824 0.819608 0.470588
0.980392 0.807843 0.466667
1.000000 0.780392 0.462745
0.011765 0.937255 0.470588
0.109804 0.945098 0.474510
0.266667 0.945098 0.474510
0.411765 0.941176 0.466667
0.552941 0.945098 0.466667
0.698039 0.937255 0.462745
0.835294 0.929412 0.458824
0.968627 0.929412 0.447059
1.000000 0.913725 0.443137
0.007843 0.996078 0.458824
0.105882 1.000000 0.462745
0.258824 0.996078 0.454902
0.396078 1.000000 0.450980
0.525490 1.000000 0.454902
0.674510 0.996078 0.454902
0.815686 1.000000 0.450980
0.952941 1.000000 0.447059
0.996078 1.000000 0.458824
0.011765 0.000000 0.654902
0.152941 0.000000 0.662745
0.294118 0.000000 0.654902
0.427451 0.000000 0.670588
0.576471 0.000000 0.658824
0.729412 0.000000 0.658824
0.866667 0.000000 0.654902
0.992157 0.003922 0.643137
1.000000 0.000000 0.650980
0.000000 0.078431 0.658824
0.141176 0.066667 0.658824
0.294118 0.058824 0.654902
0.427451 0.007843 0.658824
0.576471 0.000000 0.662745
0.733333 0.000000 0.662745
0.870588 0.000000 0.647059
0.996078 0.003922 0.643137
0.992157 0.137255 0.647059
0.000000 0.227451 0.686275
0.125490 0.227451 0.662745
0.282353 0.215686 0.662745
0.431373 0.207843 0.658824
0.588235 0.200000 0.666667
0.745098 0.172549 0.662745
0.858824 0.180392 0.643137
0.988235 0.211765 0.647059
1.000000 0.313725 0.647059
0.000000 0.388235 0.654902
0.105882 0.380392 0.662745
0.274510 0.380392 0.658824
0.439216 0.376471 0.670588
0.592157 0.372549 0.658824
0.745098 0.368627 0.666667
0.870588 0.380392 0.647059
0.992157 0.427451 0.666667
1.000000 0.494118 0.686275
0.000000 0.537255 0.670588
0.101961 0.537255 0.654902
0.286275 0.533333 0.654902
0.439216 0.537255 0.654902
0.596078 0.537255 0.658824
0.741176 0.533333 0.650980
0.862745 0.564706 0.666667
0.976471 0.611765 0.694118
1.000000 0.650980 0.721569
0.000000 0.701961 0.654902
0.101961 0.698039 0.647059
0.294118 0.690196 0.650980
0.435294 0.694118 0.654902
0.584314 0.694118 0.647059
0.725490 0.686275 0.647059
0.858824 0.690196 0.654902
0.968627 0.698039 0.670588
0.996078 0.709804 0.686275
0.070588 0.827451 0.635294
0.160784 0.823529 0.631373
0.305882 0.819608 0.639216
0.447059 0.823529 0.643137
0.580392 0.819608 0.647059
0.713725 0.823529 0.635294
0.850980 0.819608 0.635294
0.976471 0.811765 0.631373
1.000000 0.788235 0.639216
0.192157 0.933333 0.635294
0.250980 0.945098 0.631373
0.356863 0.937255 0.639216
0.454902 0.941176 0.635294
0.556863 0.941176 0.631373
0.690196 0.929412 0.623529
0.823529 0.929412 0.619608
0.960784 0.925490 0.615686
1.000000 0.913725 0.615686
0.333333 1.000000 0.654902
0.352941 1.000000 0.650980
0.352941 1.000000 0.631373
0.423529 1.000000 0.623529
0.549020 1.000000 0.623529
0.682353 1.000000 0.619608
0.823529 0.996078 0.615686
0.956863 0.996078 0.619608
1.000000 1.000000 0.623529
0.011765 0.000000 0.796078
0.149020 0.003922 0.792157
0.282353 0.003922 0.788235
0.435294 0.000000 0.796078
0.576471 0.000000 0.800000
0.721569 0.000000 0.792157
0.870588 0.000000 0.796078
0.992157 0.003922 0.784314
1.000000 0.000000 0.764706
0.000000 0.058824 0.792157
0.145098 0.058824 0.800000
0.286275 0.039216 0.803922
0.435294 0.000000 0.796078
0.568627 0.003922 0.792157
0.725490 0.003922 0.796078
0.870588 0.000000 0.796078
0.988235 0.003922 0.772549
1.000000 0.000000 0.768627
0.000000 0.223529 0.788235
0.125490 0.219608 0.807843
0.282353 0.211765 0.792157
0.431373 0.200000 0.796078
0.580392 0.192157 0.792157
0.717647 0.180392 0.796078
0.878431 0.149020 0.792157
0.996078 0.160784 0.780392
0.992157 0.192157 0.745098
0.003922 0.372549 0.796078
0.082353 0.372549 0.800000
0.274510 0.368627 0.800000
0.431373 0.364706 0.803922
0.584314 0.364706 0.792157
0.737255 0.360784 0.800000
0.882353 0.356863 0.796078
0.996078 0.376471 0.780392
0.996078 0.396078 0.772549
0.000000 0.533333 0.792157
0.082353 0.525490 0.800000
0.274510 0.529412 0.796078
0.427451 0.533333 0.796078
0.584314 0.525490 0.796078
0.725490 0.525490 0.788235
0.870588 0.533333 0.788235
0.976471 0.541176 0.776471
0.996078 0.576471 0.788235
0.000000 0.690196 0.784314
0.098039 0.682353 0.800000
0.278431 0.686275 0.784314
0.427451 0.682353 0.792157
0.576471 0.682353 0.788235
0.721569 0.682353 0.788235
0.858824 0.690196 0.796078
0.964706 0.709804 0.796078
0.992157 0.745098 0.827451
0.003922 0.835294 0.780392
0.152941 0.835294 0.776471
0.294118 0.835294 0.784314
0.447059 0.831373 0.780392
0.580392 0.827451 0.784314
0.717647 0.827451 0.780392
0.847059 0.819608 0.788235
0.960784 0.827451 0.784314
0.992157 0.831373 0.815686
0.203922 0.945098 0.764706
0.258824 0.941176 0.764706
0.345098 0.937255 0.760784
0.474510 0.937255 0.772549
0.596078 0.933333 0.780392
0.717647 0.941176 0.776471
0.827451 0.933333 0.764706
0.964706 0.929412 0.776471
1.000000 0.913725 0.768627
0.345098 1.000000 0.760784
0.368627 1.000000 0.756863
0.431373 1.000000 0.768627
0.533333 1.000000 0.788235
0.635294 0.996078 0.796078
0.698039 1.000000 0.776471
0.827451 0.996078 0.776471
0.952941 0.996078 0.776471
1.000000 1.000000 0.788235
0.007843 0.000000 0.913725
0.152941 0.000000 0.913725
0.290196 0.000000 0.921569
0.427451 0.000000 0.921569
0.572549 0.000000 0.921569
0.713725 0.000000 0.917647
0.854902 0.003922 0.917647
1.000000 0.003922 0.929412
1.000000 0.000000 0.905882
0.000000 0.047059 0.917647
0.145098 0.031373 0.925490
0.282353 0.011765 0.925490
0.427451 0.000000 0.921569
0.568627 0.003922 0.925490
0.713725 0.000000 0.921569
0.854902 0.000000 0.925490
1.000000 0.000000 0.917647
0.996078 0.000000 0.886275
0.003922 0.207843 0.917647
0.117647 0.215686 0.925490
0.270588 0.211765 0.921569
0.427451 0.200000 0.917647
0.568627 0.192157 0.925490
0.709804 0.180392 0.925490
0.858824 0.156863 0.929412
0.996078 0.137255 0.921569
0.988235 0.176471 0.905882
0.000000 0.356863 0.913725
0.098039 0.364706 0.925490
0.274510 0.364706 0.921569
0.423529 0.364706 0.925490
0.564706 0.364706 0.917647
0.717647 0.360784 0.917647
0.858824 0.360784 0.921569
1.000000 0.360784 0.921569
1.000000 0.384314 0.898039
0.007843 0.509804 0.921569
0.078431 0.517647 0.937255
0.266667 0.513725 0.917647
0.423529 0.521569 0.921569
0.568627 0.521569 0.921569
0.701961 0.521569 0.917647
0.854902 0.521569 0.917647
0.992157 0.517647 0.921569
1.000000 0.533333 0.886275
0.000000 0.670588 0.913725
0.078431 0.670588 0.917647
0.274510 0.670588 0.921569
0.419608 0.670588 0.913725
0.568627 0.670588 0.909804
0.709804 0.670588 0.909804
0.847059 0.674510 0.921569
0.976471 0.682353 0.905882
1.000000 0.686275 0.886275
0.003922 0.815686 0.917647
0.145098 0.815686 0.913725
0.282353 0.815686 0.901961
0.439216 0.815686 0.913725
0.580392 0.823529 0.921569
0.717647 0.819608 0.909804
0.843137 0.823529 0.917647
0.968627 0.819608 0.909804
1.000000 0.835294 0.913725
0.156863 0.949020 0.917647
0.211765 0.952941 0.905882
0.337255 0.949020 0.898039
0.458824 0.941176 0.898039
0.580392 0.937255 0.905882
0.725490 0.929412 0.909804
0.843137 0.929412 0.909804
0.956863 0.929412 0.905882
0.996078 0.937255 0.917647
0.368627 1.000000 0.890196
0.388235 1.000000 0.886275
0.447059 1.000000 0.874510
0.537255 1.000000 0.886275
0.650980 0.996078 0.898039
0.752941 1.000000 0.909804
0.866667 0.996078 0.913725
0.952941 0.996078 0.929412
1.000000 0.996078 0.937255
0.003922 0.007843 0.992157
0.145098 0.000000 1.000000
0.278431 0.000000 1.000000
0.415686 0.000000 1.000000
0.556863 0.003922 1.000000
0.694118 0.000000 1.000000
0.831373 0.000000 1.000000
0.968627 0.003922 0.996078
1.000000 0.000000 0.996078
0.000000 0.031373 0.996078
0.141176 0.023529 0.996078
0.282353 0.007843 1.000000
0.419608 0.000000 1.000000
0.556863 0.003922 1.000000
0.694118 0.000000 1.000000
0.835294 0.003922 0.996078
0.968627 0.000000 1.000000
1.000000 0.000000 0.996078
0.003922 0.203922 1.000000
0.125490 0.211765 0.992157
0.274510 0.207843 1.000000
0.411765 0.196078 1.000000
0.549020 0.200000 1.000000
0.694118 0.188235 1.000000
0.827451 0.180392 1.000000
0.960784 0.172549 1.000000
0.996078 0.156863 0.988235
0.003922 0.360784 1.000000
0.121569 0.364706 1.000000
0.274510 0.360784 1.000000
0.407843 0.360784 0.996078
0.549020 0.368627 0.996078
0.694118 0.360784 1.000000
0.835294 0.364706 1.000000
0.968627 0.364706 1.000000
1.000000 0.364706 1.000000
0.000000 0.509804 1.000000
0.074510 0.501961 0.996078
0.282353 0.517647 1.000000
0.415686 0.517647 1.000000
0.556863 0.509804 0.996078
0.686275 0.525490 0.996078
0.827451 0.521569 1.000000
0.960784 0.525490 1.000000
0.996078 0.525490 1.000000
0.007843 0.643137 1.000000
0.058824 0.650980 0.992157
0.258824 0.647059 1.000000
0.415686 0.654902 1.000000
0.560784 0.662745 0.996078
0.690196 0.670588 1.000000
0.823529 0.666667 1.000000
0.956863 0.674510 0.996078
1.000000 0.670588 1.000000
0.086275 0.796078 0.996078
0.172549 0.784314 1.000000
0.298039 0.796078 1.000000
0.435294 0.792157 1.000000
0.572549 0.796078 1.000000
0.701961 0.803922 0.996078
0.823529 0.807843 1.000000
0.945098 0.815686 1.000000
1.000000 0.819608 1.000000
0.188235 0.925490 1.000000
0.231373 0.921569 1.000000
0.337255 0.917647 1.000000
0.458824 0.921569 1.000000
0.588235 0.929412 1.000000
0.717647 0.925490 0.996078
0.827451 0.925490 0.996078
0.945098 0.933333 1.000000
0.996078 0.941176 1.000000
0.301961 0.996078 0.996078
0.329412 1.000000 1.000000
0.407843 0.996078 0.992157
0.513725 1.000000 1.000000
0.639216 1.000000 0.996078
0.764706 1.000000 0.992157
0.886275 1.000000 0.992157
0.976471 1.000000 1.000000
0.996078 1.000000 1.000000
