lut_library_archive/removed_20260629/50个风景lut/50个风景lut37.cube
# 版权归凌孟成所有，侵权必究
TITLE "Jungle LUT #37"
#LUT size
LUT_3D_SIZE 9
#LUT data points
0.003922 0.000000 0.000000
0.117647 0.000000 0.000000
0.231373 0.003922 0.000000
0.356863 0.000000 0.000000
0.490196 0.003922 0.011765
0.631373 0.003922 0.019608
0.772549 0.000000 0.035294
0.905882 0.015686 0.054902
1.000000 0.058824 0.086275
0.000000 0.109804 0.000000
0.105882 0.109804 0.000000
0.223529 0.113725 0.019608
0.360784 0.117647 0.019608
0.498039 0.121569 0.023529
0.631373 0.133333 0.035294
0.772549 0.137255 0.058824
0.901961 0.149020 0.066667
1.000000 0.164706 0.117647
0.000000 0.243137 0.007843
0.101961 0.239216 0.003922
0.243137 0.243137 0.000000
0.368627 0.239216 0.023529
0.494118 0.254902 0.074510
0.635294 0.266667 0.086275
0.776471 0.274510 0.082353
0.905882 0.278431 0.105882
1.000000 0.290196 0.152941
0.003922 0.372549 0.000000
0.082353 0.380392 0.000000
0.239216 0.372549 0.000000
0.368627 0.372549 0.003922
0.494118 0.384314 0.000000
0.635294 0.403922 0.113725
0.776471 0.411765 0.149020
0.905882 0.423529 0.168627
1.000000 0.427451 0.184314
0.000000 0.513725 0.000000
0.035294 0.513725 0.007843
0.227451 0.509804 0.007843
0.364706 0.509804 0.000000
0.505882 0.509804 0.007843
0.643137 0.517647 0.000000
0.776471 0.533333 0.105882
0.909804 0.549020 0.215686
0.988235 0.572549 0.247059
0.000000 0.654902 0.000000
0.011765 0.647059 0.000000
0.211765 0.647059 0.003922
0.356863 0.650980 0.003922
0.501961 0.647059 0.000000
0.635294 0.654902 0.007843
0.772549 0.650980 0.000000
0.905882 0.662745 0.094118
0.992157 0.678431 0.243137
0.000000 0.780392 0.000000
0.000000 0.780392 0.007843
0.184314 0.780392 0.000000
0.356863 0.780392 0.007843
0.494118 0.776471 0.000000
0.627451 0.776471 0.000000
0.764706 0.772549 0.000000
0.898039 0.772549 0.000000
1.000000 0.768627 0.105882
0.000000 0.901961 0.000000
0.000000 0.905882 0.003922
0.149020 0.898039 0.000000
0.329412 0.905882 0.000000
0.482353 0.901961 0.007843
0.623529 0.901961 0.000000
0.749020 0.901961 0.000000
0.886275 0.898039 0.007843
1.000000 0.905882 0.000000
0.000000 1.000000 0.007843
0.000000 1.000000 0.003922
0.117647 1.000000 0.000000
0.313725 1.000000 0.000000
0.478431 1.000000 0.000000
0.603922 1.000000 0.000000
0.741176 0.996078 0.000000
0.874510 0.996078 0.003922
0.992157 0.996078 0.000000
0.000000 0.003922 0.121569
0.113725 0.000000 0.117647
0.239216 0.000000 0.121569
0.368627 0.003922 0.125490
0.494118 0.000000 0.117647
0.631373 0.003922 0.121569
0.772549 0.000000 0.137255
0.905882 0.000000 0.149020
1.000000 0.035294 0.164706
0.000000 0.113725 0.113725
0.117647 0.109804 0.113725
0.227451 0.109804 0.117647
0.356863 0.113725 0.125490
0.494118 0.117647 0.125490
0.635294 0.117647 0.137255
0.772549 0.129412 0.141176
0.905882 0.137255 0.160784
1.000000 0.152941 0.164706
0.003922 0.243137 0.113725
0.090196 0.247059 0.113725
0.239216 0.243137 0.117647
0.360784 0.243137 0.141176
0.494118 0.250980 0.152941
0.639216 0.266667 0.156863
0.768627 0.270588 0.156863
0.905882 0.274510 0.172549
0.996078 0.290196 0.192157
0.000000 0.372549 0.105882
0.058824 0.368627 0.101961
0.227451 0.372549 0.098039
0.368627 0.372549 0.098039
0.501961 0.380392 0.129412
0.643137 0.403922 0.192157
0.780392 0.419608 0.203922
0.913725 0.423529 0.219608
1.000000 0.427451 0.239216
0.000000 0.509804 0.082353
0.003922 0.509804 0.078431
0.211765 0.509804 0.074510
0.368627 0.513725 0.070588
0.505882 0.513725 0.078431
0.639216 0.509804 0.098039
0.780392 0.529412 0.180392
0.917647 0.552941 0.250980
1.000000 0.568627 0.282353
0.000000 0.643137 0.027451
0.000000 0.647059 0.031373
0.192157 0.647059 0.023529
0.349020 0.647059 0.019608
0.505882 0.647059 0.019608
0.635294 0.643137 0.011765
0.764706 0.650980 0.011765
0.901961 0.662745 0.176471
1.000000 0.674510 0.286275
0.000000 0.780392 0.000000
0.003922 0.776471 0.007843
0.176471 0.772549 0.000000
0.337255 0.776471 0.000000
0.498039 0.772549 0.000000
0.631373 0.780392 0.000000
0.768627 0.784314 0.007843
0.905882 0.776471 0.000000
0.996078 0.784314 0.188235
0.007843 0.898039 0.000000
0.000000 0.905882 0.011765
0.145098 0.901961 0.000000
0.329412 0.898039 0.000000
0.478431 0.898039 0.000000
0.623529 0.901961 0.000000
0.756863 0.901961 0.003922
0.878431 0.901961 0.000000
1.000000 0.890196 0.011765
0.000000 0.996078 0.007843
0.000000 1.000000 0.000000
0.125490 1.000000 0.000000
0.337255 1.000000 0.000000
0.466667 1.000000 0.000000
0.607843 0.996078 0.003922
0.741176 1.000000 0.000000
0.870588 1.000000 0.000000
0.984314 1.000000 0.000000
0.003922 0.000000 0.250980
0.117647 0.000000 0.250980
0.239216 0.003922 0.247059
0.364706 0.003922 0.258824
0.501961 0.000000 0.247059
0.635294 0.003922 0.247059
0.768627 0.003922 0.239216
0.905882 0.000000 0.243137
1.000000 0.003922 0.247059
0.000000 0.105882 0.223529
0.098039 0.105882 0.266667
0.243137 0.094118 0.247059
0.372549 0.098039 0.250980
0.505882 0.090196 0.247059
0.635294 0.070588 0.243137
0.772549 0.054902 0.247059
0.901961 0.086275 0.243137
0.992157 0.117647 0.262745
0.000000 0.239216 0.247059
0.074510 0.247059 0.250980
0.239216 0.239216 0.247059
0.364706 0.239216 0.243137
0.498039 0.247059 0.250980
0.643137 0.243137 0.254902
0.776471 0.250980 0.254902
0.909804 0.262745 0.258824
1.000000 0.278431 0.278431
0.007843 0.372549 0.250980
0.007843 0.384314 0.235294
0.219608 0.376471 0.231373
0.368627 0.376471 0.231373
0.501961 0.380392 0.266667
0.635294 0.403922 0.278431
0.780392 0.407843 0.282353
0.909804 0.415686 0.290196
1.000000 0.427451 0.305882
0.000000 0.509804 0.227451
0.000000 0.521569 0.219608
0.196078 0.509804 0.223529
0.356863 0.513725 0.227451
0.501961 0.509804 0.215686
0.639216 0.509804 0.231373
0.780392 0.541176 0.298039
0.913725 0.556863 0.349020
1.000000 0.568627 0.345098
0.000000 0.650980 0.203922
0.000000 0.650980 0.207843
0.180392 0.643137 0.203922
0.349020 0.650980 0.203922
0.498039 0.647059 0.203922
0.635294 0.647059 0.196078
0.776471 0.643137 0.211765
0.909804 0.662745 0.290196
1.000000 0.682353 0.372549
0.000000 0.788235 0.176471
0.000000 0.776471 0.192157
0.145098 0.780392 0.180392
0.329412 0.780392 0.164706
0.490196 0.776471 0.172549
0.627451 0.780392 0.172549
0.764706 0.780392 0.168627
0.909804 0.780392 0.172549
1.000000 0.780392 0.290196
0.000000 0.901961 0.149020
0.007843 0.901961 0.145098
0.129412 0.901961 0.145098
0.321569 0.909804 0.145098
0.474510 0.905882 0.141176
0.619608 0.901961 0.129412
0.752941 0.898039 0.137255
0.894118 0.901961 0.129412
0.996078 0.905882 0.125490
0.000000 1.000000 0.113725
0.003922 1.000000 0.113725
0.133333 1.000000 0.109804
0.321569 0.996078 0.109804
0.470588 1.000000 0.109804
0.611765 0.996078 0.105882
0.737255 1.000000 0.109804
0.866667 1.000000 0.117647
0.992157 1.000000 0.113725
0.003922 0.003922 0.356863
0.133333 0.000000 0.364706
0.239216 0.000000 0.364706
0.376471 0.003922 0.364706
0.505882 0.000000 0.364706
0.635294 0.000000 0.364706
0.768627 0.000000 0.368627
0.905882 0.003922 0.360784
0.992157 0.003922 0.360784
0.000000 0.098039 0.360784
0.113725 0.090196 0.364706
0.250980 0.086275 0.368627
0.380392 0.074510 0.368627
0.509804 0.070588 0.368627
0.639216 0.058824 0.372549
0.768627 0.019608 0.364706
0.917647 0.000000 0.368627
1.000000 0.000000 0.356863
0.007843 0.239216 0.364706
0.078431 0.227451 0.368627
0.223529 0.235294 0.372549
0.380392 0.223529 0.368627
0.505882 0.223529 0.368627
0.643137 0.223529 0.364706
0.768627 0.219608 0.364706
0.905882 0.211765 0.356863
0.996078 0.223529 0.360784
0.000000 0.372549 0.356863
0.027451 0.372549 0.368627
0.215686 0.380392 0.372549
0.380392 0.364706 0.360784
0.501961 0.368627 0.360784
0.631373 0.376471 0.360784
0.776471 0.392157 0.380392
0.917647 0.396078 0.376471
1.000000 0.411765 0.384314
0.007843 0.509804 0.356863
0.000000 0.513725 0.356863
0.203922 0.509804 0.356863
0.349020 0.513725 0.356863
0.505882 0.509804 0.345098
0.647059 0.521569 0.372549
0.780392 0.552941 0.415686
0.901961 0.556863 0.419608
0.996078 0.564706 0.427451
0.000000 0.650980 0.341176
0.000000 0.650980 0.341176
0.152941 0.647059 0.349020
0.341176 0.647059 0.341176
0.498039 0.650980 0.337255
0.643137 0.654902 0.337255
0.788235 0.647059 0.349020
0.905882 0.674510 0.423529
1.000000 0.705882 0.490196
0.000000 0.776471 0.325490
0.003922 0.784314 0.317647
0.117647 0.784314 0.325490
0.333333 0.784314 0.325490
0.490196 0.776471 0.317647
0.631373 0.776471 0.321569
0.768627 0.780392 0.321569
0.901961 0.780392 0.325490
0.996078 0.788235 0.411765
0.000000 0.905882 0.305882
0.000000 0.901961 0.305882
0.117647 0.901961 0.309804
0.325490 0.909804 0.313725
0.482353 0.898039 0.301961
0.623529 0.898039 0.305882
0.756863 0.898039 0.301961
0.894118 0.898039 0.298039
0.996078 0.898039 0.290196
0.003922 1.000000 0.298039
0.007843 1.000000 0.298039
0.125490 1.000000 0.298039
0.321569 1.000000 0.294118
0.474510 0.996078 0.286275
0.611765 1.000000 0.290196
0.745098 1.000000 0.286275
0.878431 1.000000 0.298039
0.996078 1.000000 0.290196
0.058824 0.003922 0.486275
0.137255 0.003922 0.486275
0.270588 0.000000 0.494118
0.388235 0.000000 0.494118
0.513725 0.000000 0.486275
0.639216 0.007843 0.486275
0.772549 0.000000 0.486275
0.917647 0.000000 0.490196
1.000000 0.000000 0.490196
0.003922 0.086275 0.498039
0.133333 0.086275 0.486275
0.266667 0.082353 0.490196
0.388235 0.070588 0.490196
0.525490 0.039216 0.494118
0.647059 0.015686 0.490196
0.784314 0.000000 0.490196
0.917647 0.000000 0.490196
1.000000 0.000000 0.490196
0.000000 0.227451 0.486275
0.078431 0.231373 0.494118
0.243137 0.219608 0.494118
0.384314 0.223529 0.490196
0.517647 0.219608 0.501961
0.643137 0.211765 0.490196
0.780392 0.211765 0.482353
0.909804 0.200000 0.478431
1.000000 0.192157 0.486275
0.000000 0.360784 0.501961
0.003922 0.368627 0.490196
0.211765 0.364706 0.486275
0.364706 0.360784 0.486275
0.509804 0.352941 0.486275
0.650980 0.360784 0.490196
0.780392 0.368627 0.490196
0.909804 0.356863 0.482353
1.000000 0.360784 0.474510
0.000000 0.513725 0.490196
0.000000 0.513725 0.490196
0.192157 0.513725 0.494118
0.352941 0.513725 0.490196
0.505882 0.509804 0.486275
0.643137 0.505882 0.490196
0.780392 0.517647 0.494118
0.909804 0.529412 0.494118
0.992157 0.545098 0.513725
0.000000 0.654902 0.486275
0.007843 0.650980 0.486275
0.156863 0.654902 0.486275
0.333333 0.650980 0.482353
0.498039 0.650980 0.478431
0.639216 0.643137 0.470588
0.776471 0.662745 0.505882
0.901961 0.694118 0.560784
1.000000 0.698039 0.576471
0.000000 0.784314 0.470588
0.003922 0.784314 0.458824
0.094118 0.780392 0.454902
0.329412 0.776471 0.462745
0.478431 0.780392 0.458824
0.631373 0.776471 0.462745
0.772549 0.776471 0.462745
0.905882 0.780392 0.478431
1.000000 0.803922 0.564706
0.000000 0.901961 0.443137
0.007843 0.901961 0.450980
0.137255 0.905882 0.454902
0.333333 0.905882 0.450980
0.478431 0.901961 0.454902
0.619608 0.905882 0.447059
0.756863 0.901961 0.454902
0.894118 0.894118 0.447059
1.000000 0.901961 0.447059
0.000000 1.000000 0.443137
0.003922 1.000000 0.439216
0.180392 0.996078 0.447059
0.341176 0.996078 0.439216
0.482353 0.996078 0.439216
0.615686 0.996078 0.435294
0.749020 1.000000 0.447059
0.878431 1.000000 0.450980
0.992157 0.996078 0.447059
0.082353 0.003922 0.619608
0.160784 0.007843 0.615686
0.278431 0.000000 0.627451
0.392157 0.000000 0.619608
0.525490 0.000000 0.623529
0.639216 0.000000 0.623529
0.784314 0.003922 0.619608
0.913725 0.000000 0.623529
1.000000 0.000000 0.619608
0.035294 0.082353 0.623529
0.141176 0.074510 0.615686
0.270588 0.070588 0.623529
0.384314 0.050980 0.611765
0.521569 0.023529 0.631373
0.650980 0.003922 0.619608
0.784314 0.000000 0.627451
0.913725 0.000000 0.623529
0.988235 0.000000 0.615686
0.000000 0.219608 0.631373
0.105882 0.219608 0.619608
0.243137 0.215686 0.619608
0.380392 0.215686 0.615686
0.513725 0.211765 0.627451
0.647059 0.203922 0.619608
0.788235 0.192157 0.619608
0.921569 0.184314 0.623529
1.000000 0.180392 0.607843
0.000000 0.368627 0.607843
0.000000 0.360784 0.623529
0.207843 0.352941 0.627451
0.364706 0.360784 0.627451
0.513725 0.349020 0.631373
0.650980 0.356863 0.627451
0.784314 0.349020 0.619608
0.913725 0.356863 0.623529
1.000000 0.360784 0.615686
0.000000 0.505882 0.619608
0.011765 0.498039 0.627451
0.192157 0.501961 0.623529
0.352941 0.494118 0.619608
0.501961 0.498039 0.623529
0.650980 0.498039 0.619608
0.788235 0.501961 0.619608
0.913725 0.501961 0.619608
1.000000 0.498039 0.615686
0.000000 0.650980 0.611765
0.000000 0.647059 0.619608
0.164706 0.643137 0.623529
0.345098 0.647059 0.623529
0.498039 0.643137 0.615686
0.639216 0.643137 0.619608
0.776471 0.647059 0.619608
0.905882 0.658824 0.623529
1.000000 0.678431 0.635294
0.000000 0.780392 0.603922
0.003922 0.780392 0.619608
0.109804 0.788235 0.611765
0.325490 0.784314 0.611765
0.498039 0.784314 0.607843
0.635294 0.780392 0.611765
0.772549 0.776471 0.603922
0.905882 0.796078 0.650980
1.000000 0.823529 0.694118
0.003922 0.901961 0.600000
0.003922 0.905882 0.592157
0.113725 0.898039 0.592157
0.325490 0.901961 0.588235
0.490196 0.898039 0.596078
0.631373 0.898039 0.596078
0.764706 0.898039 0.592157
0.894118 0.898039 0.592157
0.996078 0.901961 0.611765
0.003922 1.000000 0.576471
0.003922 0.996078 0.568627
0.168627 0.996078 0.576471
0.384314 0.996078 0.596078
0.501961 1.000000 0.580392
0.643137 1.000000 0.588235
0.760784 1.000000 0.592157
0.886275 0.996078 0.592157
0.992157 1.000000 0.592157
0.098039 0.000000 0.752941
0.168627 0.000000 0.749020
0.270588 0.000000 0.741176
0.396078 0.000000 0.745098
0.517647 0.000000 0.745098
0.650980 0.003922 0.749020
0.780392 0.003922 0.752941
0.905882 0.003922 0.745098
0.992157 0.003922 0.752941
0.078431 0.062745 0.749020
0.145098 0.066667 0.752941
0.270588 0.058824 0.749020
0.400000 0.031373 0.745098
0.517647 0.003922 0.756863
0.654902 0.000000 0.756863
0.776471 0.000000 0.749020
0.909804 0.000000 0.745098
0.992157 0.003922 0.760784
0.019608 0.207843 0.764706
0.113725 0.219608 0.741176
0.254902 0.215686 0.745098
0.380392 0.207843 0.745098
0.509804 0.203922 0.752941
0.654902 0.196078 0.749020
0.780392 0.188235 0.749020
0.909804 0.176471 0.745098
0.996078 0.176471 0.745098
0.007843 0.349020 0.752941
0.003922 0.349020 0.741176
0.223529 0.349020 0.745098
0.372549 0.345098 0.749020
0.509804 0.349020 0.756863
0.647059 0.345098 0.752941
0.784314 0.345098 0.752941
0.921569 0.345098 0.760784
1.000000 0.352941 0.752941
0.000000 0.490196 0.749020
0.011765 0.486275 0.733333
0.188235 0.494118 0.745098
0.360784 0.490196 0.752941
0.501961 0.494118 0.756863
0.643137 0.490196 0.752941
0.784314 0.490196 0.752941
0.917647 0.490196 0.752941
0.996078 0.501961 0.749020
0.003922 0.627451 0.745098
0.011765 0.623529 0.752941
0.168627 0.627451 0.737255
0.345098 0.631373 0.756863
0.490196 0.627451 0.737255
0.639216 0.639216 0.741176
0.780392 0.639216 0.749020
0.909804 0.635294 0.737255
1.000000 0.639216 0.729412
0.003922 0.776471 0.741176
0.000000 0.772549 0.737255
0.156863 0.772549 0.745098
0.345098 0.772549 0.749020
0.498039 0.776471 0.737255
0.647059 0.776471 0.749020
0.776471 0.776471 0.745098
0.898039 0.780392 0.741176
1.000000 0.796078 0.764706
0.000000 0.901961 0.729412
0.000000 0.901961 0.729412
0.141176 0.901961 0.733333
0.337255 0.901961 0.733333
0.501961 0.905882 0.729412
0.639216 0.901961 0.733333
0.768627 0.898039 0.729412
0.898039 0.901961 0.729412
0.988235 0.909804 0.764706
0.000000 1.000000 0.725490
0.000000 1.000000 0.717647
0.192157 1.000000 0.705882
0.364706 1.000000 0.717647
0.513725 0.996078 0.721569
0.658824 1.000000 0.729412
0.784314 1.000000 0.733333
0.898039 0.996078 0.729412
0.996078 1.000000 0.725490
0.109804 0.000000 0.870588
0.184314 0.003922 0.874510
0.278431 0.000000 0.854902
0.392157 0.000000 0.870588
0.517647 0.000000 0.874510
0.643137 0.000000 0.866667
0.772549 0.000000 0.870588
0.901961 0.000000 0.870588
1.000000 0.000000 0.870588
0.090196 0.050980 0.874510
0.176471 0.047059 0.874510
0.274510 0.039216 0.870588
0.396078 0.023529 0.870588
0.525490 0.000000 0.866667
0.647059 0.000000 0.866667
0.772549 0.000000 0.866667
0.901961 0.000000 0.870588
0.996078 0.003922 0.874510
0.015686 0.203922 0.862745
0.137255 0.207843 0.866667
0.266667 0.203922 0.866667
0.388235 0.200000 0.870588
0.509804 0.196078 0.874510
0.643137 0.196078 0.874510
0.776471 0.188235 0.874510
0.901961 0.180392 0.870588
0.996078 0.172549 0.866667
0.000000 0.337255 0.874510
0.078431 0.352941 0.870588
0.235294 0.345098 0.874510
0.376471 0.345098 0.874510
0.505882 0.349020 0.870588
0.643137 0.345098 0.870588
0.776471 0.345098 0.874510
0.901961 0.341176 0.866667
0.996078 0.345098 0.870588
0.003922 0.490196 0.874510
0.007843 0.482353 0.862745
0.215686 0.482353 0.870588
0.356863 0.486275 0.866667
0.501961 0.486275 0.866667
0.635294 0.486275 0.874510
0.768627 0.486275 0.874510
0.894118 0.486275 0.866667
1.000000 0.482353 0.870588
0.000000 0.623529 0.866667
0.000000 0.631373 0.862745
0.200000 0.623529 0.866667
0.356863 0.623529 0.862745
0.505882 0.631373 0.870588
0.639216 0.635294 0.870588
0.768627 0.627451 0.870588
0.901961 0.635294 0.874510
1.000000 0.631373 0.866667
0.003922 0.760784 0.858824
0.000000 0.756863 0.866667
0.203922 0.764706 0.866667
0.368627 0.760784 0.862745
0.509804 0.768627 0.862745
0.643137 0.768627 0.866667
0.780392 0.772549 0.866667
0.909804 0.772549 0.858824
1.000000 0.776471 0.874510
0.003922 0.890196 0.866667
0.007843 0.890196 0.866667
0.207843 0.898039 0.854902
0.364706 0.894118 0.866667
0.505882 0.894118 0.866667
0.647059 0.894118 0.862745
0.776471 0.898039 0.866667
0.898039 0.898039 0.858824
1.000000 0.905882 0.874510
0.007843 0.996078 0.866667
0.054902 1.000000 0.862745
0.231373 0.996078 0.862745
0.388235 0.996078 0.862745
0.513725 1.000000 0.854902
0.658824 1.000000 0.862745
0.796078 0.996078 0.858824
0.917647 1.000000 0.870588
0.996078 1.000000 0.874510
0.121569 0.003922 0.976471
0.184314 0.003922 0.980392
0.286275 0.000000 0.992157
0.392157 0.000000 0.984314
0.513725 0.003922 0.984314
0.635294 0.000000 0.984314
0.764706 0.003922 0.980392
0.886275 0.000000 0.988235
1.000000 0.000000 0.988235
0.105882 0.047059 0.992157
0.172549 0.043137 0.980392
0.274510 0.035294 0.988235
0.396078 0.019608 0.988235
0.513725 0.011765 0.980392
0.635294 0.000000 0.984314
0.756863 0.003922 0.988235
0.886275 0.000000 0.976471
1.000000 0.000000 0.976471
0.078431 0.200000 0.992157
0.156863 0.203922 0.980392
0.270588 0.207843 0.980392
0.384314 0.203922 0.976471
0.505882 0.203922 0.988235
0.635294 0.200000 0.984314
0.756863 0.200000 0.984314
0.878431 0.196078 0.984314
1.000000 0.192157 0.984314
0.027451 0.349020 0.984314
0.133333 0.341176 0.984314
0.254902 0.349020 0.984314
0.380392 0.349020 0.988235
0.509804 0.352941 0.984314
0.627451 0.345098 0.980392
0.760784 0.345098 0.988235
0.886275 0.345098 0.984314
1.000000 0.349020 0.984314
0.027451 0.486275 0.980392
0.109804 0.474510 0.980392
0.247059 0.478431 0.980392
0.372549 0.482353 0.980392
0.505882 0.478431 0.984314
0.635294 0.482353 0.980392
0.760784 0.482353 0.984314
0.882353 0.490196 0.984314
0.992157 0.490196 0.972549
0.015686 0.611765 0.976471
0.129412 0.619608 0.980392
0.262745 0.619608 0.976471
0.388235 0.619608 0.976471
0.517647 0.615686 0.980392
0.647059 0.623529 0.976471
0.764706 0.623529 0.976471
0.886275 0.627451 0.976471
1.000000 0.623529 0.976471
0.078431 0.752941 0.980392
0.145098 0.752941 0.972549
0.274510 0.752941 0.984314
0.400000 0.749020 0.976471
0.533333 0.752941 0.976471
0.658824 0.756863 0.976471
0.776471 0.756863 0.968627
0.894118 0.764706 0.972549
1.000000 0.768627 0.972549
0.003922 0.894118 0.960784
0.090196 0.886275 0.972549
0.250980 0.894118 0.972549
0.388235 0.890196 0.964706
0.517647 0.898039 0.964706
0.654902 0.894118 0.964706
0.784314 0.898039 0.960784
0.913725 0.905882 0.960784
0.992157 0.913725 0.960784
0.078431 1.000000 0.945098
0.152941 0.996078 0.956863
0.278431 0.996078 0.949020
0.415686 1.000000 0.952941
0.545098 1.000000 0.949020
0.682353 0.996078 0.945098
0.823529 1.000000 0.952941
0.960784 1.000000 0.949020
1.000000 0.996078 0.949020
