lut_library_archive/removed_20260629/50个风景lut/50个风景lut41.cube
# 版权归凌孟成所有，侵权必究
TITLE "Jungle LUT #41"
#LUT size
LUT_3D_SIZE 5
#LUT data points
0.000000 0.003922 0.007843
0.156863 0.000000 0.000000
0.376471 0.000000 0.003922
0.658824 0.003922 0.000000
0.960784 0.000000 0.000000
0.000000 0.164706 0.000000
0.172549 0.164706 0.003922
0.372549 0.176471 0.031373
0.662745 0.200000 0.019608
0.964706 0.207843 0.007843
0.000000 0.419608 0.011765
0.168627 0.415686 0.000000
0.423529 0.419608 0.000000
0.682353 0.443137 0.023529
0.960784 0.486275 0.145098
0.000000 0.721569 0.000000
0.082353 0.713725 0.003922
0.443137 0.717647 0.000000
0.725490 0.721569 0.000000
0.992157 0.725490 0.003922
0.000000 1.000000 0.000000
0.000000 0.996078 0.000000
0.439216 1.000000 0.000000
0.737255 1.000000 0.000000
0.996078 0.996078 0.000000
0.000000 0.003922 0.192157
0.180392 0.000000 0.200000
0.396078 0.003922 0.215686
0.682353 0.003922 0.215686
0.976471 0.007843 0.200000
0.007843 0.164706 0.200000
0.160784 0.160784 0.207843
0.411765 0.152941 0.207843
0.682353 0.113725 0.203922
0.980392 0.101961 0.207843
0.000000 0.427451 0.192157
0.078431 0.423529 0.184314
0.427451 0.419608 0.180392
0.686275 0.443137 0.250980
0.964706 0.474510 0.254902
0.000000 0.717647 0.105882
0.003922 0.717647 0.113725
0.427451 0.717647 0.101961
0.733333 0.725490 0.086275
0.996078 0.733333 0.215686
0.000000 1.000000 0.015686
0.007843 0.996078 0.003922
0.423529 1.000000 0.000000
0.729412 1.000000 0.000000
1.000000 1.000000 0.003922
0.000000 0.000000 0.478431
0.196078 0.000000 0.482353
0.427451 0.000000 0.478431
0.690196 0.000000 0.498039
0.992157 0.003922 0.509804
0.000000 0.149020 0.494118
0.141176 0.141176 0.494118
0.431373 0.098039 0.494118
0.701961 0.003922 0.501961
0.988235 0.003922 0.490196
0.000000 0.427451 0.501961
0.000000 0.423529 0.505882
0.411765 0.415686 0.501961
0.721569 0.411765 0.494118
1.000000 0.423529 0.498039
0.003922 0.725490 0.490196
0.000000 0.729412 0.482353
0.388235 0.725490 0.486275
0.729412 0.725490 0.474510
0.988235 0.745098 0.560784
0.000000 1.000000 0.439216
0.000000 0.996078 0.435294
0.396078 0.996078 0.427451
0.717647 1.000000 0.435294
1.000000 0.996078 0.439216
0.003922 0.000000 0.768627
0.188235 0.000000 0.776471
0.458824 0.003922 0.784314
0.713725 0.000000 0.788235
0.992157 0.003922 0.800000
0.000000 0.109804 0.784314
0.090196 0.090196 0.780392
0.431373 0.027451 0.792157
0.701961 0.003922 0.788235
0.992157 0.000000 0.803922
0.000000 0.403922 0.784314
0.000000 0.396078 0.788235
0.380392 0.388235 0.792157
0.701961 0.376471 0.792157
1.000000 0.356863 0.819608
0.003922 0.698039 0.792157
0.007843 0.698039 0.788235
0.372549 0.701961 0.796078
0.709804 0.713725 0.792157
1.000000 0.737255 0.776471
0.000000 0.996078 0.780392
0.000000 1.000000 0.764706
0.349020 1.000000 0.752941
0.741176 0.996078 0.768627
1.000000 0.996078 0.772549
0.000000 0.007843 0.996078
0.145098 0.000000 1.000000
0.431373 0.003922 0.996078
0.690196 0.000000 1.000000
0.972549 0.000000 1.000000
0.003922 0.054902 0.992157
0.000000 0.019608 0.996078
0.419608 0.003922 1.000000
0.678431 0.000000 1.000000
0.968627 0.000000 1.000000
0.000000 0.392157 0.988235
0.003922 0.364706 1.000000
0.364706 0.364706 0.992157
0.674510 0.356863 1.000000
0.992157 0.333333 1.000000
0.007843 0.690196 1.000000
0.007843 0.690196 1.000000
0.427451 0.698039 1.000000
0.698039 0.694118 0.992157
1.000000 0.694118 1.000000
0.007843 0.945098 1.000000
0.227451 0.952941 1.000000
0.513725 0.952941 1.000000
0.819608 0.972549 1.000000
1.000000 0.996078 1.000000
