lut_library_archive/removed_20260629/50个风景lut/50个风景lut11.cube
# 版权归凌孟成所有，侵权必究
TITLE "Jungle LUT #11"
#LUT size
LUT_3D_SIZE 9
#LUT data points
0.000000 0.000000 0.000000
0.109804 0.000000 0.000000
0.239216 0.000000 0.000000
0.376471 0.000000 0.003922
0.513725 0.000000 0.000000
0.654902 0.000000 0.000000
0.792157 0.003922 0.003922
0.925490 0.003922 0.000000
0.996078 0.000000 0.000000
0.007843 0.101961 0.015686
0.101961 0.101961 0.000000
0.243137 0.101961 0.000000
0.380392 0.101961 0.000000
0.509804 0.094118 0.000000
0.654902 0.074510 0.003922
0.796078 0.035294 0.000000
0.921569 0.000000 0.000000
0.996078 0.000000 0.000000
0.000000 0.235294 0.000000
0.117647 0.239216 0.003922
0.262745 0.227451 0.003922
0.388235 0.231373 0.000000
0.521569 0.231373 0.000000
0.662745 0.231373 0.000000
0.796078 0.223529 0.000000
0.929412 0.203922 0.000000
0.996078 0.180392 0.000000
0.003922 0.360784 0.000000
0.109804 0.364706 0.000000
0.262745 0.368627 0.003922
0.392157 0.368627 0.000000
0.521569 0.360784 0.000000
0.662745 0.364706 0.000000
0.803922 0.352941 0.000000
0.929412 0.341176 0.000000
0.996078 0.329412 0.003922
0.000000 0.505882 0.011765
0.125490 0.505882 0.000000
0.262745 0.498039 0.003922
0.400000 0.501961 0.003922
0.537255 0.501961 0.003922
0.666667 0.498039 0.000000
0.800000 0.490196 0.000000
0.929412 0.482353 0.003922
1.000000 0.466667 0.003922
0.000000 0.643137 0.000000
0.121569 0.639216 0.000000
0.262745 0.631373 0.007843
0.403922 0.631373 0.000000
0.541176 0.627451 0.000000
0.678431 0.623529 0.000000
0.807843 0.619608 0.000000
0.933333 0.607843 0.000000
1.000000 0.592157 0.007843
0.000000 0.752941 0.000000
0.117647 0.752941 0.003922
0.262745 0.752941 0.007843
0.400000 0.749020 0.003922
0.537255 0.741176 0.000000
0.666667 0.741176 0.000000
0.800000 0.741176 0.000000
0.941176 0.741176 0.007843
0.996078 0.729412 0.003922
0.000000 0.862745 0.000000
0.113725 0.862745 0.003922
0.254902 0.866667 0.000000
0.392157 0.862745 0.000000
0.529412 0.866667 0.000000
0.662745 0.858824 0.000000
0.796078 0.858824 0.000000
0.925490 0.850980 0.000000
1.000000 0.847059 0.007843
0.007843 0.972549 0.000000
0.066667 0.964706 0.003922
0.235294 0.964706 0.000000
0.376471 0.964706 0.000000
0.517647 0.964706 0.000000
0.662745 0.960784 0.000000
0.803922 0.952941 0.000000
0.949020 0.945098 0.000000
1.000000 0.917647 0.000000
0.000000 0.000000 0.101961
0.113725 0.003922 0.101961
0.247059 0.003922 0.101961
0.376471 0.003922 0.098039
0.517647 0.000000 0.086275
0.658824 0.003922 0.082353
0.800000 0.000000 0.066667
0.929412 0.000000 0.039216
1.000000 0.003922 0.011765
0.003922 0.109804 0.090196
0.109804 0.101961 0.105882
0.239216 0.098039 0.098039
0.380392 0.090196 0.086275
0.513725 0.078431 0.074510
0.658824 0.054902 0.066667
0.796078 0.007843 0.050980
0.929412 0.000000 0.031373
0.988235 0.003922 0.007843
0.000000 0.235294 0.101961
0.109804 0.235294 0.082353
0.250980 0.235294 0.090196
0.384314 0.231373 0.070588
0.521569 0.227451 0.074510
0.658824 0.223529 0.054902
0.792157 0.211765 0.039216
0.925490 0.196078 0.007843
1.000000 0.168627 0.000000
0.000000 0.368627 0.062745
0.101961 0.372549 0.058824
0.250980 0.360784 0.058824
0.388235 0.360784 0.047059
0.525490 0.360784 0.031373
0.666667 0.360784 0.031373
0.807843 0.352941 0.011765
0.937255 0.345098 0.003922
1.000000 0.333333 0.000000
0.000000 0.505882 0.003922
0.098039 0.501961 0.000000
0.258824 0.501961 0.000000
0.403922 0.501961 0.000000
0.541176 0.498039 0.003922
0.662745 0.490196 0.000000
0.800000 0.486275 0.003922
0.937255 0.474510 0.003922
1.000000 0.466667 0.003922
0.000000 0.635294 0.003922
0.098039 0.631373 0.000000
0.258824 0.631373 0.000000
0.400000 0.623529 0.000000
0.537255 0.623529 0.000000
0.670588 0.623529 0.000000
0.807843 0.619608 0.000000
0.929412 0.603922 0.000000
1.000000 0.592157 0.000000
0.000000 0.749020 0.000000
0.098039 0.745098 0.000000
0.250980 0.749020 0.000000
0.392157 0.749020 0.000000
0.533333 0.749020 0.000000
0.658824 0.741176 0.000000
0.800000 0.741176 0.007843
0.933333 0.737255 0.011765
1.000000 0.729412 0.000000
0.007843 0.858824 0.000000
0.101961 0.870588 0.000000
0.254902 0.866667 0.000000
0.388235 0.862745 0.003922
0.525490 0.858824 0.003922
0.662745 0.858824 0.000000
0.792157 0.850980 0.000000
0.921569 0.847059 0.000000
1.000000 0.843137 0.011765
0.000000 0.968627 0.000000
0.035294 0.964706 0.000000
0.235294 0.968627 0.007843
0.372549 0.964706 0.003922
0.513725 0.960784 0.000000
0.662745 0.960784 0.000000
0.815686 0.952941 0.000000
0.956863 0.937255 0.000000
1.000000 0.921569 0.000000
0.000000 0.000000 0.231373
0.113725 0.003922 0.243137
0.239216 0.000000 0.231373
0.376471 0.003922 0.239216
0.525490 0.003922 0.231373
0.662745 0.000000 0.223529
0.796078 0.000000 0.215686
0.925490 0.003922 0.203922
0.996078 0.000000 0.203922
0.000000 0.105882 0.223529
0.086275 0.094118 0.243137
0.247059 0.090196 0.235294
0.380392 0.074510 0.231373
0.517647 0.054902 0.219608
0.650980 0.007843 0.215686
0.796078 0.000000 0.215686
0.941176 0.000000 0.207843
0.996078 0.003922 0.196078
0.000000 0.235294 0.235294
0.086275 0.235294 0.235294
0.239216 0.235294 0.227451
0.388235 0.231373 0.231373
0.521569 0.223529 0.231373
0.662745 0.215686 0.215686
0.792157 0.196078 0.207843
0.929412 0.180392 0.207843
0.992157 0.149020 0.188235
0.007843 0.364706 0.227451
0.047059 0.368627 0.219608
0.235294 0.372549 0.215686
0.384314 0.364706 0.215686
0.529412 0.364706 0.215686
0.662745 0.356863 0.215686
0.803922 0.349020 0.211765
0.937255 0.333333 0.200000
0.996078 0.325490 0.188235
0.003922 0.505882 0.203922
0.011765 0.505882 0.207843
0.239216 0.505882 0.203922
0.388235 0.498039 0.196078
0.533333 0.498039 0.196078
0.666667 0.486275 0.192157
0.803922 0.482353 0.196078
0.937255 0.474510 0.192157
1.000000 0.458824 0.176471
0.000000 0.639216 0.188235
0.027451 0.639216 0.188235
0.239216 0.631373 0.184314
0.396078 0.631373 0.188235
0.529412 0.623529 0.184314
0.670588 0.627451 0.176471
0.803922 0.619608 0.172549
0.933333 0.607843 0.160784
1.000000 0.592157 0.164706
0.003922 0.745098 0.168627
0.027451 0.745098 0.176471
0.239216 0.749020 0.160784
0.384314 0.745098 0.160784
0.529412 0.741176 0.160784
0.662745 0.741176 0.156863
0.800000 0.741176 0.141176
0.933333 0.741176 0.129412
1.000000 0.721569 0.105882
0.003922 0.862745 0.149020
0.050980 0.862745 0.133333
0.239216 0.866667 0.129412
0.384314 0.862745 0.129412
0.525490 0.862745 0.121569
0.654902 0.854902 0.109804
0.788235 0.850980 0.086275
0.925490 0.850980 0.066667
1.000000 0.843137 0.003922
0.011765 0.968627 0.039216
0.003922 0.960784 0.019608
0.207843 0.968627 0.003922
0.372549 0.964706 0.003922
0.509804 0.964706 0.000000
0.650980 0.956863 0.000000
0.807843 0.956863 0.003922
0.960784 0.941176 0.000000
1.000000 0.917647 0.003922
0.000000 0.000000 0.364706
0.113725 0.000000 0.380392
0.250980 0.003922 0.368627
0.376471 0.003922 0.372549
0.525490 0.000000 0.372549
0.662745 0.000000 0.372549
0.803922 0.000000 0.364706
0.925490 0.000000 0.352941
1.000000 0.000000 0.352941
0.000000 0.094118 0.368627
0.086275 0.086275 0.376471
0.243137 0.086275 0.372549
0.384314 0.058824 0.372549
0.521569 0.031373 0.368627
0.666667 0.003922 0.368627
0.800000 0.000000 0.356863
0.937255 0.000000 0.352941
1.000000 0.003922 0.349020
0.000000 0.235294 0.376471
0.050980 0.231373 0.364706
0.235294 0.227451 0.380392
0.384314 0.219608 0.368627
0.529412 0.215686 0.368627
0.666667 0.203922 0.360784
0.803922 0.188235 0.364706
0.937255 0.164706 0.352941
0.996078 0.113725 0.341176
0.000000 0.372549 0.356863
0.019608 0.372549 0.372549
0.231373 0.372549 0.364706
0.392157 0.360784 0.360784
0.521569 0.356863 0.360784
0.662745 0.356863 0.356863
0.807843 0.341176 0.356863
0.945098 0.333333 0.349020
0.992157 0.313725 0.349020
0.003922 0.501961 0.364706
0.011765 0.505882 0.360784
0.219608 0.501961 0.352941
0.380392 0.501961 0.341176
0.533333 0.494118 0.352941
0.670588 0.490196 0.349020
0.803922 0.478431 0.345098
0.937255 0.470588 0.345098
1.000000 0.454902 0.325490
0.000000 0.631373 0.337255
0.007843 0.631373 0.349020
0.215686 0.631373 0.337255
0.372549 0.631373 0.349020
0.537255 0.627451 0.345098
0.674510 0.619608 0.333333
0.803922 0.615686 0.325490
0.933333 0.603922 0.321569
0.996078 0.584314 0.325490
0.000000 0.752941 0.333333
0.007843 0.749020 0.325490
0.211765 0.749020 0.333333
0.372549 0.749020 0.325490
0.517647 0.741176 0.321569
0.658824 0.745098 0.317647
0.796078 0.741176 0.321569
0.949020 0.737255 0.313725
1.000000 0.725490 0.309804
0.000000 0.866667 0.305882
0.003922 0.866667 0.313725
0.223529 0.858824 0.321569
0.376471 0.862745 0.313725
0.513725 0.858824 0.309804
0.650980 0.850980 0.298039
0.784314 0.854902 0.290196
0.921569 0.850980 0.286275
1.000000 0.847059 0.270588
0.000000 0.972549 0.278431
0.003922 0.968627 0.274510
0.188235 0.972549 0.282353
0.352941 0.964706 0.270588
0.498039 0.960784 0.270588
0.650980 0.960784 0.258824
0.803922 0.949020 0.250980
0.949020 0.937255 0.243137
1.000000 0.921569 0.235294
0.003922 0.000000 0.505882
0.113725 0.000000 0.513725
0.247059 0.003922 0.501961
0.388235 0.000000 0.513725
0.525490 0.000000 0.501961
0.670588 0.000000 0.517647
0.803922 0.000000 0.505882
0.925490 0.003922 0.486275
1.000000 0.000000 0.501961
0.000000 0.082353 0.501961
0.066667 0.082353 0.509804
0.243137 0.070588 0.505882
0.384314 0.043137 0.501961
0.529412 0.000000 0.501961
0.670588 0.000000 0.509804
0.803922 0.000000 0.505882
0.933333 0.003922 0.498039
0.992157 0.007843 0.490196
0.000000 0.227451 0.505882
0.003922 0.223529 0.517647
0.219608 0.219608 0.509804
0.384314 0.211765 0.505882
0.525490 0.203922 0.501961
0.670588 0.196078 0.509804
0.800000 0.176471 0.498039
0.929412 0.152941 0.494118
0.996078 0.113725 0.490196
0.000000 0.368627 0.505882
0.000000 0.368627 0.509804
0.211765 0.360784 0.501961
0.372549 0.356863 0.501961
0.529412 0.349020 0.501961
0.670588 0.349020 0.505882
0.803922 0.345098 0.490196
0.933333 0.329412 0.494118
0.996078 0.317647 0.494118
0.000000 0.501961 0.501961
0.000000 0.505882 0.505882
0.203922 0.513725 0.501961
0.368627 0.501961 0.498039
0.533333 0.494118 0.498039
0.666667 0.486275 0.498039
0.803922 0.482353 0.498039
0.925490 0.470588 0.490196
0.992157 0.447059 0.482353
0.000000 0.639216 0.501961
0.003922 0.635294 0.494118
0.184314 0.631373 0.490196
0.368627 0.631373 0.494118
0.521569 0.627451 0.490196
0.662745 0.623529 0.482353
0.811765 0.615686 0.478431
0.937255 0.603922 0.494118
1.000000 0.588235 0.482353
0.000000 0.749020 0.478431
0.000000 0.752941 0.490196
0.184314 0.752941 0.482353
0.356863 0.745098 0.474510
0.513725 0.749020 0.474510
0.658824 0.741176 0.470588
0.796078 0.737255 0.466667
0.945098 0.733333 0.458824
0.996078 0.717647 0.458824
0.000000 0.866667 0.470588
0.007843 0.858824 0.470588
0.196078 0.862745 0.466667
0.364706 0.866667 0.470588
0.505882 0.862745 0.458824
0.650980 0.854902 0.458824
0.784314 0.854902 0.454902
0.921569 0.847059 0.447059
1.000000 0.847059 0.443137
0.000000 0.960784 0.443137
0.003922 0.964706 0.447059
0.176471 0.964706 0.447059
0.349020 0.964706 0.443137
0.501961 0.960784 0.443137
0.647059 0.960784 0.431373
0.803922 0.949020 0.431373
0.949020 0.937255 0.423529
0.996078 0.921569 0.419608
0.011765 0.000000 0.639216
0.082353 0.000000 0.639216
0.254902 0.000000 0.635294
0.384314 0.000000 0.639216
0.521569 0.003922 0.643137
0.658824 0.000000 0.639216
0.796078 0.007843 0.635294
0.929412 0.007843 0.631373
1.000000 0.003922 0.631373
0.000000 0.078431 0.639216
0.062745 0.070588 0.639216
0.247059 0.054902 0.647059
0.380392 0.023529 0.639216
0.517647 0.000000 0.643137
0.666667 0.000000 0.647059
0.807843 0.000000 0.647059
0.933333 0.003922 0.639216
0.996078 0.003922 0.631373
0.003922 0.227451 0.647059
0.007843 0.211765 0.639216
0.211765 0.215686 0.639216
0.376471 0.203922 0.639216
0.525490 0.196078 0.643137
0.662745 0.172549 0.643137
0.803922 0.160784 0.643137
0.937255 0.137255 0.631373
1.000000 0.094118 0.615686
0.000000 0.360784 0.647059
0.007843 0.356863 0.647059
0.196078 0.349020 0.643137
0.364706 0.349020 0.647059
0.529412 0.341176 0.639216
0.666667 0.337255 0.643137
0.807843 0.329412 0.631373
0.937255 0.333333 0.639216
1.000000 0.321569 0.639216
0.007843 0.490196 0.643137
0.000000 0.498039 0.635294
0.196078 0.490196 0.643137
0.364706 0.490196 0.643137
0.517647 0.486275 0.639216
0.670588 0.482353 0.639216
0.803922 0.482353 0.643137
0.933333 0.474510 0.647059
1.000000 0.462745 0.627451
0.000000 0.639216 0.635294
0.007843 0.631373 0.647059
0.172549 0.635294 0.635294
0.356863 0.627451 0.639216
0.513725 0.623529 0.635294
0.662745 0.619608 0.635294
0.803922 0.611765 0.627451
0.929412 0.603922 0.635294
1.000000 0.580392 0.623529
0.000000 0.752941 0.631373
0.000000 0.745098 0.623529
0.180392 0.749020 0.627451
0.360784 0.749020 0.627451
0.517647 0.749020 0.631373
0.662745 0.741176 0.627451
0.807843 0.741176 0.631373
0.949020 0.729412 0.631373
1.000000 0.717647 0.619608
0.000000 0.862745 0.611765
0.011765 0.862745 0.615686
0.203922 0.858824 0.615686
0.372549 0.858824 0.607843
0.513725 0.858824 0.619608
0.650980 0.850980 0.611765
0.792157 0.854902 0.611765
0.925490 0.847059 0.607843
0.996078 0.847059 0.600000
0.000000 0.968627 0.600000
0.007843 0.964706 0.603922
0.223529 0.964706 0.596078
0.380392 0.964706 0.603922
0.513725 0.956863 0.603922
0.658824 0.956863 0.596078
0.807843 0.949020 0.603922
0.956863 0.941176 0.600000
1.000000 0.917647 0.600000
0.000000 0.000000 0.776471
0.090196 0.003922 0.784314
0.243137 0.000000 0.772549
0.380392 0.000000 0.764706
0.525490 0.003922 0.776471
0.654902 0.000000 0.776471
0.796078 0.000000 0.776471
0.937255 0.007843 0.776471
0.992157 0.011765 0.756863
0.000000 0.058824 0.768627
0.043137 0.047059 0.776471
0.239216 0.035294 0.772549
0.384314 0.000000 0.780392
0.521569 0.000000 0.772549
0.670588 0.000000 0.780392
0.807843 0.000000 0.780392
0.933333 0.000000 0.780392
1.000000 0.000000 0.760784
0.000000 0.207843 0.776471
0.000000 0.211765 0.780392
0.211765 0.203922 0.776471
0.372549 0.200000 0.776471
0.517647 0.188235 0.776471
0.658824 0.168627 0.780392
0.803922 0.137255 0.776471
0.937255 0.109804 0.772549
1.000000 0.070588 0.760784
0.000000 0.345098 0.776471
0.003922 0.349020 0.780392
0.180392 0.345098 0.784314
0.372549 0.333333 0.780392
0.521569 0.341176 0.776471
0.670588 0.329412 0.788235
0.807843 0.317647 0.780392
0.945098 0.317647 0.780392
0.996078 0.313725 0.768627
0.000000 0.478431 0.780392
0.007843 0.486275 0.772549
0.160784 0.482353 0.772549
0.352941 0.478431 0.780392
0.517647 0.474510 0.784314
0.662745 0.474510 0.780392
0.811765 0.462745 0.776471
0.941176 0.466667 0.776471
1.000000 0.450980 0.760784
0.007843 0.611765 0.776471
0.000000 0.627451 0.776471
0.164706 0.611765 0.788235
0.349020 0.619608 0.780392
0.513725 0.611765 0.772549
0.666667 0.607843 0.776471
0.807843 0.607843 0.776471
0.929412 0.607843 0.768627
1.000000 0.592157 0.772549
0.000000 0.756863 0.776471
0.000000 0.749020 0.768627
0.133333 0.756863 0.772549
0.364706 0.752941 0.772549
0.517647 0.749020 0.772549
0.670588 0.745098 0.772549
0.803922 0.737255 0.768627
0.933333 0.729412 0.776471
0.992157 0.729412 0.768627
0.003922 0.866667 0.756863
0.000000 0.862745 0.752941
0.200000 0.858824 0.749020
0.376471 0.854902 0.756863
0.525490 0.862745 0.756863
0.662745 0.854902 0.768627
0.803922 0.850980 0.764706
0.937255 0.850980 0.760784
0.992157 0.843137 0.752941
0.003922 0.960784 0.741176
0.023529 0.964706 0.749020
0.243137 0.960784 0.737255
0.396078 0.960784 0.749020
0.545098 0.964706 0.760784
0.678431 0.949020 0.764706
0.823529 0.949020 0.756863
0.949020 0.933333 0.756863
1.000000 0.917647 0.764706
0.003922 0.000000 0.901961
0.066667 0.003922 0.905882
0.243137 0.000000 0.901961
0.380392 0.000000 0.905882
0.517647 0.003922 0.905882
0.654902 0.000000 0.901961
0.796078 0.000000 0.905882
0.929412 0.000000 0.901961
0.996078 0.003922 0.909804
0.000000 0.035294 0.905882
0.023529 0.019608 0.901961
0.227451 0.003922 0.894118
0.380392 0.000000 0.905882
0.529412 0.000000 0.905882
0.662745 0.000000 0.905882
0.796078 0.000000 0.905882
0.937255 0.000000 0.905882
0.992157 0.011765 0.898039
0.003922 0.196078 0.901961
0.000000 0.200000 0.901961
0.215686 0.196078 0.901961
0.372549 0.184314 0.898039
0.513725 0.176471 0.901961
0.654902 0.160784 0.898039
0.792157 0.129412 0.901961
0.937255 0.074510 0.905882
1.000000 0.000000 0.905882
0.000000 0.337255 0.913725
0.003922 0.333333 0.905882
0.192157 0.341176 0.909804
0.360784 0.329412 0.898039
0.517647 0.329412 0.901961
0.650980 0.321569 0.901961
0.800000 0.313725 0.909804
0.937255 0.301961 0.901961
1.000000 0.290196 0.905882
0.007843 0.470588 0.901961
0.000000 0.474510 0.901961
0.152941 0.466667 0.901961
0.360784 0.466667 0.909804
0.513725 0.466667 0.905882
0.654902 0.466667 0.905882
0.800000 0.458824 0.901961
0.933333 0.450980 0.909804
1.000000 0.439216 0.894118
0.000000 0.600000 0.901961
0.003922 0.607843 0.921569
0.141176 0.600000 0.901961
0.337255 0.600000 0.905882
0.505882 0.596078 0.901961
0.658824 0.603922 0.905882
0.800000 0.600000 0.901961
0.937255 0.596078 0.905882
1.000000 0.588235 0.894118
0.000000 0.733333 0.901961
0.000000 0.741176 0.913725
0.133333 0.737255 0.901961
0.352941 0.741176 0.901961
0.509804 0.733333 0.909804
0.662745 0.729412 0.901961
0.803922 0.737255 0.909804
0.945098 0.725490 0.909804
0.996078 0.725490 0.905882
0.003922 0.878431 0.905882
0.000000 0.870588 0.905882
0.160784 0.862745 0.909804
0.356863 0.866667 0.898039
0.513725 0.858824 0.894118
0.666667 0.854902 0.901961
0.811765 0.850980 0.898039
0.937255 0.843137 0.898039
1.000000 0.839216 0.901961
0.003922 0.960784 0.890196
0.109804 0.960784 0.878431
0.262745 0.964706 0.870588
0.407843 0.960784 0.874510
0.556863 0.960784 0.878431
0.694118 0.956863 0.890196
0.847059 0.937255 0.898039
0.964706 0.925490 0.917647
1.000000 0.913725 0.925490
0.000000 0.000000 0.996078
0.050980 0.000000 1.000000
0.243137 0.003922 0.996078
0.376471 0.003922 1.000000
0.513725 0.000000 0.996078
0.650980 0.000000 0.996078
0.780392 0.003922 1.000000
0.925490 0.003922 1.000000
1.000000 0.000000 1.000000
0.000000 0.011765 1.000000
0.043137 0.000000 1.000000
0.239216 0.000000 0.996078
0.376471 0.003922 1.000000
0.517647 0.003922 1.000000
0.650980 0.003922 1.000000
0.788235 0.000000 1.000000
0.913725 0.011765 0.996078
1.000000 0.000000 1.000000
0.000000 0.196078 1.000000
0.000000 0.188235 0.996078
0.219608 0.184314 1.000000
0.368627 0.180392 0.996078
0.513725 0.168627 0.996078
0.647059 0.149020 1.000000
0.788235 0.117647 1.000000
0.921569 0.066667 0.996078
1.000000 0.000000 1.000000
0.007843 0.325490 1.000000
0.003922 0.333333 1.000000
0.207843 0.333333 1.000000
0.364706 0.329412 0.992157
0.513725 0.325490 1.000000
0.647059 0.317647 1.000000
0.788235 0.309804 0.996078
0.921569 0.290196 1.000000
1.000000 0.278431 1.000000
0.000000 0.458824 0.992157
0.003922 0.454902 0.984314
0.207843 0.466667 1.000000
0.376471 0.462745 1.000000
0.505882 0.466667 0.996078
0.647059 0.458824 1.000000
0.792157 0.450980 1.000000
0.917647 0.443137 1.000000
1.000000 0.431373 1.000000
0.007843 0.580392 1.000000
0.000000 0.584314 1.000000
0.137255 0.588235 0.992157
0.345098 0.584314 1.000000
0.517647 0.592157 1.000000
0.666667 0.584314 0.996078
0.803922 0.588235 0.996078
0.921569 0.588235 0.996078
1.000000 0.584314 1.000000
0.003922 0.717647 1.000000
0.000000 0.717647 1.000000
0.145098 0.713725 1.000000
0.349020 0.709804 0.988235
0.521569 0.717647 1.000000
0.662745 0.717647 1.000000
0.807843 0.721569 1.000000
0.929412 0.721569 0.996078
1.000000 0.709804 1.000000
0.003922 0.839216 0.992157
0.000000 0.839216 1.000000
0.125490 0.843137 1.000000
0.352941 0.839216 1.000000
0.513725 0.839216 0.996078
0.674510 0.835294 1.000000
0.803922 0.831373 0.996078
0.941176 0.843137 1.000000
0.996078 0.843137 1.000000
0.000000 0.968627 0.996078
0.000000 0.976471 0.992157
0.160784 0.968627 1.000000
0.368627 0.964706 1.000000
0.549020 0.956863 1.000000
0.701961 0.945098 0.996078
0.862745 0.937255 1.000000
0.996078 0.921569 1.000000
1.000000 0.913725 0.996078
