lut_library_archive/removed_20260629/50个风景lut/50个风景lut02.cube
# 版权归凌孟成所有，侵权必究
TITLE "Jungle LUT #2"
#LUT size
LUT_3D_SIZE 25
#LUT data points
0.000000 0.000000 0.007843
0.031373 0.000000 0.007843
0.082353 0.003922 0.007843
0.117647 0.007843 0.003922
0.160784 0.011765 0.007843
0.203922 0.015686 0.000000
0.250980 0.019608 0.003922
0.294118 0.015686 0.007843
0.341176 0.023529 0.007843
0.392157 0.023529 0.015686
0.435294 0.031373 0.015686
0.474510 0.031373 0.015686
0.525490 0.035294 0.019608
0.568627 0.047059 0.031373
0.611765 0.050980 0.035294
0.654902 0.054902 0.043137
0.690196 0.066667 0.054902
0.733333 0.078431 0.074510
0.780392 0.094118 0.082353
0.815686 0.105882 0.094118
0.858824 0.117647 0.101961
0.894118 0.137255 0.117647
0.937255 0.152941 0.125490
0.976471 0.168627 0.149020
0.996078 0.188235 0.164706
0.000000 0.047059 0.000000
0.031373 0.047059 0.000000
0.086275 0.047059 0.007843
0.125490 0.047059 0.011765
0.164706 0.054902 0.000000
0.203922 0.058824 0.019608
0.250980 0.062745 0.015686
0.294118 0.062745 0.007843
0.337255 0.066667 0.015686
0.384314 0.062745 0.015686
0.427451 0.066667 0.015686
0.478431 0.074510 0.019608
0.517647 0.070588 0.027451
0.560784 0.074510 0.027451
0.607843 0.082353 0.039216
0.650980 0.086275 0.050980
0.690196 0.094118 0.058824
0.733333 0.105882 0.074510
0.780392 0.121569 0.090196
0.815686 0.125490 0.094118
0.858824 0.145098 0.109804
0.898039 0.152941 0.121569
0.941176 0.164706 0.133333
0.976471 0.184314 0.152941
0.996078 0.196078 0.160784
0.003922 0.090196 0.007843
0.035294 0.094118 0.003922
0.074510 0.086275 0.011765
0.117647 0.094118 0.007843
0.164706 0.094118 0.015686
0.207843 0.098039 0.011765
0.254902 0.098039 0.007843
0.298039 0.098039 0.015686
0.345098 0.101961 0.019608
0.388235 0.105882 0.019608
0.435294 0.101961 0.019608
0.478431 0.105882 0.019608
0.521569 0.109804 0.027451
0.560784 0.109804 0.035294
0.603922 0.113725 0.043137
0.647059 0.121569 0.054902
0.690196 0.121569 0.062745
0.733333 0.133333 0.074510
0.776471 0.141176 0.090196
0.815686 0.152941 0.101961
0.854902 0.156863 0.109804
0.898039 0.172549 0.125490
0.941176 0.184314 0.133333
0.964706 0.200000 0.152941
1.000000 0.219608 0.160784
0.003922 0.133333 0.011765
0.039216 0.133333 0.007843
0.082353 0.133333 0.015686
0.121569 0.137255 0.000000
0.172549 0.137255 0.007843
0.215686 0.141176 0.011765
0.254902 0.141176 0.015686
0.301961 0.145098 0.015686
0.349020 0.141176 0.015686
0.392157 0.145098 0.015686
0.435294 0.149020 0.023529
0.478431 0.152941 0.027451
0.517647 0.152941 0.031373
0.564706 0.152941 0.047059
0.607843 0.152941 0.054902
0.650980 0.164706 0.062745
0.690196 0.168627 0.070588
0.733333 0.172549 0.078431
0.772549 0.176471 0.086275
0.815686 0.188235 0.101961
0.858824 0.192157 0.109804
0.886275 0.203922 0.121569
0.933333 0.211765 0.133333
0.972549 0.223529 0.160784
0.996078 0.235294 0.168627
0.000000 0.176471 0.007843
0.039216 0.188235 0.003922
0.074510 0.180392 0.003922
0.133333 0.184314 0.011765
0.172549 0.184314 0.007843
0.219608 0.184314 0.015686
0.262745 0.180392 0.011765
0.305882 0.184314 0.011765
0.349020 0.188235 0.019608
0.392157 0.192157 0.023529
0.435294 0.188235 0.027451
0.478431 0.192157 0.035294
0.525490 0.192157 0.043137
0.568627 0.192157 0.054902
0.607843 0.192157 0.058824
0.647059 0.200000 0.066667
0.690196 0.203922 0.074510
0.733333 0.203922 0.086275
0.772549 0.215686 0.098039
0.815686 0.219608 0.105882
0.854902 0.231373 0.117647
0.898039 0.231373 0.133333
0.925490 0.247059 0.149020
0.968627 0.250980 0.164706
0.996078 0.258824 0.180392
0.000000 0.231373 0.003922
0.035294 0.227451 0.007843
0.082353 0.231373 0.007843
0.133333 0.231373 0.007843
0.176471 0.235294 0.019608
0.223529 0.235294 0.019608
0.262745 0.235294 0.019608
0.309804 0.231373 0.023529
0.356863 0.235294 0.023529
0.400000 0.239216 0.031373
0.447059 0.239216 0.043137
0.486275 0.235294 0.047059
0.529412 0.239216 0.062745
0.572549 0.243137 0.070588
0.611765 0.239216 0.074510
0.654902 0.243137 0.086275
0.698039 0.247059 0.094118
0.737255 0.247059 0.098039
0.776471 0.250980 0.105882
0.811765 0.258824 0.117647
0.858824 0.266667 0.129412
0.894118 0.270588 0.145098
0.933333 0.282353 0.156863
0.972549 0.286275 0.164706
1.000000 0.294118 0.188235
0.000000 0.274510 0.023529
0.027451 0.270588 0.015686
0.078431 0.278431 0.015686
0.125490 0.278431 0.023529
0.164706 0.278431 0.019608
0.223529 0.282353 0.019608
0.262745 0.282353 0.023529
0.317647 0.282353 0.027451
0.360784 0.282353 0.035294
0.403922 0.278431 0.039216
0.443137 0.278431 0.043137
0.486275 0.282353 0.058824
0.529412 0.282353 0.070588
0.568627 0.282353 0.074510
0.611765 0.286275 0.082353
0.654902 0.290196 0.090196
0.694118 0.290196 0.098039
0.737255 0.290196 0.105882
0.776471 0.298039 0.113725
0.819608 0.301961 0.121569
0.858824 0.309804 0.133333
0.898039 0.317647 0.145098
0.941176 0.317647 0.160784
0.972549 0.325490 0.180392
1.000000 0.333333 0.196078
0.000000 0.317647 0.027451
0.035294 0.317647 0.031373
0.078431 0.325490 0.015686
0.137255 0.325490 0.035294
0.164706 0.325490 0.027451
0.219608 0.329412 0.031373
0.270588 0.321569 0.039216
0.313725 0.325490 0.047059
0.356863 0.329412 0.047059
0.403922 0.329412 0.058824
0.447059 0.325490 0.062745
0.490196 0.329412 0.078431
0.529412 0.329412 0.082353
0.568627 0.329412 0.086275
0.615686 0.333333 0.101961
0.658824 0.337255 0.109804
0.698039 0.337255 0.113725
0.741176 0.341176 0.121569
0.780392 0.337255 0.125490
0.819608 0.345098 0.137255
0.850980 0.345098 0.141176
0.890196 0.352941 0.156863
0.929412 0.352941 0.184314
0.972549 0.368627 0.196078
1.000000 0.364706 0.211765
0.007843 0.368627 0.043137
0.031373 0.364706 0.047059
0.078431 0.364706 0.043137
0.125490 0.372549 0.054902
0.176471 0.368627 0.050980
0.219608 0.368627 0.043137
0.266667 0.372549 0.054902
0.317647 0.372549 0.062745
0.356863 0.368627 0.058824
0.407843 0.372549 0.070588
0.454902 0.368627 0.074510
0.494118 0.368627 0.082353
0.537255 0.372549 0.090196
0.580392 0.368627 0.094118
0.619608 0.372549 0.109804
0.662745 0.376471 0.109804
0.705882 0.376471 0.125490
0.741176 0.372549 0.129412
0.776471 0.380392 0.137255
0.815686 0.384314 0.152941
0.854902 0.384314 0.156863
0.894118 0.392157 0.168627
0.933333 0.392157 0.180392
0.972549 0.396078 0.196078
0.988235 0.407843 0.196078
0.000000 0.407843 0.066667
0.035294 0.411765 0.058824
0.086275 0.407843 0.066667
0.133333 0.407843 0.070588
0.180392 0.415686 0.062745
0.227451 0.423529 0.074510
0.270588 0.419608 0.078431
0.317647 0.419608 0.078431
0.364706 0.419608 0.078431
0.411765 0.419608 0.090196
0.458824 0.419608 0.086275
0.498039 0.415686 0.090196
0.541176 0.419608 0.098039
0.580392 0.419608 0.109804
0.615686 0.411765 0.113725
0.658824 0.415686 0.129412
0.690196 0.415686 0.133333
0.733333 0.419608 0.149020
0.776471 0.423529 0.156863
0.815686 0.427451 0.172549
0.858824 0.431373 0.176471
0.898039 0.431373 0.180392
0.929412 0.439216 0.196078
0.968627 0.435294 0.207843
1.000000 0.443137 0.223529
0.007843 0.462745 0.082353
0.047059 0.466667 0.090196
0.094118 0.466667 0.090196
0.137255 0.474510 0.094118
0.184314 0.462745 0.086275
0.231373 0.466667 0.090196
0.282353 0.466667 0.090196
0.329412 0.474510 0.098039
0.364706 0.470588 0.098039
0.411765 0.470588 0.105882
0.458824 0.470588 0.113725
0.498039 0.470588 0.117647
0.545098 0.466667 0.125490
0.584314 0.466667 0.129412
0.623529 0.466667 0.133333
0.666667 0.466667 0.141176
0.705882 0.466667 0.152941
0.737255 0.466667 0.164706
0.780392 0.470588 0.176471
0.819608 0.470588 0.180392
0.858824 0.466667 0.192157
0.894118 0.470588 0.196078
0.937255 0.470588 0.211765
0.976471 0.482353 0.223529
0.992157 0.482353 0.239216
0.031373 0.501961 0.109804
0.082353 0.505882 0.101961
0.105882 0.501961 0.094118
0.152941 0.513725 0.117647
0.192157 0.505882 0.109804
0.247059 0.505882 0.113725
0.282353 0.509804 0.117647
0.325490 0.505882 0.117647
0.368627 0.509804 0.125490
0.407843 0.509804 0.121569
0.454902 0.509804 0.129412
0.501961 0.517647 0.145098
0.549020 0.513725 0.141176
0.584314 0.509804 0.141176
0.623529 0.509804 0.149020
0.670588 0.509804 0.149020
0.705882 0.509804 0.160784
0.745098 0.509804 0.172549
0.784314 0.509804 0.176471
0.815686 0.509804 0.188235
0.858824 0.509804 0.203922
0.898039 0.513725 0.219608
0.933333 0.517647 0.231373
0.972549 0.513725 0.235294
0.992157 0.521569 0.247059
0.066667 0.549020 0.133333
0.090196 0.549020 0.129412
0.129412 0.549020 0.133333
0.164706 0.545098 0.133333
0.200000 0.549020 0.125490
0.243137 0.552941 0.133333
0.282353 0.549020 0.121569
0.325490 0.549020 0.129412
0.368627 0.552941 0.137255
0.411765 0.552941 0.137255
0.450980 0.549020 0.141176
0.501961 0.549020 0.149020
0.541176 0.549020 0.152941
0.588235 0.549020 0.164706
0.623529 0.552941 0.160784
0.662745 0.552941 0.164706
0.705882 0.556863 0.172549
0.745098 0.552941 0.184314
0.784314 0.552941 0.196078
0.823529 0.549020 0.207843
0.854902 0.549020 0.219608
0.894118 0.549020 0.227451
0.933333 0.552941 0.235294
0.976471 0.556863 0.243137
1.000000 0.556863 0.270588
0.094118 0.580392 0.141176
0.113725 0.596078 0.141176
0.141176 0.588235 0.141176
0.172549 0.592157 0.137255
0.223529 0.588235 0.160784
0.250980 0.592157 0.149020
0.294118 0.592157 0.156863
0.333333 0.596078 0.152941
0.368627 0.588235 0.152941
0.423529 0.596078 0.160784
0.458824 0.592157 0.160784
0.498039 0.592157 0.160784
0.545098 0.592157 0.168627
0.588235 0.596078 0.176471
0.627451 0.592157 0.180392
0.662745 0.588235 0.180392
0.701961 0.596078 0.192157
0.741176 0.592157 0.203922
0.772549 0.592157 0.215686
0.811765 0.592157 0.219608
0.847059 0.588235 0.219608
0.890196 0.596078 0.247059
0.933333 0.596078 0.254902
0.968627 0.588235 0.270588
0.996078 0.600000 0.286275
0.125490 0.627451 0.152941
0.141176 0.631373 0.160784
0.164706 0.631373 0.168627
0.192157 0.639216 0.164706
0.223529 0.627451 0.164706
0.262745 0.627451 0.168627
0.298039 0.631373 0.172549
0.337255 0.631373 0.168627
0.376471 0.631373 0.176471
0.419608 0.627451 0.180392
0.462745 0.627451 0.188235
0.501961 0.635294 0.196078
0.537255 0.631373 0.184314
0.576471 0.631373 0.188235
0.623529 0.631373 0.196078
0.662745 0.639216 0.207843
0.705882 0.635294 0.211765
0.741176 0.631373 0.211765
0.780392 0.627451 0.223529
0.819608 0.627451 0.227451
0.858824 0.631373 0.250980
0.898039 0.627451 0.254902
0.925490 0.631373 0.266667
0.964706 0.631373 0.278431
1.000000 0.631373 0.298039
0.160784 0.674510 0.196078
0.176471 0.678431 0.196078
0.192157 0.678431 0.192157
0.219608 0.682353 0.200000
0.247059 0.678431 0.196078
0.282353 0.678431 0.200000
0.317647 0.674510 0.192157
0.349020 0.678431 0.200000
0.392157 0.682353 0.200000
0.427451 0.678431 0.200000
0.474510 0.674510 0.207843
0.505882 0.678431 0.203922
0.549020 0.682353 0.211765
0.588235 0.682353 0.211765
0.627451 0.678431 0.215686
0.666667 0.678431 0.219608
0.717647 0.678431 0.227451
0.756863 0.678431 0.235294
0.792157 0.674510 0.243137
0.823529 0.674510 0.254902
0.862745 0.670588 0.266667
0.898039 0.670588 0.278431
0.929412 0.670588 0.290196
0.968627 0.670588 0.301961
1.000000 0.674510 0.321569
0.188235 0.705882 0.207843
0.196078 0.709804 0.231373
0.223529 0.709804 0.223529
0.231373 0.709804 0.203922
0.266667 0.717647 0.219608
0.278431 0.709804 0.211765
0.325490 0.713725 0.215686
0.364706 0.717647 0.223529
0.400000 0.713725 0.223529
0.435294 0.709804 0.219608
0.470588 0.713725 0.223529
0.517647 0.713725 0.231373
0.552941 0.713725 0.235294
0.596078 0.713725 0.235294
0.631373 0.713725 0.247059
0.670588 0.713725 0.243137
0.709804 0.713725 0.254902
0.749020 0.709804 0.258824
0.788235 0.709804 0.266667
0.831373 0.713725 0.274510
0.858824 0.709804 0.274510
0.901961 0.713725 0.290196
0.933333 0.709804 0.290196
0.968627 0.713725 0.313725
1.000000 0.701961 0.349020
0.196078 0.752941 0.211765
0.231373 0.745098 0.235294
0.243137 0.749020 0.243137
0.262745 0.752941 0.243137
0.278431 0.752941 0.239216
0.309804 0.752941 0.239216
0.337255 0.749020 0.243137
0.376471 0.749020 0.247059
0.411765 0.749020 0.250980
0.439216 0.749020 0.247059
0.478431 0.749020 0.250980
0.513725 0.749020 0.254902
0.556863 0.749020 0.250980
0.596078 0.749020 0.258824
0.631373 0.749020 0.262745
0.670588 0.749020 0.266667
0.709804 0.749020 0.270588
0.745098 0.749020 0.278431
0.784314 0.749020 0.282353
0.827451 0.752941 0.290196
0.858824 0.752941 0.301961
0.894118 0.749020 0.301961
0.933333 0.745098 0.313725
0.952941 0.745098 0.329412
1.000000 0.752941 0.368627
0.235294 0.792157 0.258824
0.247059 0.784314 0.258824
0.270588 0.788235 0.258824
0.282353 0.792157 0.274510
0.286275 0.788235 0.250980
0.317647 0.788235 0.262745
0.349020 0.784314 0.262745
0.384314 0.788235 0.266667
0.415686 0.788235 0.270588
0.447059 0.788235 0.274510
0.486275 0.788235 0.270588
0.517647 0.792157 0.274510
0.552941 0.784314 0.274510
0.588235 0.788235 0.286275
0.627451 0.784314 0.294118
0.666667 0.784314 0.290196
0.709804 0.788235 0.298039
0.745098 0.784314 0.301961
0.780392 0.780392 0.301961
0.827451 0.788235 0.305882
0.866667 0.784314 0.317647
0.894118 0.788235 0.337255
0.929412 0.784314 0.337255
0.964706 0.788235 0.337255
1.000000 0.788235 0.372549
0.266667 0.819608 0.270588
0.278431 0.815686 0.290196
0.286275 0.827451 0.282353
0.298039 0.823529 0.278431
0.317647 0.815686 0.286275
0.345098 0.823529 0.294118
0.368627 0.823529 0.294118
0.396078 0.827451 0.290196
0.431373 0.823529 0.294118
0.462745 0.823529 0.294118
0.494118 0.823529 0.286275
0.521569 0.827451 0.290196
0.560784 0.823529 0.301961
0.600000 0.823529 0.309804
0.635294 0.819608 0.309804
0.674510 0.819608 0.313725
0.705882 0.819608 0.317647
0.745098 0.819608 0.317647
0.784314 0.819608 0.321569
0.823529 0.827451 0.329412
0.854902 0.823529 0.337255
0.894118 0.819608 0.349020
0.929412 0.823529 0.364706
0.964706 0.823529 0.376471
0.992157 0.823529 0.384314
0.305882 0.866667 0.333333
0.313725 0.862745 0.325490
0.317647 0.858824 0.313725
0.333333 0.866667 0.325490
0.345098 0.862745 0.321569
0.372549 0.866667 0.333333
0.388235 0.862745 0.317647
0.423529 0.862745 0.321569
0.439216 0.862745 0.325490
0.478431 0.862745 0.333333
0.509804 0.862745 0.337255
0.541176 0.862745 0.329412
0.572549 0.858824 0.337255
0.603922 0.862745 0.341176
0.639216 0.862745 0.349020
0.678431 0.862745 0.352941
0.709804 0.866667 0.349020
0.745098 0.858824 0.352941
0.784314 0.858824 0.364706
0.819608 0.858824 0.368627
0.858824 0.858824 0.372549
0.890196 0.854902 0.380392
0.925490 0.862745 0.388235
0.960784 0.862745 0.400000
0.992157 0.862745 0.419608
0.325490 0.901961 0.345098
0.345098 0.898039 0.337255
0.349020 0.890196 0.345098
0.352941 0.905882 0.356863
0.376471 0.894118 0.352941
0.384314 0.898039 0.349020
0.411765 0.890196 0.360784
0.427451 0.898039 0.364706
0.458824 0.898039 0.364706
0.490196 0.898039 0.360784
0.517647 0.894118 0.360784
0.549020 0.894118 0.360784
0.576471 0.898039 0.372549
0.611765 0.898039 0.368627
0.650980 0.898039 0.380392
0.678431 0.894118 0.384314
0.713725 0.898039 0.388235
0.749020 0.894118 0.388235
0.784314 0.898039 0.396078
0.823529 0.898039 0.403922
0.854902 0.894118 0.403922
0.894118 0.901961 0.419608
0.925490 0.901961 0.423529
0.964706 0.886275 0.435294
0.992157 0.901961 0.447059
0.360784 0.925490 0.372549
0.376471 0.929412 0.380392
0.364706 0.929412 0.376471
0.376471 0.929412 0.380392
0.392157 0.933333 0.388235
0.415686 0.937255 0.384314
0.423529 0.937255 0.388235
0.454902 0.933333 0.388235
0.482353 0.929412 0.384314
0.501961 0.933333 0.396078
0.533333 0.933333 0.400000
0.556863 0.933333 0.407843
0.588235 0.929412 0.407843
0.627451 0.929412 0.411765
0.650980 0.933333 0.403922
0.690196 0.929412 0.411765
0.721569 0.929412 0.411765
0.752941 0.929412 0.423529
0.788235 0.925490 0.423529
0.823529 0.925490 0.427451
0.854902 0.929412 0.439216
0.890196 0.929412 0.447059
0.925490 0.929412 0.462745
0.972549 0.929412 0.474510
0.996078 0.933333 0.466667
0.400000 0.960784 0.427451
0.411765 0.960784 0.423529
0.407843 0.960784 0.411765
0.423529 0.960784 0.435294
0.439216 0.964706 0.423529
0.443137 0.968627 0.423529
0.466667 0.960784 0.419608
0.490196 0.960784 0.427451
0.509804 0.964706 0.427451
0.525490 0.964706 0.431373
0.549020 0.964706 0.439216
0.576471 0.968627 0.443137
0.607843 0.964706 0.450980
0.643137 0.968627 0.450980
0.678431 0.964706 0.450980
0.701961 0.956863 0.447059
0.729412 0.960784 0.450980
0.764706 0.964706 0.462745
0.796078 0.960784 0.470588
0.831373 0.964706 0.482353
0.862745 0.964706 0.482353
0.894118 0.964706 0.494118
0.929412 0.964706 0.498039
0.960784 0.960784 0.521569
0.992157 0.960784 0.525490
0.443137 1.000000 0.478431
0.450980 1.000000 0.470588
0.454902 0.992157 0.474510
0.462745 1.000000 0.474510
0.474510 0.996078 0.474510
0.486275 0.996078 0.470588
0.505882 0.996078 0.478431
0.517647 1.000000 0.482353
0.533333 0.992157 0.482353
0.560784 0.996078 0.486275
0.580392 1.000000 0.490196
0.607843 1.000000 0.501961
0.627451 1.000000 0.490196
0.658824 0.996078 0.498039
0.686275 0.996078 0.498039
0.721569 0.996078 0.509804
0.749020 1.000000 0.521569
0.772549 1.000000 0.525490
0.807843 1.000000 0.537255
0.843137 1.000000 0.549020
0.870588 1.000000 0.556863
0.909804 0.996078 0.568627
0.937255 1.000000 0.572549
0.972549 0.996078 0.580392
1.000000 0.996078 0.592157
0.007843 0.003922 0.035294
0.039216 0.000000 0.035294
0.078431 0.000000 0.035294
0.121569 0.003922 0.035294
0.164706 0.000000 0.039216
0.211765 0.011765 0.047059
0.254902 0.015686 0.047059
0.298039 0.019608 0.050980
0.345098 0.019608 0.058824
0.388235 0.023529 0.058824
0.431373 0.027451 0.062745
0.474510 0.031373 0.062745
0.521569 0.039216 0.070588
0.564706 0.050980 0.074510
0.607843 0.054902 0.078431
0.650980 0.058824 0.086275
0.690196 0.078431 0.090196
0.729412 0.086275 0.098039
0.772549 0.098039 0.113725
0.819608 0.113725 0.125490
0.854902 0.129412 0.129412
0.890196 0.141176 0.133333
0.937255 0.156863 0.152941
0.976471 0.172549 0.168627
1.000000 0.188235 0.180392
0.003922 0.039216 0.035294
0.039216 0.043137 0.050980
0.086275 0.047059 0.039216
0.121569 0.043137 0.047059
0.168627 0.047059 0.035294
0.211765 0.054902 0.054902
0.250980 0.054902 0.050980
0.301961 0.062745 0.050980
0.337255 0.058824 0.050980
0.384314 0.066667 0.054902
0.435294 0.066667 0.058824
0.478431 0.070588 0.066667
0.521569 0.074510 0.070588
0.564706 0.078431 0.078431
0.607843 0.082353 0.078431
0.650980 0.098039 0.090196
0.694118 0.101961 0.098039
0.737255 0.113725 0.101961
0.776471 0.125490 0.109804
0.819608 0.133333 0.121569
0.850980 0.145098 0.121569
0.898039 0.156863 0.141176
0.941176 0.172549 0.156863
0.980392 0.188235 0.156863
1.000000 0.200000 0.180392
0.003922 0.086275 0.050980
0.039216 0.090196 0.050980
0.078431 0.090196 0.047059
0.125490 0.094118 0.043137
0.164706 0.094118 0.047059
0.215686 0.098039 0.058824
0.266667 0.101961 0.054902
0.305882 0.101961 0.058824
0.345098 0.101961 0.058824
0.392157 0.109804 0.062745
0.435294 0.105882 0.066667
0.478431 0.109804 0.070588
0.529412 0.113725 0.070588
0.572549 0.113725 0.078431
0.603922 0.117647 0.086275
0.650980 0.125490 0.098039
0.690196 0.129412 0.098039
0.725490 0.137255 0.109804
0.772549 0.145098 0.113725
0.807843 0.156863 0.125490
0.850980 0.168627 0.137255
0.898039 0.176471 0.152941
0.945098 0.184314 0.156863
0.964706 0.203922 0.168627
1.000000 0.211765 0.188235
0.000000 0.133333 0.039216
0.039216 0.133333 0.047059
0.082353 0.137255 0.047059
0.121569 0.137255 0.039216
0.168627 0.137255 0.054902
0.211765 0.141176 0.054902
0.254902 0.145098 0.062745
0.301961 0.141176 0.062745
0.341176 0.141176 0.058824
0.388235 0.145098 0.062745
0.431373 0.149020 0.062745
0.478431 0.145098 0.066667
0.521569 0.149020 0.078431
0.568627 0.149020 0.078431
0.607843 0.156863 0.086275
0.650980 0.156863 0.098039
0.686275 0.164706 0.098039
0.729412 0.168627 0.105882
0.768627 0.176471 0.113725
0.811765 0.188235 0.133333
0.854902 0.192157 0.141176
0.901961 0.200000 0.141176
0.933333 0.207843 0.156863
0.968627 0.227451 0.180392
0.996078 0.243137 0.192157
0.007843 0.180392 0.050980
0.035294 0.180392 0.043137
0.086275 0.180392 0.054902
0.125490 0.176471 0.058824
0.176471 0.180392 0.054902
0.211765 0.188235 0.062745
0.254902 0.192157 0.062745
0.294118 0.192157 0.062745
0.345098 0.184314 0.066667
0.392157 0.192157 0.070588
0.439216 0.192157 0.070588
0.478431 0.192157 0.074510
0.525490 0.200000 0.082353
0.564706 0.196078 0.094118
0.603922 0.196078 0.090196
0.647059 0.200000 0.098039
0.690196 0.203922 0.105882
0.729412 0.215686 0.113725
0.772549 0.215686 0.121569
0.815686 0.219608 0.129412
0.847059 0.231373 0.133333
0.894118 0.239216 0.145098
0.929412 0.247059 0.164706
0.972549 0.258824 0.184314
1.000000 0.262745 0.196078
0.000000 0.231373 0.058824
0.039216 0.227451 0.062745
0.086275 0.231373 0.058824
0.125490 0.231373 0.054902
0.172549 0.231373 0.062745
0.215686 0.239216 0.066667
0.262745 0.235294 0.062745
0.305882 0.239216 0.066667
0.349020 0.235294 0.070588
0.400000 0.235294 0.078431
0.443137 0.235294 0.078431
0.482353 0.231373 0.082353
0.529412 0.235294 0.082353
0.572549 0.239216 0.090196
0.615686 0.239216 0.101961
0.662745 0.247059 0.113725
0.698039 0.250980 0.109804
0.737255 0.250980 0.121569
0.772549 0.254902 0.133333
0.815686 0.258824 0.141176
0.862745 0.266667 0.152941
0.901961 0.270588 0.160784
0.945098 0.282353 0.176471
0.980392 0.286275 0.184314
1.000000 0.298039 0.200000
0.003922 0.278431 0.066667
0.031373 0.278431 0.070588
0.082353 0.278431 0.062745
0.129412 0.282353 0.074510
0.176471 0.282353 0.066667
0.219608 0.278431 0.062745
0.266667 0.286275 0.074510
0.309804 0.282353 0.070588
0.356863 0.278431 0.078431
0.400000 0.282353 0.086275
0.439216 0.282353 0.082353
0.486275 0.282353 0.090196
0.529412 0.286275 0.101961
0.568627 0.286275 0.098039
0.611765 0.290196 0.105882
0.658824 0.290196 0.117647
0.694118 0.290196 0.121569
0.737255 0.294118 0.137255
0.772549 0.294118 0.141176
0.811765 0.298039 0.149020
0.850980 0.305882 0.160784
0.898039 0.309804 0.172549
0.941176 0.317647 0.192157
0.968627 0.317647 0.192157
1.000000 0.337255 0.215686
0.000000 0.325490 0.062745
0.023529 0.321569 0.070588
0.090196 0.325490 0.074510
0.121569 0.317647 0.070588
0.172549 0.325490 0.078431
0.215686 0.329412 0.070588
0.266667 0.325490 0.070588
0.309804 0.329412 0.078431
0.360784 0.329412 0.078431
0.403922 0.333333 0.090196
0.447059 0.329412 0.094118
0.486275 0.329412 0.098039
0.529412 0.325490 0.098039
0.572549 0.325490 0.113725
0.611765 0.329412 0.109804
0.654902 0.329412 0.125490
0.698039 0.333333 0.129412
0.733333 0.333333 0.141176
0.776471 0.337255 0.149020
0.815686 0.345098 0.156863
0.847059 0.345098 0.168627
0.894118 0.352941 0.180392
0.937255 0.352941 0.196078
0.964706 0.360784 0.196078
1.000000 0.364706 0.219608
0.000000 0.368627 0.070588
0.031373 0.368627 0.082353
0.078431 0.364706 0.078431
0.121569 0.368627 0.082353
0.172549 0.368627 0.082353
0.223529 0.364706 0.074510
0.266667 0.368627 0.082353
0.321569 0.372549 0.090196
0.364706 0.376471 0.098039
0.407843 0.376471 0.094118
0.447059 0.372549 0.101961
0.486275 0.376471 0.098039
0.529412 0.376471 0.105882
0.576471 0.376471 0.129412
0.611765 0.372549 0.129412
0.654902 0.372549 0.141176
0.694118 0.372549 0.145098
0.733333 0.380392 0.152941
0.772549 0.376471 0.156863
0.815686 0.388235 0.168627
0.854902 0.388235 0.176471
0.886275 0.396078 0.192157
0.925490 0.396078 0.188235
0.968627 0.396078 0.211765
1.000000 0.403922 0.211765
0.000000 0.411765 0.090196
0.035294 0.415686 0.094118
0.082353 0.415686 0.098039
0.129412 0.415686 0.094118
0.184314 0.415686 0.101961
0.227451 0.411765 0.098039
0.278431 0.415686 0.101961
0.321569 0.415686 0.109804
0.364706 0.415686 0.105882
0.407843 0.419608 0.109804
0.450980 0.423529 0.109804
0.498039 0.423529 0.121569
0.541176 0.415686 0.121569
0.572549 0.415686 0.133333
0.611765 0.415686 0.137255
0.654902 0.419608 0.145098
0.694118 0.419608 0.149020
0.737255 0.419608 0.160784
0.772549 0.423529 0.164706
0.815686 0.423529 0.180392
0.858824 0.427451 0.188235
0.901961 0.431373 0.203922
0.933333 0.439216 0.211765
0.968627 0.439216 0.223529
0.996078 0.443137 0.235294
0.007843 0.462745 0.105882
0.050980 0.458824 0.109804
0.098039 0.466667 0.117647
0.141176 0.466667 0.113725
0.184314 0.470588 0.113725
0.231373 0.466667 0.121569
0.282353 0.462745 0.117647
0.329412 0.462745 0.125490
0.368627 0.470588 0.121569
0.411765 0.466667 0.125490
