lut_library_archive/removed_20260629/50个风景lut/50个风景lut35.cube
# 版权归凌孟成所有，侵权必究
TITLE "Jungle LUT #35"
#LUT size
LUT_3D_SIZE 9
#LUT data points
0.000000 0.000000 0.000000
0.098039 0.003922 0.003922
0.227451 0.000000 0.000000
0.352941 0.000000 0.000000
0.494118 0.000000 0.003922
0.631373 0.000000 0.000000
0.776471 0.003922 0.000000
0.929412 0.000000 0.000000
0.996078 0.000000 0.000000
0.003922 0.098039 0.011765
0.109804 0.090196 0.007843
0.231373 0.094118 0.007843
0.360784 0.094118 0.003922
0.494118 0.094118 0.003922
0.635294 0.078431 0.000000
0.780392 0.062745 0.007843
0.917647 0.039216 0.000000
0.996078 0.023529 0.000000
0.000000 0.223529 0.000000
0.109804 0.219608 0.000000
0.231373 0.227451 0.003922
0.368627 0.227451 0.000000
0.501961 0.231373 0.000000
0.643137 0.235294 0.000000
0.784314 0.235294 0.000000
0.929412 0.235294 0.000000
1.000000 0.231373 0.003922
0.003922 0.360784 0.000000
0.086275 0.364706 0.000000
0.235294 0.368627 0.000000
0.380392 0.368627 0.003922
0.509804 0.372549 0.003922
0.643137 0.372549 0.000000
0.784314 0.376471 0.000000
0.929412 0.380392 0.000000
1.000000 0.380392 0.000000
0.000000 0.505882 0.007843
0.054902 0.513725 0.000000
0.231373 0.517647 0.000000
0.372549 0.513725 0.000000
0.513725 0.513725 0.000000
0.650980 0.517647 0.003922
0.788235 0.521569 0.000000
0.941176 0.521569 0.003922
0.992157 0.521569 0.000000
0.003922 0.658824 0.000000
0.003922 0.666667 0.000000
0.243137 0.662745 0.000000
0.380392 0.658824 0.000000
0.529412 0.658824 0.003922
0.662745 0.658824 0.000000
0.796078 0.662745 0.000000
0.941176 0.662745 0.003922
1.000000 0.658824 0.000000
0.007843 0.803922 0.000000
0.000000 0.803922 0.000000
0.215686 0.796078 0.003922
0.376471 0.803922 0.000000
0.525490 0.796078 0.000000
0.662745 0.800000 0.000000
0.796078 0.800000 0.007843
0.941176 0.800000 0.015686
1.000000 0.800000 0.003922
0.000000 0.941176 0.003922
0.000000 0.952941 0.000000
0.207843 0.937255 0.000000
0.360784 0.945098 0.003922
0.513725 0.945098 0.007843
0.666667 0.945098 0.000000
0.803922 0.941176 0.000000
0.945098 0.941176 0.000000
1.000000 0.941176 0.000000
0.000000 1.000000 0.000000
0.000000 0.996078 0.000000
0.168627 0.996078 0.003922
0.345098 1.000000 0.000000
0.498039 0.996078 0.000000
0.639216 1.000000 0.000000
0.764706 1.000000 0.000000
0.894118 1.000000 0.000000
0.992157 0.996078 0.000000
0.000000 0.000000 0.086275
0.094118 0.000000 0.086275
0.231373 0.000000 0.086275
0.364706 0.000000 0.082353
0.501961 0.000000 0.074510
0.639216 0.003922 0.062745
0.780392 0.000000 0.050980
0.925490 0.000000 0.015686
0.996078 0.000000 0.000000
0.000000 0.098039 0.074510
0.109804 0.094118 0.082353
0.231373 0.094118 0.086275
0.364706 0.086275 0.070588
0.501961 0.070588 0.066667
0.643137 0.047059 0.058824
0.784314 0.023529 0.035294
0.929412 0.000000 0.000000
1.000000 0.003922 0.003922
0.000000 0.223529 0.058824
0.101961 0.227451 0.074510
0.239216 0.231373 0.078431
0.364706 0.231373 0.054902
0.505882 0.227451 0.054902
0.643137 0.219608 0.035294
0.784314 0.227451 0.015686
0.929412 0.223529 0.000000
1.000000 0.219608 0.000000
0.000000 0.364706 0.019608
0.082353 0.364706 0.027451
0.231373 0.368627 0.007843
0.372549 0.368627 0.007843
0.505882 0.364706 0.000000
0.647059 0.372549 0.000000
0.792157 0.376471 0.000000
0.929412 0.376471 0.000000
1.000000 0.380392 0.000000
0.000000 0.509804 0.007843
0.015686 0.505882 0.000000
0.223529 0.509804 0.000000
0.380392 0.509804 0.000000
0.521569 0.509804 0.000000
0.647059 0.513725 0.000000
0.792157 0.517647 0.000000
0.941176 0.521569 0.003922
1.000000 0.525490 0.000000
0.003922 0.658824 0.000000
0.000000 0.662745 0.000000
0.227451 0.666667 0.000000
0.376471 0.654902 0.000000
0.517647 0.658824 0.000000
0.654902 0.662745 0.000000
0.792157 0.658824 0.000000
0.937255 0.662745 0.000000
1.000000 0.662745 0.000000
0.000000 0.800000 0.003922
0.000000 0.792157 0.000000
0.203922 0.803922 0.003922
0.368627 0.796078 0.000000
0.513725 0.807843 0.000000
0.662745 0.800000 0.000000
0.803922 0.800000 0.000000
0.937255 0.800000 0.000000
0.996078 0.796078 0.000000
0.000000 0.949020 0.000000
0.003922 0.945098 0.000000
0.184314 0.945098 0.007843
0.356863 0.941176 0.000000
0.513725 0.941176 0.000000
0.654902 0.941176 0.000000
0.796078 0.941176 0.000000
0.941176 0.937255 0.003922
1.000000 0.933333 0.000000
0.011765 0.996078 0.000000
0.000000 0.996078 0.000000
0.152941 0.996078 0.000000
0.352941 1.000000 0.000000
0.505882 1.000000 0.000000
0.639216 0.996078 0.000000
0.764706 1.000000 0.003922
0.898039 1.000000 0.000000
0.988235 1.000000 0.000000
0.000000 0.000000 0.196078
0.113725 0.003922 0.203922
0.231373 0.000000 0.211765
0.364706 0.000000 0.211765
0.505882 0.003922 0.211765
0.643137 0.000000 0.207843
0.780392 0.000000 0.192157
0.933333 0.003922 0.192157
0.988235 0.003922 0.180392
0.000000 0.090196 0.211765
0.109804 0.090196 0.207843
0.235294 0.094118 0.203922
0.364706 0.074510 0.203922
0.494118 0.054902 0.203922
0.643137 0.007843 0.200000
0.780392 0.000000 0.200000
0.949020 0.000000 0.196078
0.996078 0.000000 0.172549
0.003922 0.223529 0.211765
0.105882 0.227451 0.207843
0.227451 0.227451 0.196078
0.376471 0.223529 0.203922
0.501961 0.223529 0.207843
0.647059 0.219608 0.200000
0.784314 0.211765 0.192157
0.937255 0.207843 0.188235
1.000000 0.196078 0.172549
0.003922 0.364706 0.203922
0.043137 0.368627 0.196078
0.231373 0.368627 0.200000
0.376471 0.364706 0.188235
0.509804 0.364706 0.192157
0.650980 0.364706 0.196078
0.796078 0.372549 0.188235
0.941176 0.368627 0.176471
0.992157 0.368627 0.172549
0.000000 0.513725 0.176471
0.003922 0.509804 0.176471
0.215686 0.509804 0.176471
0.372549 0.513725 0.172549
0.509804 0.509804 0.164706
0.654902 0.509804 0.164706
0.796078 0.517647 0.172549
0.933333 0.513725 0.168627
0.996078 0.517647 0.160784
0.003922 0.662745 0.164706
0.011765 0.654902 0.164706
0.207843 0.658824 0.160784
0.376471 0.658824 0.164706
0.521569 0.658824 0.149020
0.658824 0.658824 0.149020
0.800000 0.654902 0.133333
0.941176 0.658824 0.133333
1.000000 0.654902 0.129412
0.000000 0.800000 0.113725
0.000000 0.796078 0.117647
0.188235 0.796078 0.121569
0.356863 0.796078 0.113725
0.521569 0.796078 0.113725
0.662745 0.800000 0.101961
0.803922 0.800000 0.101961
0.949020 0.807843 0.094118
0.996078 0.792157 0.078431
0.000000 0.937255 0.062745
0.003922 0.933333 0.070588
0.152941 0.941176 0.078431
0.349020 0.945098 0.066667
0.509804 0.945098 0.058824
0.654902 0.941176 0.043137
0.796078 0.937255 0.035294
0.945098 0.937255 0.015686
1.000000 0.937255 0.007843
0.003922 1.000000 0.027451
0.000000 1.000000 0.011765
0.117647 0.996078 0.023529
0.341176 0.996078 0.031373
0.494118 1.000000 0.050980
0.631373 1.000000 0.074510
0.768627 1.000000 0.098039
0.894118 0.996078 0.121569
0.996078 1.000000 0.145098
0.000000 0.000000 0.341176
0.109804 0.000000 0.341176
0.247059 0.000000 0.352941
0.368627 0.000000 0.349020
0.509804 0.000000 0.352941
0.639216 0.003922 0.360784
0.788235 0.003922 0.356863
0.937255 0.003922 0.349020
0.996078 0.000000 0.345098
0.003922 0.082353 0.352941
0.101961 0.082353 0.349020
0.243137 0.074510 0.352941
0.376471 0.054902 0.345098
0.509804 0.031373 0.356863
0.647059 0.003922 0.345098
0.788235 0.000000 0.352941
0.937255 0.000000 0.368627
0.996078 0.003922 0.337255
0.000000 0.227451 0.352941
0.074510 0.215686 0.349020
0.239216 0.215686 0.356863
0.384314 0.211765 0.349020
0.513725 0.215686 0.356863
0.647059 0.211765 0.349020
0.792157 0.203922 0.349020
0.937255 0.184314 0.349020
1.000000 0.168627 0.337255
0.007843 0.368627 0.356863
0.023529 0.368627 0.364706
0.219608 0.372549 0.360784
0.356863 0.368627 0.341176
0.517647 0.364706 0.345098
0.650980 0.364706 0.341176
0.796078 0.360784 0.345098
0.945098 0.360784 0.345098
1.000000 0.356863 0.341176
0.000000 0.513725 0.349020
0.000000 0.513725 0.356863
0.207843 0.509804 0.345098
0.368627 0.513725 0.345098
0.521569 0.509804 0.341176
0.658824 0.513725 0.341176
0.796078 0.509804 0.341176
0.937255 0.513725 0.341176
0.992157 0.505882 0.333333
0.000000 0.662745 0.337255
0.000000 0.666667 0.337255
0.172549 0.662745 0.341176
0.356863 0.658824 0.337255
0.521569 0.658824 0.337255
0.654902 0.662745 0.337255
0.800000 0.650980 0.317647
0.937255 0.654902 0.325490
0.996078 0.650980 0.333333
0.000000 0.800000 0.317647
0.000000 0.796078 0.325490
0.113725 0.800000 0.325490
0.341176 0.803922 0.321569
0.509804 0.800000 0.325490
0.658824 0.800000 0.313725
0.800000 0.800000 0.313725
0.949020 0.800000 0.313725
0.996078 0.792157 0.313725
0.011765 0.937255 0.301961
0.011765 0.937255 0.301961
0.066667 0.941176 0.309804
0.329412 0.941176 0.309804
0.490196 0.941176 0.301961
0.647059 0.941176 0.294118
0.796078 0.941176 0.294118
0.945098 0.937255 0.301961
1.000000 0.941176 0.294118
0.000000 1.000000 0.294118
0.000000 1.000000 0.301961
0.047059 1.000000 0.301961
0.317647 1.000000 0.301961
0.486275 0.996078 0.305882
0.627451 1.000000 0.301961
0.764706 1.000000 0.301961
0.894118 0.996078 0.321569
0.992157 1.000000 0.329412
0.000000 0.003922 0.498039
0.094118 0.007843 0.501961
0.235294 0.000000 0.494118
0.372549 0.000000 0.501961
0.513725 0.000000 0.501961
0.650980 0.000000 0.501961
0.792157 0.000000 0.501961
0.937255 0.003922 0.509804
0.992157 0.003922 0.509804
0.000000 0.070588 0.494118
0.070588 0.078431 0.509804
0.239216 0.066667 0.501961
0.376471 0.043137 0.501961
0.517647 0.000000 0.498039
0.647059 0.000000 0.501961
0.792157 0.000000 0.509804
0.929412 0.003922 0.505882
1.000000 0.003922 0.505882
0.000000 0.215686 0.509804
0.023529 0.215686 0.513725
0.223529 0.215686 0.501961
0.372549 0.215686 0.501961
0.521569 0.203922 0.505882
0.654902 0.200000 0.501961
0.788235 0.188235 0.501961
0.937255 0.172549 0.509804
1.000000 0.145098 0.505882
0.000000 0.364706 0.505882
0.000000 0.364706 0.505882
0.207843 0.364706 0.505882
0.360784 0.360784 0.501961
0.513725 0.349020 0.498039
0.650980 0.360784 0.498039
0.796078 0.356863 0.505882
0.933333 0.345098 0.494118
1.000000 0.341176 0.501961
0.007843 0.505882 0.501961
0.000000 0.513725 0.513725
0.192157 0.513725 0.505882
0.352941 0.509804 0.505882
0.513725 0.509804 0.501961
0.647059 0.509804 0.501961
0.803922 0.505882 0.505882
0.949020 0.501961 0.501961
1.000000 0.498039 0.486275
0.000000 0.666667 0.501961
0.015686 0.654902 0.509804
0.141176 0.658824 0.505882
0.337255 0.658824 0.501961
0.505882 0.654902 0.494118
0.658824 0.650980 0.490196
0.803922 0.650980 0.482353
0.941176 0.654902 0.490196
1.000000 0.650980 0.494118
0.007843 0.800000 0.494118
0.000000 0.807843 0.486275
0.007843 0.803922 0.486275
0.313725 0.796078 0.478431
0.498039 0.800000 0.478431
0.650980 0.800000 0.474510
0.807843 0.796078 0.478431
0.945098 0.792157 0.482353
0.996078 0.796078 0.478431
0.000000 0.941176 0.466667
0.007843 0.945098 0.478431
0.003922 0.941176 0.470588
0.301961 0.941176 0.474510
0.478431 0.941176 0.470588
0.647059 0.941176 0.466667
0.792157 0.941176 0.458824
0.945098 0.937255 0.462745
0.992157 0.937255 0.454902
0.000000 1.000000 0.466667
0.011765 0.996078 0.470588
0.007843 0.996078 0.458824
0.313725 1.000000 0.474510
0.482353 1.000000 0.470588
0.623529 1.000000 0.474510
0.764706 1.000000 0.474510
0.894118 1.000000 0.486275
0.992157 1.000000 0.490196
0.000000 0.000000 0.635294
0.082353 0.000000 0.635294
0.227451 0.000000 0.647059
0.380392 0.000000 0.647059
0.517647 0.000000 0.643137
0.654902 0.003922 0.647059
0.788235 0.003922 0.643137
0.933333 0.007843 0.647059
1.000000 0.003922 0.654902
0.007843 0.062745 0.654902
0.050980 0.054902 0.643137
0.235294 0.039216 0.654902
0.380392 0.011765 0.639216
0.513725 0.000000 0.643137
0.658824 0.000000 0.647059
0.792157 0.003922 0.654902
0.933333 0.000000 0.643137
0.992157 0.003922 0.650980
0.003922 0.207843 0.647059
0.000000 0.215686 0.635294
0.219608 0.211765 0.647059
0.368627 0.203922 0.643137
0.513725 0.196078 0.658824
0.658824 0.184314 0.650980
0.803922 0.172549 0.650980
0.941176 0.156863 0.647059
0.996078 0.133333 0.627451
0.000000 0.360784 0.647059
0.003922 0.352941 0.643137
0.188235 0.352941 0.643137
0.349020 0.356863 0.658824
0.513725 0.352941 0.658824
0.658824 0.341176 0.650980
0.803922 0.349020 0.650980
0.949020 0.345098 0.650980
0.992157 0.337255 0.647059
0.007843 0.509804 0.654902
0.000000 0.509804 0.650980
0.160784 0.505882 0.650980
0.337255 0.505882 0.639216
0.505882 0.498039 0.643137
0.654902 0.494118 0.650980
0.803922 0.498039 0.654902
0.941176 0.501961 0.658824
0.992157 0.494118 0.639216
0.007843 0.658824 0.650980
0.003922 0.650980 0.654902
0.117647 0.654902 0.647059
0.333333 0.650980 0.654902
0.498039 0.654902 0.650980
0.654902 0.647059 0.650980
0.800000 0.650980 0.639216
0.945098 0.650980 0.639216
1.000000 0.654902 0.639216
0.007843 0.800000 0.650980
0.003922 0.803922 0.643137
0.007843 0.800000 0.643137
0.294118 0.803922 0.650980
0.482353 0.803922 0.643137
0.650980 0.800000 0.639216
0.807843 0.800000 0.639216
0.949020 0.800000 0.647059
0.996078 0.792157 0.639216
0.007843 0.945098 0.647059
0.007843 0.937255 0.647059
0.003922 0.937255 0.639216
0.286275 0.941176 0.631373
0.466667 0.941176 0.627451
0.647059 0.937255 0.635294
0.792157 0.945098 0.631373
0.937255 0.941176 0.627451
1.000000 0.937255 0.635294
0.000000 1.000000 0.623529
0.007843 0.996078 0.631373
0.090196 1.000000 0.631373
0.337255 1.000000 0.635294
0.501961 0.996078 0.635294
0.643137 1.000000 0.635294
0.776471 0.996078 0.639216
0.894118 0.996078 0.639216
1.000000 1.000000 0.647059
0.000000 0.000000 0.800000
0.031373 0.003922 0.796078
0.231373 0.000000 0.792157
0.384314 0.000000 0.796078
0.525490 0.000000 0.796078
0.654902 0.000000 0.800000
0.800000 0.000000 0.796078
0.941176 0.000000 0.796078
1.000000 0.003922 0.788235
0.000000 0.031373 0.780392
0.003922 0.039216 0.788235
0.235294 0.011765 0.800000
0.384314 0.003922 0.792157
0.525490 0.007843 0.792157
0.662745 0.003922 0.796078
0.796078 0.000000 0.803922
0.937255 0.003922 0.796078
0.996078 0.000000 0.800000
0.003922 0.203922 0.803922
0.000000 0.211765 0.800000
0.203922 0.203922 0.792157
0.364706 0.196078 0.792157
0.521569 0.188235 0.796078
0.658824 0.172549 0.803922
0.796078 0.152941 0.796078
0.945098 0.133333 0.800000
0.996078 0.117647 0.800000
0.003922 0.345098 0.796078
0.000000 0.352941 0.800000
0.164706 0.341176 0.800000
0.341176 0.349020 0.792157
0.505882 0.349020 0.800000
0.658824 0.333333 0.796078
0.807843 0.333333 0.800000
0.945098 0.329412 0.803922
0.996078 0.325490 0.803922
0.000000 0.501961 0.788235
0.003922 0.501961 0.811765
0.098039 0.494118 0.800000
0.333333 0.498039 0.796078
0.498039 0.486275 0.796078
0.654902 0.494118 0.807843
0.803922 0.486275 0.796078
0.949020 0.482353 0.796078
0.988235 0.494118 0.784314
0.003922 0.650980 0.800000
0.007843 0.654902 0.800000
0.000000 0.654902 0.796078
0.313725 0.647059 0.807843
0.478431 0.643137 0.800000
0.647059 0.643137 0.800000
0.796078 0.647059 0.800000
0.941176 0.643137 0.792157
1.000000 0.647059 0.800000
0.000000 0.800000 0.803922
0.000000 0.800000 0.796078
0.007843 0.796078 0.796078
0.290196 0.800000 0.792157
0.486275 0.807843 0.792157
0.647059 0.803922 0.800000
0.796078 0.803922 0.800000
0.941176 0.800000 0.800000
0.996078 0.800000 0.803922
0.000000 0.941176 0.780392
0.007843 0.937255 0.796078
0.000000 0.941176 0.788235
0.282353 0.937255 0.788235
0.470588 0.949020 0.796078
0.639216 0.937255 0.788235
0.792157 0.941176 0.788235
0.937255 0.941176 0.784314
1.000000 0.933333 0.792157
0.000000 1.000000 0.764706
0.000000 1.000000 0.772549
0.152941 0.992157 0.780392
0.364706 1.000000 0.780392
0.537255 1.000000 0.784314
0.678431 1.000000 0.792157
0.796078 1.000000 0.800000
0.898039 1.000000 0.803922
0.992157 1.000000 0.803922
0.000000 0.000000 0.933333
0.000000 0.000000 0.933333
0.231373 0.000000 0.933333
0.384314 0.000000 0.941176
0.525490 0.000000 0.937255
0.658824 0.003922 0.937255
0.796078 0.000000 0.937255
0.941176 0.000000 0.937255
0.996078 0.003922 0.945098
0.003922 0.000000 0.945098
0.011765 0.000000 0.945098
0.223529 0.000000 0.945098
0.384314 0.003922 0.941176
0.513725 0.003922 0.945098
0.666667 0.000000 0.937255
0.803922 0.003922 0.941176
0.941176 0.000000 0.937255
1.000000 0.000000 0.945098
0.000000 0.192157 0.929412
0.000000 0.192157 0.941176
0.192157 0.188235 0.929412
0.364706 0.188235 0.937255
0.521569 0.168627 0.937255
0.658824 0.156863 0.937255
0.803922 0.141176 0.945098
0.945098 0.117647 0.945098
1.000000 0.066667 0.941176
0.003922 0.345098 0.941176
0.000000 0.341176 0.937255
0.149020 0.341176 0.945098
0.352941 0.337255 0.952941
0.505882 0.337255 0.941176
0.658824 0.333333 0.937255
0.800000 0.333333 0.945098
0.945098 0.317647 0.945098
0.992157 0.313725 0.941176
0.000000 0.490196 0.937255
0.000000 0.498039 0.937255
0.007843 0.490196 0.937255
0.309804 0.486275 0.945098
0.486275 0.482353 0.941176
0.643137 0.486275 0.937255
0.800000 0.482353 0.945098
0.945098 0.478431 0.949020
0.996078 0.474510 0.941176
0.007843 0.639216 0.945098
0.000000 0.647059 0.937255
0.000000 0.647059 0.933333
0.290196 0.639216 0.937255
0.474510 0.639216 0.937255
0.643137 0.639216 0.945098
0.800000 0.639216 0.945098
0.945098 0.647059 0.941176
1.000000 0.635294 0.933333
0.003922 0.788235 0.949020
0.003922 0.792157 0.941176
0.003922 0.788235 0.949020
0.282353 0.788235 0.941176
0.470588 0.792157 0.937255
0.639216 0.792157 0.945098
0.788235 0.796078 0.945098
0.952941 0.796078 0.937255
1.000000 0.796078 0.945098
0.000000 0.941176 0.929412
0.000000 0.937255 0.945098
0.000000 0.937255 0.945098
0.270588 0.945098 0.929412
0.474510 0.937255 0.937255
0.635294 0.945098 0.933333
0.792157 0.941176 0.941176
0.941176 0.933333 0.937255
0.988235 0.941176 0.941176
0.003922 0.996078 0.913725
0.000000 1.000000 0.913725
0.211765 0.996078 0.921569
0.388235 1.000000 0.917647
0.552941 0.996078 0.909804
0.705882 1.000000 0.917647
0.847059 1.000000 0.925490
0.937255 1.000000 0.949020
1.000000 1.000000 0.952941
0.003922 0.000000 0.996078
0.000000 0.003922 0.996078
0.219608 0.003922 0.992157
0.376471 0.003922 1.000000
0.513725 0.000000 0.996078
0.650980 0.003922 1.000000
0.788235 0.000000 0.996078
0.921569 0.000000 1.000000
1.000000 0.003922 1.000000
0.003922 0.000000 0.988235
0.003922 0.000000 0.988235
0.211765 0.003922 1.000000
0.364706 0.007843 1.000000
0.513725 0.000000 0.988235
0.650980 0.003922 1.000000
0.788235 0.000000 1.000000
0.925490 0.003922 1.000000
1.000000 0.000000 0.996078
0.003922 0.192157 1.000000
0.000000 0.188235 0.996078
0.196078 0.180392 1.000000
0.368627 0.180392 1.000000
0.505882 0.168627 1.000000
0.647059 0.156863 1.000000
0.788235 0.145098 1.000000
0.921569 0.133333 0.996078
1.000000 0.113725 0.992157
0.000000 0.337255 1.000000
0.007843 0.333333 1.000000
0.152941 0.333333 1.000000
0.349020 0.337255 1.000000
0.501961 0.341176 1.000000
0.639216 0.329412 0.992157
0.784314 0.329412 0.992157
0.921569 0.325490 1.000000
1.000000 0.325490 1.000000
0.003922 0.482353 1.000000
0.000000 0.482353 0.996078
0.086275 0.478431 0.996078
0.313725 0.478431 1.000000
0.486275 0.478431 1.000000
0.627451 0.482353 1.000000
0.776471 0.478431 1.000000
0.917647 0.482353 0.996078
1.000000 0.478431 0.992157
0.000000 0.627451 1.000000
0.000000 0.627451 1.000000
0.094118 0.627451 0.988235
0.325490 0.623529 1.000000
0.490196 0.631373 1.000000
0.631373 0.635294 1.000000
0.772549 0.635294 1.000000
0.913725 0.635294 1.000000
1.000000 0.643137 0.992157
0.000000 0.772549 0.988235
0.000000 0.764706 0.992157
0.164706 0.756863 1.000000
0.352941 0.768627 0.996078
0.513725 0.772549 1.000000
0.658824 0.780392 1.000000
0.788235 0.788235 1.000000
0.905882 0.796078 0.996078
1.000000 0.796078 1.000000
0.000000 0.894118 0.988235
0.105882 0.890196 1.000000
0.274510 0.886275 1.000000
0.407843 0.886275 1.000000
0.549020 0.901961 0.996078
0.694118 0.905882 1.000000
0.819608 0.917647 1.000000
0.933333 0.941176 1.000000
1.000000 0.945098 1.000000
0.270588 1.000000 0.988235
0.309804 0.996078 1.000000
0.388235 1.000000 0.996078
0.498039 0.996078 0.992157
0.611765 0.996078 1.000000
0.749020 1.000000 1.000000
0.878431 1.000000 1.000000
0.996078 1.000000 1.000000
1.000000 0.996078 1.000000
