lut_library_archive/removed_20260629/50个风景lut/50个风景lut07.cube
# 版权归凌孟成所有，侵权必究
TITLE "Jungle LUT #7"
#LUT size
LUT_3D_SIZE 9
#LUT data points
0.039216 0.039216 0.039216
0.125490 0.019608 0.039216
0.262745 0.000000 0.035294
0.380392 0.003922 0.019608
0.498039 0.007843 0.039216
0.607843 0.011765 0.062745
0.713725 0.039216 0.094118
0.823529 0.070588 0.121569
0.952941 0.101961 0.137255
0.000000 0.137255 0.019608
0.137255 0.133333 0.011765
0.254902 0.129412 0.039216
0.376471 0.133333 0.050980
0.498039 0.133333 0.062745
0.603922 0.137255 0.082353
0.705882 0.141176 0.109804
0.823529 0.156863 0.129412
0.960784 0.180392 0.160784
0.000000 0.258824 0.015686
0.125490 0.258824 0.019608
0.254902 0.262745 0.015686
0.380392 0.254902 0.070588
0.482353 0.254902 0.109804
0.588235 0.258824 0.125490
0.705882 0.258824 0.156863
0.823529 0.266667 0.172549
0.949020 0.282353 0.200000
0.000000 0.384314 0.035294
0.109804 0.388235 0.027451
0.250980 0.380392 0.031373
0.384314 0.384314 0.047059
0.498039 0.368627 0.105882
0.588235 0.368627 0.180392
0.686275 0.380392 0.200000
0.811765 0.388235 0.215686
0.952941 0.403922 0.243137
0.000000 0.498039 0.074510
0.113725 0.494118 0.074510
0.243137 0.490196 0.070588
0.368627 0.490196 0.082353
0.498039 0.490196 0.094118
0.603922 0.482353 0.129412
0.698039 0.482353 0.219608
0.811765 0.501961 0.278431
0.949020 0.525490 0.282353
0.007843 0.603922 0.109804
0.129412 0.600000 0.117647
0.243137 0.600000 0.117647
0.360784 0.603922 0.113725
0.482353 0.600000 0.121569
0.600000 0.600000 0.129412
0.717647 0.600000 0.152941
0.827451 0.607843 0.235294
0.972549 0.631373 0.321569
0.015686 0.721569 0.137255
0.125490 0.717647 0.133333
0.247059 0.717647 0.125490
0.368627 0.721569 0.137255
0.474510 0.721569 0.121569
0.603922 0.721569 0.133333
0.729412 0.725490 0.129412
0.858824 0.729412 0.121569
0.984314 0.737255 0.231373
0.003922 0.854902 0.082353
0.098039 0.862745 0.105882
0.239216 0.858824 0.109804
0.368627 0.866667 0.101961
0.498039 0.862745 0.098039
0.615686 0.862745 0.098039
0.745098 0.870588 0.090196
0.874510 0.866667 0.086275
0.988235 0.878431 0.074510
0.007843 1.000000 0.000000
0.047059 1.000000 0.000000
0.219608 0.996078 0.000000
0.364706 1.000000 0.000000
0.501961 1.000000 0.000000
0.619608 1.000000 0.007843
0.752941 1.000000 0.000000
0.882353 1.000000 0.007843
0.996078 1.000000 0.000000
0.011765 0.035294 0.160784
0.133333 0.007843 0.152941
0.266667 0.000000 0.152941
0.396078 0.000000 0.164706
0.501961 0.000000 0.152941
0.615686 0.000000 0.168627
0.717647 0.039216 0.176471
0.827451 0.074510 0.196078
0.960784 0.105882 0.203922
0.000000 0.145098 0.156863
0.133333 0.137255 0.156863
0.266667 0.125490 0.164706
0.396078 0.121569 0.160784
0.501961 0.125490 0.164706
0.607843 0.133333 0.172549
0.705882 0.145098 0.184314
0.831373 0.156863 0.203922
0.964706 0.176471 0.219608
0.000000 0.258824 0.152941
0.125490 0.266667 0.164706
0.262745 0.262745 0.160784
0.372549 0.262745 0.180392
0.486275 0.262745 0.196078
0.603922 0.254902 0.207843
0.705882 0.266667 0.211765
0.827451 0.270588 0.223529
0.956863 0.286275 0.227451
0.000000 0.380392 0.156863
0.105882 0.384314 0.156863
0.250980 0.380392 0.156863
0.380392 0.380392 0.168627
0.486275 0.376471 0.192157
0.588235 0.376471 0.243137
0.698039 0.384314 0.254902
0.819608 0.384314 0.266667
0.952941 0.403922 0.282353
0.000000 0.494118 0.172549
0.105882 0.486275 0.164706
0.243137 0.490196 0.172549
0.372549 0.486275 0.172549
0.494118 0.490196 0.176471
0.607843 0.478431 0.200000
0.701961 0.486275 0.266667
0.811765 0.505882 0.313725
0.952941 0.513725 0.325490
0.015686 0.600000 0.180392
0.113725 0.603922 0.188235
0.243137 0.600000 0.188235
0.360784 0.600000 0.196078
0.486275 0.596078 0.192157
0.596078 0.600000 0.192157
0.721569 0.596078 0.203922
0.831373 0.603922 0.282353
0.956863 0.635294 0.345098
0.000000 0.725490 0.188235
0.121569 0.721569 0.192157
0.239216 0.721569 0.196078
0.364706 0.717647 0.184314
0.478431 0.717647 0.200000
0.600000 0.717647 0.192157
0.733333 0.725490 0.192157
0.854902 0.729412 0.200000
0.980392 0.749020 0.278431
0.007843 0.862745 0.180392
0.086275 0.862745 0.168627
0.235294 0.862745 0.180392
0.364706 0.862745 0.176471
0.494118 0.866667 0.168627
0.627451 0.866667 0.164706
0.749020 0.870588 0.168627
0.874510 0.866667 0.156863
0.984314 0.870588 0.156863
0.015686 1.000000 0.101961
0.000000 1.000000 0.105882
0.211765 1.000000 0.105882
0.364706 1.000000 0.105882
0.486275 1.000000 0.098039
0.623529 1.000000 0.094118
0.752941 1.000000 0.094118
0.882353 0.996078 0.094118
1.000000 1.000000 0.098039
0.000000 0.019608 0.294118
0.129412 0.003922 0.298039
0.262745 0.003922 0.301961
0.392157 0.000000 0.294118
0.509804 0.000000 0.294118
0.615686 0.023529 0.294118
0.717647 0.062745 0.294118
0.839216 0.054902 0.298039
0.968627 0.070588 0.301961
0.000000 0.125490 0.301961
0.125490 0.117647 0.301961
0.258824 0.117647 0.298039
0.388235 0.117647 0.301961
0.509804 0.125490 0.294118
0.603922 0.145098 0.290196
0.717647 0.145098 0.298039
0.831373 0.152941 0.294118
0.960784 0.164706 0.309804
0.000000 0.262745 0.298039
0.109804 0.258824 0.298039
0.247059 0.254902 0.305882
0.380392 0.254902 0.298039
0.498039 0.254902 0.298039
0.600000 0.258824 0.294118
0.705882 0.262745 0.309804
0.827451 0.274510 0.309804
0.956863 0.278431 0.317647
0.000000 0.384314 0.294118
0.113725 0.376471 0.298039
0.250980 0.380392 0.298039
0.384314 0.380392 0.294118
0.474510 0.384314 0.321569
0.584314 0.380392 0.329412
0.698039 0.388235 0.329412
0.827451 0.388235 0.341176
0.956863 0.400000 0.345098
0.000000 0.494118 0.305882
0.113725 0.494118 0.286275
0.243137 0.486275 0.286275
0.360784 0.486275 0.290196
0.494118 0.486275 0.298039
0.592157 0.478431 0.321569
0.698039 0.490196 0.364706
0.807843 0.509804 0.376471
0.949020 0.517647 0.380392
0.027451 0.600000 0.305882
0.125490 0.600000 0.298039
0.250980 0.596078 0.298039
0.360784 0.600000 0.298039
0.486275 0.596078 0.294118
0.596078 0.600000 0.301961
0.721569 0.596078 0.309804
0.827451 0.611765 0.360784
0.952941 0.635294 0.419608
0.000000 0.717647 0.301961
0.109804 0.717647 0.290196
0.235294 0.717647 0.294118
0.360784 0.721569 0.294118
0.482353 0.725490 0.298039
0.607843 0.725490 0.286275
0.729412 0.729412 0.294118
0.862745 0.729412 0.305882
0.988235 0.745098 0.356863
0.000000 0.866667 0.282353
0.011765 0.858824 0.266667
0.207843 0.866667 0.278431
0.352941 0.866667 0.258824
0.494118 0.862745 0.274510
0.611765 0.866667 0.270588
0.741176 0.870588 0.270588
0.874510 0.870588 0.266667
1.000000 0.874510 0.258824
0.000000 1.000000 0.239216
0.007843 1.000000 0.227451
0.203922 1.000000 0.235294
0.345098 0.992157 0.235294
0.494118 0.992157 0.227451
0.611765 1.000000 0.223529
0.749020 1.000000 0.223529
0.878431 0.996078 0.227451
1.000000 1.000000 0.223529
0.000000 0.003922 0.427451
0.121569 0.000000 0.431373
0.247059 0.007843 0.423529
0.384314 0.003922 0.427451
0.501961 0.003922 0.423529
0.615686 0.000000 0.419608
0.717647 0.050980 0.407843
0.835294 0.066667 0.419608
0.968627 0.015686 0.415686
0.007843 0.113725 0.423529
0.117647 0.109804 0.435294
0.247059 0.109804 0.423529
0.384314 0.101961 0.423529
0.498039 0.109804 0.435294
0.607843 0.129412 0.415686
0.717647 0.149020 0.419608
0.831373 0.156863 0.415686
0.972549 0.121569 0.407843
0.000000 0.243137 0.435294
0.094118 0.243137 0.427451
0.239216 0.247059 0.435294
0.384314 0.243137 0.431373
0.498039 0.250980 0.423529
0.607843 0.250980 0.419608
0.713725 0.266667 0.415686
0.835294 0.254902 0.419608
0.980392 0.239216 0.427451
0.000000 0.376471 0.419608
0.105882 0.376471 0.427451
0.243137 0.376471 0.423529
0.376471 0.372549 0.435294
0.490196 0.372549 0.419608
0.596078 0.368627 0.423529
0.717647 0.372549 0.427451
0.835294 0.372549 0.427451
0.968627 0.384314 0.431373
0.015686 0.490196 0.423529
0.125490 0.490196 0.419608
0.243137 0.490196 0.423529
0.364706 0.486275 0.423529
0.490196 0.482353 0.423529
0.592157 0.486275 0.443137
0.698039 0.494118 0.450980
0.827451 0.498039 0.454902
0.960784 0.517647 0.454902
0.043137 0.596078 0.427451
0.125490 0.603922 0.419608
0.239216 0.600000 0.415686
0.356863 0.600000 0.415686
0.486275 0.600000 0.419608
0.603922 0.600000 0.419608
0.709804 0.596078 0.423529
0.827451 0.615686 0.474510
0.952941 0.643137 0.482353
0.003922 0.721569 0.407843
0.023529 0.721569 0.407843
0.207843 0.721569 0.407843
0.341176 0.721569 0.411765
0.478431 0.717647 0.403922
0.600000 0.721569 0.407843
0.729412 0.725490 0.403922
0.854902 0.725490 0.407843
0.984314 0.752941 0.462745
0.011765 0.858824 0.392157
0.000000 0.862745 0.388235
0.164706 0.870588 0.388235
0.329412 0.870588 0.396078
0.470588 0.862745 0.384314
0.607843 0.866667 0.384314
0.741176 0.866667 0.384314
0.874510 0.870588 0.376471
0.992157 0.870588 0.376471
0.007843 1.000000 0.368627
0.003922 0.996078 0.356863
0.109804 0.996078 0.360784
0.309804 1.000000 0.352941
0.470588 1.000000 0.352941
0.611765 0.996078 0.349020
0.745098 1.000000 0.356863
0.870588 1.000000 0.349020
1.000000 0.996078 0.356863
0.003922 0.000000 0.541176
0.109804 0.000000 0.533333
0.239216 0.003922 0.537255
0.364706 0.003922 0.549020
0.494118 0.000000 0.541176
0.611765 0.000000 0.541176
0.717647 0.035294 0.529412
0.831373 0.039216 0.533333
0.972549 0.000000 0.549020
0.015686 0.109804 0.541176
0.090196 0.117647 0.533333
0.250980 0.105882 0.549020
0.372549 0.105882 0.541176
0.490196 0.113725 0.545098
0.600000 0.117647 0.541176
0.713725 0.133333 0.533333
0.827451 0.137255 0.533333
0.972549 0.101961 0.537255
0.003922 0.235294 0.541176
0.113725 0.243137 0.552941
0.243137 0.239216 0.537255
0.368627 0.239216 0.549020
0.486275 0.243137 0.545098
0.603922 0.243137 0.529412
0.713725 0.254902 0.533333
0.831373 0.247059 0.537255
0.980392 0.223529 0.541176
0.003922 0.364706 0.549020
0.117647 0.352941 0.541176
0.239216 0.360784 0.541176
0.356863 0.364706 0.552941
0.474510 0.360784 0.541176
0.603922 0.364706 0.537255
0.713725 0.364706 0.537255
0.839216 0.356863 0.537255
0.980392 0.337255 0.537255
0.000000 0.474510 0.537255
0.117647 0.482353 0.541176
0.235294 0.482353 0.541176
0.356863 0.482353 0.541176
0.490196 0.478431 0.545098
0.592157 0.482353 0.541176
0.717647 0.478431 0.537255
0.835294 0.478431 0.537255
0.984314 0.490196 0.545098
0.015686 0.596078 0.541176
0.117647 0.596078 0.537255
0.231373 0.600000 0.545098
0.352941 0.596078 0.537255
0.474510 0.596078 0.537255
0.592157 0.596078 0.541176
0.709804 0.607843 0.552941
0.827451 0.619608 0.564706
0.976471 0.635294 0.576471
0.000000 0.725490 0.529412
0.000000 0.717647 0.537255
0.168627 0.725490 0.529412
0.321569 0.721569 0.525490
0.462745 0.721569 0.525490
0.592157 0.725490 0.525490
0.729412 0.721569 0.521569
0.850980 0.733333 0.537255
0.984314 0.756863 0.572549
0.000000 0.862745 0.509804
0.000000 0.862745 0.501961
0.000000 0.870588 0.498039
0.294118 0.866667 0.509804
0.443137 0.870588 0.505882
0.592157 0.870588 0.494118
0.733333 0.862745 0.498039
0.882353 0.870588 0.498039
1.000000 0.870588 0.505882
0.000000 1.000000 0.466667
0.000000 1.000000 0.482353
0.007843 1.000000 0.474510
0.258824 1.000000 0.474510
0.443137 0.996078 0.474510
0.596078 1.000000 0.478431
0.741176 1.000000 0.474510
0.870588 1.000000 0.470588
0.996078 0.996078 0.478431
0.000000 0.000000 0.658824
0.101961 0.003922 0.654902
0.223529 0.000000 0.647059
0.349020 0.003922 0.654902
0.466667 0.000000 0.662745
0.592157 0.000000 0.662745
0.717647 0.000000 0.658824
0.839216 0.003922 0.662745
0.972549 0.000000 0.682353
0.000000 0.105882 0.658824
0.098039 0.109804 0.662745
0.219608 0.109804 0.650980
0.341176 0.113725 0.658824
0.470588 0.105882 0.662745
0.596078 0.117647 0.662745
0.709804 0.117647 0.662745
0.839216 0.117647 0.658824
0.984314 0.082353 0.678431
0.003922 0.231373 0.662745
0.109804 0.239216 0.650980
0.235294 0.239216 0.654902
0.349020 0.235294 0.650980
0.478431 0.235294 0.662745
0.588235 0.239216 0.654902
0.717647 0.239216 0.666667
0.839216 0.231373 0.662745
0.984314 0.203922 0.670588
0.007843 0.356863 0.662745
0.125490 0.356863 0.662745
0.239216 0.352941 0.650980
0.360784 0.356863 0.662745
0.470588 0.360784 0.662745
0.592157 0.352941 0.658824
0.713725 0.349020 0.666667
0.847059 0.349020 0.666667
0.988235 0.329412 0.670588
0.003922 0.470588 0.658824
0.113725 0.470588 0.647059
0.231373 0.474510 0.658824
0.349020 0.466667 0.662745
0.474510 0.466667 0.658824
0.592157 0.466667 0.662745
0.725490 0.462745 0.670588
0.850980 0.458824 0.662745
0.992157 0.454902 0.666667
0.000000 0.592157 0.666667
0.090196 0.588235 0.654902
0.219608 0.596078 0.658824
0.345098 0.592157 0.662745
0.462745 0.584314 0.662745
0.592157 0.588235 0.658824
0.725490 0.592157 0.658824
0.858824 0.592157 0.650980
0.996078 0.596078 0.643137
0.011765 0.713725 0.658824
0.000000 0.721569 0.658824
0.141176 0.713725 0.670588
0.298039 0.721569 0.658824
0.439216 0.721569 0.666667
0.588235 0.721569 0.654902
0.721569 0.725490 0.654902
0.854902 0.741176 0.686275
0.968627 0.760784 0.690196
0.003922 0.866667 0.662745
0.000000 0.870588 0.654902
0.003922 0.870588 0.639216
0.180392 0.870588 0.647059
0.400000 0.870588 0.631373
0.572549 0.870588 0.627451
0.725490 0.874510 0.635294
0.874510 0.874510 0.631373
0.996078 0.870588 0.639216
0.000000 0.996078 0.611765
0.007843 1.000000 0.611765
0.003922 0.996078 0.600000
0.149020 1.000000 0.619608
0.423529 0.992157 0.611765
0.580392 1.000000 0.615686
0.733333 0.996078 0.615686
0.874510 0.996078 0.619608
1.000000 1.000000 0.615686
0.003922 0.000000 0.776471
0.090196 0.000000 0.792157
0.227451 0.000000 0.784314
0.345098 0.000000 0.776471
0.470588 0.000000 0.776471
0.588235 0.000000 0.768627
0.705882 0.000000 0.788235
0.831373 0.000000 0.788235
0.980392 0.003922 0.811765
0.000000 0.101961 0.776471
0.086275 0.098039 0.776471
0.223529 0.105882 0.784314
0.349020 0.105882 0.784314
0.482353 0.101961 0.788235
0.596078 0.113725 0.784314
0.709804 0.105882 0.788235
0.839216 0.101961 0.788235
0.972549 0.003922 0.800000
0.000000 0.231373 0.780392
0.094118 0.231373 0.784314
0.227451 0.231373 0.780392
0.352941 0.231373 0.780392
0.474510 0.227451 0.788235
0.592157 0.231373 0.776471
0.705882 0.231373 0.776471
0.835294 0.219608 0.788235
0.992157 0.188235 0.811765
0.000000 0.345098 0.784314
0.098039 0.345098 0.780392
0.227451 0.352941 0.776471
0.345098 0.345098 0.784314
0.466667 0.352941 0.784314
0.592157 0.341176 0.780392
0.721569 0.341176 0.792157
0.847059 0.333333 0.800000
0.996078 0.313725 0.807843
0.003922 0.466667 0.788235
0.050980 0.466667 0.792157
0.203922 0.462745 0.792157
0.325490 0.462745 0.784314
0.454902 0.458824 0.784314
0.588235 0.454902 0.792157
0.709804 0.454902 0.792157
0.858824 0.443137 0.796078
1.000000 0.431373 0.796078
0.007843 0.580392 0.780392
0.003922 0.588235 0.784314
0.184314 0.588235 0.796078
0.313725 0.588235 0.792157
0.443137 0.584314 0.788235
0.576471 0.576471 0.788235
0.721569 0.572549 0.796078
0.866667 0.572549 0.796078
1.000000 0.556863 0.796078
0.003922 0.709804 0.800000
0.000000 0.713725 0.796078
0.086275 0.717647 0.796078
0.290196 0.713725 0.796078
0.419608 0.721569 0.792157
0.572549 0.717647 0.792157
0.725490 0.721569 0.792157
0.870588 0.721569 0.780392
1.000000 0.741176 0.788235
0.000000 0.866667 0.800000
0.000000 0.874510 0.803922
0.000000 0.870588 0.796078
0.145098 0.866667 0.803922
0.372549 0.878431 0.796078
0.549020 0.878431 0.784314
0.721569 0.870588 0.780392
0.874510 0.874510 0.780392
0.992157 0.878431 0.815686
0.000000 1.000000 0.780392
0.000000 0.996078 0.768627
0.000000 0.992157 0.768627
0.007843 1.000000 0.760784
0.349020 1.000000 0.749020
0.560784 0.996078 0.760784
0.741176 0.996078 0.768627
0.870588 1.000000 0.768627
1.000000 0.996078 0.776471
0.000000 0.003922 0.913725
0.066667 0.003922 0.909804
0.223529 0.003922 0.917647
0.349020 0.003922 0.921569
0.474510 0.000000 0.917647
0.588235 0.003922 0.921569
0.713725 0.000000 0.917647
0.835294 0.000000 0.909804
0.960784 0.000000 0.921569
0.007843 0.094118 0.913725
0.066667 0.094118 0.917647
0.219608 0.090196 0.917647
0.341176 0.090196 0.917647
0.470588 0.098039 0.913725
0.596078 0.094118 0.921569
0.709804 0.082353 0.913725
0.831373 0.066667 0.913725
0.968627 0.015686 0.925490
0.000000 0.223529 0.925490
0.066667 0.227451 0.917647
0.219608 0.223529 0.921569
0.341176 0.219608 0.921569
0.462745 0.227451 0.913725
0.600000 0.219608 0.917647
0.717647 0.219608 0.921569
0.839216 0.207843 0.917647
0.960784 0.188235 0.917647
0.000000 0.345098 0.917647
0.011765 0.349020 0.925490
0.196078 0.345098 0.905882
0.341176 0.341176 0.913725
0.466667 0.337255 0.921569
0.588235 0.337255 0.925490
0.717647 0.329412 0.925490
0.843137 0.321569 0.921569
0.964706 0.309804 0.925490
0.000000 0.466667 0.917647
0.000000 0.470588 0.917647
0.141176 0.458824 0.917647
0.309804 0.450980 0.921569
0.450980 0.450980 0.929412
0.580392 0.447059 0.925490
0.717647 0.443137 0.929412
0.850980 0.435294 0.937255
0.980392 0.419608 0.937255
0.019608 0.580392 0.917647
0.000000 0.584314 0.921569
0.090196 0.584314 0.921569
0.274510 0.576471 0.921569
0.431373 0.568627 0.921569
0.564706 0.568627 0.929412
0.705882 0.560784 0.925490
0.850980 0.556863 0.921569
1.000000 0.549020 0.921569
0.003922 0.713725 0.921569
0.003922 0.713725 0.921569
0.011765 0.705882 0.917647
0.254902 0.713725 0.925490
0.423529 0.709804 0.917647
0.572549 0.709804 0.925490
0.709804 0.705882 0.933333
0.862745 0.709804 0.933333
1.000000 0.705882 0.929412
0.003922 0.839216 0.925490
0.007843 0.839216 0.925490
0.000000 0.839216 0.917647
0.223529 0.843137 0.929412
0.392157 0.843137 0.917647
0.564706 0.850980 0.917647
0.721569 0.862745 0.925490
0.870588 0.870588 0.917647
0.996078 0.878431 0.917647
0.003922 1.000000 0.937255
0.003922 1.000000 0.937255
0.000000 1.000000 0.937255
0.011765 1.000000 0.929412
0.356863 1.000000 0.925490
0.560784 0.996078 0.921569
0.733333 1.000000 0.901961
0.886275 1.000000 0.913725
1.000000 0.996078 0.921569
0.000000 0.000000 0.996078
0.058824 0.000000 1.000000
0.207843 0.000000 0.996078
0.337255 0.003922 1.000000
0.462745 0.003922 1.000000
0.588235 0.003922 1.000000
0.709804 0.000000 1.000000
0.835294 0.003922 0.996078
0.968627 0.000000 1.000000
0.003922 0.098039 0.992157
0.054902 0.098039 1.000000
0.215686 0.090196 0.996078
0.333333 0.101961 0.996078
0.474510 0.094118 1.000000
0.588235 0.094118 1.000000
0.709804 0.086275 1.000000
0.827451 0.058824 1.000000
0.972549 0.000000 1.000000
0.003922 0.219608 1.000000
0.058824 0.223529 1.000000
0.211765 0.227451 1.000000
0.341176 0.219608 1.000000
0.466667 0.223529 1.000000
0.584314 0.219608 1.000000
0.709804 0.211765 1.000000
0.843137 0.200000 0.996078
0.976471 0.168627 1.000000
0.000000 0.349020 1.000000
0.000000 0.349020 1.000000
0.203922 0.337255 1.000000
0.325490 0.333333 1.000000
0.458824 0.333333 1.000000
0.580392 0.333333 0.996078
0.709804 0.325490 0.996078
0.850980 0.317647 1.000000
0.984314 0.290196 1.000000
0.003922 0.450980 1.000000
0.000000 0.450980 1.000000
0.137255 0.447059 0.992157
0.298039 0.450980 1.000000
0.439216 0.443137 1.000000
0.568627 0.439216 1.000000
0.705882 0.435294 0.996078
0.843137 0.431373 1.000000
0.976471 0.415686 0.988235
0.011765 0.576471 0.996078
0.000000 0.580392 1.000000
0.156863 0.580392 1.000000
0.294118 0.576471 1.000000
0.415686 0.556863 1.000000
0.552941 0.560784 1.000000
0.701961 0.556863 1.000000
0.854902 0.552941 1.000000
1.000000 0.549020 1.000000
0.003922 0.705882 1.000000
0.007843 0.701961 1.000000
0.137255 0.705882 1.000000
0.305882 0.705882 1.000000
0.447059 0.705882 0.996078
0.576471 0.709804 1.000000
0.705882 0.701961 1.000000
0.862745 0.698039 0.996078
1.000000 0.698039 0.996078
0.000000 0.843137 0.996078
0.007843 0.831373 1.000000
0.129412 0.827451 1.000000
0.305882 0.831373 1.000000
0.450980 0.839216 0.992157
0.596078 0.847059 0.996078
0.749020 0.866667 1.000000
0.886275 0.870588 1.000000
1.000000 0.878431 1.000000
0.000000 0.949020 0.996078
0.105882 0.949020 1.000000
0.239216 0.952941 1.000000
0.384314 0.952941 1.000000
0.513725 0.952941 0.996078
0.662745 0.964706 0.996078
0.823529 0.968627 1.000000
0.952941 0.980392 1.000000
1.000000 1.000000 0.992157
