lut_library_archive/removed_20260629/50个风景lut/50个风景lut28.cube
# 版权归凌孟成所有，侵权必究
TITLE "Jungle LUT #28"
#LUT size
LUT_3D_SIZE 5
#LUT data points
0.003922 0.000000 0.000000
0.239216 0.000000 0.000000
0.498039 0.003922 0.015686
0.772549 0.007843 0.039216
1.000000 0.082353 0.094118
0.003922 0.239216 0.000000
0.247059 0.239216 0.000000
0.498039 0.258824 0.078431
0.780392 0.278431 0.101961
0.996078 0.298039 0.149020
0.003922 0.517647 0.000000
0.231373 0.517647 0.003922
0.513725 0.513725 0.003922
0.776471 0.529412 0.125490
0.992157 0.568627 0.254902
0.000000 0.780392 0.015686
0.188235 0.776471 0.007843
0.490196 0.772549 0.000000
0.760784 0.768627 0.003922
1.000000 0.768627 0.129412
0.007843 0.996078 0.003922
0.152941 0.996078 0.000000
0.478431 1.000000 0.000000
0.741176 0.996078 0.000000
0.988235 1.000000 0.000000
0.000000 0.000000 0.250980
0.239216 0.007843 0.258824
0.509804 0.000000 0.258824
0.768627 0.003922 0.243137
1.000000 0.000000 0.254902
0.000000 0.239216 0.250980
0.231373 0.247059 0.243137
0.501961 0.250980 0.254902
0.768627 0.250980 0.262745
0.992157 0.282353 0.278431
0.000000 0.517647 0.219608
0.215686 0.517647 0.235294
0.505882 0.513725 0.227451
0.780392 0.537255 0.305882
1.000000 0.556863 0.345098
0.000000 0.780392 0.192157
0.172549 0.776471 0.196078
0.486275 0.772549 0.180392
0.764706 0.776471 0.184314
1.000000 0.780392 0.290196
0.000000 1.000000 0.129412
0.133333 1.000000 0.121569
0.470588 0.996078 0.121569
0.745098 1.000000 0.121569
0.992157 1.000000 0.125490
0.058824 0.003922 0.486275
0.270588 0.000000 0.490196
0.517647 0.000000 0.498039
0.776471 0.003922 0.490196
1.000000 0.000000 0.494118
0.000000 0.227451 0.486275
0.250980 0.231373 0.490196
0.513725 0.227451 0.498039
0.776471 0.223529 0.490196
1.000000 0.203922 0.482353
0.007843 0.509804 0.490196
0.215686 0.517647 0.494118
0.505882 0.509804 0.486275
0.772549 0.517647 0.501961
0.992157 0.545098 0.513725
0.000000 0.780392 0.466667
0.137255 0.772549 0.466667
0.490196 0.776471 0.466667
0.764706 0.768627 0.462745
0.996078 0.800000 0.560784
0.003922 1.000000 0.431373
0.168627 0.992157 0.439216
0.482353 0.996078 0.439216
0.745098 1.000000 0.435294
0.996078 1.000000 0.443137
0.113725 0.000000 0.737255
0.278431 0.000000 0.745098
0.517647 0.000000 0.745098
0.768627 0.000000 0.745098
0.996078 0.000000 0.733333
0.011765 0.215686 0.752941
0.250980 0.223529 0.741176
0.513725 0.215686 0.749020
0.776471 0.200000 0.749020
0.988235 0.188235 0.741176
0.011765 0.486275 0.741176
0.207843 0.498039 0.745098
0.498039 0.498039 0.749020
0.768627 0.490196 0.749020
1.000000 0.498039 0.749020
0.000000 0.768627 0.733333
0.184314 0.764706 0.741176
0.498039 0.768627 0.741176
0.776471 0.764706 0.729412
1.000000 0.788235 0.752941
0.000000 1.000000 0.717647
0.184314 0.996078 0.721569
0.501961 1.000000 0.713725
0.776471 1.000000 0.721569
0.992157 0.996078 0.721569
0.125490 0.000000 0.984314
0.282353 0.000000 0.980392
0.513725 0.003922 0.984314
0.752941 0.000000 0.976471
1.000000 0.000000 0.988235
0.094118 0.211765 0.980392
0.282353 0.211765 0.980392
0.509804 0.211765 0.988235
0.760784 0.203922 0.980392
1.000000 0.196078 0.972549
0.054902 0.482353 0.988235
0.247059 0.478431 0.972549
0.505882 0.482353 0.976471
0.756863 0.478431 0.980392
0.992157 0.482353 0.976471
0.035294 0.749020 0.976471
0.258824 0.745098 0.976471
0.513725 0.752941 0.968627
0.768627 0.756863 0.972549
0.992157 0.764706 0.960784
0.007843 1.000000 0.960784
0.219608 1.000000 0.949020
0.517647 1.000000 0.949020
0.815686 0.996078 0.952941
1.000000 1.000000 0.941176
