lut_library_archive/removed_20260629/50个风景lut/50个风景lut45.cube
# 版权归凌孟成所有，侵权必究
TITLE "Jungle LUT #45"
#LUT size
LUT_3D_SIZE 9
#LUT data points
0.000000 0.000000 0.000000
0.098039 0.000000 0.000000
0.239216 0.003922 0.000000
0.368627 0.000000 0.000000
0.509804 0.000000 0.000000
0.658824 0.003922 0.003922
0.807843 0.003922 0.000000
0.945098 0.000000 0.000000
0.996078 0.000000 0.000000
0.000000 0.105882 0.007843
0.105882 0.098039 0.000000
0.239216 0.105882 0.000000
0.372549 0.098039 0.000000
0.513725 0.094118 0.000000
0.662745 0.070588 0.000000
0.807843 0.031373 0.000000
0.945098 0.000000 0.003922
0.984314 0.007843 0.000000
0.000000 0.235294 0.000000
0.125490 0.223529 0.000000
0.250980 0.227451 0.000000
0.380392 0.227451 0.000000
0.521569 0.231373 0.000000
0.662745 0.223529 0.000000
0.811765 0.219608 0.003922
0.952941 0.203922 0.000000
1.000000 0.176471 0.000000
0.000000 0.364706 0.000000
0.113725 0.360784 0.000000
0.258824 0.364706 0.000000
0.388235 0.360784 0.003922
0.533333 0.364706 0.003922
0.670588 0.360784 0.000000
0.815686 0.356863 0.003922
0.941176 0.349020 0.000000
0.992157 0.337255 0.000000
0.000000 0.509804 0.007843
0.117647 0.513725 0.003922
0.258824 0.501961 0.000000
0.400000 0.505882 0.000000
0.537255 0.501961 0.000000
0.674510 0.498039 0.000000
0.815686 0.498039 0.000000
0.952941 0.482353 0.003922
1.000000 0.478431 0.003922
0.007843 0.643137 0.003922
0.101961 0.654902 0.003922
0.262745 0.643137 0.000000
0.407843 0.647059 0.000000
0.549020 0.635294 0.000000
0.690196 0.639216 0.000000
0.823529 0.635294 0.000000
0.949020 0.619608 0.000000
0.996078 0.607843 0.007843
0.007843 0.756863 0.003922
0.094118 0.764706 0.000000
0.254902 0.764706 0.000000
0.403922 0.768627 0.003922
0.533333 0.756863 0.000000
0.678431 0.756863 0.000000
0.807843 0.749020 0.000000
0.956863 0.749020 0.007843
1.000000 0.737255 0.003922
0.000000 0.870588 0.000000
0.090196 0.878431 0.007843
0.254902 0.874510 0.000000
0.396078 0.874510 0.000000
0.529412 0.874510 0.000000
0.666667 0.870588 0.000000
0.800000 0.862745 0.000000
0.937255 0.858824 0.000000
1.000000 0.858824 0.003922
0.007843 0.972549 0.000000
0.035294 0.976471 0.007843
0.231373 0.964706 0.000000
0.372549 0.968627 0.000000
0.517647 0.964706 0.000000
0.666667 0.964706 0.000000
0.803922 0.952941 0.000000
0.949020 0.941176 0.000000
1.000000 0.925490 0.000000
0.000000 0.000000 0.090196
0.098039 0.003922 0.105882
0.231373 0.003922 0.098039
0.372549 0.000000 0.094118
0.517647 0.000000 0.078431
0.666667 0.000000 0.074510
0.811765 0.003922 0.050980
0.945098 0.000000 0.011765
1.000000 0.003922 0.003922
0.003922 0.101961 0.090196
0.105882 0.098039 0.101961
0.235294 0.098039 0.090196
0.372549 0.094118 0.086275
0.513725 0.078431 0.074510
0.662745 0.043137 0.062745
0.796078 0.003922 0.035294
0.941176 0.000000 0.011765
1.000000 0.003922 0.011765
0.000000 0.231373 0.082353
0.090196 0.239216 0.094118
0.239216 0.231373 0.078431
0.380392 0.227451 0.066667
0.521569 0.227451 0.066667
0.666667 0.219608 0.043137
0.803922 0.207843 0.015686
0.949020 0.192157 0.000000
0.992157 0.168627 0.000000
0.000000 0.356863 0.054902
0.094118 0.364706 0.047059
0.247059 0.360784 0.039216
0.384314 0.360784 0.031373
0.521569 0.360784 0.015686
0.658824 0.356863 0.003922
0.803922 0.352941 0.003922
0.933333 0.341176 0.000000
0.992157 0.325490 0.000000
0.000000 0.509804 0.007843
0.074510 0.509804 0.000000
0.254902 0.498039 0.000000
0.400000 0.505882 0.000000
0.537255 0.501961 0.003922
0.670588 0.494118 0.003922
0.819608 0.494118 0.000000
0.945098 0.486275 0.003922
1.000000 0.466667 0.000000
0.003922 0.639216 0.000000
0.054902 0.647059 0.000000
0.258824 0.643137 0.003922
0.403922 0.639216 0.003922
0.541176 0.639216 0.000000
0.682353 0.627451 0.000000
0.815686 0.627451 0.000000
0.949020 0.619608 0.000000
1.000000 0.607843 0.000000
0.003922 0.760784 0.003922
0.050980 0.768627 0.000000
0.243137 0.764706 0.000000
0.396078 0.760784 0.000000
0.541176 0.756863 0.003922
0.674510 0.752941 0.000000
0.807843 0.749020 0.007843
0.937255 0.745098 0.000000
0.996078 0.729412 0.000000
0.007843 0.870588 0.000000
0.058824 0.874510 0.000000
0.247059 0.882353 0.000000
0.388235 0.878431 0.000000
0.525490 0.866667 0.000000
0.666667 0.870588 0.000000
0.800000 0.862745 0.000000
0.933333 0.858824 0.003922
1.000000 0.858824 0.000000
0.000000 0.968627 0.000000
0.003922 0.964706 0.000000
0.223529 0.964706 0.007843
0.364706 0.968627 0.000000
0.517647 0.964706 0.003922
0.662745 0.960784 0.000000
0.811765 0.949020 0.000000
0.945098 0.941176 0.000000
1.000000 0.925490 0.000000
0.000000 0.000000 0.223529
0.109804 0.000000 0.239216
0.243137 0.003922 0.235294
0.376471 0.003922 0.239216
0.517647 0.003922 0.231373
0.666667 0.000000 0.223529
0.815686 0.000000 0.203922
0.945098 0.007843 0.200000
0.992157 0.007843 0.188235
0.003922 0.098039 0.231373
0.098039 0.098039 0.239216
0.243137 0.086275 0.231373
0.380392 0.074510 0.231373
0.517647 0.035294 0.215686
0.662745 0.000000 0.215686
0.807843 0.003922 0.203922
0.941176 0.003922 0.200000
0.992157 0.000000 0.180392
0.000000 0.227451 0.239216
0.078431 0.231373 0.243137
0.247059 0.227451 0.215686
0.384314 0.219608 0.223529
0.525490 0.219608 0.219608
0.674510 0.211765 0.215686
0.811765 0.192157 0.207843
0.956863 0.172549 0.192157
0.984314 0.141176 0.180392
0.000000 0.372549 0.223529
0.011765 0.368627 0.207843
0.231373 0.368627 0.211765
0.384314 0.364706 0.207843
0.529412 0.352941 0.200000
0.666667 0.356863 0.200000
0.807843 0.345098 0.196078
0.937255 0.329412 0.180392
1.000000 0.321569 0.172549
0.000000 0.513725 0.192157
0.000000 0.501961 0.192157
0.235294 0.505882 0.188235
0.388235 0.501961 0.188235
0.533333 0.501961 0.176471
0.678431 0.494118 0.180392
0.823529 0.490196 0.176471
0.952941 0.478431 0.168627
0.992157 0.466667 0.156863
0.000000 0.650980 0.168627
0.000000 0.643137 0.164706
0.227451 0.639216 0.164706
0.388235 0.635294 0.168627
0.537255 0.635294 0.164706
0.678431 0.631373 0.152941
0.823529 0.627451 0.145098
0.952941 0.619608 0.125490
1.000000 0.596078 0.137255
0.007843 0.764706 0.133333
0.003922 0.760784 0.137255
0.227451 0.764706 0.137255
0.384314 0.760784 0.125490
0.533333 0.752941 0.121569
0.670588 0.752941 0.113725
0.807843 0.749020 0.101961
0.952941 0.745098 0.070588
1.000000 0.733333 0.039216
0.003922 0.874510 0.101961
0.007843 0.878431 0.098039
0.223529 0.874510 0.098039
0.380392 0.878431 0.090196
0.517647 0.874510 0.078431
0.658824 0.866667 0.058824
0.796078 0.858824 0.027451
0.937255 0.858824 0.000000
0.988235 0.847059 0.000000
0.007843 0.968627 0.003922
0.000000 0.968627 0.000000
0.200000 0.972549 0.000000
0.372549 0.964706 0.003922
0.501961 0.964706 0.000000
0.647059 0.952941 0.000000
0.800000 0.945098 0.003922
0.945098 0.941176 0.000000
1.000000 0.921569 0.000000
0.000000 0.003922 0.368627
0.105882 0.000000 0.380392
0.254902 0.000000 0.368627
0.388235 0.000000 0.372549
0.525490 0.000000 0.372549
0.674510 0.000000 0.380392
0.811765 0.003922 0.364706
0.949020 0.003922 0.352941
0.992157 0.000000 0.325490
0.000000 0.086275 0.360784
0.070588 0.086275 0.364706
0.243137 0.078431 0.368627
0.380392 0.047059 0.372549
0.521569 0.011765 0.372549
0.670588 0.000000 0.368627
0.811765 0.003922 0.364706
0.949020 0.003922 0.352941
1.000000 0.003922 0.341176
0.000000 0.231373 0.376471
0.035294 0.227451 0.356863
0.231373 0.223529 0.376471
0.388235 0.211765 0.372549
0.529412 0.207843 0.368627
0.670588 0.188235 0.360784
0.811765 0.164706 0.352941
0.952941 0.137255 0.341176
0.988235 0.086275 0.337255
0.000000 0.368627 0.368627
0.000000 0.368627 0.368627
0.227451 0.368627 0.368627
0.384314 0.360784 0.360784
0.529412 0.356863 0.352941
0.670588 0.349020 0.356863
0.815686 0.341176 0.345098
0.949020 0.321569 0.337255
1.000000 0.301961 0.325490
0.000000 0.509804 0.360784
0.000000 0.509804 0.356863
0.196078 0.513725 0.352941
0.372549 0.509804 0.345098
0.533333 0.498039 0.345098
0.686275 0.498039 0.341176
0.819608 0.486275 0.337255
0.952941 0.474510 0.337255
0.996078 0.454902 0.321569
0.000000 0.650980 0.329412
0.000000 0.650980 0.341176
0.176471 0.650980 0.341176
0.364706 0.643137 0.329412
0.533333 0.639216 0.337255
0.682353 0.639216 0.329412
0.827451 0.627451 0.317647
0.956863 0.615686 0.313725
0.992157 0.600000 0.317647
0.003922 0.764706 0.317647
0.000000 0.768627 0.317647
0.184314 0.764706 0.317647
0.372549 0.764706 0.309804
0.517647 0.764706 0.313725
0.666667 0.756863 0.301961
0.811765 0.752941 0.301961
0.949020 0.741176 0.286275
1.000000 0.721569 0.290196
0.000000 0.882353 0.301961
0.000000 0.870588 0.301961
0.192157 0.870588 0.298039
0.368627 0.874510 0.305882
0.509804 0.870588 0.301961
0.654902 0.866667 0.294118
0.796078 0.866667 0.286275
0.937255 0.858824 0.274510
1.000000 0.850980 0.262745
0.000000 0.972549 0.266667
0.007843 0.972549 0.278431
0.196078 0.964706 0.270588
0.352941 0.964706 0.270588
0.501961 0.960784 0.270588
0.647059 0.964706 0.250980
0.800000 0.949020 0.231373
0.949020 0.941176 0.223529
1.000000 0.921569 0.207843
0.003922 0.000000 0.517647
0.113725 0.000000 0.505882
0.243137 0.000000 0.513725
0.388235 0.000000 0.513725
0.529412 0.000000 0.513725
0.666667 0.007843 0.521569
0.815686 0.007843 0.513725
0.956863 0.000000 0.501961
0.996078 0.000000 0.498039
0.007843 0.078431 0.501961
0.062745 0.078431 0.509804
0.247059 0.062745 0.509804
0.384314 0.031373 0.513725
0.521569 0.000000 0.513725
0.670588 0.000000 0.509804
0.811765 0.003922 0.501961
0.949020 0.000000 0.501961
1.000000 0.003922 0.490196
0.000000 0.223529 0.513725
0.003922 0.223529 0.513725
0.219608 0.215686 0.529412
0.380392 0.207843 0.509804
0.537255 0.196078 0.513725
0.678431 0.176471 0.509804
0.823529 0.156863 0.505882
0.949020 0.113725 0.498039
1.000000 0.074510 0.478431
0.000000 0.364706 0.505882
0.000000 0.368627 0.517647
0.196078 0.360784 0.509804
0.364706 0.356863 0.509804
0.529412 0.341176 0.505882
0.674510 0.345098 0.494118
0.811765 0.333333 0.494118
0.945098 0.313725 0.486275
0.992157 0.290196 0.474510
0.000000 0.505882 0.498039
0.000000 0.513725 0.513725
0.176471 0.505882 0.505882
0.364706 0.505882 0.505882
0.525490 0.501961 0.501961
0.674510 0.494118 0.501961
0.819608 0.482353 0.501961
0.949020 0.466667 0.498039
0.996078 0.454902 0.482353
0.000000 0.647059 0.509804
0.007843 0.647059 0.509804
0.152941 0.639216 0.498039
0.349020 0.639216 0.494118
0.529412 0.639216 0.490196
0.670588 0.635294 0.482353
0.827451 0.623529 0.478431
0.960784 0.611765 0.486275
1.000000 0.596078 0.490196
0.000000 0.768627 0.478431
0.000000 0.764706 0.490196
0.145098 0.760784 0.482353
0.349020 0.764706 0.474510
0.517647 0.760784 0.474510
0.670588 0.756863 0.466667
0.815686 0.749020 0.474510
0.952941 0.741176 0.458824
1.000000 0.725490 0.454902
0.000000 0.878431 0.462745
0.000000 0.870588 0.458824
0.180392 0.874510 0.458824
0.360784 0.874510 0.466667
0.509804 0.870588 0.466667
0.662745 0.870588 0.462745
0.796078 0.862745 0.462745
0.941176 0.854902 0.450980
1.000000 0.850980 0.447059
0.003922 0.972549 0.450980
0.000000 0.968627 0.450980
0.200000 0.964706 0.447059
0.356863 0.964706 0.454902
0.501961 0.960784 0.443137
0.647059 0.960784 0.439216
0.803922 0.949020 0.431373
0.949020 0.937255 0.423529
0.996078 0.925490 0.407843
0.000000 0.000000 0.650980
0.086275 0.000000 0.654902
0.247059 0.007843 0.654902
0.392157 0.003922 0.662745
0.537255 0.000000 0.650980
0.674510 0.000000 0.650980
0.815686 0.000000 0.650980
0.949020 0.000000 0.643137
0.996078 0.011765 0.635294
0.000000 0.058824 0.650980
0.039216 0.058824 0.658824
0.235294 0.035294 0.650980
0.384314 0.000000 0.647059
0.521569 0.003922 0.647059
0.670588 0.003922 0.643137
0.807843 0.000000 0.647059
0.945098 0.000000 0.623529
0.988235 0.003922 0.627451
0.003922 0.207843 0.647059
0.007843 0.207843 0.658824
0.211765 0.200000 0.650980
0.380392 0.196078 0.654902
0.533333 0.180392 0.662745
0.682353 0.152941 0.654902
0.819608 0.125490 0.650980
0.952941 0.078431 0.639216
0.996078 0.015686 0.619608
0.000000 0.349020 0.647059
0.000000 0.356863 0.650980
0.164706 0.341176 0.650980
0.352941 0.341176 0.650980
0.525490 0.333333 0.650980
0.666667 0.317647 0.639216
0.807843 0.309804 0.631373
0.941176 0.294118 0.623529
1.000000 0.278431 0.615686
0.000000 0.501961 0.654902
0.000000 0.501961 0.647059
0.152941 0.501961 0.650980
0.349020 0.494118 0.658824
0.517647 0.482353 0.650980
0.670588 0.482353 0.647059
0.815686 0.478431 0.639216
0.945098 0.470588 0.639216
1.000000 0.462745 0.635294
0.003922 0.643137 0.654902
0.000000 0.643137 0.658824
0.141176 0.647059 0.658824
0.349020 0.635294 0.650980
0.517647 0.631373 0.647059
0.674510 0.627451 0.643137
0.811765 0.619608 0.635294
0.949020 0.607843 0.643137
0.996078 0.596078 0.643137
0.000000 0.764706 0.631373
0.007843 0.760784 0.631373
0.133333 0.760784 0.643137
0.349020 0.760784 0.631373
0.517647 0.756863 0.627451
0.662745 0.756863 0.631373
0.811765 0.745098 0.627451
0.945098 0.737255 0.611765
1.000000 0.725490 0.623529
0.000000 0.878431 0.611765
0.003922 0.870588 0.627451
0.200000 0.874510 0.615686
0.384314 0.870588 0.627451
0.533333 0.866667 0.635294
0.662745 0.862745 0.623529
0.803922 0.858824 0.619608
0.933333 0.854902 0.619608
0.988235 0.847059 0.603922
0.003922 0.968627 0.603922
0.101961 0.968627 0.623529
0.278431 0.960784 0.611765
0.407843 0.964706 0.611765
0.525490 0.956863 0.607843
0.658824 0.956863 0.603922
0.807843 0.949020 0.603922
0.956863 0.933333 0.596078
1.000000 0.917647 0.592157
0.000000 0.003922 0.784314
0.078431 0.000000 0.780392
0.243137 0.003922 0.796078
0.384314 0.000000 0.788235
0.529412 0.003922 0.788235
0.674510 0.000000 0.788235
0.811765 0.003922 0.784314
0.941176 0.003922 0.776471
0.996078 0.003922 0.772549
0.000000 0.027451 0.780392
0.011765 0.027451 0.792157
0.243137 0.003922 0.796078
0.384314 0.000000 0.796078
0.525490 0.000000 0.784314
0.674510 0.000000 0.784314
0.807843 0.000000 0.780392
0.933333 0.000000 0.760784
0.996078 0.003922 0.772549
0.000000 0.196078 0.796078
0.000000 0.203922 0.792157
0.200000 0.196078 0.803922
0.376471 0.184314 0.788235
0.525490 0.168627 0.792157
0.662745 0.133333 0.776471
0.811765 0.090196 0.780392
0.949020 0.019608 0.780392
1.000000 0.000000 0.772549
0.003922 0.337255 0.792157
0.000000 0.341176 0.784314
0.133333 0.341176 0.796078
0.360784 0.325490 0.784314
0.513725 0.321569 0.784314
0.662745 0.313725 0.784314
0.807843 0.290196 0.780392
0.945098 0.278431 0.768627
1.000000 0.266667 0.756863
0.003922 0.482353 0.800000
0.000000 0.486275 0.784314
0.101961 0.482353 0.792157
0.333333 0.478431 0.792157
0.505882 0.478431 0.792157
0.662745 0.470588 0.796078
0.815686 0.454902 0.780392
0.945098 0.454902 0.776471
1.000000 0.462745 0.768627
0.007843 0.623529 0.784314
0.000000 0.635294 0.788235
0.082353 0.627451 0.788235
0.333333 0.623529 0.792157
0.509804 0.615686 0.784314
0.674510 0.615686 0.784314
0.815686 0.615686 0.784314
0.941176 0.607843 0.772549
0.992157 0.603922 0.784314
0.007843 0.764706 0.776471
0.007843 0.764706 0.776471
0.054902 0.764706 0.776471
0.333333 0.752941 0.784314
0.505882 0.760784 0.784314
0.670588 0.749020 0.776471
0.807843 0.741176 0.780392
0.949020 0.729412 0.780392
1.000000 0.725490 0.768627
0.007843 0.870588 0.760784
0.000000 0.874510 0.772549
0.211765 0.870588 0.772549
0.388235 0.870588 0.760784
0.537255 0.866667 0.764706
0.674510 0.862745 0.768627
0.807843 0.854902 0.768627
0.941176 0.854902 0.772549
1.000000 0.854902 0.772549
0.003922 0.960784 0.741176
0.121569 0.952941 0.745098
0.282353 0.956863 0.752941
0.423529 0.956863 0.752941
0.564706 0.952941 0.760784
0.686275 0.952941 0.760784
0.823529 0.945098 0.772549
0.949020 0.933333 0.749020
1.000000 0.917647 0.756863
0.007843 0.000000 0.917647
0.054902 0.000000 0.921569
0.250980 0.000000 0.917647
0.384314 0.000000 0.913725
0.525490 0.003922 0.917647
0.658824 0.000000 0.917647
0.800000 0.003922 0.909804
0.937255 0.000000 0.913725
0.988235 0.000000 0.913725
0.003922 0.000000 0.921569
0.000000 0.003922 0.905882
0.223529 0.003922 0.917647
0.376471 0.000000 0.909804
0.521569 0.000000 0.913725
0.662745 0.000000 0.913725
0.796078 0.000000 0.905882
0.937255 0.000000 0.905882
0.992157 0.000000 0.901961
0.007843 0.188235 0.909804
0.011765 0.192157 0.913725
0.192157 0.184314 0.925490
0.368627 0.168627 0.917647
0.517647 0.152941 0.913725
0.650980 0.129412 0.901961
0.800000 0.070588 0.921569
0.945098 0.000000 0.913725
1.000000 0.003922 0.905882
0.000000 0.321569 0.909804
0.000000 0.333333 0.917647
0.145098 0.321569 0.921569
0.356863 0.313725 0.917647
0.505882 0.313725 0.905882
0.647059 0.298039 0.901961
0.796078 0.278431 0.909804
0.929412 0.258824 0.909804
0.996078 0.239216 0.901961
0.003922 0.470588 0.917647
0.003922 0.470588 0.917647
0.090196 0.462745 0.917647
0.337255 0.466667 0.909804
0.501961 0.462745 0.913725
0.650980 0.450980 0.913725
0.800000 0.443137 0.909804
0.949020 0.435294 0.905882
1.000000 0.431373 0.905882
0.000000 0.615686 0.913725
0.000000 0.615686 0.917647
0.094118 0.607843 0.913725
0.325490 0.603922 0.917647
0.509804 0.600000 0.913725
0.670588 0.603922 0.917647
0.803922 0.603922 0.913725
0.941176 0.592157 0.913725
1.000000 0.592157 0.894118
0.003922 0.733333 0.913725
0.003922 0.737255 0.905882
0.074510 0.733333 0.905882
0.341176 0.741176 0.921569
0.505882 0.733333 0.909804
0.662745 0.729412 0.901961
0.803922 0.729412 0.905882
0.937255 0.729412 0.901961
1.000000 0.733333 0.894118
0.000000 0.878431 0.909804
0.003922 0.874510 0.909804
0.152941 0.874510 0.913725
0.364706 0.874510 0.913725
0.529412 0.866667 0.909804
0.678431 0.866667 0.913725
0.815686 0.854902 0.894118
0.941176 0.847059 0.901961
0.988235 0.854902 0.921569
0.003922 0.964706 0.874510
0.160784 0.964706 0.882353
0.294118 0.956863 0.874510
0.435294 0.956863 0.882353
0.572549 0.952941 0.878431
0.709804 0.949020 0.890196
0.847059 0.937255 0.898039
0.960784 0.921569 0.913725
1.000000 0.913725 0.921569
0.003922 0.003922 1.000000
0.039216 0.000000 1.000000
0.231373 0.000000 0.992157
0.372549 0.000000 1.000000
0.509804 0.003922 0.996078
0.650980 0.000000 1.000000
0.776471 0.000000 1.000000
0.913725 0.003922 1.000000
1.000000 0.000000 1.000000
0.003922 0.003922 1.000000
0.000000 0.003922 0.996078
0.219608 0.000000 1.000000
0.376471 0.000000 1.000000
0.509804 0.003922 0.996078
0.639216 0.000000 1.000000
0.776471 0.003922 1.000000
0.909804 0.003922 1.000000
1.000000 0.000000 0.996078
0.000000 0.172549 1.000000
0.000000 0.176471 0.988235
0.207843 0.172549 1.000000
0.364706 0.156863 1.000000
0.513725 0.137255 1.000000
0.643137 0.105882 1.000000
0.776471 0.031373 0.996078
0.913725 0.003922 1.000000
1.000000 0.000000 0.996078
0.000000 0.321569 1.000000
0.000000 0.309804 1.000000
0.160784 0.317647 1.000000
0.345098 0.301961 1.000000
0.494118 0.294118 1.000000
0.631373 0.282353 0.996078
0.772549 0.266667 1.000000
0.909804 0.250980 1.000000
1.000000 0.227451 0.996078
0.003922 0.450980 1.000000
0.003922 0.443137 1.000000
0.176471 0.458824 1.000000
0.349020 0.454902 1.000000
0.498039 0.447059 1.000000
0.643137 0.439216 1.000000
0.776471 0.427451 1.000000
0.913725 0.423529 1.000000
0.992157 0.423529 0.992157
0.007843 0.580392 1.000000
0.003922 0.576471 1.000000
0.117647 0.588235 1.000000
0.333333 0.576471 1.000000
0.525490 0.592157 1.000000
0.654902 0.592157 0.988235
0.792157 0.584314 0.992157
0.921569 0.588235 0.996078
1.000000 0.584314 1.000000
0.007843 0.709804 1.000000
0.000000 0.713725 1.000000
0.145098 0.705882 1.000000
0.360784 0.705882 0.988235
0.521569 0.709804 1.000000
0.662745 0.709804 1.000000
0.807843 0.721569 1.000000
0.929412 0.721569 1.000000
1.000000 0.721569 1.000000
0.000000 0.843137 0.996078
0.003922 0.839216 1.000000
0.203922 0.843137 1.000000
0.380392 0.839216 1.000000
0.537255 0.843137 1.000000
0.678431 0.843137 1.000000
0.823529 0.835294 1.000000
0.941176 0.843137 0.996078
0.996078 0.847059 1.000000
0.000000 0.968627 0.996078
0.003922 0.964706 1.000000
0.223529 0.960784 1.000000
0.396078 0.960784 1.000000
0.549020 0.956863 1.000000
0.701961 0.945098 0.996078
0.862745 0.937255 1.000000
0.992157 0.917647 1.000000
1.000000 0.913725 0.996078
