lut_library_archive/removed_20260629/50个风景lut/50个风景lut05.cube
# 版权归凌孟成所有，侵权必究
TITLE "Jungle LUT #5"
#LUT size
LUT_3D_SIZE 25
#LUT data points
0.000000 0.000000 0.000000
0.039216 0.000000 0.003922
0.082353 0.000000 0.003922
0.117647 0.000000 0.000000
0.168627 0.000000 0.000000
0.215686 0.000000 0.000000
0.243137 0.003922 0.000000
0.282353 0.003922 0.003922
0.333333 0.000000 0.000000
0.376471 0.000000 0.003922
0.423529 0.000000 0.000000
0.462745 0.000000 0.000000
0.509804 0.000000 0.000000
0.549020 0.000000 0.000000
0.588235 0.003922 0.000000
0.631373 0.000000 0.000000
0.670588 0.000000 0.000000
0.721569 0.000000 0.000000
0.760784 0.000000 0.000000
0.803922 0.007843 0.000000
0.847059 0.003922 0.000000
0.886275 0.003922 0.003922
0.929412 0.000000 0.000000
0.972549 0.003922 0.003922
0.992157 0.000000 0.003922
0.000000 0.039216 0.000000
0.035294 0.035294 0.000000
0.078431 0.047059 0.000000
0.117647 0.047059 0.000000
0.168627 0.039216 0.003922
0.207843 0.039216 0.003922
0.250980 0.039216 0.000000
0.286275 0.035294 0.000000
0.329412 0.039216 0.003922
0.380392 0.035294 0.000000
0.419608 0.027451 0.000000
0.466667 0.023529 0.000000
0.501961 0.019608 0.000000
0.549020 0.015686 0.000000
0.584314 0.007843 0.000000
0.635294 0.003922 0.000000
0.674510 0.003922 0.003922
0.721569 0.000000 0.000000
0.760784 0.000000 0.000000
0.803922 0.000000 0.003922
0.847059 0.003922 0.003922
0.890196 0.000000 0.000000
0.929412 0.000000 0.000000
0.968627 0.000000 0.000000
0.988235 0.003922 0.000000
0.000000 0.074510 0.000000
0.039216 0.086275 0.000000
0.074510 0.082353 0.000000
0.109804 0.086275 0.000000
0.164706 0.082353 0.000000
0.219608 0.082353 0.003922
0.247059 0.082353 0.000000
0.298039 0.082353 0.003922
0.337255 0.082353 0.003922
0.380392 0.078431 0.000000
0.411765 0.078431 0.000000
0.458824 0.070588 0.007843
0.509804 0.066667 0.000000
0.545098 0.070588 0.003922
0.588235 0.062745 0.000000
0.627451 0.058824 0.000000
0.674510 0.050980 0.000000
0.717647 0.043137 0.000000
0.760784 0.039216 0.000000
0.800000 0.031373 0.000000
0.843137 0.023529 0.003922
0.886275 0.019608 0.007843
0.933333 0.011765 0.000000
0.972549 0.011765 0.007843
0.996078 0.000000 0.000000
0.003922 0.125490 0.003922
0.031373 0.129412 0.003922
0.070588 0.125490 0.000000
0.129412 0.125490 0.003922
0.168627 0.129412 0.000000
0.215686 0.125490 0.003922
0.247059 0.125490 0.011765
0.298039 0.129412 0.003922
0.333333 0.117647 0.000000
0.376471 0.121569 0.003922
0.415686 0.121569 0.000000
0.466667 0.117647 0.000000
0.501961 0.113725 0.000000
0.545098 0.117647 0.000000
0.588235 0.113725 0.007843
0.631373 0.109804 0.003922
0.674510 0.105882 0.000000
0.717647 0.101961 0.003922
0.764706 0.098039 0.000000
0.803922 0.094118 0.000000
0.843137 0.090196 0.000000
0.878431 0.094118 0.000000
0.921569 0.086275 0.000000
0.972549 0.078431 0.003922
1.000000 0.086275 0.000000
0.007843 0.168627 0.003922
0.031373 0.168627 0.000000
0.078431 0.168627 0.000000
0.117647 0.168627 0.000000
0.156863 0.168627 0.000000
0.215686 0.164706 0.000000
0.247059 0.160784 0.000000
0.290196 0.164706 0.003922
0.337255 0.168627 0.003922
0.372549 0.164706 0.000000
0.411765 0.164706 0.000000
0.466667 0.160784 0.003922
0.505882 0.164706 0.000000
0.545098 0.164706 0.000000
0.588235 0.160784 0.000000
0.635294 0.156863 0.003922
0.674510 0.149020 0.003922
0.713725 0.149020 0.003922
0.756863 0.149020 0.000000
0.803922 0.145098 0.000000
0.843137 0.145098 0.003922
0.882353 0.141176 0.000000
0.921569 0.141176 0.000000
0.964706 0.137255 0.000000
1.000000 0.137255 0.003922
0.003922 0.219608 0.000000
0.007843 0.219608 0.000000
0.058824 0.219608 0.000000
0.117647 0.215686 0.000000
0.160784 0.219608 0.003922
0.215686 0.211765 0.000000
0.250980 0.215686 0.000000
0.298039 0.215686 0.007843
0.333333 0.211765 0.000000
0.376471 0.207843 0.000000
0.427451 0.211765 0.000000
0.466667 0.211765 0.000000
0.509804 0.207843 0.003922
0.549020 0.207843 0.000000
0.596078 0.203922 0.000000
0.635294 0.203922 0.003922
0.682353 0.200000 0.000000
0.721569 0.200000 0.007843
0.768627 0.196078 0.003922
0.811765 0.196078 0.003922
0.850980 0.196078 0.000000
0.890196 0.192157 0.003922
0.933333 0.192157 0.003922
0.980392 0.188235 0.000000
1.000000 0.192157 0.000000
0.000000 0.254902 0.000000
0.007843 0.250980 0.000000
0.054902 0.258824 0.000000
0.101961 0.254902 0.000000
0.160784 0.258824 0.000000
0.200000 0.258824 0.000000
0.239216 0.258824 0.000000
0.298039 0.254902 0.003922
0.337255 0.254902 0.007843
0.376471 0.254902 0.000000
0.415686 0.254902 0.000000
0.462745 0.250980 0.000000
0.501961 0.250980 0.000000
0.549020 0.254902 0.000000
0.596078 0.250980 0.003922
0.639216 0.247059 0.003922
0.678431 0.250980 0.000000
0.721569 0.247059 0.000000
0.760784 0.247059 0.003922
0.807843 0.243137 0.000000
0.850980 0.243137 0.000000
0.890196 0.243137 0.000000
0.933333 0.239216 0.000000
0.980392 0.235294 0.007843
1.000000 0.239216 0.000000
0.000000 0.301961 0.000000
0.000000 0.298039 0.000000
0.019608 0.298039 0.000000
0.094118 0.305882 0.007843
0.156863 0.301961 0.000000
0.192157 0.301961 0.003922
0.243137 0.298039 0.000000
0.286275 0.301961 0.000000
0.329412 0.301961 0.000000
0.388235 0.298039 0.000000
0.427451 0.294118 0.003922
0.466667 0.298039 0.000000
0.505882 0.294118 0.003922
0.552941 0.294118 0.003922
0.596078 0.298039 0.003922
0.635294 0.298039 0.011765
0.678431 0.294118 0.007843
0.717647 0.290196 0.000000
0.768627 0.290196 0.003922
0.807843 0.290196 0.000000
0.847059 0.286275 0.000000
0.890196 0.282353 0.000000
0.929412 0.282353 0.000000
0.980392 0.282353 0.000000
1.000000 0.286275 0.000000
0.003922 0.341176 0.000000
0.000000 0.341176 0.000000
0.000000 0.341176 0.000000
0.078431 0.345098 0.003922
0.137255 0.345098 0.000000
0.203922 0.345098 0.000000
0.243137 0.345098 0.000000
0.290196 0.341176 0.000000
0.337255 0.349020 0.000000
0.380392 0.341176 0.000000
0.423529 0.337255 0.000000
0.466667 0.341176 0.000000
0.509804 0.337255 0.000000
0.552941 0.341176 0.003922
0.596078 0.337255 0.000000
0.643137 0.337255 0.007843
0.674510 0.329412 0.000000
0.725490 0.333333 0.000000
0.764706 0.333333 0.007843
0.803922 0.333333 0.003922
0.843137 0.325490 0.000000
0.886275 0.329412 0.007843
0.929412 0.325490 0.003922
0.968627 0.325490 0.003922
1.000000 0.325490 0.003922
0.000000 0.392157 0.000000
0.000000 0.388235 0.000000
0.007843 0.388235 0.007843
0.050980 0.384314 0.011765
0.133333 0.384314 0.003922
0.180392 0.396078 0.000000
0.239216 0.388235 0.000000
0.282353 0.392157 0.000000
0.333333 0.388235 0.003922
0.380392 0.388235 0.007843
0.423529 0.384314 0.003922
0.462745 0.384314 0.000000
0.513725 0.384314 0.011765
0.549020 0.380392 0.003922
0.592157 0.380392 0.000000
0.635294 0.384314 0.000000
0.674510 0.376471 0.000000
0.713725 0.376471 0.000000
0.756863 0.368627 0.000000
0.800000 0.372549 0.007843
0.843137 0.372549 0.000000
0.886275 0.368627 0.003922
0.925490 0.368627 0.000000
0.972549 0.368627 0.000000
1.000000 0.364706 0.000000
0.000000 0.439216 0.000000
0.000000 0.439216 0.000000
0.007843 0.439216 0.000000
0.023529 0.443137 0.000000
0.109804 0.439216 0.000000
0.176471 0.439216 0.000000
0.227451 0.439216 0.000000
0.286275 0.443137 0.003922
0.333333 0.443137 0.000000
0.376471 0.443137 0.003922
0.427451 0.435294 0.000000
0.474510 0.435294 0.000000
0.517647 0.439216 0.000000
0.556863 0.431373 0.000000
0.600000 0.431373 0.000000
0.647059 0.427451 0.000000
0.678431 0.431373 0.000000
0.717647 0.427451 0.000000
0.764706 0.427451 0.000000
0.807843 0.423529 0.000000
0.847059 0.423529 0.000000
0.890196 0.419608 0.000000
0.929412 0.423529 0.000000
0.976471 0.419608 0.000000
1.000000 0.419608 0.003922
0.007843 0.482353 0.000000
0.000000 0.482353 0.000000
0.000000 0.490196 0.000000
0.011765 0.474510 0.000000
0.090196 0.482353 0.000000
0.164706 0.486275 0.000000
0.231373 0.482353 0.003922
0.278431 0.482353 0.000000
0.325490 0.482353 0.000000
0.372549 0.482353 0.000000
0.419608 0.482353 0.000000
0.466667 0.482353 0.000000
0.509804 0.474510 0.000000
0.560784 0.474510 0.003922
0.607843 0.470588 0.000000
0.635294 0.470588 0.000000
0.674510 0.470588 0.000000
0.721569 0.470588 0.000000
0.768627 0.470588 0.000000
0.815686 0.466667 0.003922
0.854902 0.466667 0.000000
0.894118 0.458824 0.000000
0.937255 0.462745 0.011765
0.964706 0.462745 0.000000
0.996078 0.462745 0.000000
0.000000 0.521569 0.007843
0.007843 0.525490 0.000000
0.003922 0.517647 0.000000
0.003922 0.525490 0.003922
0.054902 0.525490 0.003922
0.145098 0.525490 0.011765
0.207843 0.529412 0.003922
0.270588 0.529412 0.007843
0.321569 0.525490 0.000000
0.364706 0.521569 0.000000
0.403922 0.521569 0.003922
0.454902 0.517647 0.000000
0.509804 0.521569 0.007843
0.552941 0.517647 0.003922
0.592157 0.513725 0.000000
0.631373 0.513725 0.000000
0.678431 0.509804 0.000000
0.721569 0.505882 0.000000
0.760784 0.509804 0.000000
0.803922 0.513725 0.000000
0.850980 0.509804 0.000000
0.886275 0.505882 0.000000
0.929412 0.505882 0.011765
0.968627 0.501961 0.007843
0.992157 0.501961 0.007843
0.007843 0.564706 0.000000
0.000000 0.560784 0.003922
0.003922 0.568627 0.000000
0.000000 0.560784 0.000000
0.027451 0.564706 0.000000
0.129412 0.568627 0.000000
0.184314 0.568627 0.000000
0.262745 0.564706 0.000000
0.309804 0.564706 0.000000
0.360784 0.564706 0.000000
0.415686 0.568627 0.015686
0.447059 0.560784 0.003922
0.494118 0.560784 0.011765
0.552941 0.560784 0.000000
0.596078 0.564706 0.003922
0.639216 0.556863 0.000000
0.678431 0.556863 0.000000
0.717647 0.549020 0.000000
0.760784 0.552941 0.000000
0.796078 0.552941 0.000000
0.835294 0.549020 0.000000
0.894118 0.545098 0.000000
0.925490 0.552941 0.000000
0.960784 0.541176 0.000000
1.000000 0.541176 0.007843
0.000000 0.607843 0.003922
0.000000 0.611765 0.007843
0.000000 0.603922 0.000000
0.000000 0.607843 0.000000
0.000000 0.607843 0.003922
0.101961 0.607843 0.011765
0.180392 0.607843 0.000000
0.247059 0.603922 0.000000
0.290196 0.600000 0.000000
0.345098 0.607843 0.000000
0.400000 0.611765 0.000000
0.439216 0.611765 0.000000
0.505882 0.603922 0.003922
0.545098 0.603922 0.003922
0.584314 0.596078 0.000000
0.635294 0.600000 0.000000
0.674510 0.600000 0.003922
0.717647 0.596078 0.000000
0.752941 0.592157 0.000000
0.803922 0.592157 0.000000
0.835294 0.596078 0.000000
0.882353 0.592157 0.000000
0.917647 0.592157 0.000000
0.964706 0.584314 0.000000
1.000000 0.588235 0.000000
0.000000 0.666667 0.007843
0.003922 0.658824 0.003922
0.000000 0.658824 0.003922
0.000000 0.662745 0.003922
0.003922 0.658824 0.000000
0.086275 0.658824 0.000000
0.168627 0.662745 0.000000
0.243137 0.654902 0.000000
0.298039 0.654902 0.000000
0.349020 0.658824 0.000000
0.396078 0.654902 0.000000
0.447059 0.654902 0.000000
0.494118 0.654902 0.000000
0.541176 0.654902 0.000000
0.588235 0.650980 0.000000
0.631373 0.650980 0.003922
0.678431 0.650980 0.000000
0.721569 0.647059 0.000000
0.768627 0.643137 0.003922
0.807843 0.643137 0.000000
0.847059 0.639216 0.000000
0.886275 0.639216 0.000000
0.929412 0.635294 0.000000
0.972549 0.639216 0.000000
0.992157 0.643137 0.007843
0.003922 0.694118 0.000000
0.003922 0.694118 0.000000
0.003922 0.694118 0.000000
0.003922 0.694118 0.003922
0.000000 0.705882 0.000000
0.031373 0.694118 0.000000
0.160784 0.698039 0.000000
0.215686 0.698039 0.000000
0.274510 0.701961 0.007843
0.333333 0.698039 0.003922
0.388235 0.698039 0.003922
0.439216 0.690196 0.000000
0.486275 0.694118 0.003922
0.533333 0.690196 0.000000
0.572549 0.690196 0.000000
0.627451 0.694118 0.000000
0.670588 0.690196 0.000000
0.713725 0.686275 0.000000
0.756863 0.690196 0.000000
0.803922 0.686275 0.000000
0.847059 0.682353 0.000000
0.890196 0.682353 0.000000
0.929412 0.682353 0.003922
0.964706 0.678431 0.000000
1.000000 0.682353 0.007843
0.000000 0.729412 0.000000
0.000000 0.733333 0.000000
0.000000 0.733333 0.000000
0.000000 0.733333 0.000000
0.000000 0.733333 0.000000
0.000000 0.745098 0.000000
0.141176 0.737255 0.000000
0.219608 0.733333 0.011765
0.266667 0.729412 0.003922
0.321569 0.729412 0.000000
0.380392 0.733333 0.003922
0.439216 0.729412 0.000000
0.478431 0.737255 0.000000
0.525490 0.729412 0.000000
0.580392 0.733333 0.000000
0.619608 0.733333 0.003922
0.670588 0.725490 0.000000
0.709804 0.725490 0.007843
0.756863 0.721569 0.003922
0.800000 0.729412 0.007843
0.843137 0.725490 0.003922
0.882353 0.725490 0.000000
0.929412 0.717647 0.000000
0.972549 0.713725 0.000000
0.996078 0.729412 0.003922
0.000000 0.776471 0.000000
0.003922 0.772549 0.003922
0.000000 0.776471 0.000000
0.000000 0.776471 0.000000
0.000000 0.772549 0.003922
0.000000 0.780392 0.000000
0.129412 0.768627 0.011765
0.196078 0.772549 0.007843
0.258824 0.780392 0.007843
0.329412 0.772549 0.003922
0.368627 0.776471 0.000000
0.427451 0.772549 0.000000
0.474510 0.776471 0.000000
0.517647 0.776471 0.000000
0.564706 0.772549 0.003922
0.615686 0.772549 0.007843
0.658824 0.768627 0.000000
0.705882 0.768627 0.003922
0.741176 0.764706 0.003922
0.796078 0.768627 0.007843
0.831373 0.764706 0.003922
0.878431 0.764706 0.011765
0.917647 0.760784 0.003922
0.968627 0.760784 0.007843
0.996078 0.760784 0.000000
0.003922 0.807843 0.000000
0.011765 0.807843 0.000000
0.000000 0.815686 0.000000
0.000000 0.815686 0.000000
0.007843 0.811765 0.003922
0.003922 0.819608 0.000000
0.090196 0.807843 0.000000
0.188235 0.811765 0.003922
0.258824 0.815686 0.000000
0.309804 0.819608 0.000000
0.368627 0.815686 0.000000
0.419608 0.807843 0.007843
0.466667 0.819608 0.000000
0.509804 0.815686 0.000000
0.560784 0.811765 0.000000
0.603922 0.807843 0.000000
0.654902 0.807843 0.003922
0.698039 0.807843 0.000000
0.745098 0.803922 0.000000
0.788235 0.807843 0.000000
0.831373 0.807843 0.000000
0.878431 0.807843 0.000000
0.921569 0.811765 0.000000
0.968627 0.811765 0.000000
1.000000 0.800000 0.000000
0.011765 0.862745 0.003922
0.000000 0.866667 0.000000
0.007843 0.858824 0.000000
0.015686 0.866667 0.007843
0.007843 0.854902 0.003922
0.000000 0.866667 0.003922
0.066667 0.862745 0.000000
0.176471 0.862745 0.011765
0.250980 0.862745 0.000000
0.298039 0.862745 0.000000
0.360784 0.858824 0.000000
0.407843 0.858824 0.000000
0.462745 0.858824 0.003922
0.505882 0.858824 0.000000
0.560784 0.854902 0.003922
0.603922 0.854902 0.000000
0.650980 0.850980 0.000000
0.698039 0.850980 0.000000
0.745098 0.850980 0.000000
0.792157 0.850980 0.000000
0.831373 0.850980 0.003922
0.870588 0.850980 0.003922
0.917647 0.854902 0.003922
0.960784 0.858824 0.007843
1.000000 0.850980 0.000000
0.000000 0.898039 0.000000
0.003922 0.898039 0.000000
0.000000 0.894118 0.000000
0.003922 0.890196 0.003922
0.007843 0.894118 0.007843
0.003922 0.898039 0.007843
0.031373 0.898039 0.000000
0.172549 0.894118 0.000000
0.227451 0.898039 0.000000
0.298039 0.898039 0.000000
0.352941 0.898039 0.000000
0.411765 0.894118 0.000000
0.458824 0.894118 0.003922
0.509804 0.898039 0.000000
0.556863 0.898039 0.000000
0.607843 0.894118 0.003922
0.647059 0.894118 0.000000
0.694118 0.894118 0.003922
0.741176 0.890196 0.000000
0.788235 0.894118 0.003922
0.823529 0.890196 0.003922
0.870588 0.890196 0.003922
0.909804 0.890196 0.011765
0.964706 0.890196 0.000000
1.000000 0.890196 0.003922
0.000000 0.933333 0.000000
0.000000 0.937255 0.000000
0.000000 0.937255 0.000000
0.007843 0.933333 0.000000
0.015686 0.933333 0.000000
0.003922 0.937255 0.003922
0.003922 0.941176 0.000000
0.137255 0.937255 0.007843
0.235294 0.933333 0.007843
0.294118 0.937255 0.000000
0.341176 0.941176 0.000000
0.403922 0.929412 0.000000
0.458824 0.929412 0.000000
0.505882 0.929412 0.007843
0.545098 0.933333 0.000000
0.584314 0.933333 0.000000
0.639216 0.933333 0.000000
0.682353 0.929412 0.000000
0.733333 0.929412 0.000000
0.776471 0.933333 0.000000
0.819608 0.933333 0.000000
0.862745 0.929412 0.003922
0.898039 0.933333 0.000000
0.952941 0.933333 0.000000
0.992157 0.925490 0.000000
0.000000 0.980392 0.003922
0.003922 0.964706 0.000000
0.003922 0.972549 0.003922
0.003922 0.972549 0.000000
0.000000 0.976471 0.003922
0.007843 0.968627 0.003922
0.011765 0.976471 0.000000
0.125490 0.980392 0.000000
0.211765 0.972549 0.003922
0.286275 0.976471 0.003922
0.349020 0.976471 0.011765
0.388235 0.968627 0.000000
0.431373 0.976471 0.000000
0.494118 0.972549 0.000000
0.541176 0.972549 0.003922
0.580392 0.964706 0.000000
0.635294 0.972549 0.003922
0.674510 0.964706 0.000000
0.725490 0.968627 0.000000
0.768627 0.964706 0.000000
0.811765 0.960784 0.000000
0.854902 0.968627 0.000000
0.901961 0.964706 0.000000
0.949020 0.964706 0.003922
0.984314 0.960784 0.011765
0.000000 1.000000 0.000000
0.003922 0.992157 0.000000
0.000000 0.996078 0.000000
0.000000 1.000000 0.003922
0.007843 0.996078 0.003922
0.000000 0.996078 0.000000
0.000000 1.000000 0.000000
0.113725 0.996078 0.000000
0.207843 0.996078 0.000000
0.266667 1.000000 0.000000
0.329412 1.000000 0.000000
0.388235 0.996078 0.007843
0.443137 1.000000 0.003922
0.486275 1.000000 0.003922
0.529412 1.000000 0.000000
0.580392 1.000000 0.000000
0.623529 1.000000 0.000000
0.674510 1.000000 0.000000
0.717647 1.000000 0.000000
0.760784 0.996078 0.000000
0.803922 1.000000 0.000000
0.850980 0.996078 0.000000
0.894118 1.000000 0.000000
0.937255 1.000000 0.000000
0.976471 1.000000 0.000000
0.000000 0.000000 0.050980
0.047059 0.003922 0.058824
0.082353 0.000000 0.043137
0.121569 0.000000 0.039216
0.164706 0.000000 0.054902
0.215686 0.003922 0.058824
0.239216 0.003922 0.043137
0.298039 0.000000 0.039216
0.341176 0.000000 0.050980
0.380392 0.000000 0.047059
0.431373 0.000000 0.050980
0.470588 0.000000 0.047059
0.509804 0.000000 0.047059
0.545098 0.000000 0.043137
0.592157 0.000000 0.043137
0.631373 0.000000 0.039216
0.674510 0.003922 0.039216
0.717647 0.007843 0.050980
0.760784 0.003922 0.047059
0.807843 0.000000 0.047059
0.850980 0.000000 0.050980
0.890196 0.000000 0.047059
0.933333 0.003922 0.043137
0.976471 0.000000 0.047059
1.000000 0.003922 0.043137
0.000000 0.039216 0.043137
0.035294 0.039216 0.054902
0.078431 0.047059 0.047059
0.117647 0.047059 0.047059
0.160784 0.035294 0.039216
0.211765 0.035294 0.054902
0.250980 0.031373 0.050980
0.294118 0.023529 0.050980
0.337255 0.019608 0.047059
0.384314 0.019608 0.050980
0.427451 0.015686 0.043137
0.466667 0.015686 0.047059
0.501961 0.003922 0.047059
0.545098 0.000000 0.043137
0.592157 0.000000 0.043137
0.635294 0.003922 0.043137
0.674510 0.000000 0.047059
0.717647 0.000000 0.047059
0.756863 0.000000 0.043137
0.807843 0.000000 0.047059
0.847059 0.003922 0.035294
0.890196 0.000000 0.035294
0.933333 0.000000 0.031373
0.972549 0.003922 0.039216
0.996078 0.003922 0.047059
0.000000 0.074510 0.058824
0.035294 0.086275 0.050980
0.078431 0.082353 0.050980
0.121569 0.090196 0.050980
0.160784 0.082353 0.047059
0.211765 0.082353 0.047059
0.247059 0.074510 0.039216
0.294118 0.082353 0.050980
0.329412 0.078431 0.043137
0.380392 0.070588 0.050980
0.423529 0.066667 0.054902
0.458824 0.062745 0.047059
0.498039 0.066667 0.039216
0.556863 0.058824 0.035294
0.588235 0.050980 0.050980
0.631373 0.043137 0.050980
0.682353 0.039216 0.050980
0.721569 0.031373 0.043137
0.760784 0.023529 0.047059
0.803922 0.019608 0.039216
0.847059 0.015686 0.043137
0.882353 0.011765 0.039216
0.937255 0.000000 0.043137
0.972549 0.003922 0.039216
1.000000 0.003922 0.035294
0.000000 0.125490 0.043137
0.019608 0.125490 0.050980
0.070588 0.129412 0.039216
0.113725 0.125490 0.043137
0.172549 0.121569 0.047059
0.203922 0.133333 0.054902
0.243137 0.121569 0.043137
0.290196 0.121569 0.047059
0.341176 0.117647 0.043137
0.384314 0.121569 0.054902
0.411765 0.109804 0.047059
0.470588 0.109804 0.050980
0.498039 0.109804 0.050980
0.552941 0.109804 0.054902
0.584314 0.101961 0.043137
0.631373 0.101961 0.047059
0.674510 0.094118 0.047059
0.721569 0.098039 0.047059
0.752941 0.090196 0.039216
0.803922 0.090196 0.039216
0.843137 0.082353 0.043137
0.886275 0.082353 0.039216
0.921569 0.078431 0.039216
0.972549 0.070588 0.039216
0.996078 0.074510 0.039216
0.000000 0.164706 0.047059
0.015686 0.172549 0.039216
0.066667 0.164706 0.043137
0.113725 0.164706 0.047059
0.176471 0.164706 0.043137
0.192157 0.172549 0.047059
0.247059 0.172549 0.054902
0.286275 0.172549 0.054902
0.337255 0.168627 0.050980
0.380392 0.164706 0.047059
0.431373 0.160784 0.047059
0.458824 0.156863 0.047059
0.509804 0.160784 0.043137
0.545098 0.156863 0.043137
0.588235 0.152941 0.039216
0.631373 0.156863 0.050980
0.670588 0.149020 0.050980
0.709804 0.149020 0.047059
0.756863 0.149020 0.047059
0.800000 0.145098 0.050980
0.843137 0.137255 0.047059
0.886275 0.133333 0.043137
0.925490 0.137255 0.039216
0.968627 0.133333 0.039216
0.996078 0.129412 0.035294
0.000000 0.215686 0.039216
0.003922 0.211765 0.039216
0.066667 0.211765 0.043137
0.109804 0.215686 0.047059
0.164706 0.215686 0.047059
0.207843 0.211765 0.047059
0.262745 0.211765 0.047059
0.298039 0.207843 0.043137
0.329412 0.215686 0.050980
0.376471 0.211765 0.054902
0.419608 0.211765 0.047059
0.458824 0.203922 0.039216
0.505882 0.200000 0.043137
0.552941 0.203922 0.047059
0.600000 0.200000 0.050980
0.647059 0.200000 0.058824
0.678431 0.196078 0.043137
0.721569 0.200000 0.047059
0.764706 0.196078 0.050980
0.803922 0.196078 0.047059
0.847059 0.188235 0.043137
0.886275 0.188235 0.039216
0.929412 0.188235 0.039216
0.972549 0.192157 0.039216
1.000000 0.184314 0.035294
0.003922 0.254902 0.050980
0.000000 0.258824 0.047059
0.035294 0.262745 0.035294
0.105882 0.258824 0.043137
0.149020 0.258824 0.031373
0.192157 0.258824 0.043137
0.266667 0.254902 0.039216
0.286275 0.258824 0.043137
0.333333 0.258824 0.039216
0.376471 0.254902 0.043137
0.415686 0.254902 0.047059
0.458824 0.250980 0.054902
0.505882 0.247059 0.058824
0.549020 0.243137 0.054902
0.600000 0.247059 0.058824
0.639216 0.247059 0.043137
0.682353 0.243137 0.047059
0.721569 0.243137 0.050980
0.760784 0.243137 0.050980
0.803922 0.239216 0.054902
0.843137 0.243137 0.047059
0.890196 0.239216 0.043137
0.925490 0.239216 0.035294
0.972549 0.231373 0.043137
1.000000 0.239216 0.031373
0.003922 0.298039 0.027451
0.000000 0.298039 0.023529
0.015686 0.301961 0.031373
0.082353 0.305882 0.039216
0.145098 0.298039 0.035294
0.188235 0.301961 0.039216
0.247059 0.294118 0.035294
0.294118 0.305882 0.039216
0.329412 0.301961 0.027451
0.380392 0.301961 0.031373
0.415686 0.294118 0.031373
0.470588 0.294118 0.047059
0.509804 0.290196 0.058824
0.549020 0.294118 0.066667
0.592157 0.298039 0.050980
0.631373 0.294118 0.054902
0.678431 0.294118 0.047059
0.717647 0.286275 0.047059
0.760784 0.286275 0.047059
0.807843 0.282353 0.043137
0.847059 0.282353 0.047059
0.890196 0.278431 0.047059
0.929412 0.278431 0.043137
0.968627 0.274510 0.039216
1.000000 0.282353 0.027451
0.000000 0.341176 0.031373
0.003922 0.345098 0.035294
0.000000 0.345098 0.031373
0.066667 0.349020 0.027451
0.133333 0.341176 0.019608
0.188235 0.341176 0.023529
0.243137 0.341176 0.023529
0.294118 0.345098 0.031373
0.329412 0.345098 0.015686
0.376471 0.345098 0.027451
0.419608 0.349020 0.027451
0.466667 0.337255 0.019608
0.505882 0.337255 0.027451
0.549020 0.337255 0.047059
0.584314 0.333333 0.050980
0.631373 0.333333 0.047059
0.674510 0.337255 0.050980
0.713725 0.329412 0.050980
0.756863 0.333333 0.050980
0.800000 0.329412 0.050980
0.847059 0.325490 0.054902
0.886275 0.329412 0.047059
0.925490 0.329412 0.043137
0.964706 0.329412 0.035294
0.996078 0.321569 0.031373
0.007843 0.384314 0.023529
0.000000 0.388235 0.011765
0.000000 0.392157 0.015686
0.035294 0.392157 0.027451
0.125490 0.388235 0.015686
0.188235 0.388235 0.023529
0.231373 0.388235 0.011765
0.286275 0.384314 0.015686
0.333333 0.384314 0.023529
0.372549 0.388235 0.019608
0.411765 0.388235 0.011765
0.466667 0.388235 0.015686
0.501961 0.380392 0.023529
0.549020 0.376471 0.027451
0.588235 0.376471 0.031373
0.631373 0.376471 0.047059
0.674510 0.376471 0.050980
0.713725 0.372549 0.054902
0.756863 0.372549 0.047059
0.803922 0.372549 0.047059
0.847059 0.376471 0.039216
0.890196 0.372549 0.047059
0.925490 0.368627 0.039216
0.968627 0.368627 0.035294
1.000000 0.368627 0.043137
0.000000 0.443137 0.007843
0.000000 0.435294 0.015686
0.000000 0.439216 0.023529
0.007843 0.435294 0.007843
0.090196 0.450980 0.015686
0.176471 0.435294 0.003922
0.227451 0.439216 0.003922
0.274510 0.443137 0.019608
0.325490 0.435294 0.003922
0.372549 0.435294 0.007843
