lut_library_archive/removed_20260629/50个风景lut/50个风景lut47.cube
# 版权归凌孟成所有，侵权必究
TITLE "Jungle LUT #47"
#LUT size
LUT_3D_SIZE 5
#LUT data points
0.039216 0.047059 0.035294
0.262745 0.027451 0.035294
0.462745 0.050980 0.047059
0.709804 0.078431 0.070588
0.972549 0.105882 0.094118
0.219608 0.254902 0.007843
0.211765 0.254902 0.027451
0.454902 0.247059 0.090196
0.725490 0.262745 0.113725
0.984314 0.286275 0.137255
0.427451 0.509804 0.003922
0.501961 0.513725 0.000000
0.415686 0.490196 0.000000
0.705882 0.541176 0.101961
1.000000 0.529412 0.219608
0.670588 0.796078 0.015686
0.729412 0.796078 0.003922
0.737255 0.784314 0.007843
0.650980 0.756863 0.007843
0.952941 0.850980 0.000000
0.819608 0.996078 0.003922
0.862745 1.000000 0.000000
0.960784 1.000000 0.000000
0.917647 1.000000 0.000000
0.862745 1.000000 0.000000
0.039216 0.031373 0.227451
0.247059 0.043137 0.235294
0.462745 0.062745 0.227451
0.705882 0.062745 0.227451
0.984314 0.047059 0.239216
0.074510 0.239216 0.223529
0.247059 0.243137 0.223529
0.458824 0.250980 0.231373
0.709804 0.258824 0.239216
0.988235 0.270588 0.250980
0.325490 0.501961 0.176471
0.470588 0.501961 0.164706
0.423529 0.486275 0.203922
0.721569 0.521569 0.262745
0.992157 0.525490 0.305882
0.603922 0.792157 0.070588
0.686275 0.796078 0.027451
0.749020 0.784314 0.043137
0.654902 0.764706 0.121569
0.952941 0.843137 0.172549
0.788235 0.996078 0.000000
0.839216 1.000000 0.000000
0.976471 1.000000 0.003922
0.929412 0.996078 0.000000
0.862745 1.000000 0.000000
0.054902 0.047059 0.427451
0.247059 0.050980 0.431373
0.462745 0.054902 0.435294
0.709804 0.015686 0.439216
0.980392 0.000000 0.450980
0.101961 0.243137 0.431373
0.247059 0.239216 0.435294
0.462745 0.235294 0.431373
0.705882 0.215686 0.435294
0.996078 0.149020 0.450980
0.109804 0.447059 0.427451
0.250980 0.458824 0.427451
0.466667 0.466667 0.435294
0.725490 0.478431 0.443137
0.996078 0.494118 0.458824
0.266667 0.764706 0.392157
0.447059 0.772549 0.419608
0.749020 0.788235 0.407843
0.674510 0.752941 0.403922
0.984314 0.807843 0.498039
0.643137 0.996078 0.400000
0.709804 0.996078 0.400000
0.862745 1.000000 0.388235
0.941176 1.000000 0.384314
0.882353 0.996078 0.329412
0.086275 0.047059 0.678431
0.258824 0.043137 0.686275
0.482353 0.015686 0.682353
0.725490 0.000000 0.690196
0.992157 0.000000 0.701961
0.035294 0.227451 0.698039
0.250980 0.231373 0.686275
0.490196 0.215686 0.694118
0.733333 0.192157 0.678431
0.992157 0.129412 0.682353
0.000000 0.458824 0.698039
0.184314 0.450980 0.690196
0.458824 0.454902 0.690196
0.733333 0.435294 0.686275
1.000000 0.427451 0.701961
0.003922 0.717647 0.690196
0.007843 0.725490 0.678431
0.439216 0.725490 0.690196
0.733333 0.721569 0.686275
1.000000 0.749020 0.725490
0.011765 1.000000 0.643137
0.105882 0.992157 0.639216
0.615686 1.000000 0.705882
0.960784 1.000000 0.745098
0.929412 0.996078 0.678431
0.035294 0.000000 0.984314
0.270588 0.000000 0.992157
0.513725 0.000000 0.984314
0.776471 0.000000 0.984314
1.000000 0.003922 0.980392
0.003922 0.211765 0.992157
0.231373 0.207843 0.976471
0.513725 0.188235 0.996078
0.764706 0.133333 0.988235
1.000000 0.000000 0.996078
0.003922 0.439216 0.984314
0.000000 0.435294 0.988235
0.458824 0.427451 0.996078
0.752941 0.419608 0.996078
1.000000 0.392157 0.992157
0.000000 0.737255 0.992157
0.003922 0.733333 0.996078
0.352941 0.713725 0.992157
0.721569 0.705882 0.996078
1.000000 0.701961 1.000000
0.000000 1.000000 0.988235
0.003922 1.000000 0.992157
0.278431 1.000000 0.992157
0.737255 0.996078 0.996078
1.000000 1.000000 1.000000
