lut_library_archive/removed_20260629/50个风景lut/50个风景lut48.cube
# 版权归凌孟成所有，侵权必究
TITLE "Jungle LUT #48"
#LUT size
LUT_3D_SIZE 9
#LUT data points
0.149020 0.149020 0.149020
0.168627 0.145098 0.145098
0.235294 0.133333 0.145098
0.325490 0.121569 0.141176
0.450980 0.117647 0.137255
0.596078 0.121569 0.125490
0.756863 0.109804 0.105882
0.913725 0.086275 0.090196
1.000000 0.047059 0.047059
0.133333 0.176471 0.145098
0.168627 0.168627 0.137255
0.243137 0.168627 0.141176
0.329412 0.172549 0.145098
0.458824 0.168627 0.133333
0.600000 0.172549 0.113725
0.756863 0.176471 0.105882
0.898039 0.164706 0.074510
1.000000 0.149020 0.050980
0.141176 0.227451 0.129412
0.164706 0.235294 0.141176
0.235294 0.235294 0.125490
0.337255 0.239216 0.129412
0.458824 0.250980 0.125490
0.615686 0.266667 0.109804
0.768627 0.270588 0.094118
0.917647 0.270588 0.054902
0.992157 0.262745 0.000000
0.137255 0.345098 0.125490
0.172549 0.341176 0.121569
0.258824 0.341176 0.121569
0.352941 0.345098 0.121569
0.478431 0.356863 0.101961
0.623529 0.376471 0.074510
0.772549 0.384314 0.027451
0.913725 0.388235 0.000000
1.000000 0.384314 0.003922
0.109804 0.486275 0.054902
0.180392 0.490196 0.062745
0.266667 0.478431 0.039216
0.380392 0.486275 0.035294
0.498039 0.490196 0.015686
0.635294 0.498039 0.000000
0.780392 0.509804 0.003922
0.917647 0.513725 0.000000
1.000000 0.513725 0.000000
0.039216 0.643137 0.000000
0.156863 0.635294 0.000000
0.258824 0.643137 0.003922
0.396078 0.639216 0.000000
0.525490 0.635294 0.000000
0.650980 0.639216 0.000000
0.792157 0.639216 0.000000
0.929412 0.643137 0.000000
0.992157 0.643137 0.000000
0.003922 0.780392 0.000000
0.078431 0.780392 0.003922
0.243137 0.784314 0.000000
0.388235 0.772549 0.000000
0.521569 0.784314 0.000000
0.666667 0.776471 0.000000
0.792157 0.780392 0.000000
0.921569 0.768627 0.000000
0.988235 0.768627 0.000000
0.003922 0.913725 0.000000
0.000000 0.917647 0.000000
0.196078 0.913725 0.003922
0.368627 0.913725 0.000000
0.513725 0.909804 0.007843
0.654902 0.913725 0.003922
0.796078 0.909804 0.007843
0.933333 0.905882 0.003922
1.000000 0.905882 0.003922
0.007843 0.992157 0.000000
0.003922 1.000000 0.007843
0.062745 1.000000 0.000000
0.309804 0.996078 0.003922
0.490196 1.000000 0.000000
0.643137 1.000000 0.000000
0.800000 1.000000 0.000000
0.949020 1.000000 0.000000
0.996078 0.996078 0.000000
0.149020 0.149020 0.180392
0.168627 0.141176 0.168627
0.239216 0.137255 0.172549
0.333333 0.137255 0.180392
0.450980 0.125490 0.164706
0.603922 0.109804 0.164706
0.768627 0.074510 0.152941
0.909804 0.031373 0.133333
1.000000 0.003922 0.105882
0.141176 0.176471 0.172549
0.176471 0.176471 0.168627
0.243137 0.172549 0.172549
0.333333 0.168627 0.172549
0.458824 0.168627 0.164706
0.607843 0.160784 0.156863
0.764706 0.149020 0.137255
0.913725 0.133333 0.121569
1.000000 0.113725 0.098039
0.141176 0.239216 0.156863
0.180392 0.235294 0.168627
0.243137 0.239216 0.160784
0.345098 0.239216 0.164706
0.466667 0.247059 0.149020
0.623529 0.254902 0.145098
0.768627 0.258824 0.125490
0.913725 0.258824 0.101961
0.992157 0.250980 0.066667
0.129412 0.341176 0.149020
0.176471 0.341176 0.160784
0.250980 0.345098 0.141176
0.349020 0.341176 0.149020
0.478431 0.356863 0.133333
0.627451 0.372549 0.121569
0.780392 0.380392 0.082353
0.921569 0.380392 0.054902
1.000000 0.376471 0.007843
0.086275 0.478431 0.101961
0.152941 0.482353 0.105882
0.258824 0.486275 0.094118
0.376471 0.486275 0.086275
0.498039 0.486275 0.074510
0.631373 0.494118 0.039216
0.784314 0.505882 0.003922
0.929412 0.509804 0.007843
1.000000 0.505882 0.000000
0.000000 0.631373 0.011765
0.121569 0.639216 0.000000
0.250980 0.635294 0.003922
0.384314 0.639216 0.000000
0.517647 0.639216 0.000000
0.647059 0.639216 0.000000
0.792157 0.639216 0.000000
0.925490 0.635294 0.003922
1.000000 0.631373 0.003922
0.007843 0.776471 0.000000
0.003922 0.780392 0.000000
0.223529 0.780392 0.000000
0.380392 0.776471 0.000000
0.517647 0.776471 0.000000
0.658824 0.780392 0.000000
0.803922 0.780392 0.003922
0.929412 0.776471 0.000000
1.000000 0.772549 0.007843
0.000000 0.913725 0.000000
0.000000 0.913725 0.000000
0.172549 0.917647 0.000000
0.356863 0.913725 0.000000
0.505882 0.909804 0.000000
0.650980 0.909804 0.000000
0.784314 0.909804 0.000000
0.921569 0.905882 0.000000
0.996078 0.898039 0.015686
0.007843 1.000000 0.000000
0.000000 1.000000 0.000000
0.007843 1.000000 0.000000
0.301961 1.000000 0.003922
0.482353 0.996078 0.000000
0.639216 1.000000 0.000000
0.796078 0.996078 0.000000
0.949020 1.000000 0.000000
1.000000 1.000000 0.003922
0.121569 0.145098 0.231373
0.160784 0.145098 0.239216
0.239216 0.141176 0.227451
0.333333 0.137255 0.235294
0.466667 0.109804 0.239216
0.607843 0.019608 0.235294
0.768627 0.000000 0.211765
0.921569 0.000000 0.200000
1.000000 0.000000 0.176471
0.141176 0.168627 0.231373
0.172549 0.168627 0.231373
0.239216 0.168627 0.223529
0.337255 0.164706 0.231373
0.458824 0.149020 0.235294
0.611765 0.101961 0.211765
0.780392 0.047059 0.223529
0.925490 0.003922 0.196078
0.996078 0.000000 0.184314
0.145098 0.227451 0.231373
0.164706 0.239216 0.223529
0.239216 0.235294 0.227451
0.349020 0.231373 0.223529
0.474510 0.235294 0.223529
0.627451 0.235294 0.211765
0.772549 0.223529 0.196078
0.917647 0.211765 0.188235
1.000000 0.196078 0.164706
0.078431 0.337255 0.227451
0.141176 0.341176 0.219608
0.239216 0.345098 0.219608
0.349020 0.349020 0.207843
0.490196 0.352941 0.203922
0.631373 0.360784 0.192157
0.788235 0.364706 0.180392
0.929412 0.356863 0.164706
0.992157 0.352941 0.145098
0.007843 0.482353 0.180392
0.082353 0.486275 0.176471
0.235294 0.486275 0.188235
0.372549 0.482353 0.180392
0.509804 0.490196 0.172549
0.647059 0.490196 0.156863
0.792157 0.498039 0.149020
0.925490 0.501961 0.117647
1.000000 0.486275 0.090196
0.000000 0.643137 0.129412
0.007843 0.639216 0.129412
0.211765 0.643137 0.113725
0.376471 0.639216 0.117647
0.513725 0.639216 0.101961
0.650980 0.639216 0.094118
0.792157 0.635294 0.050980
0.925490 0.635294 0.011765
1.000000 0.627451 0.000000
0.000000 0.780392 0.003922
0.003922 0.780392 0.000000
0.176471 0.780392 0.000000
0.360784 0.776471 0.000000
0.513725 0.780392 0.007843
0.654902 0.776471 0.000000
0.800000 0.788235 0.007843
0.933333 0.780392 0.000000
1.000000 0.760784 0.011765
0.000000 0.913725 0.007843
0.011765 0.909804 0.000000
0.090196 0.909804 0.000000
0.333333 0.909804 0.003922
0.490196 0.917647 0.003922
0.643137 0.913725 0.000000
0.780392 0.905882 0.000000
0.929412 0.901961 0.000000
0.996078 0.890196 0.000000
0.000000 1.000000 0.000000
0.000000 1.000000 0.011765
0.000000 1.000000 0.000000
0.270588 1.000000 0.003922
0.466667 1.000000 0.000000
0.627451 1.000000 0.000000
0.792157 1.000000 0.000000
0.941176 1.000000 0.000000
1.000000 1.000000 0.000000
0.129412 0.145098 0.333333
0.164706 0.133333 0.317647
0.243137 0.133333 0.325490
0.341176 0.129412 0.333333
0.470588 0.101961 0.345098
0.611765 0.000000 0.349020
0.772549 0.007843 0.345098
0.933333 0.003922 0.333333
0.996078 0.003922 0.298039
0.133333 0.168627 0.329412
0.172549 0.168627 0.325490
0.247059 0.164706 0.333333
0.337255 0.152941 0.317647
0.482353 0.137255 0.341176
0.627451 0.066667 0.345098
0.780392 0.000000 0.341176
0.933333 0.003922 0.333333
0.996078 0.003922 0.290196
0.113725 0.243137 0.317647
0.149020 0.235294 0.329412
0.247059 0.231373 0.325490
0.352941 0.227451 0.321569
0.490196 0.219608 0.333333
0.639216 0.188235 0.321569
0.788235 0.152941 0.317647
0.941176 0.109804 0.309804
1.000000 0.062745 0.290196
0.050980 0.345098 0.333333
0.113725 0.345098 0.329412
0.223529 0.345098 0.321569
0.356863 0.337255 0.313725
0.478431 0.341176 0.317647
0.639216 0.337255 0.305882
0.796078 0.329412 0.305882
0.945098 0.321569 0.298039
0.996078 0.313725 0.282353
0.011765 0.486275 0.317647
0.000000 0.490196 0.305882
0.172549 0.494118 0.305882
0.349020 0.490196 0.294118
0.501961 0.486275 0.298039
0.650980 0.486275 0.290196
0.792157 0.486275 0.294118
0.937255 0.478431 0.270588
1.000000 0.470588 0.262745
0.000000 0.647059 0.286275
0.003922 0.639216 0.270588
0.121569 0.643137 0.278431
0.341176 0.643137 0.274510
0.509804 0.639216 0.274510
0.658824 0.635294 0.258824
0.800000 0.635294 0.250980
0.933333 0.627451 0.243137
1.000000 0.611765 0.243137
0.003922 0.784314 0.223529
0.003922 0.784314 0.247059
0.000000 0.788235 0.223529
0.321569 0.788235 0.231373
0.490196 0.780392 0.227451
0.650980 0.784314 0.211765
0.796078 0.776471 0.203922
0.933333 0.772549 0.184314
1.000000 0.756863 0.180392
0.007843 0.909804 0.172549
0.003922 0.913725 0.172549
0.000000 0.913725 0.172549
0.282353 0.921569 0.164706
0.474510 0.909804 0.156863
0.631373 0.905882 0.133333
0.780392 0.909804 0.113725
0.933333 0.909804 0.086275
0.996078 0.898039 0.019608
0.000000 0.996078 0.000000
0.007843 0.996078 0.011765
0.003922 1.000000 0.007843
0.192157 0.996078 0.011765
0.435294 0.992157 0.003922
0.607843 1.000000 0.000000
0.788235 0.996078 0.000000
0.941176 1.000000 0.000000
1.000000 1.000000 0.003922
0.129412 0.133333 0.458824
0.184314 0.133333 0.454902
0.266667 0.125490 0.466667
0.368627 0.109804 0.458824
0.486275 0.070588 0.454902
0.627451 0.000000 0.474510
0.784314 0.003922 0.478431
0.925490 0.003922 0.470588
1.000000 0.003922 0.458824
0.113725 0.164706 0.470588
0.156863 0.164706 0.458824
0.262745 0.156863 0.458824
0.360784 0.145098 0.462745
0.490196 0.121569 0.466667
0.627451 0.043137 0.474510
0.796078 0.000000 0.490196
0.937255 0.000000 0.470588
0.996078 0.007843 0.458824
0.000000 0.239216 0.454902
0.113725 0.231373 0.466667
0.231373 0.227451 0.454902
0.364706 0.211765 0.466667
0.498039 0.203922 0.466667
0.639216 0.176471 0.474510
0.800000 0.133333 0.478431
0.937255 0.050980 0.458824
1.000000 0.000000 0.454902
0.000000 0.352941 0.458824
0.007843 0.345098 0.474510
0.196078 0.341176 0.454902
0.352941 0.329412 0.470588
0.498039 0.325490 0.462745
0.654902 0.325490 0.458824
0.803922 0.317647 0.458824
0.941176 0.301961 0.454902
0.992157 0.286275 0.435294
0.007843 0.486275 0.466667
0.000000 0.490196 0.466667
0.152941 0.486275 0.466667
0.333333 0.490196 0.454902
0.501961 0.486275 0.450980
0.650980 0.482353 0.450980
0.803922 0.474510 0.443137
0.937255 0.466667 0.443137
0.992157 0.458824 0.443137
0.003922 0.643137 0.458824
0.000000 0.654902 0.450980
0.003922 0.639216 0.435294
0.301961 0.643137 0.435294
0.494118 0.639216 0.435294
0.662745 0.643137 0.427451
0.803922 0.635294 0.427451
0.941176 0.627451 0.427451
1.000000 0.607843 0.415686
0.003922 0.792157 0.423529
0.003922 0.784314 0.419608
0.000000 0.780392 0.423529
0.270588 0.776471 0.411765
0.478431 0.780392 0.411765
0.647059 0.780392 0.400000
0.800000 0.776471 0.400000
0.941176 0.768627 0.392157
0.992157 0.756863 0.388235
0.003922 0.917647 0.388235
0.007843 0.917647 0.384314
0.003922 0.917647 0.384314
0.223529 0.913725 0.384314
0.450980 0.909804 0.388235
0.623529 0.909804 0.380392
0.776471 0.913725 0.356863
0.933333 0.905882 0.356863
1.000000 0.890196 0.356863
0.000000 1.000000 0.341176
0.003922 1.000000 0.337255
0.003922 0.996078 0.333333
0.090196 0.996078 0.329412
0.400000 0.996078 0.325490
0.592157 1.000000 0.313725
0.776471 1.000000 0.305882
0.937255 0.996078 0.286275
1.000000 1.000000 0.270588
0.117647 0.125490 0.607843
0.168627 0.125490 0.603922
0.274510 0.109804 0.603922
0.400000 0.078431 0.611765
0.505882 0.011765 0.611765
0.639216 0.003922 0.611765
0.772549 0.000000 0.615686
0.937255 0.000000 0.611765
1.000000 0.003922 0.600000
0.094118 0.152941 0.619608
0.152941 0.156863 0.611765
0.266667 0.145098 0.611765
0.392157 0.113725 0.615686
0.505882 0.086275 0.611765
0.639216 0.003922 0.611765
0.796078 0.000000 0.623529
0.941176 0.000000 0.611765
1.000000 0.000000 0.600000
0.000000 0.219608 0.611765
0.054902 0.219608 0.611765
0.235294 0.211765 0.627451
0.368627 0.207843 0.615686
0.513725 0.184314 0.623529
0.662745 0.156863 0.619608
0.803922 0.113725 0.619608
0.937255 0.019608 0.611765
1.000000 0.007843 0.607843
0.000000 0.352941 0.615686
0.003922 0.345098 0.623529
0.133333 0.329412 0.607843
0.341176 0.325490 0.623529
0.517647 0.321569 0.611765
0.666667 0.309804 0.623529
0.815686 0.301961 0.607843
0.952941 0.298039 0.611765
0.996078 0.290196 0.600000
0.003922 0.490196 0.619608
0.000000 0.494118 0.615686
0.062745 0.490196 0.611765
0.325490 0.482353 0.619608
0.501961 0.482353 0.607843
0.658824 0.474510 0.615686
0.811765 0.478431 0.611765
0.941176 0.474510 0.607843
1.000000 0.466667 0.600000
0.000000 0.647059 0.623529
0.000000 0.639216 0.603922
0.000000 0.647059 0.600000
0.301961 0.643137 0.615686
0.490196 0.635294 0.607843
0.658824 0.631373 0.600000
0.800000 0.631373 0.600000
0.929412 0.627451 0.596078
1.000000 0.607843 0.592157
0.000000 0.788235 0.600000
0.003922 0.784314 0.600000
0.003922 0.784314 0.592157
0.262745 0.784314 0.592157
0.482353 0.788235 0.592157
0.639216 0.780392 0.584314
0.796078 0.780392 0.592157
0.941176 0.768627 0.584314
1.000000 0.760784 0.588235
0.000000 0.913725 0.580392
0.000000 0.921569 0.588235
0.000000 0.917647 0.568627
0.270588 0.909804 0.584314
0.435294 0.917647 0.564706
0.615686 0.913725 0.560784
0.776471 0.913725 0.560784
0.929412 0.905882 0.560784
0.992157 0.898039 0.552941
0.003922 0.996078 0.572549
0.003922 0.996078 0.568627
0.000000 1.000000 0.568627
0.137255 1.000000 0.552941
0.407843 0.996078 0.537255
0.592157 0.996078 0.537255
0.772549 1.000000 0.529412
0.937255 1.000000 0.521569
1.000000 1.000000 0.529412
0.098039 0.101961 0.760784
0.176471 0.090196 0.756863
0.278431 0.070588 0.760784
0.400000 0.023529 0.756863
0.533333 0.000000 0.768627
0.658824 0.003922 0.764706
0.803922 0.000000 0.756863
0.933333 0.000000 0.752941
0.992157 0.003922 0.760784
0.035294 0.137255 0.760784
0.145098 0.137255 0.760784
0.266667 0.125490 0.760784
0.400000 0.094118 0.768627
0.533333 0.023529 0.752941
0.662745 0.000000 0.764706
0.803922 0.000000 0.756863
0.945098 0.000000 0.764706
1.000000 0.000000 0.752941
0.000000 0.211765 0.768627
0.003922 0.211765 0.752941
0.219608 0.200000 0.764706
0.368627 0.192157 0.760784
0.509804 0.172549 0.772549
0.654902 0.129412 0.760784
0.807843 0.047059 0.768627
0.945098 0.000000 0.756863
0.996078 0.000000 0.733333
0.003922 0.329412 0.776471
0.007843 0.321569 0.756863
0.109804 0.317647 0.764706
0.333333 0.313725 0.768627
0.505882 0.305882 0.768627
0.654902 0.298039 0.772549
0.815686 0.286275 0.760784
0.952941 0.282353 0.768627
1.000000 0.282353 0.749020
0.003922 0.482353 0.760784
0.003922 0.482353 0.768627
0.007843 0.478431 0.756863
0.298039 0.466667 0.764706
0.478431 0.462745 0.764706
0.647059 0.466667 0.760784
0.815686 0.458824 0.768627
0.952941 0.458824 0.749020
1.000000 0.462745 0.756863
0.003922 0.635294 0.749020
0.000000 0.643137 0.760784
0.003922 0.631373 0.764706
0.274510 0.627451 0.768627
0.470588 0.627451 0.756863
0.643137 0.627451 0.756863
0.800000 0.627451 0.756863
0.937255 0.627451 0.752941
1.000000 0.623529 0.741176
0.000000 0.788235 0.756863
0.003922 0.780392 0.745098
0.000000 0.784314 0.764706
0.243137 0.796078 0.760784
0.470588 0.788235 0.760784
0.647059 0.784314 0.756863
0.800000 0.780392 0.756863
0.925490 0.780392 0.749020
1.000000 0.772549 0.760784
0.007843 0.913725 0.729412
0.000000 0.925490 0.745098
0.000000 0.909804 0.737255
0.266667 0.909804 0.745098
0.474510 0.917647 0.737255
0.635294 0.913725 0.749020
0.768627 0.917647 0.733333
0.925490 0.909804 0.733333
0.996078 0.898039 0.737255
0.007843 0.996078 0.725490
0.000000 1.000000 0.725490
0.000000 1.000000 0.725490
0.305882 0.996078 0.741176
0.490196 0.992157 0.745098
0.619608 1.000000 0.721569
0.776471 1.000000 0.721569
0.929412 0.996078 0.721569
0.996078 1.000000 0.725490
0.066667 0.062745 0.905882
0.160784 0.058824 0.894118
0.270588 0.027451 0.901961
0.403922 0.000000 0.898039
0.525490 0.007843 0.894118
0.654902 0.000000 0.901961
0.800000 0.003922 0.901961
0.937255 0.003922 0.898039
0.996078 0.000000 0.886275
0.000000 0.109804 0.886275
0.121569 0.105882 0.890196
0.262745 0.090196 0.909804
0.388235 0.054902 0.905882
0.525490 0.003922 0.901961
0.670588 0.000000 0.901961
0.800000 0.000000 0.905882
0.945098 0.000000 0.913725
1.000000 0.000000 0.894118
0.003922 0.196078 0.894118
0.000000 0.203922 0.894118
0.207843 0.192157 0.905882
0.368627 0.176471 0.917647
0.509804 0.152941 0.901961
0.658824 0.105882 0.890196
0.796078 0.019608 0.901961
0.949020 0.003922 0.901961
0.996078 0.003922 0.878431
0.000000 0.313725 0.905882
0.003922 0.317647 0.901961
0.070588 0.321569 0.905882
0.333333 0.309804 0.905882
0.501961 0.301961 0.905882
0.650980 0.294118 0.909804
0.803922 0.278431 0.901961
0.952941 0.258824 0.909804
0.988235 0.258824 0.890196
0.000000 0.466667 0.898039
0.000000 0.470588 0.917647
0.000000 0.466667 0.905882
0.290196 0.458824 0.909804
0.470588 0.458824 0.901961
0.639216 0.454902 0.901961
0.792157 0.450980 0.901961
0.952941 0.447059 0.913725
0.996078 0.447059 0.894118
0.000000 0.619608 0.890196
0.000000 0.623529 0.909804
0.000000 0.619608 0.898039
0.250980 0.619608 0.894118
0.462745 0.619608 0.901961
0.631373 0.619608 0.898039
0.788235 0.619608 0.898039
0.937255 0.619608 0.898039
1.000000 0.627451 0.894118
0.000000 0.780392 0.894118
0.007843 0.776471 0.901961
0.003922 0.772549 0.898039
0.247059 0.772549 0.901961
0.466667 0.776471 0.898039
0.639216 0.776471 0.901961
0.792157 0.780392 0.901961
0.933333 0.780392 0.894118
0.996078 0.784314 0.878431
0.007843 0.929412 0.894118
0.003922 0.925490 0.890196
0.003922 0.913725 0.890196
0.231373 0.917647 0.898039
0.450980 0.917647 0.886275
0.631373 0.917647 0.890196
0.788235 0.909804 0.890196
0.913725 0.913725 0.882353
0.996078 0.913725 0.894118
0.000000 0.996078 0.862745
0.011765 1.000000 0.862745
0.000000 1.000000 0.866667
0.301961 1.000000 0.870588
0.490196 1.000000 0.870588
0.654902 1.000000 0.886275
0.803922 1.000000 0.886275
0.925490 1.000000 0.905882
1.000000 1.000000 0.905882
0.000000 0.015686 0.996078
0.133333 0.003922 1.000000
0.262745 0.000000 0.992157
0.396078 0.000000 0.996078
0.521569 0.003922 0.992157
0.654902 0.000000 1.000000
0.788235 0.000000 0.996078
0.929412 0.000000 1.000000
0.992157 0.003922 0.988235
0.000000 0.090196 0.992157
0.082353 0.086275 0.996078
0.247059 0.062745 0.996078
0.392157 0.000000 1.000000
0.513725 0.000000 0.996078
0.654902 0.000000 1.000000
0.788235 0.000000 1.000000
0.929412 0.000000 0.996078
1.000000 0.000000 1.000000
0.003922 0.184314 1.000000
0.000000 0.188235 0.992157
0.188235 0.172549 1.000000
0.356863 0.160784 0.996078
0.498039 0.137255 1.000000
0.643137 0.098039 1.000000
0.780392 0.011765 1.000000
0.929412 0.000000 0.996078
1.000000 0.000000 0.996078
0.011765 0.313725 1.000000
0.000000 0.313725 1.000000
0.062745 0.309804 0.996078
0.305882 0.309804 1.000000
0.482353 0.294118 1.000000
0.631373 0.286275 1.000000
0.784314 0.274510 0.996078
0.925490 0.258824 1.000000
1.000000 0.239216 1.000000
0.000000 0.458824 0.992157
0.000000 0.454902 1.000000
0.000000 0.454902 1.000000
0.274510 0.454902 1.000000
0.462745 0.450980 0.996078
0.623529 0.450980 1.000000
0.772549 0.447059 0.996078
0.921569 0.447059 1.000000
1.000000 0.435294 0.996078
0.000000 0.607843 1.000000
0.000000 0.600000 0.996078
0.007843 0.600000 0.996078
0.239216 0.603922 1.000000
0.462745 0.611765 1.000000
0.619608 0.611765 1.000000
0.772549 0.615686 0.996078
0.917647 0.611765 1.000000
1.000000 0.603922 1.000000
0.000000 0.760784 0.980392
0.000000 0.749020 1.000000
0.000000 0.749020 1.000000
0.247059 0.752941 1.000000
0.466667 0.756863 0.996078
0.627451 0.760784 1.000000
0.768627 0.764706 0.992157
0.917647 0.768627 1.000000
0.996078 0.764706 0.992157
0.000000 0.898039 1.000000
0.003922 0.890196 1.000000
0.003922 0.890196 1.000000
0.227451 0.890196 0.996078
0.450980 0.898039 1.000000
0.631373 0.898039 0.988235
0.784314 0.901961 1.000000
0.905882 0.909804 0.996078
1.000000 0.917647 1.000000
0.000000 1.000000 0.992157
0.000000 1.000000 1.000000
0.003922 1.000000 1.000000
0.266667 1.000000 1.000000
0.486275 0.996078 0.996078
0.662745 0.996078 1.000000
0.827451 1.000000 1.000000
0.956863 1.000000 1.000000
1.000000 1.000000 1.000000
