lut_library_archive/removed_20260629/50个风景lut/50个风景lut13.cube
# 版权归凌孟成所有，侵权必究
TITLE "Jungle LUT #13"
#LUT size
LUT_3D_SIZE 9
#LUT data points
0.050980 0.035294 0.031373
0.145098 0.019608 0.031373
0.254902 0.011765 0.023529
0.372549 0.000000 0.023529
0.474510 0.003922 0.011765
0.592157 0.015686 0.015686
0.733333 0.031373 0.023529
0.862745 0.043137 0.027451
0.992157 0.070588 0.027451
0.000000 0.133333 0.039216
0.133333 0.121569 0.000000
0.247059 0.121569 0.039216
0.372549 0.117647 0.039216
0.474510 0.121569 0.027451
0.596078 0.125490 0.039216
0.729412 0.137255 0.039216
0.874510 0.141176 0.043137
1.000000 0.160784 0.035294
0.003922 0.247059 0.054902
0.000000 0.254902 0.011765
0.239216 0.231373 0.000000
0.368627 0.227451 0.023529
0.482353 0.235294 0.058824
0.596078 0.250980 0.062745
0.737255 0.262745 0.054902
0.878431 0.270588 0.058824
0.988235 0.274510 0.082353
0.000000 0.372549 0.050980
0.000000 0.372549 0.000000
0.000000 0.364706 0.000000
0.333333 0.345098 0.000000
0.478431 0.341176 0.011765
0.603922 0.368627 0.086275
0.741176 0.388235 0.121569
0.890196 0.396078 0.125490
1.000000 0.403922 0.125490
0.000000 0.513725 0.074510
0.007843 0.525490 0.035294
0.000000 0.521569 0.000000
0.090196 0.501961 0.000000
0.435294 0.474510 0.000000
0.603922 0.466667 0.000000
0.752941 0.494118 0.062745
0.898039 0.529412 0.156863
1.000000 0.529412 0.192157
0.003922 0.670588 0.117647
0.000000 0.670588 0.082353
0.003922 0.678431 0.000000
0.007843 0.670588 0.000000
0.250980 0.643137 0.011765
0.564706 0.619608 0.000000
0.752941 0.600000 0.000000
0.894118 0.627451 0.007843
0.992157 0.654902 0.180392
0.000000 0.823529 0.156863
0.000000 0.823529 0.137255
0.003922 0.827451 0.031373
0.000000 0.827451 0.000000
0.000000 0.811765 0.000000
0.388235 0.796078 0.000000
0.682353 0.760784 0.000000
0.890196 0.737255 0.000000
1.000000 0.752941 0.000000
0.007843 0.949020 0.215686
0.000000 0.956863 0.196078
0.007843 0.952941 0.137255
0.007843 0.964706 0.000000
0.000000 0.956863 0.003922
0.003922 0.945098 0.007843
0.501961 0.925490 0.003922
0.815686 0.901961 0.000000
0.996078 0.890196 0.000000
0.000000 1.000000 0.258824
0.011765 1.000000 0.235294
0.000000 0.996078 0.203922
0.000000 1.000000 0.066667
0.000000 1.000000 0.011765
0.019608 0.988235 0.011765
0.101961 0.996078 0.003922
0.725490 0.996078 0.003922
0.988235 1.000000 0.000000
0.043137 0.039216 0.109804
0.145098 0.019608 0.109804
0.258824 0.007843 0.109804
0.368627 0.000000 0.094118
0.486275 0.019608 0.105882
0.584314 0.035294 0.101961
0.725490 0.031373 0.101961
0.866667 0.035294 0.101961
1.000000 0.047059 0.117647
0.058824 0.121569 0.109804
0.156863 0.117647 0.113725
0.254902 0.117647 0.109804
0.360784 0.121569 0.109804
0.474510 0.125490 0.117647
0.596078 0.129412 0.105882
0.729412 0.141176 0.117647
0.870588 0.141176 0.113725
0.996078 0.156863 0.125490
0.003922 0.243137 0.121569
0.000000 0.250980 0.094118
0.247059 0.231373 0.082353
0.364706 0.235294 0.105882
0.474510 0.243137 0.129412
0.596078 0.247059 0.121569
0.733333 0.262745 0.137255
0.874510 0.262745 0.145098
0.992157 0.270588 0.137255
0.000000 0.360784 0.105882
0.007843 0.368627 0.082353
0.000000 0.372549 0.011765
0.349020 0.341176 0.039216
0.486275 0.345098 0.109804
0.603922 0.372549 0.145098
0.749020 0.388235 0.164706
0.890196 0.396078 0.168627
1.000000 0.403922 0.172549
0.000000 0.509804 0.125490
0.003922 0.509804 0.086275
0.000000 0.521569 0.000000
0.082353 0.498039 0.000000
0.439216 0.470588 0.003922
0.603922 0.466667 0.066667
0.749020 0.501961 0.137255
0.894118 0.533333 0.207843
0.996078 0.533333 0.211765
0.007843 0.658824 0.164706
0.007843 0.670588 0.141176
0.007843 0.670588 0.007843
0.000000 0.670588 0.000000
0.243137 0.643137 0.011765
0.568627 0.611765 0.000000
0.741176 0.596078 0.000000
0.890196 0.627451 0.109804
1.000000 0.647059 0.231373
0.003922 0.811765 0.203922
0.000000 0.827451 0.172549
0.000000 0.823529 0.098039
0.003922 0.827451 0.000000
0.011765 0.807843 0.000000
0.392157 0.784314 0.011765
0.690196 0.768627 0.000000
0.894118 0.741176 0.000000
1.000000 0.749020 0.054902
0.003922 0.949020 0.235294
0.011765 0.949020 0.235294
0.000000 0.952941 0.176471
0.003922 0.956863 0.000000
0.000000 0.952941 0.000000
0.000000 0.945098 0.000000
0.513725 0.921569 0.000000
0.811765 0.894118 0.000000
0.996078 0.870588 0.000000
0.000000 1.000000 0.270588
0.015686 1.000000 0.274510
0.007843 0.992157 0.227451
0.011765 0.996078 0.137255
0.000000 0.996078 0.000000
0.000000 0.996078 0.000000
0.070588 0.992157 0.000000
0.733333 0.996078 0.000000
0.992157 0.996078 0.000000
0.070588 0.015686 0.207843
0.152941 0.011765 0.207843
0.266667 0.003922 0.211765
0.372549 0.003922 0.215686
0.478431 0.007843 0.215686
0.603922 0.000000 0.196078
0.713725 0.000000 0.200000
0.862745 0.003922 0.200000
0.996078 0.000000 0.203922
0.086275 0.113725 0.192157
0.152941 0.113725 0.215686
0.250980 0.117647 0.223529
0.376471 0.109804 0.207843
0.474510 0.113725 0.211765
0.596078 0.109804 0.203922
0.729412 0.109804 0.207843
0.862745 0.113725 0.211765
1.000000 0.105882 0.211765
0.094118 0.231373 0.207843
0.176471 0.223529 0.207843
0.266667 0.223529 0.200000
0.364706 0.235294 0.200000
0.466667 0.235294 0.211765
0.596078 0.239216 0.219608
0.721569 0.239216 0.211765
0.878431 0.250980 0.219608
0.996078 0.250980 0.227451
0.000000 0.352941 0.223529
0.000000 0.352941 0.215686
0.000000 0.368627 0.125490
0.356863 0.345098 0.184314
0.482353 0.345098 0.219608
0.607843 0.368627 0.254902
0.752941 0.372549 0.258824
0.890196 0.388235 0.250980
0.996078 0.396078 0.235294
0.000000 0.490196 0.215686
0.000000 0.494118 0.203922
0.003922 0.509804 0.145098
0.000000 0.498039 0.047059
0.458824 0.470588 0.160784
0.611765 0.466667 0.200000
0.752941 0.501961 0.250980
0.898039 0.529412 0.286275
1.000000 0.529412 0.294118
0.000000 0.650980 0.250980
0.000000 0.654902 0.231373
0.000000 0.666667 0.176471
0.003922 0.666667 0.000000
0.231373 0.643137 0.003922
0.580392 0.607843 0.090196
0.756863 0.600000 0.156863
0.898039 0.631373 0.235294
1.000000 0.654902 0.325490
0.000000 0.807843 0.274510
0.000000 0.811765 0.254902
0.000000 0.827451 0.219608
0.000000 0.827451 0.070588
0.000000 0.815686 0.003922
0.372549 0.792157 0.000000
0.709804 0.764706 0.000000
0.901961 0.745098 0.058824
1.000000 0.756863 0.211765
0.000000 0.937255 0.317647
0.000000 0.945098 0.298039
0.000000 0.952941 0.254902
0.000000 0.960784 0.164706
0.000000 0.964706 0.011765
0.003922 0.949020 0.000000
0.501961 0.917647 0.000000
0.827451 0.901961 0.003922
1.000000 0.870588 0.003922
0.000000 1.000000 0.325490
0.003922 0.996078 0.317647
0.000000 0.992157 0.290196
0.000000 1.000000 0.215686
0.007843 0.996078 0.011765
0.011765 0.996078 0.003922
0.007843 1.000000 0.000000
0.733333 0.996078 0.003922
0.988235 1.000000 0.007843
0.082353 0.011765 0.301961
0.156863 0.011765 0.321569
0.262745 0.011765 0.317647
0.364706 0.000000 0.317647
0.466667 0.003922 0.309804
0.588235 0.000000 0.309804
0.705882 0.003922 0.301961
0.858824 0.000000 0.305882
0.996078 0.003922 0.298039
0.105882 0.109804 0.321569
0.168627 0.117647 0.298039
0.254902 0.109804 0.313725
0.368627 0.101961 0.301961
0.494118 0.101961 0.321569
0.596078 0.101961 0.298039
0.729412 0.062745 0.317647
0.862745 0.007843 0.313725
0.996078 0.003922 0.298039
0.125490 0.219608 0.321569
0.176471 0.223529 0.317647
0.262745 0.223529 0.317647
0.384314 0.215686 0.325490
0.474510 0.219608 0.313725
0.584314 0.211765 0.298039
0.741176 0.200000 0.301961
0.878431 0.196078 0.305882
1.000000 0.188235 0.321569
0.141176 0.341176 0.313725
0.180392 0.333333 0.313725
0.270588 0.337255 0.313725
0.376471 0.337255 0.301961
0.482353 0.345098 0.321569
0.600000 0.360784 0.341176
0.741176 0.360784 0.325490
0.886275 0.360784 0.325490
1.000000 0.364706 0.337255
0.000000 0.470588 0.329412
0.000000 0.466667 0.341176
0.007843 0.478431 0.337255
0.000000 0.498039 0.211765
0.470588 0.458824 0.282353
0.611765 0.474510 0.317647
0.760784 0.509804 0.368627
0.901961 0.509804 0.368627
1.000000 0.513725 0.372549
0.000000 0.631373 0.356863
0.003922 0.635294 0.360784
0.003922 0.643137 0.317647
0.003922 0.658824 0.243137
0.192157 0.643137 0.176471
0.588235 0.615686 0.250980
0.756863 0.603922 0.294118
0.898039 0.635294 0.368627
0.996078 0.662745 0.439216
0.007843 0.796078 0.376471
0.000000 0.803922 0.368627
0.000000 0.803922 0.337255
0.000000 0.815686 0.266667
0.000000 0.819608 0.003922
0.360784 0.792157 0.109804
0.709804 0.760784 0.203922
0.894118 0.745098 0.254902
1.000000 0.764706 0.356863
0.007843 0.937255 0.403922
0.007843 0.933333 0.388235
0.003922 0.949020 0.364706
0.007843 0.956863 0.313725
0.000000 0.964706 0.160784
0.000000 0.949020 0.000000
0.490196 0.929412 0.011765
0.831373 0.898039 0.098039
1.000000 0.874510 0.164706
0.011765 0.996078 0.411765
0.007843 0.996078 0.396078
0.007843 0.996078 0.380392
0.003922 1.000000 0.341176
0.003922 0.992157 0.235294
0.003922 0.996078 0.000000
0.011765 0.992157 0.019608
0.725490 0.996078 0.011765
0.996078 1.000000 0.003922
0.098039 0.015686 0.427451
0.164706 0.011765 0.431373
0.266667 0.011765 0.423529
0.368627 0.003922 0.423529
0.474510 0.000000 0.419608
0.592157 0.000000 0.431373
0.729412 0.003922 0.443137
0.870588 0.000000 0.447059
1.000000 0.000000 0.439216
0.101961 0.125490 0.431373
0.172549 0.117647 0.427451
0.274510 0.105882 0.427451
0.376471 0.113725 0.427451
0.474510 0.101961 0.423529
0.596078 0.086275 0.431373
0.721569 0.043137 0.427451
0.878431 0.000000 0.447059
0.996078 0.000000 0.447059
0.117647 0.223529 0.423529
0.192157 0.219608 0.431373
0.270588 0.219608 0.431373
0.368627 0.215686 0.423529
0.470588 0.215686 0.435294
0.600000 0.203922 0.431373
0.721569 0.196078 0.435294
0.870588 0.160784 0.431373
0.996078 0.098039 0.439216
0.137255 0.341176 0.427451
0.192157 0.341176 0.431373
0.266667 0.329412 0.427451
0.364706 0.333333 0.431373
0.470588 0.333333 0.427451
0.603922 0.333333 0.423529
0.756863 0.313725 0.423529
0.886275 0.301961 0.419608
1.000000 0.290196 0.427451
0.129412 0.450980 0.431373
0.176471 0.447059 0.419608
0.250980 0.458824 0.419608
0.364706 0.454902 0.423529
0.482353 0.447059 0.419608
0.615686 0.470588 0.447059
0.752941 0.478431 0.447059
0.894118 0.486275 0.450980
0.996078 0.486275 0.454902
0.003922 0.603922 0.462745
0.000000 0.607843 0.454902
0.007843 0.607843 0.458824
0.082353 0.619608 0.447059
0.000000 0.650980 0.305882
0.600000 0.600000 0.388235
0.768627 0.615686 0.447059
0.909804 0.658824 0.521569
0.996078 0.658824 0.529412
0.007843 0.776471 0.509804
0.007843 0.772549 0.505882
0.003922 0.776471 0.486275
0.003922 0.792157 0.447059
0.000000 0.819608 0.349020
0.313725 0.792157 0.294118
0.725490 0.756863 0.360784
0.905882 0.745098 0.423529
0.996078 0.772549 0.501961
0.007843 0.925490 0.521569
0.000000 0.925490 0.521569
0.000000 0.933333 0.494118
0.000000 0.945098 0.454902
0.007843 0.945098 0.376471
0.000000 0.952941 0.176471
0.474510 0.929412 0.266667
0.839216 0.901961 0.321569
1.000000 0.878431 0.380392
0.000000 1.000000 0.521569
0.003922 0.996078 0.537255
0.000000 0.996078 0.498039
0.000000 1.000000 0.466667
0.000000 1.000000 0.396078
0.000000 1.000000 0.231373
0.000000 0.996078 0.101961
0.717647 1.000000 0.223529
0.996078 0.996078 0.266667
0.121569 0.011765 0.552941
0.172549 0.003922 0.556863
0.270588 0.003922 0.549020
0.372549 0.003922 0.552941
0.482353 0.000000 0.556863
0.600000 0.007843 0.568627
0.733333 0.000000 0.568627
0.866667 0.007843 0.572549
1.000000 0.000000 0.588235
0.113725 0.113725 0.560784
0.188235 0.113725 0.564706
0.278431 0.105882 0.556863
0.368627 0.098039 0.556863
0.494118 0.082353 0.556863
0.611765 0.070588 0.549020
0.721569 0.015686 0.568627
0.878431 0.003922 0.572549
0.996078 0.000000 0.588235
0.117647 0.219608 0.552941
0.176471 0.223529 0.560784
0.270588 0.219608 0.564706
0.368627 0.219608 0.560784
0.494118 0.207843 0.556863
0.607843 0.196078 0.560784
0.733333 0.188235 0.560784
0.878431 0.145098 0.572549
1.000000 0.066667 0.572549
0.101961 0.341176 0.552941
0.164706 0.341176 0.556863
0.250980 0.333333 0.556863
0.372549 0.329412 0.564706
0.494118 0.321569 0.552941
0.619608 0.313725 0.549020
0.741176 0.309804 0.556863
0.886275 0.294118 0.564706
0.996078 0.274510 0.572549
0.039216 0.454902 0.576471
0.121569 0.458824 0.549020
0.239216 0.458824 0.556863
0.352941 0.450980 0.560784
0.486275 0.447059 0.552941
0.619608 0.447059 0.552941
0.756863 0.447059 0.568627
0.894118 0.439216 0.560784
1.000000 0.431373 0.552941
0.000000 0.592157 0.556863
0.015686 0.592157 0.549020
0.203922 0.596078 0.556863
0.337255 0.592157 0.560784
0.474510 0.592157 0.560784
0.627451 0.584314 0.568627
0.768627 0.615686 0.588235
0.905882 0.619608 0.592157
1.000000 0.627451 0.603922
0.007843 0.756863 0.584314
0.000000 0.749020 0.588235
0.000000 0.752941 0.592157
0.086275 0.756863 0.592157
0.305882 0.772549 0.592157
0.003922 0.807843 0.474510
0.749020 0.749020 0.537255
0.909804 0.760784 0.607843
0.992157 0.792157 0.678431
0.003922 0.909804 0.635294
0.003922 0.913725 0.647059
0.000000 0.913725 0.635294
0.003922 0.913725 0.647059
0.000000 0.933333 0.588235
0.000000 0.956863 0.501961
0.458824 0.925490 0.462745
0.858824 0.898039 0.509804
1.000000 0.878431 0.564706
0.003922 0.996078 0.678431
0.003922 1.000000 0.694118
0.003922 1.000000 0.674510
0.003922 1.000000 0.647059
0.000000 1.000000 0.592157
0.000000 1.000000 0.513725
0.000000 0.996078 0.384314
0.713725 0.996078 0.454902
1.000000 1.000000 0.482353
0.125490 0.000000 0.705882
0.188235 0.000000 0.701961
0.278431 0.003922 0.701961
0.388235 0.000000 0.698039
0.501961 0.003922 0.705882
0.623529 0.003922 0.690196
0.749020 0.003922 0.701961
0.878431 0.000000 0.701961
1.000000 0.003922 0.701961
0.121569 0.094118 0.701961
0.176471 0.101961 0.705882
0.286275 0.090196 0.705882
0.384314 0.082353 0.701961
0.505882 0.054902 0.701961
0.631373 0.003922 0.701961
0.749020 0.011765 0.698039
0.882353 0.000000 0.709804
0.996078 0.003922 0.721569
0.090196 0.211765 0.709804
0.152941 0.215686 0.698039
0.270588 0.215686 0.698039
0.380392 0.203922 0.701961
0.505882 0.196078 0.705882
0.623529 0.184314 0.717647
0.752941 0.156863 0.701961
0.890196 0.125490 0.705882
0.992157 0.031373 0.709804
0.000000 0.337255 0.717647
0.070588 0.329412 0.709804
0.231373 0.317647 0.705882
0.360784 0.321569 0.709804
0.501961 0.321569 0.717647
0.643137 0.309804 0.713725
0.764706 0.301961 0.709804
0.890196 0.290196 0.705882
1.000000 0.270588 0.709804
0.000000 0.458824 0.701961
0.003922 0.454902 0.701961
0.176471 0.454902 0.705882
0.325490 0.447059 0.701961
0.482353 0.447059 0.709804
0.635294 0.443137 0.709804
0.764706 0.431373 0.698039
0.901961 0.427451 0.698039
0.996078 0.427451 0.698039
0.003922 0.596078 0.709804
0.003922 0.596078 0.709804
0.090196 0.600000 0.701961
0.301961 0.588235 0.705882
0.462745 0.584314 0.705882
0.619608 0.584314 0.705882
0.776471 0.584314 0.709804
0.901961 0.592157 0.713725
1.000000 0.580392 0.705882
0.003922 0.745098 0.705882
0.007843 0.741176 0.698039
0.000000 0.741176 0.701961
0.278431 0.737255 0.705882
0.458824 0.745098 0.701961
0.611765 0.733333 0.701961
0.764706 0.737255 0.705882
0.909804 0.760784 0.749020
1.000000 0.764706 0.733333
0.007843 0.886275 0.713725
0.000000 0.886275 0.729412
0.000000 0.886275 0.729412
0.066667 0.890196 0.733333
0.360784 0.901961 0.737255
0.533333 0.913725 0.745098
0.462745 0.937255 0.658824
0.878431 0.894118 0.694118
1.000000 0.894118 0.741176
0.000000 1.000000 0.772549
0.000000 1.000000 0.764706
0.007843 0.992157 0.760784
0.000000 0.996078 0.784314
0.270588 1.000000 0.792157
0.290196 1.000000 0.752941
0.188235 1.000000 0.678431
0.741176 0.996078 0.666667
1.000000 0.996078 0.678431
0.105882 0.000000 0.850980
0.176471 0.000000 0.850980
0.290196 0.000000 0.850980
0.396078 0.000000 0.847059
0.513725 0.000000 0.850980
0.643137 0.003922 0.847059
0.776471 0.003922 0.862745
0.905882 0.003922 0.847059
1.000000 0.000000 0.854902
0.082353 0.082353 0.850980
0.168627 0.082353 0.850980
0.274510 0.074510 0.854902
0.396078 0.054902 0.858824
0.509804 0.003922 0.850980
0.647059 0.000000 0.854902
0.780392 0.000000 0.858824
0.913725 0.003922 0.858824
1.000000 0.000000 0.843137
0.003922 0.203922 0.850980
0.133333 0.207843 0.850980
0.254902 0.192157 0.854902
0.380392 0.188235 0.858824
0.505882 0.176471 0.854902
0.647059 0.164706 0.862745
0.760784 0.129412 0.847059
0.909804 0.058824 0.862745
1.000000 0.000000 0.847059
0.000000 0.325490 0.850980
0.000000 0.321569 0.854902
0.203922 0.317647 0.858824
0.360784 0.317647 0.866667
0.498039 0.309804 0.850980
0.639216 0.298039 0.858824
0.772549 0.290196 0.858824
0.913725 0.262745 0.858824
1.000000 0.258824 0.847059
0.000000 0.462745 0.854902
0.000000 0.458824 0.858824
0.027451 0.447059 0.854902
0.298039 0.447059 0.866667
0.466667 0.439216 0.854902
0.615686 0.435294 0.862745
0.768627 0.431373 0.866667
0.917647 0.419608 0.870588
0.996078 0.407843 0.850980
0.000000 0.603922 0.862745
0.000000 0.600000 0.862745
0.003922 0.596078 0.850980
0.262745 0.588235 0.854902
0.435294 0.580392 0.854902
0.607843 0.584314 0.866667
0.768627 0.584314 0.866667
0.913725 0.576471 0.862745
1.000000 0.576471 0.843137
0.003922 0.745098 0.858824
0.003922 0.745098 0.858824
0.003922 0.745098 0.862745
0.227451 0.745098 0.866667
0.431373 0.741176 0.858824
0.600000 0.737255 0.854902
0.756863 0.737255 0.862745
0.905882 0.733333 0.862745
1.000000 0.741176 0.850980
0.000000 0.890196 0.843137
0.000000 0.898039 0.854902
0.003922 0.894118 0.858824
0.160784 0.894118 0.858824
0.419608 0.886275 0.854902
0.588235 0.882353 0.854902
0.756863 0.878431 0.854902
0.898039 0.886275 0.858824
1.000000 0.905882 0.898039
0.007843 1.000000 0.847059
0.000000 1.000000 0.850980
0.007843 1.000000 0.858824
0.156863 1.000000 0.870588
0.403922 1.000000 0.870588
0.576471 1.000000 0.890196
0.756863 1.000000 0.901961
0.815686 1.000000 0.874510
1.000000 0.996078 0.878431
0.078431 0.000000 1.000000
0.160784 0.000000 0.988235
0.282353 0.003922 1.000000
0.400000 0.003922 1.000000
0.517647 0.003922 1.000000
0.666667 0.000000 1.000000
0.792157 0.000000 1.000000
0.921569 0.000000 0.992157
0.996078 0.007843 1.000000
0.050980 0.054902 0.996078
0.145098 0.047059 0.992157
0.262745 0.035294 0.992157
0.400000 0.000000 0.996078
0.533333 0.000000 1.000000
0.662745 0.000000 1.000000
0.780392 0.003922 1.000000
0.909804 0.003922 1.000000
1.000000 0.000000 0.996078
0.003922 0.192157 1.000000
0.078431 0.200000 1.000000
0.239216 0.192157 0.992157
0.380392 0.176471 0.996078
0.517647 0.160784 1.000000
0.654902 0.141176 1.000000
0.784314 0.086275 1.000000
0.913725 0.003922 1.000000
1.000000 0.000000 0.996078
0.011765 0.313725 1.000000
0.000000 0.317647 1.000000
0.156863 0.321569 1.000000
0.345098 0.313725 1.000000
0.490196 0.305882 1.000000
0.635294 0.290196 1.000000
0.776471 0.274510 1.000000
0.921569 0.250980 1.000000
1.000000 0.227451 0.996078
0.000000 0.443137 1.000000
0.003922 0.439216 1.000000
0.003922 0.439216 0.992157
0.286275 0.435294 1.000000
0.454902 0.435294 1.000000
0.615686 0.427451 1.000000
0.764706 0.419608 1.000000
0.913725 0.407843 1.000000
1.000000 0.403922 0.992157
0.000000 0.588235 1.000000
0.007843 0.584314 0.996078
0.000000 0.588235 1.000000
0.188235 0.568627 1.000000
0.423529 0.572549 1.000000
0.584314 0.576471 1.000000
0.760784 0.572549 1.000000
0.909804 0.572549 1.000000
1.000000 0.564706 0.996078
0.003922 0.745098 1.000000
0.003922 0.733333 0.992157
0.000000 0.737255 1.000000
0.145098 0.725490 1.000000
0.403922 0.737255 1.000000
0.580392 0.725490 1.000000
0.745098 0.733333 1.000000
0.905882 0.729412 0.992157
1.000000 0.721569 1.000000
0.000000 0.894118 1.000000
0.003922 0.886275 1.000000
0.000000 0.882353 0.984314
0.027451 0.886275 0.992157
0.400000 0.878431 1.000000
0.580392 0.882353 1.000000
0.741176 0.878431 1.000000
0.894118 0.882353 1.000000
0.996078 0.890196 1.000000
0.000000 0.996078 0.996078
0.003922 1.000000 1.000000
0.011765 0.992157 1.000000
0.003922 1.000000 0.996078
0.396078 1.000000 1.000000
0.592157 1.000000 0.996078
0.780392 0.996078 1.000000
0.925490 0.996078 0.996078
1.000000 0.996078 1.000000
