lut_library_archive/removed_20260629/50个风景lut/50个风景lut11.cube
# 版权归凌孟成所有，侵权必究
TITLE "Jungle LUT #11"
#LUT size
LUT_3D_SIZE 25
#LUT data points
0.000000 0.000000 0.000000
0.000000 0.000000 0.000000
0.054902 0.000000 0.000000
0.109804 0.000000 0.000000
0.149020 0.000000 0.000000
0.196078 0.000000 0.000000
0.239216 0.000000 0.000000
0.290196 0.000000 0.000000
0.333333 0.003922 0.003922
0.376471 0.000000 0.003922
0.423529 0.000000 0.000000
0.466667 0.000000 0.000000
0.513725 0.000000 0.000000
0.556863 0.003922 0.000000
0.607843 0.000000 0.000000
0.654902 0.000000 0.000000
0.705882 0.000000 0.003922
0.745098 0.000000 0.000000
0.792157 0.003922 0.003922
0.839216 0.000000 0.000000
0.882353 0.003922 0.003922
0.925490 0.003922 0.000000
0.964706 0.003922 0.000000
0.996078 0.000000 0.000000
0.996078 0.000000 0.000000
0.000000 0.007843 0.000000
0.007843 0.015686 0.003922
0.058824 0.023529 0.003922
0.101961 0.007843 0.000000
0.160784 0.011765 0.007843
0.192157 0.003922 0.000000
0.239216 0.000000 0.000000
0.282353 0.003922 0.003922
0.333333 0.003922 0.003922
0.376471 0.000000 0.003922
0.415686 0.003922 0.000000
0.470588 0.000000 0.003922
0.509804 0.000000 0.000000
0.564706 0.000000 0.000000
0.603922 0.000000 0.000000
0.654902 0.000000 0.000000
0.705882 0.000000 0.003922
0.749020 0.000000 0.000000
0.800000 0.000000 0.003922
0.839216 0.000000 0.000000
0.882353 0.000000 0.000000
0.929412 0.000000 0.000000
0.968627 0.000000 0.003922
0.988235 0.003922 0.000000
0.996078 0.000000 0.000000
0.000000 0.062745 0.000000
0.003922 0.058824 0.000000
0.058824 0.062745 0.000000
0.109804 0.058824 0.000000
0.149020 0.058824 0.000000
0.196078 0.047059 0.003922
0.243137 0.050980 0.000000
0.282353 0.047059 0.003922
0.333333 0.050980 0.003922
0.376471 0.047059 0.003922
0.419608 0.039216 0.003922
0.466667 0.035294 0.000000
0.517647 0.031373 0.000000
0.556863 0.023529 0.000000
0.611765 0.011765 0.000000
0.650980 0.003922 0.000000
0.694118 0.000000 0.000000
0.745098 0.000000 0.000000
0.788235 0.000000 0.000000
0.835294 0.000000 0.000000
0.882353 0.000000 0.000000
0.925490 0.003922 0.000000
0.968627 0.000000 0.000000
1.000000 0.007843 0.000000
0.996078 0.000000 0.000000
0.007843 0.101961 0.015686
0.003922 0.098039 0.003922
0.054902 0.101961 0.007843
0.101961 0.101961 0.000000
0.145098 0.098039 0.000000
0.192157 0.098039 0.000000
0.243137 0.101961 0.000000
0.290196 0.105882 0.000000
0.333333 0.098039 0.000000
0.380392 0.101961 0.000000
0.427451 0.098039 0.003922
0.470588 0.094118 0.000000
0.509804 0.094118 0.000000
0.564706 0.086275 0.003922
0.607843 0.082353 0.000000
0.654902 0.074510 0.003922
0.701961 0.062745 0.000000
0.745098 0.047059 0.000000
0.796078 0.035294 0.000000
0.835294 0.015686 0.000000
0.878431 0.003922 0.000000
0.921569 0.000000 0.000000
0.960784 0.007843 0.000000
0.996078 0.000000 0.000000
0.996078 0.000000 0.000000
0.003922 0.149020 0.011765
0.003922 0.145098 0.003922
0.062745 0.149020 0.000000
0.117647 0.149020 0.003922
0.152941 0.145098 0.000000
0.200000 0.145098 0.000000
0.243137 0.145098 0.000000
0.282353 0.145098 0.000000
0.333333 0.145098 0.003922
0.380392 0.145098 0.003922
0.427451 0.145098 0.003922
0.466667 0.145098 0.000000
0.513725 0.141176 0.000000
0.560784 0.137255 0.000000
0.611765 0.133333 0.000000
0.658824 0.133333 0.003922
0.698039 0.125490 0.003922
0.745098 0.121569 0.003922
0.788235 0.113725 0.003922
0.835294 0.109804 0.007843
0.878431 0.094118 0.000000
0.917647 0.082353 0.000000
0.972549 0.058824 0.000000
0.996078 0.031373 0.003922
1.000000 0.007843 0.000000
0.011765 0.192157 0.007843
0.011765 0.192157 0.007843
0.070588 0.196078 0.003922
0.121569 0.192157 0.003922
0.160784 0.192157 0.000000
0.203922 0.188235 0.000000
0.250980 0.188235 0.000000
0.294118 0.192157 0.000000
0.337255 0.188235 0.000000
0.384314 0.188235 0.000000
0.431373 0.188235 0.000000
0.478431 0.192157 0.000000
0.525490 0.188235 0.003922
0.568627 0.192157 0.003922
0.615686 0.180392 0.000000
0.658824 0.180392 0.000000
0.705882 0.180392 0.000000
0.756863 0.176471 0.003922
0.796078 0.168627 0.000000
0.843137 0.164706 0.000000
0.890196 0.156863 0.003922
0.929412 0.149020 0.003922
0.968627 0.141176 0.003922
0.996078 0.129412 0.000000
0.996078 0.113725 0.000000
0.000000 0.235294 0.000000
0.019608 0.239216 0.000000
0.082353 0.231373 0.000000
0.117647 0.239216 0.003922
0.160784 0.231373 0.000000
0.211765 0.231373 0.003922
0.262745 0.227451 0.003922
0.294118 0.231373 0.000000
0.345098 0.231373 0.003922
0.388235 0.231373 0.000000
0.427451 0.231373 0.000000
0.478431 0.235294 0.003922
0.521569 0.231373 0.000000
0.568627 0.231373 0.000000
0.615686 0.227451 0.000000
0.662745 0.231373 0.000000
0.705882 0.227451 0.003922
0.752941 0.223529 0.003922
0.796078 0.223529 0.000000
0.843137 0.211765 0.000000
0.886275 0.211765 0.000000
0.929412 0.203922 0.000000
0.972549 0.200000 0.000000
1.000000 0.184314 0.003922
0.996078 0.180392 0.000000
0.000000 0.274510 0.000000
0.015686 0.278431 0.000000
0.070588 0.282353 0.000000
0.125490 0.282353 0.000000
0.160784 0.278431 0.000000
0.211765 0.278431 0.000000
0.254902 0.278431 0.000000
0.294118 0.278431 0.000000
0.345098 0.278431 0.000000
0.384314 0.282353 0.000000
0.431373 0.274510 0.000000
0.474510 0.278431 0.000000
0.525490 0.274510 0.000000
0.572549 0.270588 0.003922
0.619608 0.270588 0.003922
0.662745 0.270588 0.003922
0.713725 0.270588 0.003922
0.756863 0.270588 0.000000
0.800000 0.266667 0.007843
0.843137 0.258824 0.000000
0.886275 0.254902 0.000000
0.925490 0.254902 0.003922
0.972549 0.247059 0.003922
0.996078 0.247059 0.003922
0.996078 0.235294 0.000000
0.011765 0.321569 0.003922
0.011765 0.321569 0.000000
0.066667 0.321569 0.000000
0.117647 0.321569 0.000000
0.168627 0.321569 0.000000
0.207843 0.321569 0.000000
0.254902 0.321569 0.003922
0.305882 0.325490 0.003922
0.345098 0.317647 0.000000
0.392157 0.317647 0.007843
0.431373 0.321569 0.003922
0.482353 0.313725 0.003922
0.525490 0.317647 0.003922
0.576471 0.321569 0.000000
0.619608 0.321569 0.000000
0.662745 0.317647 0.000000
0.701961 0.317647 0.000000
0.749020 0.313725 0.000000
0.792157 0.309804 0.003922
0.843137 0.305882 0.000000
0.878431 0.301961 0.000000
0.937255 0.298039 0.000000
0.968627 0.294118 0.003922
0.992157 0.290196 0.000000
1.000000 0.286275 0.000000
0.003922 0.360784 0.000000
0.015686 0.364706 0.000000
0.066667 0.368627 0.000000
0.109804 0.364706 0.000000
0.168627 0.368627 0.003922
0.215686 0.368627 0.003922
0.262745 0.368627 0.003922
0.301961 0.368627 0.000000
0.345098 0.364706 0.000000
0.392157 0.368627 0.000000
0.439216 0.364706 0.000000
0.478431 0.364706 0.003922
0.521569 0.360784 0.000000
0.568627 0.360784 0.000000
0.615686 0.360784 0.000000
0.662745 0.364706 0.000000
0.705882 0.356863 0.000000
0.749020 0.352941 0.000000
0.803922 0.352941 0.000000
0.847059 0.349020 0.000000
0.894118 0.345098 0.003922
0.929412 0.341176 0.000000
0.972549 0.341176 0.000000
0.992157 0.337255 0.000000
0.996078 0.329412 0.003922
0.003922 0.419608 0.000000
0.011765 0.415686 0.000000
0.070588 0.419608 0.000000
0.121569 0.415686 0.003922
0.168627 0.415686 0.003922
0.211765 0.415686 0.000000
0.262745 0.415686 0.000000
0.305882 0.419608 0.000000
0.356863 0.415686 0.003922
0.396078 0.419608 0.003922
0.443137 0.415686 0.000000
0.486275 0.411765 0.000000
0.533333 0.411765 0.003922
0.576471 0.407843 0.000000
0.619608 0.403922 0.000000
0.670588 0.407843 0.000000
0.713725 0.403922 0.000000
0.760784 0.403922 0.000000
0.800000 0.396078 0.000000
0.843137 0.400000 0.000000
0.894118 0.396078 0.000000
0.933333 0.388235 0.000000
0.972549 0.384314 0.003922
1.000000 0.376471 0.000000
1.000000 0.380392 0.000000
0.000000 0.454902 0.003922
0.000000 0.462745 0.000000
0.066667 0.454902 0.000000
0.117647 0.458824 0.000000
0.160784 0.462745 0.000000
0.223529 0.458824 0.003922
0.258824 0.466667 0.003922
0.305882 0.458824 0.000000
0.352941 0.458824 0.000000
0.400000 0.458824 0.000000
0.450980 0.462745 0.003922
0.494118 0.454902 0.003922
0.533333 0.454902 0.003922
0.580392 0.450980 0.000000
0.619608 0.450980 0.007843
0.674510 0.450980 0.000000
0.709804 0.447059 0.000000
0.760784 0.443137 0.000000
0.800000 0.443137 0.000000
0.843137 0.439216 0.000000
0.890196 0.435294 0.000000
0.933333 0.435294 0.000000
0.972549 0.431373 0.003922
1.000000 0.431373 0.003922
0.996078 0.423529 0.000000
0.000000 0.505882 0.011765
0.000000 0.501961 0.011765
0.058824 0.498039 0.003922
0.125490 0.505882 0.000000
0.168627 0.501961 0.000000
0.219608 0.505882 0.000000
0.262745 0.498039 0.003922
0.309804 0.501961 0.003922
0.349020 0.501961 0.003922
0.400000 0.501961 0.003922
0.443137 0.501961 0.003922
0.490196 0.498039 0.000000
0.537255 0.501961 0.003922
0.580392 0.498039 0.000000
0.619608 0.501961 0.000000
0.666667 0.498039 0.000000
0.709804 0.494118 0.000000
0.756863 0.490196 0.000000
0.800000 0.490196 0.000000
0.843137 0.486275 0.000000
0.890196 0.482353 0.000000
0.929412 0.482353 0.003922
0.968627 0.474510 0.000000
1.000000 0.474510 0.000000
1.000000 0.466667 0.003922
0.000000 0.549020 0.000000
0.000000 0.549020 0.000000
0.062745 0.541176 0.003922
0.113725 0.549020 0.003922
0.164706 0.549020 0.003922
0.215686 0.545098 0.000000
0.262745 0.545098 0.003922
0.305882 0.545098 0.000000
0.352941 0.545098 0.000000
0.400000 0.545098 0.000000
0.439216 0.545098 0.000000
0.490196 0.537255 0.000000
0.529412 0.541176 0.000000
0.584314 0.537255 0.003922
0.623529 0.537255 0.007843
0.666667 0.537255 0.000000
0.713725 0.533333 0.000000
0.756863 0.529412 0.000000
0.803922 0.529412 0.003922
0.847059 0.525490 0.000000
0.886275 0.525490 0.003922
0.925490 0.517647 0.003922
0.968627 0.513725 0.007843
1.000000 0.513725 0.000000
0.996078 0.509804 0.000000
0.000000 0.588235 0.003922
0.000000 0.588235 0.003922
0.054902 0.588235 0.000000
0.121569 0.584314 0.003922
0.176471 0.584314 0.000000
0.215686 0.584314 0.003922
0.266667 0.580392 0.000000
0.309804 0.584314 0.000000
0.356863 0.584314 0.000000
0.403922 0.584314 0.000000
0.447059 0.580392 0.000000
0.494118 0.580392 0.003922
0.533333 0.584314 0.000000
0.580392 0.580392 0.000000
0.623529 0.576471 0.000000
0.674510 0.580392 0.000000
0.713725 0.580392 0.003922
0.752941 0.572549 0.000000
0.796078 0.568627 0.000000
0.847059 0.568627 0.003922
0.890196 0.568627 0.007843
0.929412 0.568627 0.000000
0.976471 0.560784 0.000000
1.000000 0.560784 0.000000
1.000000 0.552941 0.000000
0.000000 0.643137 0.000000
0.000000 0.635294 0.000000
0.062745 0.635294 0.000000
0.121569 0.639216 0.000000
0.164706 0.635294 0.000000
0.219608 0.635294 0.000000
0.262745 0.631373 0.007843
0.313725 0.635294 0.000000
0.364706 0.631373 0.000000
0.403922 0.631373 0.000000
0.450980 0.631373 0.000000
0.494118 0.631373 0.000000
0.541176 0.627451 0.000000
0.584314 0.631373 0.003922
0.635294 0.627451 0.000000
0.678431 0.623529 0.000000
0.717647 0.623529 0.000000
0.764706 0.623529 0.003922
0.807843 0.619608 0.000000
0.847059 0.619608 0.000000
0.898039 0.611765 0.000000
0.933333 0.607843 0.000000
0.976471 0.603922 0.000000
1.000000 0.603922 0.000000
1.000000 0.592157 0.007843
0.000000 0.674510 0.000000
0.007843 0.670588 0.000000
0.066667 0.674510 0.003922
0.113725 0.678431 0.000000
0.172549 0.674510 0.000000
0.215686 0.670588 0.000000
0.270588 0.670588 0.000000
0.313725 0.674510 0.000000
0.352941 0.674510 0.000000
0.403922 0.674510 0.003922
0.443137 0.670588 0.000000
0.490196 0.670588 0.000000
0.533333 0.662745 0.000000
0.584314 0.670588 0.000000
0.631373 0.666667 0.003922
0.674510 0.666667 0.000000
0.713725 0.658824 0.000000
0.764706 0.658824 0.000000
0.803922 0.658824 0.000000
0.847059 0.658824 0.000000
0.894118 0.654902 0.000000
0.937255 0.650980 0.003922
0.976471 0.650980 0.000000
0.992157 0.643137 0.000000
1.000000 0.643137 0.003922
0.003922 0.713725 0.003922
0.007843 0.709804 0.003922
0.062745 0.717647 0.000000
0.121569 0.713725 0.003922
0.164706 0.709804 0.000000
0.219608 0.709804 0.003922
0.262745 0.713725 0.003922
0.305882 0.709804 0.003922
0.356863 0.713725 0.003922
0.400000 0.709804 0.000000
0.443137 0.709804 0.000000
0.490196 0.705882 0.000000
0.537255 0.709804 0.000000
0.584314 0.705882 0.000000
0.623529 0.705882 0.000000
0.666667 0.701961 0.000000
0.713725 0.705882 0.000000
0.756863 0.698039 0.000000
0.803922 0.698039 0.003922
0.850980 0.694118 0.003922
0.894118 0.694118 0.000000
0.933333 0.694118 0.003922
0.972549 0.694118 0.000000
0.992157 0.690196 0.000000
1.000000 0.682353 0.000000
0.000000 0.752941 0.000000
0.003922 0.752941 0.000000
0.066667 0.752941 0.011765
0.117647 0.752941 0.003922
0.164706 0.749020 0.011765
0.219608 0.749020 0.000000
0.262745 0.752941 0.007843
0.309804 0.752941 0.000000
0.352941 0.749020 0.000000
0.400000 0.749020 0.003922
0.447059 0.749020 0.003922
0.490196 0.745098 0.000000
0.537255 0.741176 0.000000
0.580392 0.749020 0.000000
0.623529 0.745098 0.000000
0.666667 0.741176 0.000000
0.713725 0.737255 0.000000
0.756863 0.737255 0.000000
0.800000 0.741176 0.000000
0.847059 0.737255 0.000000
0.886275 0.729412 0.000000
0.941176 0.741176 0.007843
0.968627 0.729412 0.000000
1.000000 0.729412 0.000000
0.996078 0.729412 0.003922
0.000000 0.792157 0.000000
0.007843 0.792157 0.000000
0.054902 0.784314 0.000000
0.125490 0.784314 0.003922
0.168627 0.788235 0.000000
0.207843 0.788235 0.003922
0.254902 0.792157 0.000000
0.301961 0.788235 0.000000
0.349020 0.792157 0.000000
0.392157 0.788235 0.000000
0.439216 0.784314 0.000000
0.486275 0.788235 0.003922
0.525490 0.784314 0.007843
0.572549 0.784314 0.003922
0.615686 0.780392 0.003922
0.662745 0.784314 0.003922
0.705882 0.776471 0.000000
0.749020 0.780392 0.000000
0.800000 0.776471 0.000000
0.847059 0.776471 0.007843
0.882353 0.772549 0.000000
0.929412 0.776471 0.003922
0.980392 0.776471 0.003922
1.000000 0.772549 0.000000
0.996078 0.768627 0.000000
0.007843 0.831373 0.000000
0.011765 0.835294 0.000000
0.070588 0.831373 0.000000
0.129412 0.827451 0.000000
0.172549 0.831373 0.000000
0.227451 0.831373 0.000000
0.270588 0.831373 0.000000
0.309804 0.831373 0.000000
0.349020 0.827451 0.007843
0.396078 0.827451 0.003922
0.443137 0.827451 0.007843
0.482353 0.827451 0.003922
0.529412 0.827451 0.003922
0.576471 0.827451 0.003922
0.615686 0.823529 0.000000
0.666667 0.823529 0.000000
0.705882 0.815686 0.000000
0.756863 0.815686 0.003922
0.800000 0.815686 0.000000
0.843137 0.819608 0.003922
0.882353 0.811765 0.000000
0.921569 0.811765 0.000000
0.964706 0.815686 0.003922
1.000000 0.811765 0.000000
1.000000 0.811765 0.000000
0.000000 0.862745 0.000000
0.000000 0.866667 0.003922
0.058824 0.870588 0.000000
0.113725 0.862745 0.003922
0.176471 0.862745 0.003922
0.211765 0.866667 0.003922
0.254902 0.866667 0.000000
0.301961 0.866667 0.000000
0.349020 0.862745 0.000000
0.392157 0.862745 0.000000
0.439216 0.870588 0.003922
0.482353 0.858824 0.000000
0.529412 0.866667 0.000000
0.576471 0.854902 0.000000
0.615686 0.858824 0.000000
0.662745 0.858824 0.000000
0.701961 0.858824 0.000000
0.749020 0.854902 0.000000
0.796078 0.858824 0.000000
0.839216 0.854902 0.000000
0.878431 0.854902 0.000000
0.925490 0.850980 0.000000
0.964706 0.847059 0.000000
0.992157 0.850980 0.000000
1.000000 0.847059 0.007843
0.000000 0.901961 0.000000
0.000000 0.898039 0.000000
0.062745 0.901961 0.000000
0.105882 0.901961 0.000000
0.156863 0.905882 0.003922
0.207843 0.901961 0.000000
0.258824 0.898039 0.000000
0.301961 0.901961 0.000000
0.345098 0.901961 0.000000
0.396078 0.901961 0.000000
0.439216 0.898039 0.000000
0.478431 0.898039 0.003922
0.525490 0.898039 0.003922
0.572549 0.898039 0.003922
0.607843 0.894118 0.000000
0.650980 0.890196 0.000000
0.701961 0.894118 0.000000
0.745098 0.890196 0.000000
0.792157 0.890196 0.003922
0.831373 0.890196 0.000000
0.874510 0.886275 0.000000
0.917647 0.882353 0.000000
0.976471 0.878431 0.000000
0.996078 0.882353 0.000000
1.000000 0.878431 0.003922
0.003922 0.941176 0.000000
0.000000 0.933333 0.000000
0.043137 0.929412 0.000000
0.098039 0.941176 0.000000
0.156863 0.933333 0.000000
0.207843 0.937255 0.000000
0.247059 0.937255 0.003922
0.290196 0.933333 0.000000
0.333333 0.933333 0.000000
0.384314 0.933333 0.003922
0.431373 0.933333 0.003922
0.474510 0.933333 0.000000
0.521569 0.929412 0.000000
0.560784 0.929412 0.000000
0.603922 0.925490 0.003922
0.650980 0.925490 0.000000
0.698039 0.925490 0.000000
0.741176 0.925490 0.000000
0.792157 0.925490 0.000000
0.835294 0.925490 0.000000
0.882353 0.921569 0.003922
0.925490 0.921569 0.000000
0.980392 0.909804 0.000000
0.996078 0.917647 0.000000
1.000000 0.905882 0.011765
0.007843 0.972549 0.000000
0.000000 0.960784 0.000000
0.000000 0.968627 0.000000
0.066667 0.964706 0.003922
0.141176 0.964706 0.000000
0.192157 0.964706 0.003922
0.235294 0.964706 0.000000
0.282353 0.964706 0.000000
0.329412 0.960784 0.000000
0.376471 0.964706 0.000000
0.423529 0.964706 0.000000
0.470588 0.960784 0.003922
0.517647 0.964706 0.000000
0.564706 0.960784 0.000000
0.611765 0.956863 0.000000
0.662745 0.960784 0.000000
0.705882 0.956863 0.000000
0.756863 0.956863 0.000000
0.803922 0.952941 0.000000
0.854902 0.952941 0.003922
0.905882 0.941176 0.000000
0.949020 0.945098 0.000000
0.988235 0.937255 0.000000
1.000000 0.929412 0.003922
1.000000 0.917647 0.000000
0.000000 0.000000 0.007843
0.003922 0.003922 0.011765
0.058824 0.003922 0.003922
0.109804 0.000000 0.011765
0.152941 0.003922 0.003922
0.200000 0.003922 0.007843
0.239216 0.000000 0.007843
0.286275 0.007843 0.007843
0.333333 0.003922 0.003922
0.376471 0.000000 0.003922
0.427451 0.003922 0.003922
0.470588 0.000000 0.003922
0.517647 0.003922 0.003922
0.556863 0.003922 0.000000
0.611765 0.000000 0.003922
0.654902 0.000000 0.000000
0.705882 0.000000 0.003922
0.749020 0.000000 0.000000
0.800000 0.000000 0.003922
0.839216 0.000000 0.000000
0.886275 0.003922 0.003922
0.929412 0.000000 0.000000
0.968627 0.000000 0.003922
1.000000 0.003922 0.011765
0.996078 0.000000 0.000000
0.007843 0.011765 0.019608
0.011765 0.011765 0.019608
0.070588 0.015686 0.003922
0.105882 0.011765 0.003922
0.152941 0.015686 0.007843
0.200000 0.011765 0.003922
0.247059 0.003922 0.007843
0.294118 0.003922 0.007843
0.329412 0.000000 0.000000
0.380392 0.003922 0.007843
0.419608 0.000000 0.000000
0.470588 0.000000 0.003922
0.513725 0.000000 0.000000
0.568627 0.003922 0.000000
0.611765 0.000000 0.003922
0.658824 0.003922 0.000000
0.705882 0.000000 0.003922
0.749020 0.000000 0.000000
0.792157 0.003922 0.003922
0.839216 0.000000 0.000000
0.886275 0.003922 0.003922
0.929412 0.000000 0.000000
0.968627 0.000000 0.003922
0.996078 0.000000 0.000000
0.996078 0.000000 0.007843
0.000000 0.066667 0.011765
0.011765 0.066667 0.015686
0.062745 0.062745 0.015686
0.113725 0.058824 0.015686
0.152941 0.062745 0.003922
0.200000 0.058824 0.003922
0.243137 0.062745 0.003922
0.286275 0.058824 0.011765
0.337255 0.054902 0.000000
0.380392 0.050980 0.007843
0.427451 0.043137 0.007843
0.474510 0.031373 0.000000
0.513725 0.027451 0.000000
0.556863 0.023529 0.000000
0.611765 0.003922 0.000000
0.650980 0.003922 0.000000
0.705882 0.000000 0.003922
0.745098 0.000000 0.000000
0.800000 0.000000 0.003922
0.839216 0.000000 0.000000
0.882353 0.000000 0.000000
0.929412 0.000000 0.000000
0.964706 0.003922 0.000000
0.996078 0.000000 0.000000
1.000000 0.003922 0.003922
0.003922 0.098039 0.011765
0.007843 0.105882 0.019608
0.054902 0.101961 0.015686
0.109804 0.101961 0.003922
0.149020 0.101961 0.007843
0.203922 0.101961 0.011765
0.243137 0.101961 0.007843
0.286275 0.101961 0.000000
0.333333 0.098039 0.000000
0.376471 0.094118 0.000000
0.423529 0.094118 0.000000
0.470588 0.094118 0.000000
0.505882 0.090196 0.000000
0.556863 0.086275 0.000000
0.603922 0.078431 0.000000
0.650980 0.070588 0.000000
0.698039 0.058824 0.000000
0.745098 0.043137 0.000000
0.792157 0.023529 0.000000
0.835294 0.011765 0.000000
0.878431 0.003922 0.000000
0.929412 0.000000 0.000000
0.960784 0.007843 0.000000
0.996078 0.000000 0.000000
0.996078 0.000000 0.000000
0.000000 0.145098 0.007843
0.015686 0.149020 0.011765
0.062745 0.149020 0.007843
0.098039 0.156863 0.003922
0.156863 0.149020 0.000000
0.200000 0.149020 0.011765
0.247059 0.145098 0.007843
0.286275 0.145098 0.003922
0.337255 0.149020 0.007843
0.380392 0.145098 0.003922
0.427451 0.145098 0.003922
0.470588 0.141176 0.000000
0.521569 0.137255 0.000000
0.564706 0.133333 0.000000
0.611765 0.133333 0.000000
0.658824 0.133333 0.003922
0.705882 0.121569 0.003922
0.745098 0.113725 0.000000
0.792157 0.105882 0.000000
0.835294 0.101961 0.000000
0.878431 0.082353 0.000000
0.925490 0.070588 0.000000
0.968627 0.047059 0.000000
1.000000 0.027451 0.000000
1.000000 0.003922 0.003922
0.003922 0.188235 0.007843
0.011765 0.192157 0.007843
0.066667 0.192157 0.007843
0.121569 0.188235 0.011765
0.160784 0.192157 0.000000
0.207843 0.192157 0.003922
0.250980 0.184314 0.003922
0.294118 0.192157 0.000000
0.337255 0.188235 0.000000
0.384314 0.184314 0.000000
0.431373 0.188235 0.000000
0.474510 0.188235 0.000000
0.525490 0.188235 0.003922
0.564706 0.188235 0.000000
0.615686 0.184314 0.000000
0.662745 0.184314 0.000000
0.709804 0.176471 0.000000
0.749020 0.168627 0.000000
0.792157 0.164706 0.000000
0.839216 0.160784 0.000000
0.886275 0.152941 0.000000
0.929412 0.149020 0.003922
0.964706 0.137255 0.000000
0.996078 0.129412 0.000000
1.000000 0.113725 0.000000
0.000000 0.235294 0.003922
0.003922 0.239216 0.003922
0.070588 0.231373 0.003922
0.117647 0.239216 0.003922
0.168627 0.227451 0.000000
0.207843 0.239216 0.007843
0.250980 0.231373 0.003922
0.294118 0.231373 0.000000
0.333333 0.231373 0.000000
0.384314 0.231373 0.000000
0.431373 0.235294 0.003922
0.474510 0.231373 0.000000
0.525490 0.235294 0.003922
0.564706 0.227451 0.000000
0.615686 0.227451 0.000000
0.666667 0.227451 0.000000
0.705882 0.227451 0.003922
0.756863 0.223529 0.003922
0.800000 0.219608 0.000000
0.843137 0.211765 0.000000
0.890196 0.203922 0.000000
0.933333 0.200000 0.000000
0.972549 0.192157 0.000000
0.996078 0.180392 0.000000
0.996078 0.180392 0.000000
0.000000 0.270588 0.007843
0.003922 0.278431 0.003922
0.058824 0.278431 0.000000
0.117647 0.282353 0.000000
0.156863 0.278431 0.003922
0.203922 0.282353 0.003922
0.254902 0.278431 0.000000
0.294118 0.278431 0.000000
0.345098 0.278431 0.000000
0.384314 0.278431 0.000000
0.423529 0.274510 0.000000
0.470588 0.274510 0.003922
0.521569 0.278431 0.000000
0.560784 0.274510 0.003922
0.619608 0.270588 0.003922
0.662745 0.270588 0.003922
0.709804 0.266667 0.000000
0.752941 0.266667 0.000000
0.796078 0.262745 0.003922
0.835294 0.262745 0.000000
0.878431 0.254902 0.000000
0.925490 0.258824 0.000000
0.968627 0.247059 0.003922
1.000000 0.239216 0.000000
1.000000 0.231373 0.000000
0.000000 0.321569 0.000000
0.000000 0.325490 0.003922
0.062745 0.313725 0.003922
0.117647 0.321569 0.000000
0.160784 0.325490 0.003922
0.207843 0.321569 0.000000
0.247059 0.321569 0.000000
0.294118 0.325490 0.000000
0.345098 0.325490 0.000000
0.388235 0.321569 0.000000
0.431373 0.321569 0.000000
0.478431 0.317647 0.000000
0.521569 0.317647 0.000000
0.576471 0.313725 0.003922
0.619608 0.313725 0.000000
0.658824 0.313725 0.000000
0.709804 0.313725 0.000000
0.749020 0.305882 0.000000
0.792157 0.309804 0.003922
0.835294 0.309804 0.000000
0.882353 0.305882 0.003922
0.933333 0.294118 0.000000
0.972549 0.294118 0.003922
1.000000 0.282353 0.000000
1.000000 0.278431 0.007843
0.000000 0.364706 0.000000
0.003922 0.368627 0.003922
0.058824 0.368627 0.000000
0.109804 0.364706 0.000000
0.168627 0.368627 0.003922
0.207843 0.368627 0.000000
0.250980 0.364706 0.000000
0.301961 0.368627 0.000000
0.345098 0.364706 0.000000
0.388235 0.364706 0.000000
0.435294 0.360784 0.000000
0.482353 0.360784 0.003922
0.521569 0.360784 0.000000
0.560784 0.360784 0.003922
0.611765 0.356863 0.003922
0.658824 0.356863 0.003922
0.705882 0.356863 0.003922
0.749020 0.352941 0.000000
0.800000 0.356863 0.003922
0.843137 0.352941 0.000000
0.894118 0.349020 0.000000
0.933333 0.349020 0.000000
0.980392 0.341176 0.000000
1.000000 0.337255 0.003922
0.996078 0.329412 0.003922
0.000000 0.415686 0.000000
0.000000 0.415686 0.000000
0.058824 0.415686 0.000000
0.121569 0.415686 0.003922
0.160784 0.419608 0.000000
0.215686 0.419608 0.000000
0.262745 0.415686 0.000000
0.309804 0.415686 0.000000
0.352941 0.411765 0.000000
0.392157 0.415686 0.000000
