lut_library_archive/removed_20260629/50个风景lut/50个风景lut22.cube
# 版权归凌孟成所有，侵权必究
TITLE "Jungle LUT #22"
#LUT size
LUT_3D_SIZE 5
#LUT data points
0.000000 0.000000 0.000000
0.239216 0.011765 0.007843
0.498039 0.023529 0.011765
0.768627 0.074510 0.066667
1.000000 0.164706 0.149020
0.000000 0.250980 0.011765
0.239216 0.262745 0.011765
0.509804 0.270588 0.054902
0.772549 0.290196 0.090196
1.000000 0.321569 0.164706
0.015686 0.541176 0.090196
0.270588 0.537255 0.094118
0.533333 0.541176 0.121569
0.776471 0.541176 0.156863
1.000000 0.560784 0.239216
0.203922 0.796078 0.219608
0.341176 0.792157 0.231373
0.549020 0.788235 0.243137
0.784314 0.784314 0.266667
1.000000 0.780392 0.345098
0.423529 0.996078 0.458824
0.494118 0.996078 0.458824
0.619608 1.000000 0.474510
0.803922 1.000000 0.517647
0.996078 1.000000 0.592157
0.003922 0.000000 0.235294
0.235294 0.007843 0.247059
0.498039 0.027451 0.266667
0.768627 0.090196 0.278431
0.996078 0.176471 0.309804
0.003922 0.254902 0.262745
0.239216 0.262745 0.262745
0.513725 0.270588 0.282353
0.760784 0.286275 0.290196
0.996078 0.333333 0.329412
0.007843 0.533333 0.294118
0.262745 0.537255 0.294118
0.529412 0.533333 0.298039
0.772549 0.541176 0.321569
0.992157 0.552941 0.364706
0.180392 0.792157 0.333333
0.325490 0.788235 0.349020
0.549020 0.780392 0.356863
0.784314 0.788235 0.380392
1.000000 0.780392 0.423529
0.439216 1.000000 0.517647
0.490196 1.000000 0.513725
0.619608 1.000000 0.529412
0.811765 0.996078 0.572549
0.996078 1.000000 0.623529
0.000000 0.000000 0.505882
0.223529 0.000000 0.513725
0.498039 0.007843 0.517647
0.764706 0.074510 0.533333
1.000000 0.172549 0.545098
0.011765 0.247059 0.521569
0.235294 0.254902 0.521569
0.509804 0.262745 0.537255
0.772549 0.286275 0.537255
0.996078 0.325490 0.560784
0.007843 0.537255 0.541176
0.254902 0.533333 0.541176
0.521569 0.537255 0.541176
0.772549 0.541176 0.549020
0.996078 0.556863 0.572549
0.164706 0.788235 0.556863
0.317647 0.792157 0.568627
0.541176 0.788235 0.564706
0.780392 0.792157 0.576471
1.000000 0.792157 0.619608
0.450980 0.992157 0.647059
0.501961 0.996078 0.639216
0.627451 0.996078 0.650980
0.811765 1.000000 0.678431
1.000000 1.000000 0.725490
0.003922 0.003922 0.772549
0.227451 0.000000 0.776471
0.513725 0.000000 0.784314
0.764706 0.050980 0.788235
0.996078 0.168627 0.792157
0.003922 0.247059 0.784314
0.231373 0.243137 0.788235
0.509804 0.250980 0.784314
0.764706 0.274510 0.792157
1.000000 0.321569 0.788235
0.000000 0.521569 0.780392
0.211765 0.521569 0.784314
0.509804 0.521569 0.792157
0.772549 0.533333 0.796078
0.996078 0.560784 0.800000
0.188235 0.776471 0.800000
0.313725 0.780392 0.803922
0.549020 0.780392 0.796078
0.772549 0.788235 0.800000
0.992157 0.800000 0.823529
0.470588 1.000000 0.811765
0.509804 0.992157 0.811765
0.635294 1.000000 0.827451
0.815686 1.000000 0.827451
1.000000 1.000000 0.858824
0.039216 0.000000 1.000000
0.266667 0.023529 1.000000
0.509804 0.062745 0.996078
0.756863 0.141176 1.000000
1.000000 0.231373 1.000000
0.019608 0.247059 1.000000
0.262745 0.258824 1.000000
0.513725 0.270588 0.996078
0.760784 0.301961 1.000000
1.000000 0.349020 1.000000
0.000000 0.513725 1.000000
0.250980 0.505882 0.992157
0.501961 0.517647 1.000000
0.752941 0.537255 1.000000
0.988235 0.556863 1.000000
0.298039 0.772549 1.000000
0.380392 0.772549 1.000000
0.560784 0.776471 1.000000
0.772549 0.780392 1.000000
1.000000 0.792157 1.000000
0.505882 0.996078 1.000000
0.549020 1.000000 1.000000
0.654902 1.000000 1.000000
0.823529 1.000000 0.996078
1.000000 0.996078 1.000000
