lut_library_archive/removed_20260629/50个风景lut/50个风景lut50.cube
# 版权归凌孟成所有，侵权必究
TITLE "Jungle LUT #50"
#LUT size
LUT_3D_SIZE 9
#LUT data points
0.054902 0.054902 0.062745
0.121569 0.043137 0.050980
0.223529 0.043137 0.054902
0.333333 0.047059 0.031373
0.439216 0.070588 0.039216
0.560784 0.074510 0.043137
0.705882 0.078431 0.039216
0.835294 0.086275 0.015686
0.984314 0.078431 0.007843
0.000000 0.133333 0.070588
0.101961 0.133333 0.035294
0.231373 0.125490 0.043137
0.333333 0.129412 0.043137
0.431373 0.133333 0.043137
0.564706 0.145098 0.043137
0.698039 0.152941 0.031373
0.827451 0.156863 0.015686
0.976471 0.164706 0.003922
0.000000 0.223529 0.105882
0.003922 0.223529 0.086275
0.176471 0.231373 0.039216
0.337255 0.227451 0.039216
0.439216 0.243137 0.047059
0.568627 0.247059 0.027451
0.705882 0.250980 0.011765
0.835294 0.262745 0.000000
0.976471 0.270588 0.007843
0.000000 0.325490 0.152941
0.000000 0.321569 0.141176
0.007843 0.329412 0.000000
0.270588 0.349020 0.015686
0.454902 0.352941 0.023529
0.576471 0.360784 0.007843
0.705882 0.356863 0.000000
0.843137 0.372549 0.000000
0.976471 0.372549 0.000000
0.011765 0.423529 0.203922
0.000000 0.427451 0.203922
0.007843 0.431373 0.137255
0.000000 0.450980 0.000000
0.372549 0.466667 0.000000
0.600000 0.482353 0.011765
0.717647 0.482353 0.003922
0.850980 0.494118 0.000000
0.988235 0.498039 0.003922
0.003922 0.549020 0.270588
0.003922 0.545098 0.250980
0.007843 0.545098 0.231373
0.000000 0.560784 0.000000
0.000000 0.576471 0.003922
0.494118 0.596078 0.000000
0.745098 0.607843 0.003922
0.862745 0.615686 0.000000
1.000000 0.623529 0.011765
0.003922 0.662745 0.317647
0.003922 0.666667 0.309804
0.003922 0.666667 0.301961
0.000000 0.666667 0.219608
0.003922 0.694118 0.003922
0.070588 0.709804 0.015686
0.600000 0.725490 0.000000
0.858824 0.741176 0.000000
1.000000 0.741176 0.007843
0.000000 0.819608 0.392157
0.000000 0.819608 0.388235
0.000000 0.827451 0.356863
0.011765 0.811765 0.352941
0.000000 0.835294 0.160784
0.007843 0.858824 0.000000
0.278431 0.862745 0.007843
0.733333 0.866667 0.000000
1.000000 0.886275 0.007843
0.003922 1.000000 0.478431
0.000000 1.000000 0.482353
0.000000 1.000000 0.474510
0.000000 1.000000 0.443137
0.000000 0.996078 0.384314
0.000000 1.000000 0.000000
0.003922 1.000000 0.007843
0.607843 1.000000 0.000000
0.949020 1.000000 0.000000
0.031373 0.054902 0.117647
0.125490 0.043137 0.117647
0.227451 0.054902 0.113725
0.337255 0.062745 0.113725
0.431373 0.070588 0.121569
0.568627 0.066667 0.117647
0.701961 0.070588 0.101961
0.835294 0.070588 0.105882
0.972549 0.066667 0.098039
0.062745 0.125490 0.125490
0.137255 0.133333 0.117647
0.215686 0.137255 0.109804
0.321569 0.133333 0.125490
0.439216 0.133333 0.117647
0.552941 0.145098 0.117647
0.705882 0.145098 0.113725
0.839216 0.141176 0.094118
0.984314 0.149020 0.086275
0.007843 0.219608 0.149020
0.000000 0.231373 0.145098
0.203922 0.231373 0.101961
0.329412 0.235294 0.101961
0.450980 0.239216 0.105882
0.568627 0.247059 0.101961
0.698039 0.250980 0.105882
0.835294 0.247059 0.082353
0.972549 0.258824 0.082353
0.003922 0.325490 0.168627
0.003922 0.325490 0.176471
0.000000 0.341176 0.058824
0.282353 0.341176 0.086275
0.458824 0.349020 0.101961
0.576471 0.360784 0.105882
0.705882 0.364706 0.086275
0.839216 0.372549 0.074510
0.992157 0.380392 0.058824
0.000000 0.431373 0.231373
0.000000 0.427451 0.203922
0.000000 0.435294 0.168627
0.003922 0.443137 0.000000
0.380392 0.462745 0.058824
0.596078 0.474510 0.058824
0.717647 0.478431 0.062745
0.847059 0.494118 0.054902
0.988235 0.498039 0.035294
0.000000 0.545098 0.258824
0.003922 0.541176 0.266667
0.000000 0.541176 0.239216
0.011765 0.549020 0.094118
0.003922 0.572549 0.003922
0.494118 0.596078 0.000000
0.741176 0.611765 0.003922
0.862745 0.607843 0.003922
0.988235 0.619608 0.000000
0.000000 0.658824 0.325490
0.003922 0.662745 0.317647
0.000000 0.662745 0.290196
0.011765 0.666667 0.250980
0.007843 0.690196 0.003922
0.050980 0.713725 0.000000
0.607843 0.725490 0.003922
0.874510 0.745098 0.003922
0.996078 0.741176 0.000000
0.003922 0.815686 0.400000
0.000000 0.819608 0.392157
0.003922 0.823529 0.384314
0.007843 0.811765 0.368627
0.007843 0.831373 0.192157
0.011765 0.854902 0.000000
0.274510 0.858824 0.003922
0.745098 0.862745 0.007843
0.984314 0.874510 0.000000
0.011765 1.000000 0.494118
0.007843 0.996078 0.490196
0.000000 1.000000 0.482353
0.000000 1.000000 0.458824
0.000000 1.000000 0.396078
0.000000 1.000000 0.003922
0.000000 1.000000 0.000000
0.603922 1.000000 0.003922
0.952941 1.000000 0.000000
0.039216 0.047059 0.196078
0.117647 0.047059 0.211765
0.219608 0.054902 0.203922
0.329412 0.062745 0.223529
0.450980 0.058824 0.207843
0.556863 0.039216 0.203922
0.698039 0.011765 0.203922
0.839216 0.000000 0.192157
0.976471 0.003922 0.207843
0.058824 0.129412 0.207843
0.121569 0.121569 0.215686
0.223529 0.125490 0.207843
0.337255 0.133333 0.219608
0.450980 0.125490 0.211765
0.572549 0.121569 0.219608
0.701961 0.125490 0.200000
0.839216 0.117647 0.188235
0.972549 0.109804 0.188235
0.054902 0.231373 0.211765
0.125490 0.231373 0.211765
0.231373 0.227451 0.211765
0.329412 0.231373 0.211765
0.450980 0.239216 0.207843
0.584314 0.239216 0.203922
0.701961 0.239216 0.203922
0.850980 0.239216 0.203922
0.980392 0.239216 0.192157
0.000000 0.325490 0.239216
0.000000 0.337255 0.231373
0.000000 0.341176 0.203922
0.301961 0.345098 0.188235
0.454902 0.345098 0.192157
0.584314 0.352941 0.203922
0.717647 0.360784 0.188235
0.847059 0.360784 0.180392
0.988235 0.368627 0.184314
0.000000 0.435294 0.266667
0.011765 0.439216 0.254902
0.003922 0.435294 0.235294
0.000000 0.454902 0.109804
0.396078 0.462745 0.149020
0.580392 0.478431 0.176471
0.725490 0.474510 0.192157
0.858824 0.486275 0.176471
0.984314 0.490196 0.168627
0.003922 0.552941 0.313725
0.003922 0.552941 0.305882
0.000000 0.552941 0.278431
0.007843 0.556863 0.215686
0.007843 0.580392 0.050980
0.509804 0.588235 0.113725
0.733333 0.607843 0.149020
0.870588 0.615686 0.160784
1.000000 0.611765 0.164706
0.000000 0.674510 0.345098
0.003922 0.670588 0.352941
0.003922 0.674510 0.337255
0.003922 0.666667 0.301961
0.000000 0.690196 0.000000
0.019608 0.705882 0.000000
0.607843 0.725490 0.007843
0.878431 0.741176 0.137255
1.000000 0.737255 0.145098
0.000000 0.823529 0.423529
0.007843 0.819608 0.427451
0.003922 0.819608 0.411765
0.000000 0.819608 0.376471
0.000000 0.835294 0.278431
0.000000 0.858824 0.000000
0.247059 0.862745 0.003922
0.745098 0.870588 0.000000
1.000000 0.870588 0.113725
0.011765 0.996078 0.513725
0.000000 0.996078 0.505882
0.000000 0.996078 0.498039
0.000000 1.000000 0.482353
0.000000 0.996078 0.447059
0.007843 0.992157 0.000000
0.007843 0.996078 0.003922
0.619608 1.000000 0.007843
0.956863 0.996078 0.031373
0.035294 0.050980 0.298039
0.125490 0.043137 0.305882
0.223529 0.058824 0.305882
0.325490 0.054902 0.309804
0.450980 0.050980 0.309804
0.576471 0.011765 0.313725
0.705882 0.003922 0.329412
0.847059 0.000000 0.313725
0.988235 0.000000 0.309804
0.050980 0.121569 0.301961
0.129412 0.121569 0.305882
0.223529 0.121569 0.309804
0.329412 0.125490 0.313725
0.447059 0.125490 0.313725
0.572549 0.109804 0.313725
0.717647 0.094118 0.321569
0.850980 0.023529 0.309804
0.980392 0.000000 0.294118
0.039216 0.227451 0.317647
0.113725 0.223529 0.317647
0.231373 0.223529 0.305882
0.337255 0.223529 0.309804
0.454902 0.227451 0.321569
0.588235 0.219608 0.313725
0.713725 0.211765 0.317647
0.839216 0.207843 0.301961
0.984314 0.192157 0.309804
0.003922 0.337255 0.313725
0.101961 0.337255 0.329412
0.223529 0.345098 0.321569
0.333333 0.337255 0.305882
0.458824 0.349020 0.305882
0.584314 0.337255 0.301961
0.721569 0.341176 0.305882
0.858824 0.341176 0.301961
0.988235 0.345098 0.301961
0.003922 0.458824 0.345098
0.000000 0.454902 0.341176
0.000000 0.462745 0.337255
0.000000 0.454902 0.278431
0.435294 0.466667 0.282353
0.600000 0.470588 0.301961
0.725490 0.474510 0.298039
0.854902 0.474510 0.305882
0.996078 0.478431 0.290196
0.003922 0.572549 0.380392
0.003922 0.572549 0.372549
0.000000 0.572549 0.356863
0.000000 0.564706 0.313725
0.003922 0.584314 0.192157
0.517647 0.607843 0.254902
0.733333 0.607843 0.282353
0.874510 0.607843 0.290196
1.000000 0.607843 0.301961
0.011765 0.690196 0.400000
0.000000 0.686275 0.400000
0.000000 0.682353 0.388235
0.000000 0.678431 0.356863
0.003922 0.682353 0.258824
0.003922 0.705882 0.133333
0.643137 0.725490 0.211765
0.878431 0.741176 0.278431
0.996078 0.737255 0.266667
0.000000 0.831373 0.462745
0.000000 0.827451 0.454902
0.000000 0.827451 0.447059
0.000000 0.835294 0.431373
0.000000 0.827451 0.372549
0.007843 0.858824 0.000000
0.227451 0.858824 0.007843
0.756863 0.870588 0.164706
0.992157 0.870588 0.270588
0.000000 1.000000 0.541176
0.007843 1.000000 0.533333
0.003922 0.996078 0.521569
0.003922 1.000000 0.513725
0.000000 0.996078 0.478431
0.003922 0.996078 0.278431
0.007843 0.996078 0.003922
0.611765 1.000000 0.015686
0.968627 0.996078 0.235294
0.050980 0.047059 0.415686
0.129412 0.054902 0.415686
0.231373 0.050980 0.407843
0.333333 0.043137 0.423529
0.458824 0.039216 0.415686
0.572549 0.000000 0.427451
0.701961 0.000000 0.431373
0.854902 0.000000 0.443137
0.988235 0.003922 0.427451
0.050980 0.117647 0.423529
0.113725 0.121569 0.411765
0.231373 0.121569 0.423529
0.329412 0.125490 0.419608
0.450980 0.109804 0.415686
0.572549 0.094118 0.435294
0.709804 0.074510 0.431373
0.847059 0.003922 0.439216
0.988235 0.000000 0.435294
0.000000 0.219608 0.435294
0.098039 0.219608 0.439216
0.215686 0.215686 0.427451
0.341176 0.223529 0.435294
0.450980 0.215686 0.419608
0.584314 0.211765 0.447059
0.713725 0.200000 0.435294
0.854902 0.188235 0.435294
0.992157 0.164706 0.443137
0.000000 0.337255 0.435294
0.062745 0.345098 0.439216
0.203922 0.337255 0.435294
0.333333 0.337255 0.423529
0.454902 0.329412 0.423529
0.592157 0.337255 0.423529
0.733333 0.333333 0.419608
0.858824 0.329412 0.427451
1.000000 0.317647 0.427451
0.000000 0.466667 0.435294
0.007843 0.466667 0.435294
0.196078 0.470588 0.427451
0.341176 0.466667 0.447059
0.466667 0.466667 0.419608
0.600000 0.466667 0.419608
0.733333 0.466667 0.431373
0.882353 0.454902 0.427451
1.000000 0.462745 0.400000
0.000000 0.600000 0.458824
0.000000 0.592157 0.462745
0.000000 0.584314 0.458824
0.027451 0.580392 0.454902
0.007843 0.580392 0.356863
0.568627 0.600000 0.400000
0.756863 0.596078 0.415686
0.874510 0.607843 0.431373
1.000000 0.603922 0.423529
0.000000 0.701961 0.505882
0.000000 0.705882 0.490196
0.011765 0.701961 0.478431
0.000000 0.690196 0.439216
0.003922 0.701961 0.403922
0.003922 0.709804 0.258824
0.647059 0.733333 0.341176
0.886275 0.737255 0.403922
0.992157 0.737255 0.407843
0.000000 0.839216 0.533333
0.000000 0.843137 0.517647
0.000000 0.835294 0.513725
0.000000 0.843137 0.486275
0.007843 0.827451 0.458824
0.000000 0.847059 0.301961
0.141176 0.858824 0.200000
0.764706 0.878431 0.321569
1.000000 0.874510 0.415686
0.003922 1.000000 0.584314
0.003922 1.000000 0.592157
0.000000 0.996078 0.572549
0.003922 0.996078 0.560784
0.000000 0.996078 0.537255
0.003922 0.996078 0.458824
0.007843 0.996078 0.003922
0.596078 1.000000 0.227451
0.976471 0.996078 0.384314
0.050980 0.047059 0.545098
0.129412 0.047059 0.545098
0.239216 0.039216 0.545098
0.345098 0.023529 0.549020
0.462745 0.000000 0.541176
0.576471 0.000000 0.549020
0.709804 0.003922 0.556863
0.850980 0.000000 0.560784
0.988235 0.007843 0.564706
0.023529 0.117647 0.541176
0.113725 0.117647 0.533333
0.227451 0.113725 0.545098
0.352941 0.109804 0.552941
0.450980 0.098039 0.541176
0.588235 0.074510 0.552941
0.709804 0.039216 0.556863
0.854902 0.003922 0.572549
0.996078 0.000000 0.560784
0.000000 0.215686 0.541176
0.082353 0.219608 0.549020
0.219608 0.207843 0.549020
0.341176 0.200000 0.541176
0.462745 0.203922 0.556863
0.584314 0.211765 0.549020
0.717647 0.188235 0.556863
0.858824 0.180392 0.564706
0.996078 0.145098 0.572549
0.003922 0.337255 0.552941
0.000000 0.329412 0.545098
0.184314 0.325490 0.552941
0.325490 0.325490 0.560784
0.470588 0.321569 0.545098
0.600000 0.317647 0.564706
0.729412 0.321569 0.552941
0.874510 0.321569 0.560784
0.996078 0.313725 0.560784
0.003922 0.466667 0.552941
0.003922 0.466667 0.552941
0.160784 0.466667 0.556863
0.305882 0.462745 0.560784
0.458824 0.458824 0.560784
0.607843 0.447059 0.564706
0.737255 0.466667 0.549020
0.870588 0.462745 0.568627
1.000000 0.454902 0.568627
0.007843 0.607843 0.560784
0.007843 0.600000 0.564706
0.121569 0.603922 0.560784
0.305882 0.603922 0.564706
0.447059 0.603922 0.560784
0.611765 0.596078 0.560784
0.741176 0.596078 0.556863
0.870588 0.603922 0.568627
0.996078 0.596078 0.556863
0.003922 0.721569 0.572549
0.007843 0.725490 0.576471
0.000000 0.725490 0.572549
0.007843 0.721569 0.568627
0.254902 0.713725 0.580392
0.007843 0.709804 0.482353
0.694118 0.733333 0.525490
0.882353 0.733333 0.549020
1.000000 0.737255 0.572549
0.007843 0.843137 0.615686
0.003922 0.843137 0.623529
0.011765 0.847059 0.619608
0.003922 0.847059 0.615686
0.000000 0.843137 0.568627
0.003922 0.843137 0.498039
0.011765 0.858824 0.360784
0.800000 0.870588 0.482353
1.000000 0.866667 0.549020
0.007843 0.996078 0.694118
0.007843 0.996078 0.686275
0.000000 1.000000 0.670588
0.003922 1.000000 0.654902
0.007843 0.996078 0.631373
0.007843 0.992157 0.580392
0.007843 1.000000 0.337255
0.588235 0.996078 0.403922
0.992157 0.996078 0.529412
0.039216 0.027451 0.682353
0.133333 0.035294 0.686275
0.243137 0.011765 0.678431
0.372549 0.000000 0.686275
0.470588 0.000000 0.686275
0.611765 0.000000 0.690196
0.721569 0.000000 0.682353
0.858824 0.000000 0.686275
0.996078 0.000000 0.701961
0.003922 0.105882 0.690196
0.117647 0.109804 0.682353
0.235294 0.101961 0.686275
0.364706 0.090196 0.686275
0.482353 0.062745 0.674510
0.600000 0.023529 0.682353
0.733333 0.007843 0.690196
0.862745 0.003922 0.686275
1.000000 0.003922 0.705882
0.003922 0.207843 0.686275
0.031373 0.211765 0.690196
0.211765 0.203922 0.686275
0.345098 0.203922 0.690196
0.482353 0.200000 0.694118
0.607843 0.180392 0.686275
0.729412 0.168627 0.694118
0.866667 0.152941 0.686275
0.996078 0.141176 0.694118
0.003922 0.329412 0.698039
0.000000 0.329412 0.694118
0.145098 0.317647 0.698039
0.317647 0.317647 0.694118
0.478431 0.317647 0.694118
0.603922 0.313725 0.701961
0.756863 0.309804 0.694118
0.878431 0.313725 0.698039
0.996078 0.305882 0.701961
0.003922 0.466667 0.694118
0.000000 0.458824 0.698039
0.062745 0.458824 0.701961
0.294118 0.447059 0.701961
0.447059 0.447059 0.698039
0.611765 0.447059 0.705882
0.752941 0.443137 0.701961
0.874510 0.450980 0.686275
1.000000 0.450980 0.698039
0.007843 0.600000 0.698039
0.003922 0.603922 0.694118
0.000000 0.607843 0.698039
0.270588 0.600000 0.709804
0.443137 0.588235 0.694118
0.603922 0.592157 0.713725
0.741176 0.600000 0.701961
0.858824 0.603922 0.698039
1.000000 0.596078 0.701961
0.003922 0.745098 0.698039
0.003922 0.745098 0.690196
0.003922 0.745098 0.698039
0.266667 0.741176 0.705882
0.431373 0.745098 0.694118
0.600000 0.741176 0.701961
0.737255 0.737255 0.705882
0.874510 0.741176 0.705882
1.000000 0.733333 0.705882
0.000000 0.866667 0.705882
0.000000 0.870588 0.717647
0.000000 0.866667 0.713725
0.000000 0.870588 0.709804
0.247059 0.862745 0.717647
0.407843 0.862745 0.709804
0.098039 0.858824 0.603922
0.839216 0.866667 0.654902
1.000000 0.870588 0.694118
0.003922 1.000000 0.784314
0.000000 1.000000 0.764706
0.000000 1.000000 0.772549
0.003922 0.996078 0.764706
0.000000 0.992157 0.760784
0.000000 0.996078 0.729412
0.003922 0.988235 0.639216
0.572549 1.000000 0.572549
0.992157 1.000000 0.678431
0.000000 0.000000 0.831373
0.121569 0.003922 0.827451
0.247059 0.000000 0.831373
0.368627 0.000000 0.823529
0.501961 0.000000 0.835294
0.619608 0.000000 0.827451
0.749020 0.000000 0.831373
0.878431 0.000000 0.835294
1.000000 0.000000 0.835294
0.000000 0.094118 0.831373
0.094118 0.086275 0.827451
0.235294 0.078431 0.839216
0.364706 0.058824 0.839216
0.490196 0.023529 0.831373
0.627451 0.000000 0.831373
0.749020 0.000000 0.839216
0.894118 0.000000 0.839216
1.000000 0.003922 0.827451
0.000000 0.207843 0.827451
0.000000 0.200000 0.831373
0.203922 0.196078 0.827451
0.349020 0.188235 0.839216
0.478431 0.184314 0.831373
0.611765 0.164706 0.843137
0.749020 0.145098 0.835294
0.882353 0.105882 0.847059
1.000000 0.090196 0.831373
0.011765 0.309804 0.839216
0.003922 0.317647 0.823529
0.105882 0.317647 0.835294
0.321569 0.305882 0.839216
0.466667 0.309804 0.839216
0.607843 0.301961 0.839216
0.752941 0.290196 0.831373
0.890196 0.286275 0.843137
0.996078 0.290196 0.835294
0.000000 0.458824 0.843137
0.003922 0.454902 0.843137
0.000000 0.443137 0.843137
0.250980 0.435294 0.850980
0.439216 0.435294 0.835294
0.603922 0.439216 0.839216
0.756863 0.431373 0.839216
0.890196 0.431373 0.850980
1.000000 0.435294 0.839216
0.000000 0.600000 0.835294
0.003922 0.596078 0.850980
0.000000 0.596078 0.839216
0.207843 0.592157 0.847059
0.411765 0.588235 0.843137
0.596078 0.576471 0.835294
0.745098 0.584314 0.850980
0.894118 0.584314 0.850980
0.996078 0.588235 0.827451
0.007843 0.741176 0.839216
0.000000 0.745098 0.835294
0.000000 0.741176 0.854902
0.203922 0.741176 0.843137
0.407843 0.741176 0.850980
0.576471 0.737255 0.847059
0.733333 0.729412 0.850980
0.890196 0.737255 0.858824
0.996078 0.729412 0.835294
0.000000 0.886275 0.839216
0.000000 0.890196 0.847059
0.000000 0.882353 0.847059
0.192157 0.886275 0.847059
0.411765 0.886275 0.850980
0.584314 0.882353 0.835294
0.737255 0.874510 0.850980
0.886275 0.874510 0.847059
1.000000 0.878431 0.858824
0.003922 0.996078 0.850980
0.000000 1.000000 0.847059
0.000000 1.000000 0.854902
0.082353 0.996078 0.850980
0.333333 0.996078 0.866667
0.490196 0.996078 0.866667
0.631373 1.000000 0.878431
0.549020 0.996078 0.792157
1.000000 1.000000 0.866667
0.003922 0.000000 0.980392
0.101961 0.000000 0.984314
0.243137 0.000000 0.976471
0.372549 0.003922 0.968627
0.505882 0.000000 0.980392
0.635294 0.000000 0.992157
0.768627 0.000000 0.980392
0.894118 0.003922 0.980392
0.992157 0.003922 0.980392
0.000000 0.070588 0.980392
0.058824 0.066667 0.980392
0.231373 0.039216 0.976471
0.368627 0.015686 0.984314
0.501961 0.000000 0.988235
0.631373 0.000000 0.980392
0.768627 0.007843 0.984314
0.894118 0.000000 0.984314
1.000000 0.000000 0.976471
0.007843 0.192157 0.984314
0.003922 0.188235 0.980392
0.188235 0.180392 0.984314
0.333333 0.168627 0.984314
0.490196 0.168627 0.984314
0.627451 0.141176 0.996078
0.760784 0.109804 0.988235
0.898039 0.066667 0.988235
1.000000 0.003922 0.976471
0.007843 0.309804 0.992157
0.003922 0.301961 0.980392
0.039216 0.301961 0.992157
0.298039 0.305882 0.984314
0.458824 0.309804 0.988235
0.615686 0.290196 0.988235
0.756863 0.282353 0.992157
0.901961 0.274510 0.996078
0.996078 0.262745 0.988235
0.000000 0.435294 0.996078
0.000000 0.427451 0.996078
0.000000 0.431373 0.992157
0.215686 0.431373 0.996078
0.423529 0.427451 0.992157
0.596078 0.427451 0.988235
0.745098 0.423529 0.988235
0.890196 0.423529 0.996078
1.000000 0.419608 0.992157
0.003922 0.588235 0.988235
0.003922 0.588235 0.980392
0.000000 0.580392 0.996078
0.047059 0.572549 0.984314
0.368627 0.568627 0.988235
0.572549 0.564706 0.984314
0.733333 0.568627 0.992157
0.886275 0.576471 0.996078
0.996078 0.572549 0.980392
0.000000 0.741176 0.996078
0.000000 0.737255 0.984314
0.000000 0.733333 0.980392
0.027451 0.737255 0.992157
0.360784 0.725490 0.980392
0.549020 0.721569 0.992157
0.721569 0.725490 0.988235
0.890196 0.729412 0.988235
0.996078 0.725490 0.988235
0.000000 0.882353 0.992157
0.000000 0.882353 0.984314
0.000000 0.882353 0.992157
0.054902 0.882353 0.980392
0.368627 0.878431 1.000000
0.556863 0.874510 0.992157
0.717647 0.870588 0.992157
0.870588 0.874510 0.996078
1.000000 0.878431 0.992157
0.003922 1.000000 0.988235
0.000000 1.000000 0.992157
0.000000 0.996078 0.996078
0.203922 1.000000 1.000000
0.423529 1.000000 0.996078
0.603922 1.000000 0.992157
0.768627 1.000000 0.992157
0.921569 1.000000 0.992157
1.000000 1.000000 1.000000
