lut_library_archive/removed_20260629/50个风景lut/50个风景lut30.cube
# 版权归凌孟成所有，侵权必究
TITLE "Jungle LUT #30"
#LUT size
LUT_3D_SIZE 25
#LUT data points
0.003922 0.000000 0.000000
0.043137 0.000000 0.000000
0.094118 0.000000 0.000000
0.133333 0.011765 0.003922
0.176471 0.015686 0.007843
0.231373 0.023529 0.003922
0.278431 0.023529 0.007843
0.325490 0.019608 0.011765
0.372549 0.023529 0.007843
0.415686 0.027451 0.015686
0.466667 0.031373 0.023529
0.513725 0.027451 0.019608
0.560784 0.039216 0.023529
0.603922 0.050980 0.043137
0.647059 0.062745 0.054902
0.686275 0.070588 0.066667
0.729412 0.090196 0.078431
0.764706 0.094118 0.086275
0.807843 0.113725 0.105882
0.850980 0.133333 0.113725
0.886275 0.145098 0.129412
0.925490 0.160784 0.145098
0.960784 0.176471 0.156863
1.000000 0.188235 0.180392
0.996078 0.211765 0.192157
0.003922 0.050980 0.003922
0.047059 0.054902 0.003922
0.090196 0.054902 0.000000
0.133333 0.054902 0.011765
0.192157 0.062745 0.003922
0.231373 0.066667 0.011765
0.282353 0.074510 0.011765
0.329412 0.070588 0.007843
0.376471 0.070588 0.019608
0.423529 0.074510 0.019608
0.462745 0.074510 0.015686
0.517647 0.078431 0.023529
0.560784 0.082353 0.031373
0.596078 0.090196 0.039216
0.643137 0.094118 0.054902
0.690196 0.105882 0.058824
0.733333 0.113725 0.078431
0.772549 0.121569 0.090196
0.815686 0.137255 0.105882
0.847059 0.149020 0.117647
0.886275 0.164706 0.133333
0.921569 0.176471 0.145098
0.956863 0.188235 0.156863
0.992157 0.207843 0.176471
1.000000 0.223529 0.192157
0.007843 0.101961 0.015686
0.054902 0.105882 0.000000
0.090196 0.101961 0.019608
0.145098 0.105882 0.007843
0.188235 0.109804 0.003922
0.231373 0.105882 0.007843
0.286275 0.105882 0.011765
0.329412 0.109804 0.011765
0.376471 0.113725 0.011765
0.419608 0.117647 0.015686
0.470588 0.117647 0.023529
0.513725 0.121569 0.031373
0.560784 0.121569 0.043137
0.603922 0.125490 0.050980
0.647059 0.125490 0.058824
0.690196 0.137255 0.070588
0.725490 0.141176 0.078431
0.768627 0.152941 0.094118
0.807843 0.160784 0.105882
0.843137 0.172549 0.113725
0.882353 0.188235 0.129412
0.917647 0.192157 0.145098
0.960784 0.207843 0.156863
0.988235 0.219608 0.188235
1.000000 0.239216 0.200000
0.000000 0.152941 0.019608
0.047059 0.149020 0.003922
0.098039 0.152941 0.015686
0.133333 0.156863 0.007843
0.188235 0.156863 0.003922
0.247059 0.160784 0.007843
0.290196 0.164706 0.015686
0.337255 0.156863 0.015686
0.376471 0.160784 0.011765
0.427451 0.160784 0.023529
0.470588 0.160784 0.031373
0.513725 0.164706 0.039216
0.556863 0.168627 0.047059
0.611765 0.164706 0.054902
0.647059 0.172549 0.066667
0.690196 0.176471 0.074510
0.733333 0.184314 0.086275
0.772549 0.184314 0.098039
0.807843 0.196078 0.109804
0.847059 0.203922 0.129412
0.882353 0.211765 0.141176
0.913725 0.219608 0.156863
0.952941 0.239216 0.164706
0.988235 0.250980 0.184314
0.992157 0.258824 0.200000
0.007843 0.196078 0.000000
0.050980 0.207843 0.011765
0.090196 0.200000 0.007843
0.149020 0.203922 0.011765
0.188235 0.203922 0.007843
0.247059 0.203922 0.023529
0.290196 0.203922 0.019608
0.329412 0.203922 0.019608
0.376471 0.203922 0.019608
0.419608 0.207843 0.027451
0.470588 0.207843 0.031373
0.509804 0.207843 0.043137
0.560784 0.211765 0.054902
0.603922 0.211765 0.070588
0.643137 0.211765 0.074510
0.686275 0.223529 0.086275
0.725490 0.219608 0.094118
0.760784 0.227451 0.109804
0.807843 0.231373 0.121569
0.847059 0.239216 0.137255
0.882353 0.250980 0.149020
0.913725 0.258824 0.156863
0.956863 0.266667 0.176471
0.984314 0.278431 0.192157
1.000000 0.286275 0.203922
0.000000 0.254902 0.011765
0.035294 0.254902 0.007843
0.094118 0.258824 0.011765
0.145098 0.254902 0.023529
0.196078 0.254902 0.023529
0.250980 0.254902 0.027451
0.298039 0.258824 0.027451
0.345098 0.258824 0.027451
0.388235 0.258824 0.043137
0.435294 0.254902 0.050980
0.482353 0.258824 0.050980
0.521569 0.258824 0.054902
0.572549 0.254902 0.070588
0.615686 0.258824 0.082353
0.650980 0.262745 0.098039
0.690196 0.262745 0.101961
0.745098 0.270588 0.105882
0.776471 0.270588 0.117647
0.815686 0.274510 0.129412
0.847059 0.282353 0.145098
0.882353 0.286275 0.160784
0.917647 0.294118 0.176471
0.952941 0.298039 0.192157
0.984314 0.309804 0.200000
0.996078 0.317647 0.223529
0.000000 0.298039 0.023529
0.035294 0.298039 0.019608
0.098039 0.305882 0.031373
0.137255 0.301961 0.019608
0.188235 0.305882 0.031373
0.247059 0.305882 0.043137
0.282353 0.301961 0.035294
0.341176 0.305882 0.035294
0.388235 0.305882 0.050980
0.439216 0.305882 0.058824
0.478431 0.305882 0.066667
0.525490 0.305882 0.074510
0.564706 0.301961 0.086275
0.607843 0.305882 0.094118
0.650980 0.309804 0.109804
0.690196 0.305882 0.113725
0.729412 0.313725 0.129412
0.772549 0.313725 0.141176
0.807843 0.321569 0.149020
0.847059 0.317647 0.160784
0.886275 0.325490 0.168627
0.921569 0.329412 0.176471
0.960784 0.333333 0.192157
0.992157 0.341176 0.215686
1.000000 0.356863 0.227451
0.003922 0.345098 0.039216
0.035294 0.352941 0.043137
0.090196 0.352941 0.043137
0.141176 0.352941 0.047059
0.188235 0.356863 0.047059
0.243137 0.356863 0.043137
0.286275 0.352941 0.047059
0.341176 0.356863 0.058824
0.392157 0.352941 0.070588
0.443137 0.356863 0.070588
0.486275 0.349020 0.082353
0.529412 0.352941 0.090196
0.568627 0.352941 0.098039
0.607843 0.349020 0.109804
0.650980 0.352941 0.117647
0.694118 0.356863 0.133333
0.729412 0.356863 0.137255
0.768627 0.356863 0.141176
0.811765 0.356863 0.156863
0.843137 0.360784 0.168627
0.886275 0.368627 0.180392
0.917647 0.368627 0.192157
0.956863 0.372549 0.207843
1.000000 0.384314 0.223529
0.996078 0.392157 0.227451
0.007843 0.400000 0.062745
0.043137 0.407843 0.058824
0.098039 0.396078 0.050980
0.149020 0.407843 0.058824
0.203922 0.396078 0.070588
0.247059 0.400000 0.074510
0.290196 0.403922 0.074510
0.345098 0.403922 0.086275
0.388235 0.400000 0.082353
0.439216 0.403922 0.094118
0.486275 0.403922 0.094118
0.529412 0.400000 0.098039
0.572549 0.403922 0.105882
0.611765 0.396078 0.133333
0.654902 0.400000 0.141176
0.694118 0.400000 0.145098
0.733333 0.403922 0.152941
0.768627 0.400000 0.156863
0.803922 0.403922 0.172549
0.839216 0.407843 0.176471
0.874510 0.407843 0.188235
0.913725 0.407843 0.203922
0.949020 0.411765 0.207843
0.992157 0.415686 0.243137
0.996078 0.423529 0.239216
0.011765 0.435294 0.090196
0.054902 0.443137 0.086275
0.098039 0.447059 0.086275
0.145098 0.447059 0.078431
0.200000 0.447059 0.090196
0.247059 0.454902 0.094118
0.298039 0.450980 0.101961
0.345098 0.447059 0.098039
0.392157 0.447059 0.101961
0.439216 0.450980 0.109804
0.490196 0.450980 0.117647
0.529412 0.443137 0.117647
0.576471 0.447059 0.129412
0.615686 0.447059 0.141176
0.650980 0.443137 0.145098
0.694118 0.443137 0.160784
0.733333 0.443137 0.164706
0.768627 0.443137 0.176471
0.800000 0.447059 0.180392
0.843137 0.447059 0.196078
0.878431 0.447059 0.207843
0.917647 0.450980 0.223529
0.952941 0.458824 0.239216
0.988235 0.458824 0.250980
1.000000 0.462745 0.258824
0.043137 0.498039 0.109804
0.078431 0.494118 0.101961
0.121569 0.498039 0.109804
0.160784 0.498039 0.109804
0.211765 0.494118 0.105882
0.254902 0.494118 0.117647
0.301961 0.498039 0.117647
0.349020 0.505882 0.125490
0.400000 0.498039 0.129412
0.439216 0.498039 0.133333
0.486275 0.501961 0.133333
0.525490 0.498039 0.141176
0.576471 0.494118 0.145098
0.615686 0.490196 0.156863
0.654902 0.490196 0.160784
0.698039 0.494118 0.168627
0.737255 0.490196 0.188235
0.772549 0.490196 0.192157
0.811765 0.490196 0.203922
0.843137 0.490196 0.211765
0.882353 0.490196 0.223529
0.917647 0.490196 0.235294
0.956863 0.494118 0.250980
0.988235 0.494118 0.262745
0.996078 0.501961 0.270588
0.078431 0.537255 0.121569
0.105882 0.541176 0.133333
0.137255 0.533333 0.133333
0.184314 0.537255 0.145098
0.211765 0.533333 0.141176
0.266667 0.533333 0.129412
0.305882 0.541176 0.149020
0.349020 0.537255 0.137255
0.396078 0.537255 0.145098
0.439216 0.541176 0.152941
0.486275 0.541176 0.156863
0.533333 0.541176 0.160784
0.580392 0.541176 0.168627
0.619608 0.537255 0.172549
0.666667 0.533333 0.180392
0.690196 0.537255 0.180392
0.729412 0.533333 0.192157
0.768627 0.533333 0.203922
0.803922 0.537255 0.219608
0.847059 0.525490 0.227451
0.882353 0.533333 0.243137
0.917647 0.533333 0.254902
0.952941 0.533333 0.266667
0.984314 0.533333 0.270588
1.000000 0.533333 0.294118
0.121569 0.584314 0.152941
0.121569 0.576471 0.149020
0.164706 0.580392 0.149020
0.192157 0.580392 0.152941
0.231373 0.580392 0.164706
0.278431 0.580392 0.164706
0.309804 0.580392 0.152941
0.352941 0.584314 0.160784
0.400000 0.584314 0.168627
0.439216 0.580392 0.164706
0.490196 0.580392 0.172549
0.529412 0.576471 0.176471
0.572549 0.580392 0.184314
0.611765 0.580392 0.196078
0.658824 0.580392 0.200000
0.698039 0.580392 0.203922
0.733333 0.572549 0.211765
0.768627 0.572549 0.223529
0.807843 0.572549 0.235294
0.839216 0.572549 0.239216
0.874510 0.576471 0.250980
0.913725 0.572549 0.262745
0.949020 0.572549 0.282353
0.992157 0.576471 0.290196
1.000000 0.572549 0.309804
0.141176 0.619608 0.184314
0.152941 0.623529 0.172549
0.176471 0.623529 0.176471
0.196078 0.619608 0.180392
0.239216 0.623529 0.188235
0.278431 0.615686 0.180392
0.321569 0.619608 0.184314
0.360784 0.619608 0.188235
0.400000 0.619608 0.184314
0.450980 0.619608 0.196078
0.490196 0.619608 0.200000
0.529412 0.619608 0.203922
0.568627 0.619608 0.207843
0.611765 0.623529 0.203922
0.650980 0.623529 0.215686
0.690196 0.619608 0.219608
0.733333 0.619608 0.223529
0.768627 0.611765 0.231373
0.807843 0.607843 0.243137
0.847059 0.607843 0.254902
0.878431 0.603922 0.262745
0.909804 0.611765 0.278431
0.952941 0.607843 0.290196
0.984314 0.611765 0.301961
1.000000 0.615686 0.321569
0.164706 0.650980 0.196078
0.184314 0.654902 0.200000
0.192157 0.658824 0.188235
0.231373 0.658824 0.192157
0.254902 0.658824 0.200000
0.290196 0.658824 0.207843
0.325490 0.658824 0.200000
0.364706 0.654902 0.203922
0.403922 0.654902 0.207843
0.450980 0.654902 0.219608
0.494118 0.658824 0.227451
0.533333 0.658824 0.231373
0.568627 0.654902 0.219608
0.607843 0.654902 0.223529
0.650980 0.658824 0.231373
0.694118 0.658824 0.247059
0.741176 0.654902 0.250980
0.768627 0.654902 0.254902
0.803922 0.647059 0.262745
0.843137 0.647059 0.266667
0.882353 0.650980 0.290196
0.913725 0.650980 0.294118
0.949020 0.647059 0.301961
0.984314 0.647059 0.321569
1.000000 0.654902 0.333333
0.200000 0.698039 0.235294
0.215686 0.698039 0.239216
0.231373 0.698039 0.227451
0.250980 0.701961 0.235294
0.278431 0.698039 0.235294
0.309804 0.698039 0.239216
0.345098 0.701961 0.235294
0.384314 0.701961 0.239216
0.423529 0.701961 0.239216
0.458824 0.694118 0.239216
0.498039 0.694118 0.243137
0.529412 0.698039 0.243137
0.580392 0.698039 0.250980
0.619608 0.698039 0.254902
0.654902 0.694118 0.247059
0.690196 0.701961 0.258824
0.729412 0.698039 0.270588
0.772549 0.701961 0.278431
0.807843 0.694118 0.286275
0.839216 0.694118 0.286275
0.882353 0.686275 0.298039
0.917647 0.690196 0.309804
0.949020 0.690196 0.321569
0.984314 0.690196 0.341176
1.000000 0.690196 0.356863
0.231373 0.725490 0.235294
0.223529 0.733333 0.247059
0.250980 0.737255 0.250980
0.262745 0.729412 0.235294
0.301961 0.737255 0.262745
0.321569 0.729412 0.247059
0.356863 0.729412 0.250980
0.384314 0.737255 0.254902
0.423529 0.733333 0.262745
0.458824 0.737255 0.266667
0.498039 0.737255 0.270588
0.533333 0.733333 0.270588
0.572549 0.729412 0.278431
0.615686 0.733333 0.278431
0.654902 0.733333 0.282353
0.686275 0.737255 0.286275
0.725490 0.737255 0.294118
0.760784 0.729412 0.294118
0.803922 0.733333 0.309804
0.843137 0.733333 0.313725
0.882353 0.729412 0.325490
0.913725 0.729412 0.325490
0.952941 0.725490 0.337255
0.980392 0.729412 0.349020
1.000000 0.725490 0.380392
0.243137 0.772549 0.270588
0.274510 0.768627 0.278431
0.270588 0.772549 0.282353
0.294118 0.764706 0.278431
0.321569 0.768627 0.282353
0.333333 0.764706 0.274510
0.368627 0.764706 0.286275
0.407843 0.764706 0.290196
0.431373 0.768627 0.286275
0.462745 0.768627 0.282353
0.494118 0.768627 0.282353
0.533333 0.768627 0.290196
0.572549 0.768627 0.294118
0.607843 0.760784 0.294118
0.654902 0.768627 0.305882
0.686275 0.768627 0.305882
0.725490 0.764706 0.313725
0.764706 0.764706 0.317647
0.803922 0.764706 0.321569
0.839216 0.768627 0.329412
0.878431 0.768627 0.337255
0.909804 0.768627 0.337255
0.960784 0.756863 0.360784
0.968627 0.764706 0.376471
1.000000 0.768627 0.400000
0.274510 0.803922 0.298039
0.294118 0.800000 0.294118
0.298039 0.803922 0.298039
0.317647 0.803922 0.313725
0.329412 0.803922 0.290196
0.349020 0.807843 0.298039
0.388235 0.803922 0.301961
0.411765 0.807843 0.305882
0.443137 0.803922 0.305882
0.474510 0.807843 0.309804
0.505882 0.803922 0.309804
0.533333 0.803922 0.313725
0.572549 0.800000 0.325490
0.611765 0.803922 0.313725
0.650980 0.800000 0.325490
0.686275 0.800000 0.329412
0.729412 0.807843 0.333333
0.764706 0.800000 0.341176
0.803922 0.800000 0.345098
0.839216 0.800000 0.349020
0.870588 0.800000 0.360784
0.917647 0.796078 0.372549
0.937255 0.792157 0.372549
0.972549 0.796078 0.392157
0.992157 0.807843 0.403922
0.301961 0.839216 0.321569
0.313725 0.835294 0.321569
0.321569 0.831373 0.337255
0.337255 0.831373 0.329412
0.356863 0.835294 0.329412
0.380392 0.839216 0.329412
0.396078 0.839216 0.325490
0.423529 0.843137 0.333333
0.450980 0.839216 0.333333
0.486275 0.843137 0.337255
0.513725 0.839216 0.329412
0.537255 0.835294 0.337255
0.580392 0.839216 0.345098
0.619608 0.839216 0.349020
0.643137 0.835294 0.345098
0.682353 0.831373 0.349020
0.725490 0.835294 0.360784
0.760784 0.839216 0.364706
0.800000 0.835294 0.368627
0.835294 0.839216 0.380392
0.862745 0.835294 0.376471
0.901961 0.843137 0.392157
0.949020 0.839216 0.407843
0.980392 0.835294 0.415686
1.000000 0.839216 0.427451
0.341176 0.878431 0.360784
0.356863 0.878431 0.356863
0.360784 0.874510 0.356863
0.360784 0.874510 0.356863
0.376471 0.874510 0.360784
0.400000 0.874510 0.368627
0.415686 0.874510 0.364706
0.447059 0.874510 0.368627
0.462745 0.874510 0.368627
0.498039 0.870588 0.368627
0.533333 0.870588 0.372549
0.560784 0.870588 0.372549
0.596078 0.870588 0.380392
0.623529 0.878431 0.384314
0.658824 0.870588 0.384314
0.694118 0.874510 0.388235
0.725490 0.874510 0.392157
0.764706 0.874510 0.400000
0.796078 0.874510 0.400000
0.839216 0.874510 0.407843
0.874510 0.870588 0.407843
0.909804 0.870588 0.419608
0.941176 0.874510 0.427451
0.976471 0.874510 0.439216
0.996078 0.874510 0.466667
0.356863 0.901961 0.392157
0.376471 0.909804 0.376471
0.388235 0.909804 0.388235
0.376471 0.913725 0.396078
0.407843 0.905882 0.392157
0.427451 0.901961 0.388235
0.439216 0.905882 0.403922
0.454902 0.905882 0.392157
0.490196 0.909804 0.400000
0.517647 0.905882 0.400000
0.545098 0.905882 0.400000
0.568627 0.909804 0.400000
0.596078 0.905882 0.403922
0.635294 0.913725 0.411765
0.670588 0.905882 0.411765
0.701961 0.905882 0.411765
0.733333 0.905882 0.415686
0.772549 0.905882 0.423529
0.807843 0.905882 0.435294
0.835294 0.905882 0.435294
0.870588 0.905882 0.439216
0.905882 0.909804 0.450980
0.937255 0.909804 0.462745
0.976471 0.905882 0.474510
0.996078 0.905882 0.490196
0.400000 0.937255 0.411765
0.400000 0.945098 0.435294
0.419608 0.933333 0.431373
0.423529 0.941176 0.439216
0.427451 0.933333 0.427451
0.450980 0.945098 0.411765
0.458824 0.941176 0.423529
0.490196 0.941176 0.427451
0.509804 0.937255 0.427451
0.529412 0.941176 0.435294
0.552941 0.941176 0.435294
0.580392 0.941176 0.443137
0.607843 0.941176 0.443137
0.647059 0.937255 0.447059
0.670588 0.941176 0.443137
0.705882 0.941176 0.447059
0.745098 0.941176 0.458824
0.776471 0.937255 0.458824
0.807843 0.941176 0.470588
0.843137 0.941176 0.474510
0.870588 0.937255 0.482353
0.905882 0.937255 0.494118
0.933333 0.945098 0.501961
0.984314 0.941176 0.517647
0.992157 0.949020 0.498039
0.439216 0.972549 0.470588
0.447059 0.964706 0.462745
0.447059 0.976471 0.470588
0.454902 0.972549 0.474510
0.470588 0.980392 0.462745
0.474510 0.972549 0.458824
0.501961 0.976471 0.470588
0.521569 0.972549 0.466667
0.537255 0.972549 0.462745
0.556863 0.972549 0.470588
0.580392 0.972549 0.478431
0.603922 0.972549 0.482353
0.635294 0.972549 0.482353
0.654902 0.976471 0.490196
0.690196 0.968627 0.490196
0.721569 0.972549 0.494118
0.745098 0.972549 0.498039
0.776471 0.968627 0.505882
0.811765 0.972549 0.509804
0.839216 0.976471 0.521569
0.870588 0.976471 0.533333
0.898039 0.976471 0.525490
0.937255 0.972549 0.545098
0.972549 0.968627 0.545098
0.988235 0.980392 0.549020
0.482353 1.000000 0.509804
0.490196 1.000000 0.505882
0.482353 1.000000 0.501961
0.505882 1.000000 0.509804
0.505882 1.000000 0.509804
0.521569 0.996078 0.513725
0.533333 0.996078 0.513725
0.545098 1.000000 0.517647
0.564706 0.992157 0.521569
0.584314 0.996078 0.529412
0.607843 0.996078 0.529412
0.631373 0.996078 0.537255
0.650980 1.000000 0.529412
0.682353 1.000000 0.537255
0.709804 0.996078 0.537255
0.737255 1.000000 0.545098
0.764706 1.000000 0.552941
0.788235 1.000000 0.560784
0.815686 0.996078 0.560784
0.850980 1.000000 0.572549
0.878431 1.000000 0.584314
0.909804 1.000000 0.592157
0.941176 1.000000 0.596078
0.972549 0.996078 0.611765
0.996078 1.000000 0.623529
0.000000 0.000000 0.047059
0.043137 0.003922 0.047059
0.086275 0.000000 0.047059
0.129412 0.003922 0.047059
0.184314 0.003922 0.047059
0.235294 0.011765 0.047059
0.286275 0.011765 0.050980
0.333333 0.019608 0.054902
0.384314 0.019608 0.054902
0.423529 0.027451 0.066667
0.474510 0.039216 0.066667
0.513725 0.047059 0.070588
0.556863 0.050980 0.070588
0.596078 0.062745 0.078431
0.647059 0.074510 0.094118
0.694118 0.082353 0.098039
0.729412 0.094118 0.105882
0.764706 0.109804 0.117647
0.807843 0.117647 0.129412
0.847059 0.141176 0.145098
0.886275 0.152941 0.156863
0.917647 0.168627 0.160784
0.952941 0.180392 0.176471
0.996078 0.196078 0.200000
1.000000 0.211765 0.211765
0.011765 0.054902 0.039216
0.035294 0.050980 0.062745
0.098039 0.054902 0.047059
0.137255 0.054902 0.043137
0.188235 0.054902 0.050980
0.235294 0.054902 0.054902
0.278431 0.070588 0.050980
0.333333 0.066667 0.054902
0.376471 0.070588 0.062745
0.423529 0.078431 0.070588
0.466667 0.082353 0.070588
0.513725 0.082353 0.078431
0.556863 0.090196 0.082353
0.607843 0.094118 0.086275
0.650980 0.098039 0.094118
0.690196 0.113725 0.105882
0.729412 0.121569 0.113725
0.772549 0.129412 0.125490
0.807843 0.145098 0.133333
0.847059 0.152941 0.145098
0.886275 0.168627 0.156863
0.925490 0.184314 0.168627
0.964706 0.192157 0.188235
0.992157 0.207843 0.188235
1.000000 0.223529 0.203922
0.007843 0.094118 0.047059
0.039216 0.105882 0.043137
0.094118 0.101961 0.050980
0.141176 0.105882 0.047059
0.192157 0.105882 0.062745
0.219608 0.109804 0.058824
0.286275 0.117647 0.054902
0.325490 0.117647 0.062745
0.376471 0.117647 0.062745
0.423529 0.117647 0.070588
0.470588 0.121569 0.074510
0.513725 0.121569 0.082353
0.556863 0.125490 0.082353
0.603922 0.133333 0.098039
0.643137 0.133333 0.094118
0.686275 0.145098 0.105882
0.725490 0.152941 0.121569
0.764706 0.160784 0.129412
0.807843 0.168627 0.141176
0.843137 0.184314 0.145098
0.878431 0.188235 0.156863
0.917647 0.200000 0.176471
0.972549 0.219608 0.176471
0.984314 0.223529 0.196078
1.000000 0.239216 0.223529
0.000000 0.152941 0.047059
0.043137 0.152941 0.054902
0.098039 0.152941 0.054902
0.145098 0.160784 0.066667
0.180392 0.156863 0.054902
0.239216 0.160784 0.066667
0.282353 0.160784 0.078431
0.325490 0.160784 0.066667
0.372549 0.160784 0.066667
0.419608 0.160784 0.074510
0.466667 0.160784 0.074510
0.517647 0.164706 0.078431
0.564706 0.164706 0.086275
0.607843 0.172549 0.098039
0.647059 0.172549 0.105882
0.682353 0.176471 0.113725
0.725490 0.188235 0.125490
0.768627 0.192157 0.133333
0.803922 0.203922 0.145098
0.843137 0.207843 0.156863
0.878431 0.215686 0.164706
0.921569 0.223529 0.184314
0.956863 0.239216 0.188235
1.000000 0.243137 0.215686
1.000000 0.262745 0.215686
0.003922 0.200000 0.062745
0.039216 0.203922 0.054902
0.090196 0.207843 0.066667
0.137255 0.207843 0.058824
0.200000 0.200000 0.058824
0.239216 0.207843 0.066667
0.290196 0.211765 0.074510
0.329412 0.211765 0.070588
0.384314 0.207843 0.078431
0.431373 0.211765 0.090196
0.478431 0.207843 0.086275
0.517647 0.207843 0.090196
0.560784 0.211765 0.101961
0.603922 0.211765 0.109804
0.647059 0.215686 0.109804
0.690196 0.219608 0.117647
0.733333 0.223529 0.129412
0.772549 0.235294 0.141176
0.811765 0.239216 0.141176
0.854902 0.243137 0.156863
0.882353 0.247059 0.164706
0.917647 0.258824 0.184314
0.960784 0.266667 0.196078
0.992157 0.282353 0.215686
1.000000 0.290196 0.223529
0.000000 0.254902 0.066667
0.039216 0.258824 0.074510
0.094118 0.258824 0.070588
0.145098 0.258824 0.070588
0.192157 0.254902 0.078431
0.243137 0.254902 0.070588
0.290196 0.258824 0.074510
0.337255 0.266667 0.086275
0.384314 0.262745 0.090196
0.427451 0.258824 0.094118
0.474510 0.258824 0.098039
0.513725 0.258824 0.101961
0.564706 0.258824 0.101961
0.607843 0.262745 0.113725
0.654902 0.262745 0.121569
0.694118 0.270588 0.137255
0.733333 0.270588 0.133333
0.764706 0.270588 0.145098
0.811765 0.278431 0.160784
0.843137 0.286275 0.168627
0.886275 0.286275 0.184314
0.917647 0.290196 0.188235
0.956863 0.301961 0.207843
1.000000 0.309804 0.219608
0.996078 0.321569 0.235294
0.007843 0.301961 0.078431
0.039216 0.301961 0.082353
0.094118 0.305882 0.078431
0.145098 0.305882 0.070588
0.188235 0.309804 0.074510
0.235294 0.301961 0.086275
0.282353 0.313725 0.082353
0.345098 0.305882 0.098039
0.384314 0.305882 0.098039
0.431373 0.305882 0.105882
0.474510 0.305882 0.101961
0.517647 0.309804 0.113725
0.564706 0.305882 0.117647
0.607843 0.309804 0.117647
0.650980 0.313725 0.129412
0.694118 0.309804 0.133333
0.733333 0.313725 0.149020
0.768627 0.317647 0.156863
0.807843 0.317647 0.160784
0.847059 0.321569 0.176471
0.878431 0.325490 0.184314
0.921569 0.333333 0.203922
0.960784 0.337255 0.211765
0.992157 0.349020 0.219608
1.000000 0.352941 0.247059
0.000000 0.352941 0.078431
0.035294 0.345098 0.090196
0.094118 0.356863 0.086275
0.145098 0.352941 0.086275
0.192157 0.352941 0.094118
0.247059 0.352941 0.090196
0.294118 0.352941 0.098039
0.345098 0.352941 0.098039
0.392157 0.352941 0.105882
0.439216 0.352941 0.117647
0.486275 0.352941 0.113725
0.529412 0.356863 0.121569
0.568627 0.352941 0.129412
0.611765 0.356863 0.137255
0.647059 0.352941 0.137255
0.690196 0.352941 0.152941
0.733333 0.356863 0.160784
0.764706 0.360784 0.168627
0.803922 0.356863 0.172549
0.843137 0.364706 0.180392
0.878431 0.368627 0.196078
0.917647 0.368627 0.200000
0.949020 0.372549 0.211765
0.992157 0.384314 0.235294
1.000000 0.384314 0.239216
0.000000 0.392157 0.094118
0.047059 0.403922 0.101961
0.105882 0.396078 0.101961
0.145098 0.396078 0.098039
0.200000 0.403922 0.113725
0.250980 0.400000 0.098039
0.294118 0.403922 0.105882
0.341176 0.403922 0.109804
0.388235 0.403922 0.113725
0.435294 0.403922 0.121569
0.478431 0.400000 0.129412
0.521569 0.400000 0.137255
0.560784 0.400000 0.141176
0.611765 0.400000 0.149020
0.650980 0.400000 0.156863
0.694118 0.403922 0.164706
0.733333 0.403922 0.168627
0.772549 0.400000 0.180392
0.803922 0.403922 0.184314
0.847059 0.403922 0.200000
0.882353 0.403922 0.211765
0.909804 0.419608 0.215686
0.949020 0.415686 0.231373
0.984314 0.415686 0.254902
1.000000 0.427451 0.266667
0.003922 0.443137 0.105882
0.058824 0.450980 0.113725
0.105882 0.450980 0.113725
0.160784 0.443137 0.121569
0.200000 0.447059 0.121569
0.243137 0.447059 0.117647
0.294118 0.447059 0.121569
0.337255 0.447059 0.117647
0.388235 0.447059 0.129412
0.439216 0.450980 0.133333
0.482353 0.447059 0.137255
0.525490 0.450980 0.141176
0.568627 0.443137 0.149020
0.607843 0.443137 0.152941
0.650980 0.443137 0.168627
0.694118 0.447059 0.176471
0.733333 0.447059 0.188235
0.764706 0.447059 0.200000
0.800000 0.447059 0.203922
0.839216 0.447059 0.215686
0.882353 0.450980 0.219608
0.917647 0.450980 0.231373
0.952941 0.454902 0.247059
0.980392 0.458824 0.258824
1.000000 0.466667 0.270588
0.047059 0.498039 0.133333
0.082353 0.494118 0.129412
0.125490 0.490196 0.133333
0.168627 0.494118 0.133333
0.211765 0.498039 0.141176
0.250980 0.498039 0.141176
0.301961 0.494118 0.137255
0.352941 0.494118 0.149020
0.392157 0.494118 0.145098
0.439216 0.494118 0.152941
