lut_library_archive/removed_20260629/50个风景lut/50个风景lut49.cube
# 版权归凌孟成所有，侵权必究
TITLE "Jungle LUT #49"
#LUT size
LUT_3D_SIZE 5
#LUT data points
0.050980 0.054902 0.062745
0.235294 0.043137 0.054902
0.447059 0.058824 0.039216
0.709804 0.086275 0.035294
0.996078 0.086275 0.000000
0.047059 0.227451 0.035294
0.223529 0.231373 0.047059
0.450980 0.243137 0.047059
0.713725 0.258824 0.019608
0.992157 0.266667 0.011765
0.054902 0.478431 0.000000
0.243137 0.478431 0.000000
0.474510 0.482353 0.000000
0.729412 0.490196 0.003922
0.992157 0.505882 0.000000
0.054902 0.741176 0.000000
0.254902 0.745098 0.000000
0.505882 0.745098 0.000000
0.749020 0.745098 0.003922
0.996078 0.749020 0.000000
0.125490 1.000000 0.000000
0.298039 0.996078 0.000000
0.541176 1.000000 0.000000
0.803922 1.000000 0.000000
1.000000 1.000000 0.078431
0.039216 0.043137 0.215686
0.223529 0.058824 0.207843
0.450980 0.054902 0.219608
0.713725 0.011765 0.207843
0.996078 0.000000 0.203922
0.047059 0.227451 0.219608
0.239216 0.223529 0.211765
0.462745 0.239216 0.211765
0.709804 0.243137 0.196078
1.000000 0.243137 0.192157
0.003922 0.474510 0.196078
0.231373 0.482353 0.184314
0.474510 0.474510 0.184314
0.733333 0.486275 0.184314
1.000000 0.490196 0.176471
0.000000 0.733333 0.141176
0.223529 0.745098 0.137255
0.494118 0.745098 0.125490
0.756863 0.745098 0.129412
0.996078 0.749020 0.141176
0.000000 1.000000 0.137255
0.258824 1.000000 0.145098
0.525490 0.996078 0.156863
0.811765 0.996078 0.196078
1.000000 1.000000 0.258824
0.043137 0.054902 0.419608
0.235294 0.050980 0.435294
0.454902 0.031373 0.435294
0.725490 0.000000 0.435294
0.996078 0.003922 0.431373
0.000000 0.219608 0.435294
0.223529 0.223529 0.435294
0.458824 0.223529 0.435294
0.725490 0.211765 0.439216
0.992157 0.176471 0.435294
0.003922 0.474510 0.427451
0.196078 0.474510 0.443137
0.474510 0.474510 0.427451
0.745098 0.470588 0.431373
0.996078 0.462745 0.431373
0.000000 0.749020 0.415686
0.094118 0.752941 0.419608
0.462745 0.752941 0.411765
0.764706 0.745098 0.415686
1.000000 0.745098 0.415686
0.000000 1.000000 0.427451
0.094118 0.996078 0.431373
0.474510 1.000000 0.415686
0.792157 1.000000 0.443137
1.000000 1.000000 0.466667
0.035294 0.023529 0.678431
0.254902 0.007843 0.698039
0.482353 0.003922 0.690196
0.745098 0.000000 0.705882
0.992157 0.003922 0.698039
0.000000 0.207843 0.701961
0.211765 0.203922 0.686275
0.482353 0.200000 0.701961
0.745098 0.164706 0.698039
1.000000 0.149020 0.698039
0.000000 0.470588 0.709804
0.070588 0.462745 0.698039
0.454902 0.458824 0.709804
0.752941 0.454902 0.709804
0.992157 0.466667 0.705882
0.000000 0.756863 0.713725
0.000000 0.752941 0.701961
0.450980 0.749020 0.701961
0.749020 0.749020 0.709804
1.000000 0.741176 0.709804
0.000000 1.000000 0.717647
0.101961 0.996078 0.725490
0.482353 1.000000 0.733333
0.764706 1.000000 0.709804
1.000000 1.000000 0.729412
0.000000 0.000000 0.984314
0.239216 0.000000 0.984314
0.513725 0.000000 0.988235
0.772549 0.000000 0.988235
0.992157 0.003922 0.988235
0.007843 0.192157 0.984314
0.192157 0.184314 0.996078
0.494118 0.172549 0.992157
0.768627 0.125490 0.992157
1.000000 0.023529 0.988235
0.000000 0.439216 1.000000
0.011765 0.435294 1.000000
0.439216 0.443137 1.000000
0.756863 0.435294 1.000000
1.000000 0.431373 1.000000
0.000000 0.741176 1.000000
0.003922 0.745098 1.000000
0.380392 0.737255 0.992157
0.729412 0.733333 0.996078
0.996078 0.741176 1.000000
0.003922 1.000000 0.988235
0.007843 0.988235 1.000000
0.450980 1.000000 1.000000
0.784314 0.996078 0.996078
1.000000 1.000000 1.000000
