lut_library_archive/removed_20260629/50个风景lut/50个风景lut25.cube
# 版权归凌孟成所有，侵权必究
TITLE "Jungle LUT #25"
#LUT size
LUT_3D_SIZE 5
#LUT data points
0.000000 0.000000 0.000000
0.239216 0.011765 0.000000
0.470588 0.086275 0.000000
0.749020 0.172549 0.003922
0.996078 0.254902 0.003922
0.003922 0.239216 0.000000
0.262745 0.247059 0.007843
0.482353 0.243137 0.000000
0.756863 0.286275 0.007843
1.000000 0.337255 0.000000
0.000000 0.498039 0.000000
0.247059 0.490196 0.000000
0.525490 0.486275 0.003922
0.792157 0.498039 0.007843
1.000000 0.521569 0.000000
0.003922 0.788235 0.000000
0.223529 0.788235 0.007843
0.537255 0.788235 0.000000
0.831373 0.776471 0.003922
1.000000 0.733333 0.007843
0.000000 0.996078 0.000000
0.058824 0.996078 0.000000
0.486275 1.000000 0.003922
0.819608 1.000000 0.000000
1.000000 1.000000 0.000000
0.000000 0.007843 0.227451
0.258824 0.003922 0.223529
0.494118 0.000000 0.196078
0.741176 0.196078 0.231373
0.988235 0.270588 0.219608
0.003922 0.243137 0.223529
0.243137 0.239216 0.223529
0.482353 0.258824 0.223529
0.749020 0.294118 0.211765
1.000000 0.341176 0.211765
0.000000 0.494118 0.184314
0.231373 0.490196 0.192157
0.521569 0.486275 0.184314
0.796078 0.498039 0.172549
0.996078 0.521569 0.141176
0.007843 0.788235 0.023529
0.160784 0.784314 0.023529
0.517647 0.776471 0.000000
0.831373 0.788235 0.000000
0.992157 0.733333 0.011765
0.007843 0.996078 0.003922
0.000000 0.996078 0.000000
0.454902 1.000000 0.003922
0.819608 1.000000 0.000000
1.000000 1.000000 0.003922
0.003922 0.000000 0.478431
0.235294 0.000000 0.478431
0.494118 0.003922 0.474510
0.784314 0.000000 0.490196
1.000000 0.000000 0.443137
0.000000 0.227451 0.478431
0.227451 0.231373 0.482353
0.498039 0.219608 0.478431
0.784314 0.188235 0.482353
1.000000 0.196078 0.427451
0.000000 0.498039 0.478431
0.184314 0.501961 0.482353
0.498039 0.486275 0.466667
0.792157 0.509804 0.470588
0.992157 0.533333 0.466667
0.007843 0.792157 0.447059
0.000000 0.800000 0.435294
0.458824 0.792157 0.435294
0.815686 0.780392 0.415686
0.996078 0.741176 0.411765
0.000000 1.000000 0.364706
0.000000 1.000000 0.364706
0.400000 0.996078 0.356863
0.780392 0.996078 0.345098
1.000000 0.996078 0.305882
0.000000 0.000000 0.776471
0.250980 0.000000 0.784314
0.525490 0.000000 0.784314
0.792157 0.000000 0.768627
0.996078 0.003922 0.772549
0.000000 0.211765 0.776471
0.219608 0.207843 0.792157
0.513725 0.180392 0.780392
0.796078 0.117647 0.784314
0.992157 0.003922 0.760784
0.000000 0.482353 0.776471
0.000000 0.482353 0.780392
0.470588 0.454902 0.784314
0.803922 0.454902 0.784314
1.000000 0.458824 0.764706
0.000000 0.800000 0.772549
0.007843 0.792157 0.780392
0.447059 0.792157 0.788235
0.780392 0.780392 0.772549
1.000000 0.800000 0.776471
0.003922 1.000000 0.721569
0.007843 0.996078 0.733333
0.470588 1.000000 0.745098
0.768627 1.000000 0.741176
0.996078 1.000000 0.733333
0.000000 0.000000 0.996078
0.239216 0.000000 0.996078
0.505882 0.000000 0.992157
0.776471 0.000000 1.000000
0.992157 0.000000 1.000000
0.015686 0.192157 1.000000
0.184314 0.192157 1.000000
0.494118 0.160784 1.000000
0.772549 0.094118 1.000000
0.992157 0.003922 0.988235
0.000000 0.447059 0.996078
0.000000 0.435294 0.996078
0.447059 0.439216 1.000000
0.756863 0.427451 1.000000
0.996078 0.427451 0.996078
0.003922 0.745098 1.000000
0.007843 0.737255 1.000000
0.470588 0.749020 1.000000
0.760784 0.760784 0.996078
1.000000 0.764706 1.000000
0.000000 1.000000 0.988235
0.000000 1.000000 1.000000
0.490196 1.000000 1.000000
0.811765 1.000000 0.992157
1.000000 0.992157 0.996078
