lut_library_archive/removed_20260629/50个风景lut/50个风景lut38.cube
# 版权归凌孟成所有，侵权必究
TITLE "Jungle LUT #38"
#LUT size
LUT_3D_SIZE 9
#LUT data points
0.000000 0.000000 0.000000
0.137255 0.003922 0.000000
0.282353 0.003922 0.003922
0.431373 0.000000 0.003922
0.572549 0.003922 0.000000
0.721569 0.000000 0.000000
0.850980 0.007843 0.007843
0.972549 0.003922 0.003922
0.996078 0.000000 0.000000
0.003922 0.137255 0.000000
0.149020 0.137255 0.000000
0.290196 0.141176 0.000000
0.431373 0.141176 0.000000
0.572549 0.141176 0.000000
0.713725 0.145098 0.000000
0.850980 0.141176 0.003922
0.976471 0.129412 0.000000
0.996078 0.141176 0.000000
0.027451 0.274510 0.000000
0.160784 0.278431 0.003922
0.286275 0.274510 0.000000
0.431373 0.282353 0.000000
0.572549 0.282353 0.000000
0.713725 0.282353 0.003922
0.850980 0.278431 0.003922
0.976471 0.278431 0.000000
0.992157 0.278431 0.000000
0.078431 0.419608 0.007843
0.172549 0.411765 0.000000
0.305882 0.419608 0.000000
0.439216 0.423529 0.000000
0.588235 0.427451 0.011765
0.721569 0.423529 0.000000
0.854902 0.419608 0.000000
0.976471 0.411765 0.003922
1.000000 0.400000 0.000000
0.121569 0.568627 0.000000
0.200000 0.564706 0.007843
0.317647 0.568627 0.000000
0.443137 0.568627 0.000000
0.588235 0.560784 0.003922
0.721569 0.560784 0.003922
0.858824 0.556863 0.000000
0.968627 0.541176 0.000000
1.000000 0.533333 0.000000
0.156863 0.701961 0.000000
0.215686 0.705882 0.000000
0.333333 0.698039 0.000000
0.450980 0.698039 0.000000
0.588235 0.694118 0.000000
0.729412 0.690196 0.003922
0.847059 0.694118 0.000000
0.960784 0.670588 0.007843
0.992157 0.662745 0.003922
0.203922 0.823529 0.003922
0.254902 0.811765 0.000000
0.349020 0.815686 0.007843
0.458824 0.819608 0.000000
0.588235 0.815686 0.000000
0.717647 0.819608 0.000000
0.835294 0.811765 0.000000
0.968627 0.800000 0.003922
0.996078 0.784314 0.031373
0.243137 0.921569 0.011765
0.274510 0.933333 0.011765
0.364706 0.921569 0.011765
0.470588 0.925490 0.019608
0.580392 0.929412 0.027451
0.701961 0.925490 0.027451
0.823529 0.921569 0.035294
0.952941 0.921569 0.050980
1.000000 0.913725 0.094118
0.286275 0.996078 0.137255
0.309804 1.000000 0.133333
0.380392 0.996078 0.137255
0.470588 1.000000 0.145098
0.572549 1.000000 0.149020
0.698039 1.000000 0.145098
0.831373 1.000000 0.152941
0.964706 1.000000 0.164706
1.000000 1.000000 0.176471
0.003922 0.000000 0.125490
0.137255 0.000000 0.133333
0.290196 0.000000 0.129412
0.427451 0.000000 0.125490
0.568627 0.000000 0.121569
0.709804 0.003922 0.121569
0.858824 0.000000 0.117647
0.972549 0.000000 0.105882
0.992157 0.007843 0.113725
0.011765 0.137255 0.117647
0.152941 0.137255 0.133333
0.286275 0.137255 0.125490
0.431373 0.145098 0.129412
0.572549 0.145098 0.125490
0.713725 0.141176 0.113725
0.854902 0.137255 0.113725
0.976471 0.145098 0.109804
1.000000 0.145098 0.117647
0.050980 0.278431 0.113725
0.168627 0.278431 0.121569
0.286275 0.278431 0.117647
0.435294 0.282353 0.121569
0.572549 0.282353 0.113725
0.717647 0.282353 0.105882
0.847059 0.282353 0.105882
0.976471 0.282353 0.117647
0.996078 0.274510 0.109804
0.082353 0.423529 0.117647
0.172549 0.419608 0.109804
0.298039 0.419608 0.105882
0.435294 0.423529 0.113725
0.584314 0.423529 0.109804
0.717647 0.423529 0.098039
0.858824 0.415686 0.101961
0.972549 0.411765 0.105882
0.992157 0.407843 0.117647
0.121569 0.568627 0.094118
0.196078 0.560784 0.101961
0.313725 0.560784 0.094118
0.450980 0.564706 0.094118
0.588235 0.560784 0.101961
0.717647 0.560784 0.086275
0.850980 0.556863 0.090196
0.972549 0.552941 0.113725
0.996078 0.537255 0.125490
0.160784 0.698039 0.082353
0.223529 0.698039 0.082353
0.329412 0.694118 0.086275
0.454902 0.694118 0.078431
0.592157 0.698039 0.090196
0.721569 0.698039 0.086275
0.847059 0.686275 0.082353
0.972549 0.674510 0.105882
0.988235 0.658824 0.133333
0.203922 0.819608 0.101961
0.250980 0.823529 0.094118
0.345098 0.815686 0.090196
0.462745 0.811765 0.098039
0.584314 0.811765 0.098039
0.717647 0.815686 0.101961
0.843137 0.815686 0.113725
0.964706 0.800000 0.117647
0.992157 0.788235 0.149020
0.243137 0.925490 0.129412
0.278431 0.933333 0.133333
0.352941 0.929412 0.137255
0.474510 0.921569 0.133333
0.580392 0.925490 0.141176
0.698039 0.917647 0.145098
0.823529 0.917647 0.141176
0.949020 0.917647 0.149020
0.988235 0.905882 0.172549
0.282353 1.000000 0.211765
0.309804 1.000000 0.200000
0.396078 1.000000 0.207843
0.470588 0.996078 0.207843
0.576471 1.000000 0.207843
0.709804 1.000000 0.211765
0.835294 1.000000 0.215686
0.960784 1.000000 0.219608
1.000000 0.996078 0.227451
0.003922 0.000000 0.262745
0.137255 0.000000 0.258824
0.282353 0.000000 0.258824
0.427451 0.000000 0.266667
0.572549 0.000000 0.254902
0.721569 0.000000 0.258824
0.850980 0.003922 0.258824
0.976471 0.023529 0.254902
1.000000 0.047059 0.266667
0.011765 0.141176 0.262745
0.149020 0.137255 0.258824
0.290196 0.133333 0.266667
0.431373 0.137255 0.258824
0.576471 0.133333 0.258824
0.721569 0.137255 0.262745
0.850980 0.145098 0.258824
0.976471 0.149020 0.254902
0.996078 0.152941 0.247059
0.043137 0.274510 0.250980
0.160784 0.282353 0.258824
0.294118 0.282353 0.262745
0.431373 0.278431 0.258824
0.576471 0.282353 0.258824
0.717647 0.286275 0.250980
0.847059 0.282353 0.247059
0.968627 0.286275 0.254902
0.988235 0.282353 0.254902
0.062745 0.427451 0.254902
0.168627 0.423529 0.258824
0.301961 0.423529 0.258824
0.443137 0.423529 0.258824
0.584314 0.423529 0.250980
0.717647 0.427451 0.258824
0.858824 0.423529 0.254902
0.968627 0.419608 0.250980
0.996078 0.411765 0.254902
0.137255 0.564706 0.247059
0.196078 0.560784 0.247059
0.321569 0.560784 0.254902
0.450980 0.564706 0.250980
0.592157 0.564706 0.247059
0.721569 0.560784 0.247059
0.854902 0.560784 0.250980
0.968627 0.549020 0.250980
0.992157 0.533333 0.262745
0.176471 0.701961 0.258824
0.227451 0.698039 0.247059
0.333333 0.698039 0.247059
0.454902 0.701961 0.250980
0.584314 0.698039 0.243137
0.721569 0.694118 0.247059
0.843137 0.686275 0.243137
0.964706 0.682353 0.258824
1.000000 0.650980 0.262745
0.207843 0.815686 0.247059
0.274510 0.819608 0.250980
0.356863 0.815686 0.254902
0.466667 0.815686 0.250980
0.584314 0.815686 0.258824
0.713725 0.811765 0.250980
0.843137 0.815686 0.258824
0.952941 0.803922 0.266667
1.000000 0.784314 0.278431
0.254902 0.925490 0.266667
0.298039 0.921569 0.262745
0.368627 0.921569 0.270588
0.470588 0.921569 0.270588
0.584314 0.925490 0.270588
0.698039 0.921569 0.266667
0.815686 0.913725 0.262745
0.949020 0.917647 0.278431
0.984314 0.909804 0.274510
0.298039 0.996078 0.313725
0.325490 1.000000 0.298039
0.392157 0.996078 0.305882
0.478431 1.000000 0.309804
0.576471 1.000000 0.309804
0.709804 1.000000 0.305882
0.831373 1.000000 0.305882
0.960784 1.000000 0.309804
1.000000 1.000000 0.321569
0.007843 0.000000 0.396078
0.141176 0.000000 0.400000
0.290196 0.000000 0.388235
0.423529 0.000000 0.396078
0.576471 0.003922 0.400000
0.713725 0.000000 0.396078
0.850980 0.000000 0.388235
0.972549 0.023529 0.392157
1.000000 0.109804 0.388235
0.035294 0.129412 0.403922
0.149020 0.141176 0.388235
0.290196 0.137255 0.392157
0.427451 0.133333 0.396078
0.572549 0.137255 0.403922
0.717647 0.125490 0.396078
0.847059 0.133333 0.392157
0.972549 0.160784 0.396078
1.000000 0.180392 0.388235
0.062745 0.282353 0.403922
0.164706 0.278431 0.396078
0.301961 0.286275 0.392157
0.435294 0.286275 0.388235
0.588235 0.278431 0.392157
0.721569 0.274510 0.384314
0.850980 0.286275 0.396078
0.972549 0.290196 0.388235
1.000000 0.290196 0.388235
0.086275 0.419608 0.396078
0.172549 0.419608 0.388235
0.305882 0.423529 0.392157
0.447059 0.419608 0.388235
0.580392 0.423529 0.384314
0.721569 0.419608 0.388235
0.850980 0.427451 0.388235
0.968627 0.419608 0.384314
0.992157 0.419608 0.388235
0.109804 0.560784 0.392157
0.188235 0.568627 0.388235
0.321569 0.560784 0.388235
0.450980 0.564706 0.384314
0.588235 0.560784 0.380392
0.725490 0.564706 0.392157
0.847059 0.556863 0.388235
0.960784 0.549020 0.396078
1.000000 0.541176 0.392157
0.180392 0.701961 0.392157
0.235294 0.701961 0.388235
0.337255 0.694118 0.384314
0.458824 0.698039 0.392157
0.592157 0.698039 0.388235
0.729412 0.694118 0.384314
0.843137 0.690196 0.388235
0.964706 0.674510 0.388235
0.996078 0.662745 0.400000
0.223529 0.819608 0.392157
0.274510 0.819608 0.392157
0.352941 0.811765 0.392157
0.466667 0.815686 0.384314
0.592157 0.819608 0.388235
0.713725 0.815686 0.388235
0.839216 0.811765 0.396078
0.952941 0.800000 0.396078
1.000000 0.792157 0.400000
0.270588 0.925490 0.407843
0.305882 0.921569 0.407843
0.368627 0.921569 0.407843
0.482353 0.925490 0.407843
0.580392 0.921569 0.407843
0.701961 0.917647 0.407843
0.819608 0.917647 0.407843
0.952941 0.917647 0.411765
1.000000 0.894118 0.411765
0.321569 1.000000 0.435294
0.341176 1.000000 0.423529
0.411765 0.996078 0.423529
0.486275 1.000000 0.431373
0.592157 1.000000 0.431373
0.709804 0.996078 0.431373
0.831373 1.000000 0.435294
0.952941 1.000000 0.435294
0.996078 1.000000 0.443137
0.027451 0.000000 0.525490
0.149020 0.000000 0.529412
0.286275 0.007843 0.525490
0.431373 0.000000 0.529412
0.572549 0.000000 0.529412
0.717647 0.003922 0.537255
0.854902 0.000000 0.529412
0.976471 0.039216 0.517647
1.000000 0.113725 0.513725
0.035294 0.137255 0.517647
0.156863 0.137255 0.529412
0.290196 0.141176 0.529412
0.431373 0.133333 0.517647
0.580392 0.133333 0.517647
0.721569 0.129412 0.533333
0.847059 0.133333 0.525490
0.968627 0.160784 0.525490
1.000000 0.196078 0.521569
0.058824 0.274510 0.529412
0.172549 0.282353 0.529412
0.305882 0.282353 0.525490
0.439216 0.282353 0.529412
0.588235 0.278431 0.533333
0.725490 0.278431 0.529412
0.850980 0.282353 0.521569
0.964706 0.298039 0.513725
1.000000 0.317647 0.525490
0.086275 0.427451 0.533333
0.192157 0.427451 0.537255
0.313725 0.419608 0.525490
0.443137 0.427451 0.533333
0.576471 0.419608 0.521569
0.717647 0.419608 0.521569
0.854902 0.431373 0.525490
0.960784 0.439216 0.525490
0.992157 0.439216 0.533333
0.125490 0.560784 0.533333
0.200000 0.564706 0.521569
0.325490 0.560784 0.529412
0.454902 0.560784 0.525490
0.596078 0.564706 0.521569
0.717647 0.560784 0.521569
0.850980 0.560784 0.525490
0.964706 0.556863 0.529412
1.000000 0.549020 0.529412
0.192157 0.694118 0.525490
0.243137 0.694118 0.521569
0.349020 0.698039 0.517647
0.470588 0.694118 0.525490
0.592157 0.694118 0.517647
0.721569 0.694118 0.521569
0.843137 0.690196 0.521569
0.952941 0.682353 0.521569
1.000000 0.670588 0.521569
0.274510 0.819608 0.525490
0.321569 0.811765 0.537255
0.384314 0.815686 0.529412
0.474510 0.819608 0.529412
0.592157 0.819608 0.529412
0.713725 0.815686 0.529412
0.839216 0.815686 0.525490
0.949020 0.796078 0.525490
1.000000 0.796078 0.537255
0.301961 0.929412 0.537255
0.333333 0.921569 0.541176
0.400000 0.925490 0.537255
0.494118 0.925490 0.537255
0.588235 0.925490 0.537255
0.709804 0.921569 0.545098
0.819608 0.921569 0.533333
0.945098 0.909804 0.537255
0.996078 0.905882 0.537255
0.352941 1.000000 0.549020
0.372549 1.000000 0.552941
0.435294 1.000000 0.549020
0.501961 1.000000 0.549020
0.603922 0.996078 0.549020
0.709804 1.000000 0.549020
0.835294 1.000000 0.552941
0.952941 1.000000 0.560784
1.000000 1.000000 0.560784
0.047059 0.000000 0.662745
0.156863 0.003922 0.666667
0.301961 0.000000 0.658824
0.439216 0.003922 0.658824
0.576471 0.000000 0.662745
0.713725 0.003922 0.666667
0.854902 0.000000 0.654902
0.964706 0.058824 0.647059
1.000000 0.133333 0.647059
0.054902 0.149020 0.674510
0.172549 0.149020 0.674510
0.301961 0.137255 0.662745
0.435294 0.137255 0.662745
0.576471 0.141176 0.662745
0.725490 0.137255 0.662745
0.847059 0.137255 0.650980
0.972549 0.160784 0.654902
0.992157 0.207843 0.654902
0.086275 0.282353 0.662745
0.180392 0.282353 0.662745
0.305882 0.282353 0.658824
0.439216 0.282353 0.662745
0.584314 0.282353 0.666667
0.725490 0.278431 0.654902
0.850980 0.290196 0.658824
0.964706 0.298039 0.643137
1.000000 0.325490 0.643137
0.113725 0.423529 0.647059
0.196078 0.423529 0.662745
0.317647 0.419608 0.658824
0.447059 0.423529 0.658824
0.584314 0.419608 0.666667
0.725490 0.419608 0.654902
0.850980 0.431373 0.650980
0.964706 0.439216 0.647059
0.996078 0.454902 0.654902
0.137255 0.564706 0.682353
0.219608 0.564706 0.650980
0.329412 0.564706 0.658824
0.458824 0.568627 0.662745
0.596078 0.564706 0.662745
0.721569 0.564706 0.666667
0.847059 0.560784 0.666667
0.956863 0.572549 0.662745
1.000000 0.584314 0.654902
0.192157 0.698039 0.658824
0.254902 0.698039 0.658824
0.349020 0.701961 0.654902
0.474510 0.701961 0.654902
0.596078 0.698039 0.654902
0.721569 0.694118 0.654902
0.839216 0.694118 0.654902
0.952941 0.690196 0.658824
0.992157 0.682353 0.662745
0.294118 0.811765 0.654902
0.325490 0.815686 0.650980
0.396078 0.815686 0.650980
0.498039 0.811765 0.658824
0.603922 0.819608 0.666667
0.713725 0.811765 0.658824
0.835294 0.811765 0.670588
0.952941 0.803922 0.662745
1.000000 0.792157 0.670588
0.372549 0.921569 0.666667
0.407843 0.925490 0.670588
0.447059 0.925490 0.674510
0.529412 0.921569 0.670588
0.603922 0.917647 0.662745
0.713725 0.917647 0.666667
0.823529 0.921569 0.666667
0.937255 0.917647 0.662745
0.992157 0.909804 0.654902
0.462745 0.996078 0.698039
0.482353 1.000000 0.701961
0.486275 1.000000 0.686275
0.537255 0.996078 0.678431
0.615686 0.996078 0.678431
0.717647 1.000000 0.678431
0.835294 1.000000 0.678431
0.952941 1.000000 0.678431
0.996078 1.000000 0.678431
0.070588 0.003922 0.796078
0.168627 0.007843 0.800000
0.301961 0.000000 0.792157
0.435294 0.000000 0.788235
0.568627 0.003922 0.792157
0.701961 0.003922 0.788235
0.850980 0.003922 0.792157
0.972549 0.066667 0.780392
0.996078 0.152941 0.764706
0.066667 0.141176 0.792157
0.180392 0.149020 0.796078
0.301961 0.141176 0.800000
0.439216 0.145098 0.792157
0.572549 0.137255 0.788235
0.713725 0.145098 0.784314
0.850980 0.141176 0.788235
0.964706 0.172549 0.776471
0.996078 0.219608 0.772549
0.098039 0.282353 0.792157
0.188235 0.286275 0.780392
0.309804 0.282353 0.796078
0.439216 0.286275 0.792157
0.580392 0.286275 0.792157
0.713725 0.278431 0.788235
0.847059 0.290196 0.784314
0.964706 0.301961 0.768627
1.000000 0.333333 0.752941
0.141176 0.415686 0.792157
0.211765 0.419608 0.788235
0.325490 0.423529 0.788235
0.443137 0.423529 0.784314
0.588235 0.427451 0.796078
0.721569 0.427451 0.792157
0.847059 0.431373 0.784314
0.964706 0.439216 0.772549
1.000000 0.458824 0.764706
0.176471 0.552941 0.780392
0.227451 0.556863 0.792157
0.341176 0.560784 0.784314
0.458824 0.560784 0.788235
0.584314 0.564706 0.784314
0.717647 0.572549 0.784314
0.843137 0.568627 0.780392
0.952941 0.576471 0.772549
1.000000 0.584314 0.772549
0.215686 0.694118 0.784314
0.274510 0.698039 0.788235
0.356863 0.694118 0.784314
0.474510 0.694118 0.784314
0.596078 0.690196 0.784314
0.717647 0.698039 0.784314
0.835294 0.698039 0.784314
0.945098 0.705882 0.776471
1.000000 0.694118 0.780392
0.282353 0.827451 0.776471
0.313725 0.819608 0.772549
0.396078 0.815686 0.784314
0.501961 0.819608 0.784314
0.615686 0.815686 0.780392
0.729412 0.811765 0.784314
0.839216 0.811765 0.788235
0.941176 0.803922 0.780392
1.000000 0.815686 0.788235
0.384314 0.925490 0.772549
0.407843 0.921569 0.780392
0.462745 0.917647 0.772549
0.545098 0.913725 0.780392
0.635294 0.925490 0.788235
0.725490 0.917647 0.792157
0.823529 0.917647 0.776471
0.933333 0.917647 0.780392
0.996078 0.917647 0.788235
0.474510 1.000000 0.784314
0.486275 0.996078 0.776471
0.525490 0.996078 0.784314
0.592157 1.000000 0.800000
0.674510 1.000000 0.811765
0.729412 0.996078 0.788235
0.835294 1.000000 0.792157
0.945098 1.000000 0.792157
1.000000 1.000000 0.788235
0.086275 0.019608 0.905882
0.172549 0.031373 0.909804
0.298039 0.031373 0.905882
0.427451 0.027451 0.905882
0.564706 0.039216 0.905882
0.698039 0.050980 0.905882
0.835294 0.066667 0.905882
0.964706 0.090196 0.901961
0.996078 0.156863 0.894118
0.094118 0.145098 0.905882
0.176471 0.149020 0.901961
0.298039 0.152941 0.913725
0.431373 0.152941 0.905882
0.560784 0.156863 0.913725
0.698039 0.164706 0.909804
0.835294 0.168627 0.898039
0.960784 0.188235 0.905882
0.996078 0.223529 0.890196
0.113725 0.282353 0.894118
0.196078 0.294118 0.901961
0.305882 0.282353 0.901961
0.435294 0.290196 0.905882
0.568627 0.290196 0.901961
0.705882 0.294118 0.901961
0.835294 0.301961 0.905882
0.968627 0.309804 0.898039
1.000000 0.329412 0.878431
0.168627 0.423529 0.909804
0.227451 0.431373 0.909804
0.329412 0.431373 0.905882
0.447059 0.423529 0.901961
0.580392 0.431373 0.905882
0.705882 0.435294 0.901961
0.835294 0.439216 0.901961
0.964706 0.443137 0.901961
1.000000 0.462745 0.886275
0.215686 0.556863 0.909804
0.258824 0.560784 0.905882
0.345098 0.564706 0.898039
0.466667 0.568627 0.901961
0.584314 0.568627 0.898039
0.713725 0.564706 0.898039
0.839216 0.572549 0.905882
0.952941 0.580392 0.901961
1.000000 0.596078 0.874510
0.254902 0.690196 0.898039
0.298039 0.694118 0.898039
0.376471 0.690196 0.898039
0.482353 0.690196 0.894118
0.603922 0.694118 0.898039
0.717647 0.701961 0.901961
0.827451 0.701961 0.894118
0.945098 0.701961 0.894118
1.000000 0.701961 0.890196
0.301961 0.811765 0.901961
0.337255 0.815686 0.898039
0.415686 0.811765 0.890196
0.513725 0.811765 0.901961
0.611765 0.815686 0.901961
0.725490 0.811765 0.894118
0.831373 0.819608 0.901961
0.933333 0.819608 0.898039
1.000000 0.823529 0.894118
0.372549 0.933333 0.894118
0.384314 0.921569 0.882353
0.450980 0.925490 0.890196
0.533333 0.925490 0.886275
0.627451 0.925490 0.886275
0.737255 0.921569 0.890196
0.835294 0.917647 0.890196
0.929412 0.917647 0.890196
0.996078 0.921569 0.898039
0.478431 1.000000 0.898039
0.490196 1.000000 0.882353
0.533333 0.996078 0.890196
0.596078 1.000000 0.886275
0.666667 1.000000 0.905882
0.756863 1.000000 0.901961
0.850980 1.000000 0.909804
0.941176 1.000000 0.909804
1.000000 1.000000 0.913725
0.105882 0.054902 0.996078
0.188235 0.058824 1.000000
0.298039 0.062745 0.996078
0.419608 0.070588 1.000000
0.549020 0.082353 1.000000
0.686275 0.101961 1.000000
0.811765 0.121569 0.996078
0.949020 0.145098 1.000000
1.000000 0.168627 1.000000
0.109804 0.172549 1.000000
0.188235 0.164706 1.000000
0.301961 0.164706 1.000000
0.423529 0.172549 1.000000
0.560784 0.176471 1.000000
0.686275 0.184314 0.996078
0.815686 0.200000 0.996078
0.949020 0.219608 1.000000
1.000000 0.231373 1.000000
0.152941 0.286275 1.000000
0.200000 0.298039 1.000000
0.317647 0.298039 1.000000
0.431373 0.294118 1.000000
0.560784 0.298039 0.996078
0.694118 0.305882 1.000000
0.819608 0.317647 0.996078
0.945098 0.329412 1.000000
1.000000 0.341176 1.000000
0.200000 0.427451 1.000000
0.247059 0.427451 0.996078
0.337255 0.435294 1.000000
0.447059 0.435294 0.996078
0.568627 0.439216 1.000000
0.690196 0.443137 1.000000
0.811765 0.447059 1.000000
0.941176 0.454902 1.000000
1.000000 0.458824 1.000000
0.227451 0.552941 1.000000
0.278431 0.556863 1.000000
0.368627 0.564706 1.000000
0.478431 0.572549 1.000000
0.584314 0.568627 1.000000
0.701961 0.576471 1.000000
0.819608 0.580392 0.996078
0.941176 0.584314 0.996078
0.992157 0.588235 1.000000
0.274510 0.674510 1.000000
0.309804 0.682353 1.000000
0.388235 0.690196 1.000000
0.486275 0.686275 0.996078
0.603922 0.694118 1.000000
0.713725 0.698039 1.000000
0.823529 0.701961 1.000000
0.941176 0.701961 1.000000
0.992157 0.701961 1.000000
0.341176 0.807843 1.000000
0.349020 0.803922 0.996078
0.427451 0.803922 1.000000
0.517647 0.803922 1.000000
0.611765 0.807843 1.000000
0.717647 0.811765 1.000000
0.827451 0.815686 1.000000
0.937255 0.811765 0.996078
1.000000 0.811765 1.000000
0.372549 0.925490 1.000000
0.415686 0.917647 1.000000
0.454902 0.917647 0.996078
0.537255 0.913725 1.000000
0.627451 0.921569 0.996078
0.729412 0.917647 0.996078
0.827451 0.913725 0.996078
0.925490 0.921569 0.992157
1.000000 0.925490 1.000000
0.427451 1.000000 0.988235
0.450980 1.000000 0.988235
0.505882 1.000000 0.996078
0.572549 0.996078 0.996078
0.654902 1.000000 1.000000
0.756863 1.000000 0.996078
0.858824 1.000000 1.000000
0.945098 1.000000 1.000000
1.000000 1.000000 1.000000
