lut_library_archive/removed_20260629/50个风景lut/50个风景lut14.cube
# 版权归凌孟成所有，侵权必究
TITLE "Jungle LUT #14"
#LUT size
LUT_3D_SIZE 9
#LUT data points
0.000000 0.003922 0.000000
0.101961 0.000000 0.003922
0.247059 0.000000 0.000000
0.392157 0.000000 0.000000
0.537255 0.000000 0.000000
0.682353 0.000000 0.003922
0.823529 0.003922 0.000000
0.960784 0.000000 0.000000
0.996078 0.003922 0.000000
0.000000 0.105882 0.007843
0.113725 0.109804 0.000000
0.250980 0.113725 0.003922
0.392157 0.113725 0.003922
0.545098 0.098039 0.000000
0.686275 0.090196 0.000000
0.823529 0.074510 0.003922
0.952941 0.054902 0.000000
1.000000 0.050980 0.000000
0.007843 0.250980 0.003922
0.117647 0.254902 0.000000
0.254902 0.250980 0.000000
0.403922 0.250980 0.000000
0.545098 0.250980 0.000000
0.690196 0.254902 0.003922
0.823529 0.254902 0.000000
0.960784 0.250980 0.000000
1.000000 0.243137 0.000000
0.000000 0.400000 0.000000
0.098039 0.396078 0.000000
0.262745 0.400000 0.000000
0.407843 0.400000 0.003922
0.549020 0.403922 0.000000
0.682353 0.403922 0.000000
0.823529 0.396078 0.000000
0.960784 0.400000 0.007843
1.000000 0.392157 0.000000
0.000000 0.549020 0.000000
0.070588 0.552941 0.000000
0.250980 0.552941 0.000000
0.411765 0.545098 0.000000
0.552941 0.549020 0.000000
0.690196 0.541176 0.003922
0.827451 0.545098 0.003922
0.960784 0.541176 0.000000
1.000000 0.541176 0.000000
0.000000 0.701961 0.000000
0.058824 0.701961 0.007843
0.250980 0.701961 0.000000
0.407843 0.694118 0.000000
0.556863 0.690196 0.003922
0.698039 0.694118 0.000000
0.831373 0.686275 0.000000
0.960784 0.678431 0.000000
0.988235 0.686275 0.003922
0.000000 0.827451 0.000000
0.023529 0.827451 0.000000
0.243137 0.831373 0.000000
0.403922 0.827451 0.003922
0.549020 0.823529 0.000000
0.690196 0.823529 0.000000
0.823529 0.823529 0.000000
0.964706 0.823529 0.000000
0.996078 0.823529 0.000000
0.011765 0.952941 0.007843
0.015686 0.960784 0.000000
0.231373 0.964706 0.000000
0.392157 0.960784 0.000000
0.533333 0.964706 0.003922
0.682353 0.964706 0.000000
0.819608 0.956863 0.000000
0.960784 0.960784 0.003922
1.000000 0.952941 0.000000
0.000000 1.000000 0.000000
0.035294 0.996078 0.000000
0.235294 1.000000 0.003922
0.384314 1.000000 0.000000
0.517647 1.000000 0.000000
0.647059 1.000000 0.000000
0.780392 1.000000 0.000000
0.909804 0.996078 0.000000
0.992157 1.000000 0.011765
0.000000 0.000000 0.101961
0.129412 0.000000 0.090196
0.254902 0.003922 0.098039
0.392157 0.003922 0.094118
0.541176 0.003922 0.082353
0.686275 0.003922 0.078431
0.823529 0.000000 0.066667
0.960784 0.000000 0.039216
0.988235 0.000000 0.019608
0.003922 0.109804 0.090196
0.125490 0.109804 0.098039
0.254902 0.105882 0.094118
0.392157 0.098039 0.086275
0.537255 0.086275 0.082353
0.678431 0.066667 0.070588
0.819608 0.054902 0.050980
0.960784 0.031373 0.031373
1.000000 0.027451 0.000000
0.000000 0.247059 0.082353
0.113725 0.254902 0.074510
0.258824 0.247059 0.070588
0.400000 0.250980 0.074510
0.541176 0.250980 0.066667
0.686275 0.250980 0.043137
0.823529 0.247059 0.035294
0.964706 0.243137 0.007843
0.992157 0.243137 0.007843
0.000000 0.396078 0.035294
0.082353 0.396078 0.039216
0.258824 0.396078 0.027451
0.407843 0.396078 0.023529
0.549020 0.400000 0.011765
0.686275 0.396078 0.007843
0.827451 0.400000 0.003922
0.964706 0.396078 0.000000
1.000000 0.392157 0.000000
0.000000 0.549020 0.000000
0.050980 0.549020 0.000000
0.254902 0.545098 0.007843
0.403922 0.549020 0.003922
0.545098 0.549020 0.000000
0.690196 0.541176 0.003922
0.827451 0.541176 0.000000
0.964706 0.541176 0.007843
0.992157 0.545098 0.000000
0.003922 0.694118 0.000000
0.047059 0.690196 0.000000
0.247059 0.690196 0.000000
0.400000 0.690196 0.000000
0.552941 0.686275 0.000000
0.690196 0.686275 0.000000
0.823529 0.686275 0.000000
0.964706 0.678431 0.000000
1.000000 0.678431 0.003922
0.000000 0.823529 0.000000
0.000000 0.827451 0.000000
0.235294 0.823529 0.000000
0.392157 0.823529 0.000000
0.537255 0.819608 0.000000
0.686275 0.819608 0.000000
0.823529 0.823529 0.000000
0.964706 0.815686 0.003922
0.992157 0.811765 0.000000
0.000000 0.956863 0.000000
0.011765 0.952941 0.007843
0.231373 0.964706 0.000000
0.388235 0.956863 0.000000
0.529412 0.960784 0.000000
0.682353 0.952941 0.000000
0.819608 0.956863 0.000000
0.960784 0.952941 0.000000
1.000000 0.952941 0.000000
0.000000 1.000000 0.000000
0.007843 1.000000 0.000000
0.227451 1.000000 0.000000
0.384314 1.000000 0.000000
0.517647 1.000000 0.003922
0.643137 1.000000 0.000000
0.776471 1.000000 0.000000
0.909804 1.000000 0.011765
0.992157 1.000000 0.066667
0.000000 0.000000 0.231373
0.121569 0.000000 0.223529
0.254902 0.000000 0.227451
0.392157 0.003922 0.227451
0.541176 0.000000 0.231373
0.686275 0.000000 0.223529
0.827451 0.003922 0.227451
0.960784 0.003922 0.215686
1.000000 0.000000 0.215686
0.000000 0.105882 0.223529
0.117647 0.101961 0.239216
0.262745 0.101961 0.235294
0.396078 0.094118 0.235294
0.549020 0.070588 0.231373
0.682353 0.043137 0.227451
0.819608 0.011765 0.223529
0.968627 0.003922 0.219608
0.996078 0.000000 0.215686
0.003922 0.247059 0.235294
0.109804 0.247059 0.231373
0.266667 0.254902 0.235294
0.407843 0.247059 0.231373
0.552941 0.247059 0.231373
0.686275 0.243137 0.219608
0.823529 0.239216 0.215686
0.960784 0.239216 0.215686
1.000000 0.231373 0.207843
0.011765 0.400000 0.219608
0.074510 0.396078 0.235294
0.254902 0.396078 0.215686
0.407843 0.403922 0.215686
0.549020 0.400000 0.223529
0.686275 0.396078 0.219608
0.831373 0.396078 0.215686
0.968627 0.396078 0.211765
0.996078 0.392157 0.211765
0.000000 0.549020 0.207843
0.011765 0.541176 0.207843
0.243137 0.549020 0.203922
0.403922 0.545098 0.203922
0.552941 0.545098 0.203922
0.686275 0.541176 0.196078
0.827451 0.537255 0.200000
0.968627 0.537255 0.211765
0.996078 0.537255 0.192157
0.003922 0.694118 0.200000
0.003922 0.686275 0.192157
0.243137 0.690196 0.203922
0.400000 0.694118 0.196078
0.549020 0.690196 0.196078
0.690196 0.686275 0.192157
0.823529 0.686275 0.184314
0.960784 0.682353 0.196078
1.000000 0.670588 0.196078
0.007843 0.823529 0.184314
0.000000 0.819608 0.172549
0.227451 0.823529 0.176471
0.388235 0.823529 0.176471
0.537255 0.819608 0.176471
0.682353 0.819608 0.176471
0.827451 0.823529 0.172549
0.968627 0.823529 0.172549
0.988235 0.811765 0.164706
0.000000 0.960784 0.172549
0.000000 0.964706 0.184314
0.219608 0.964706 0.172549
0.384314 0.960784 0.168627
0.525490 0.960784 0.172549
0.678431 0.956863 0.172549
0.819608 0.952941 0.164706
0.960784 0.956863 0.156863
0.996078 0.952941 0.152941
0.000000 1.000000 0.184314
0.003922 1.000000 0.176471
0.223529 0.996078 0.188235
0.380392 1.000000 0.196078
0.517647 1.000000 0.200000
0.647059 1.000000 0.207843
0.772549 1.000000 0.215686
0.898039 1.000000 0.235294
1.000000 0.996078 0.254902
0.003922 0.003922 0.388235
0.121569 0.000000 0.384314
0.262745 0.003922 0.388235
0.400000 0.000000 0.388235
0.549020 0.000000 0.388235
0.694118 0.000000 0.388235
0.827451 0.000000 0.380392
0.968627 0.000000 0.376471
1.000000 0.000000 0.376471
0.000000 0.098039 0.384314
0.117647 0.090196 0.392157
0.258824 0.094118 0.384314
0.407843 0.078431 0.384314
0.545098 0.054902 0.384314
0.690196 0.031373 0.376471
0.823529 0.003922 0.380392
0.960784 0.000000 0.384314
1.000000 0.003922 0.380392
0.000000 0.239216 0.384314
0.090196 0.239216 0.384314
0.254902 0.250980 0.384314
0.403922 0.239216 0.388235
0.545098 0.239216 0.392157
0.694118 0.239216 0.384314
0.831373 0.239216 0.384314
0.964706 0.231373 0.376471
1.000000 0.235294 0.372549
0.003922 0.403922 0.392157
0.050980 0.396078 0.392157
0.247059 0.400000 0.388235
0.407843 0.392157 0.380392
0.549020 0.396078 0.376471
0.686275 0.392157 0.372549
0.827451 0.392157 0.384314
0.964706 0.388235 0.380392
1.000000 0.384314 0.372549
0.000000 0.549020 0.384314
0.000000 0.549020 0.380392
0.235294 0.552941 0.384314
0.400000 0.552941 0.376471
0.549020 0.545098 0.372549
0.690196 0.545098 0.380392
0.827451 0.541176 0.376471
0.956863 0.537255 0.380392
1.000000 0.533333 0.376471
0.000000 0.694118 0.380392
0.007843 0.690196 0.372549
0.231373 0.690196 0.372549
0.388235 0.690196 0.376471
0.545098 0.690196 0.376471
0.694118 0.690196 0.368627
0.827451 0.682353 0.368627
0.964706 0.678431 0.368627
1.000000 0.674510 0.368627
0.000000 0.827451 0.356863
0.007843 0.823529 0.368627
0.211765 0.823529 0.356863
0.380392 0.823529 0.360784
0.533333 0.819608 0.360784
0.682353 0.819608 0.356863
0.819608 0.823529 0.356863
0.968627 0.815686 0.356863
1.000000 0.819608 0.352941
0.000000 0.956863 0.360784
0.011765 0.960784 0.364706
0.207843 0.952941 0.349020
0.376471 0.960784 0.356863
0.525490 0.960784 0.356863
0.674510 0.952941 0.349020
0.815686 0.952941 0.349020
0.952941 0.956863 0.349020
1.000000 0.952941 0.349020
0.003922 0.996078 0.364706
0.007843 0.996078 0.356863
0.227451 0.996078 0.360784
0.380392 1.000000 0.356863
0.517647 0.996078 0.356863
0.647059 1.000000 0.364706
0.776471 1.000000 0.376471
0.901961 1.000000 0.388235
0.996078 1.000000 0.392157
0.000000 0.003922 0.525490
0.105882 0.000000 0.545098
0.258824 0.000000 0.533333
0.396078 0.000000 0.541176
0.549020 0.000000 0.545098
0.690196 0.000000 0.545098
0.831373 0.000000 0.541176
0.964706 0.000000 0.529412
1.000000 0.000000 0.533333
0.000000 0.094118 0.537255
0.082353 0.078431 0.537255
0.254902 0.086275 0.537255
0.400000 0.066667 0.541176
0.552941 0.023529 0.529412
0.690196 0.000000 0.529412
0.831373 0.000000 0.541176
0.968627 0.000000 0.537255
0.992157 0.000000 0.525490
0.007843 0.239216 0.545098
0.050980 0.235294 0.541176
0.247059 0.243137 0.541176
0.407843 0.235294 0.545098
0.556863 0.231373 0.545098
0.694118 0.231373 0.537255
0.831373 0.227451 0.533333
0.964706 0.227451 0.529412
1.000000 0.227451 0.517647
0.000000 0.396078 0.545098
0.003922 0.396078 0.537255
0.243137 0.392157 0.537255
0.396078 0.388235 0.541176
0.549020 0.384314 0.533333
0.690196 0.392157 0.541176
0.827451 0.392157 0.529412
0.964706 0.388235 0.529412
1.000000 0.384314 0.529412
0.003922 0.541176 0.541176
0.000000 0.549020 0.537255
0.227451 0.549020 0.533333
0.388235 0.549020 0.533333
0.545098 0.545098 0.537255
0.690196 0.541176 0.537255
0.827451 0.537255 0.533333
0.956863 0.533333 0.525490
1.000000 0.529412 0.533333
0.000000 0.690196 0.545098
0.003922 0.694118 0.541176
0.215686 0.694118 0.533333
0.388235 0.694118 0.541176
0.545098 0.686275 0.537255
0.686275 0.690196 0.533333
0.827451 0.678431 0.525490
0.960784 0.678431 0.529412
1.000000 0.682353 0.537255
0.003922 0.823529 0.525490
0.000000 0.819608 0.521569
0.188235 0.823529 0.517647
0.368627 0.827451 0.521569
0.537255 0.827451 0.525490
0.678431 0.823529 0.513725
0.819608 0.823529 0.517647
0.964706 0.819608 0.513725
1.000000 0.815686 0.517647
0.003922 0.956863 0.517647
0.007843 0.956863 0.513725
0.192157 0.956863 0.517647
0.364706 0.964706 0.509804
0.521569 0.960784 0.517647
0.674510 0.956863 0.517647
0.807843 0.952941 0.505882
0.952941 0.952941 0.505882
1.000000 0.952941 0.513725
0.003922 1.000000 0.509804
0.094118 0.992157 0.517647
0.254902 1.000000 0.513725
0.392157 1.000000 0.513725
0.521569 1.000000 0.509804
0.654902 1.000000 0.517647
0.776471 1.000000 0.529412
0.898039 0.996078 0.525490
0.996078 1.000000 0.533333
0.000000 0.003922 0.674510
0.078431 0.000000 0.678431
0.250980 0.000000 0.674510
0.392157 0.003922 0.674510
0.545098 0.000000 0.670588
0.682353 0.003922 0.678431
0.823529 0.003922 0.678431
0.960784 0.000000 0.678431
1.000000 0.000000 0.674510
0.007843 0.070588 0.686275
0.058824 0.086275 0.682353
0.262745 0.066667 0.682353
0.400000 0.047059 0.674510
0.545098 0.011765 0.678431
0.686275 0.007843 0.682353
0.831373 0.000000 0.678431
0.968627 0.000000 0.678431
1.000000 0.003922 0.662745
0.000000 0.235294 0.694118
0.015686 0.235294 0.670588
0.247059 0.227451 0.682353
0.400000 0.227451 0.678431
0.541176 0.227451 0.678431
0.690196 0.215686 0.682353
0.827451 0.215686 0.682353
0.964706 0.219608 0.682353
1.000000 0.215686 0.674510
0.000000 0.384314 0.678431
0.003922 0.388235 0.682353
0.235294 0.384314 0.678431
0.384314 0.380392 0.678431
0.549020 0.384314 0.682353
0.686275 0.380392 0.678431
0.835294 0.376471 0.686275
0.968627 0.384314 0.674510
0.996078 0.384314 0.670588
0.000000 0.537255 0.682353
0.007843 0.529412 0.682353
0.211765 0.541176 0.682353
0.372549 0.537255 0.678431
0.537255 0.529412 0.682353
0.690196 0.533333 0.678431
0.831373 0.533333 0.682353
0.968627 0.537255 0.682353
1.000000 0.537255 0.670588
0.003922 0.694118 0.686275
0.000000 0.686275 0.690196
0.203922 0.690196 0.682353
0.380392 0.690196 0.678431
0.533333 0.682353 0.682353
0.686275 0.678431 0.682353
0.823529 0.682353 0.682353
0.956863 0.678431 0.670588
0.992157 0.678431 0.682353
0.007843 0.819608 0.678431
0.000000 0.823529 0.670588
0.180392 0.819608 0.666667
0.352941 0.827451 0.666667
0.533333 0.823529 0.678431
0.678431 0.819608 0.670588
0.819608 0.819608 0.670588
0.956863 0.819608 0.670588
0.996078 0.815686 0.682353
0.003922 0.956863 0.658824
0.000000 0.960784 0.666667
0.160784 0.956863 0.666667
0.360784 0.956863 0.666667
0.521569 0.960784 0.662745
0.666667 0.956863 0.654902
0.811765 0.956863 0.654902
0.960784 0.952941 0.658824
1.000000 0.949020 0.650980
0.094118 1.000000 0.654902
0.176471 0.996078 0.666667
0.301961 1.000000 0.662745
0.435294 1.000000 0.662745
0.552941 1.000000 0.658824
0.674510 0.996078 0.666667
0.792157 1.000000 0.670588
0.901961 1.000000 0.670588
0.992157 1.000000 0.674510
0.000000 0.000000 0.823529
0.062745 0.000000 0.823529
0.250980 0.000000 0.823529
0.392157 0.000000 0.823529
0.541176 0.000000 0.819608
0.682353 0.000000 0.819608
0.819608 0.000000 0.815686
0.956863 0.003922 0.819608
0.996078 0.000000 0.811765
0.000000 0.066667 0.815686
0.031373 0.066667 0.823529
0.254902 0.054902 0.811765
0.400000 0.027451 0.831373
0.541176 0.000000 0.819608
0.686275 0.000000 0.819608
0.823529 0.003922 0.819608
0.960784 0.000000 0.827451
1.000000 0.003922 0.819608
0.003922 0.219608 0.815686
0.000000 0.227451 0.827451
0.243137 0.223529 0.827451
0.396078 0.219608 0.819608
0.537255 0.219608 0.823529
0.682353 0.215686 0.827451
0.819608 0.203922 0.819608
0.960784 0.203922 0.823529
1.000000 0.203922 0.811765
0.000000 0.384314 0.819608
0.011765 0.376471 0.823529
0.219608 0.376471 0.827451
0.388235 0.376471 0.827451
0.533333 0.376471 0.823529
0.682353 0.376471 0.823529
0.823529 0.376471 0.819608
0.972549 0.372549 0.827451
1.000000 0.372549 0.819608
0.007843 0.525490 0.807843
0.003922 0.533333 0.831373
0.188235 0.533333 0.815686
0.380392 0.529412 0.823529
0.529412 0.529412 0.819608
0.674510 0.525490 0.819608
0.827451 0.529412 0.823529
0.964706 0.525490 0.823529
1.000000 0.529412 0.819608
0.000000 0.670588 0.819608
0.015686 0.674510 0.819608
0.188235 0.670588 0.823529
0.364706 0.674510 0.831373
0.521569 0.670588 0.823529
0.674510 0.674510 0.815686
0.819608 0.670588 0.823529
0.964706 0.674510 0.819608
1.000000 0.670588 0.811765
0.007843 0.819608 0.819608
0.007843 0.819608 0.819608
0.172549 0.811765 0.823529
0.368627 0.823529 0.819608
0.517647 0.823529 0.823529
0.682353 0.823529 0.823529
0.819608 0.819608 0.819608
0.945098 0.823529 0.811765
1.000000 0.819608 0.819608
0.003922 0.956863 0.807843
0.007843 0.960784 0.811765
0.152941 0.949020 0.803922
0.356863 0.956863 0.815686
0.521569 0.956863 0.819608
0.666667 0.956863 0.811765
0.811765 0.960784 0.807843
0.956863 0.956863 0.807843
0.996078 0.945098 0.807843
0.160784 0.992157 0.800000
0.215686 1.000000 0.796078
0.325490 1.000000 0.792157
0.454902 1.000000 0.800000
0.584314 1.000000 0.807843
0.717647 1.000000 0.815686
0.819608 1.000000 0.819608
0.909804 1.000000 0.819608
1.000000 1.000000 0.827451
0.000000 0.000000 0.952941
0.035294 0.000000 0.960784
0.243137 0.003922 0.956863
0.392157 0.003922 0.956863
0.541176 0.000000 0.952941
0.674510 0.003922 0.960784
0.819608 0.000000 0.956863
0.956863 0.003922 0.960784
1.000000 0.000000 0.964706
0.000000 0.050980 0.949020
0.015686 0.039216 0.956863
0.239216 0.027451 0.952941
0.396078 0.007843 0.960784
0.541176 0.000000 0.960784
0.678431 0.000000 0.956863
0.819608 0.000000 0.956863
0.960784 0.000000 0.952941
1.000000 0.003922 0.968627
0.011765 0.219608 0.960784
0.000000 0.223529 0.956863
0.239216 0.219608 0.956863
0.384314 0.219608 0.952941
0.529412 0.211765 0.956863
0.682353 0.207843 0.956863
0.819608 0.203922 0.960784
0.956863 0.200000 0.960784
0.996078 0.184314 0.952941
0.003922 0.368627 0.968627
0.000000 0.368627 0.956863
0.219608 0.376471 0.964706
0.376471 0.384314 0.960784
0.525490 0.376471 0.952941
0.674510 0.364706 0.956863
0.819608 0.372549 0.960784
0.964706 0.364706 0.960784
0.996078 0.368627 0.964706
0.003922 0.521569 0.956863
0.000000 0.525490 0.964706
0.192157 0.517647 0.956863
0.360784 0.517647 0.952941
0.517647 0.517647 0.956863
0.670588 0.521569 0.956863
0.819608 0.521569 0.956863
0.960784 0.521569 0.960784
1.000000 0.513725 0.952941
0.000000 0.674510 0.949020
0.000000 0.670588 0.972549
0.172549 0.670588 0.968627
0.356863 0.670588 0.956863
0.521569 0.670588 0.956863
0.670588 0.670588 0.960784
0.815686 0.666667 0.952941
0.956863 0.670588 0.956863
1.000000 0.666667 0.952941
0.003922 0.807843 0.960784
0.007843 0.811765 0.964706
0.152941 0.811765 0.956863
0.352941 0.815686 0.956863
0.517647 0.815686 0.949020
0.670588 0.811765 0.952941
0.815686 0.815686 0.956863
0.960784 0.815686 0.956863
0.996078 0.815686 0.968627
0.000000 0.949020 0.956863
0.000000 0.952941 0.960784
0.149020 0.960784 0.960784
0.352941 0.956863 0.956863
0.517647 0.952941 0.956863
0.666667 0.956863 0.952941
0.815686 0.956863 0.956863
0.952941 0.952941 0.945098
0.996078 0.956863 0.960784
0.223529 0.996078 0.925490
0.258824 1.000000 0.925490
0.356863 1.000000 0.925490
0.478431 1.000000 0.917647
0.603922 1.000000 0.921569
0.745098 0.996078 0.929412
0.874510 1.000000 0.941176
0.956863 1.000000 0.964706
1.000000 0.996078 0.968627
0.000000 0.000000 0.996078
0.035294 0.000000 0.996078
0.243137 0.003922 0.996078
0.380392 0.000000 1.000000
0.521569 0.000000 1.000000
0.658824 0.003922 1.000000
0.788235 0.000000 0.996078
0.921569 0.000000 1.000000
1.000000 0.000000 1.000000
0.000000 0.050980 1.000000
0.027451 0.035294 0.996078
0.231373 0.035294 1.000000
0.384314 0.023529 1.000000
0.521569 0.007843 0.996078
0.654902 0.000000 1.000000
0.788235 0.000000 1.000000
0.925490 0.003922 0.996078
1.000000 0.000000 0.996078
0.000000 0.219608 0.996078
0.019608 0.223529 1.000000
0.231373 0.227451 1.000000
0.384314 0.219608 0.996078
0.521569 0.223529 1.000000
0.662745 0.223529 1.000000
0.788235 0.223529 1.000000
0.921569 0.223529 1.000000
1.000000 0.227451 0.996078
0.007843 0.368627 1.000000
0.007843 0.376471 0.992157
0.227451 0.376471 1.000000
0.380392 0.372549 1.000000
0.521569 0.376471 0.996078
0.654902 0.372549 1.000000
0.792157 0.376471 1.000000
0.921569 0.384314 1.000000
1.000000 0.384314 1.000000
0.003922 0.509804 1.000000
0.047059 0.517647 1.000000
0.235294 0.513725 1.000000
0.376471 0.517647 0.996078
0.521569 0.513725 0.996078
0.654902 0.521569 1.000000
0.788235 0.521569 1.000000
0.917647 0.521569 0.992157
0.996078 0.521569 0.996078
0.000000 0.650980 0.996078
0.113725 0.647059 1.000000
0.270588 0.650980 0.992157
0.407843 0.658824 1.000000
0.537255 0.662745 1.000000
0.670588 0.658824 1.000000
0.788235 0.674510 1.000000
0.913725 0.670588 1.000000
0.996078 0.666667 1.000000
0.160784 0.776471 1.000000
0.207843 0.780392 1.000000
0.317647 0.780392 1.000000
0.435294 0.784314 1.000000
0.568627 0.792157 1.000000
0.694118 0.800000 1.000000
0.807843 0.807843 1.000000
0.921569 0.819608 0.996078
1.000000 0.819608 1.000000
0.262745 0.901961 1.000000
0.305882 0.898039 1.000000
0.384314 0.898039 1.000000
0.486275 0.901961 0.996078
0.603922 0.909804 0.996078
0.725490 0.913725 1.000000
0.847059 0.929412 1.000000
0.952941 0.952941 1.000000
1.000000 0.964706 1.000000
0.392157 1.000000 1.000000
0.423529 0.992157 1.000000
0.482353 0.996078 1.000000
0.568627 1.000000 1.000000
0.670588 1.000000 1.000000
0.788235 1.000000 1.000000
0.905882 1.000000 1.000000
1.000000 1.000000 1.000000
1.000000 1.000000 1.000000
