lut_library_archive/removed_20260629/50个风景lut/50个风景lut04.cube
# 版权归凌孟成所有，侵权必究
TITLE "Jungle LUT #4"
#LUT size
LUT_3D_SIZE 5
#LUT data points
0.000000 0.000000 0.000000
0.235294 0.000000 0.000000
0.509804 0.000000 0.000000
0.800000 0.000000 0.003922
0.996078 0.003922 0.000000
0.000000 0.235294 0.003922
0.235294 0.235294 0.000000
0.513725 0.239216 0.003922
0.811765 0.239216 0.000000
1.000000 0.239216 0.000000
0.000000 0.529412 0.003922
0.231373 0.529412 0.000000
0.533333 0.525490 0.000000
0.811765 0.529412 0.003922
1.000000 0.541176 0.000000
0.003922 0.819608 0.003922
0.219608 0.823529 0.000000
0.529412 0.811765 0.000000
0.815686 0.815686 0.000000
1.000000 0.811765 0.000000
0.000000 1.000000 0.000000
0.203922 0.996078 0.007843
0.505882 0.996078 0.000000
0.764706 1.000000 0.003922
0.984314 0.996078 0.000000
0.000000 0.000000 0.211765
0.239216 0.003922 0.207843
0.521569 0.000000 0.215686
0.807843 0.003922 0.203922
0.996078 0.003922 0.188235
0.000000 0.235294 0.215686
0.243137 0.231373 0.203922
0.517647 0.231373 0.215686
0.803922 0.219608 0.196078
0.996078 0.211765 0.180392
0.000000 0.521569 0.172549
0.223529 0.529412 0.184314
0.529412 0.525490 0.172549
0.815686 0.525490 0.176471
0.988235 0.533333 0.160784
0.007843 0.811765 0.133333
0.192157 0.811765 0.133333
0.521569 0.811765 0.117647
0.819608 0.815686 0.109804
1.000000 0.807843 0.101961
0.003922 0.996078 0.094118
0.164706 1.000000 0.109804
0.501961 1.000000 0.109804
0.772549 0.996078 0.141176
1.000000 0.996078 0.184314
0.003922 0.003922 0.513725
0.239216 0.000000 0.513725
0.525490 0.003922 0.517647
0.811765 0.000000 0.517647
1.000000 0.003922 0.529412
0.000000 0.227451 0.513725
0.231373 0.215686 0.505882
0.537255 0.211765 0.525490
0.811765 0.196078 0.513725
1.000000 0.160784 0.505882
0.003922 0.521569 0.509804
0.196078 0.525490 0.525490
0.537255 0.521569 0.517647
0.815686 0.521569 0.509804
0.984314 0.509804 0.505882
0.000000 0.819608 0.494118
0.039216 0.827451 0.498039
0.501961 0.819608 0.501961
0.815686 0.811765 0.490196
1.000000 0.807843 0.498039
0.000000 1.000000 0.482353
0.149020 1.000000 0.486275
0.501961 1.000000 0.486275
0.776471 1.000000 0.490196
0.996078 0.996078 0.509804
0.000000 0.003922 0.811765
0.243137 0.000000 0.811765
0.529412 0.000000 0.807843
0.811765 0.000000 0.807843
0.996078 0.000000 0.800000
0.000000 0.207843 0.803922
0.207843 0.203922 0.811765
0.533333 0.192157 0.815686
0.815686 0.160784 0.815686
1.000000 0.129412 0.815686
0.007843 0.513725 0.819608
0.105882 0.509804 0.819608
0.509804 0.498039 0.815686
0.819608 0.501961 0.819608
1.000000 0.501961 0.811765
0.000000 0.827451 0.811765
0.003922 0.811765 0.803922
0.498039 0.819608 0.811765
0.807843 0.807843 0.807843
1.000000 0.811765 0.823529
0.003922 1.000000 0.784314
0.254902 1.000000 0.780392
0.568627 1.000000 0.792157
0.811765 1.000000 0.803922
1.000000 0.996078 0.823529
0.000000 0.000000 0.996078
0.223529 0.000000 0.992157
0.513725 0.000000 1.000000
0.788235 0.000000 1.000000
0.992157 0.007843 1.000000
0.000000 0.196078 1.000000
0.203922 0.196078 1.000000
0.509804 0.180392 1.000000
0.788235 0.168627 0.996078
0.996078 0.149020 0.992157
0.003922 0.490196 1.000000
0.156863 0.490196 0.988235
0.494118 0.490196 0.996078
0.776471 0.494118 0.996078
0.996078 0.501961 0.996078
0.011765 0.776471 0.996078
0.243137 0.768627 1.000000
0.545098 0.776471 0.996078
0.796078 0.803922 1.000000
1.000000 0.811765 1.000000
0.345098 1.000000 1.000000
0.443137 0.996078 1.000000
0.647059 0.996078 1.000000
0.898039 1.000000 0.996078
1.000000 1.000000 1.000000
