lut_library_archive/removed_20260629/50个风景lut/50个风景lut24.cube
# 版权归凌孟成所有，侵权必究
TITLE "Jungle LUT #24"
#LUT size
LUT_3D_SIZE 5
#LUT data points
0.000000 0.003922 0.000000
0.235294 0.000000 0.000000
0.513725 0.000000 0.000000
0.811765 0.000000 0.000000
1.000000 0.000000 0.062745
0.058824 0.219608 0.000000
0.258824 0.223529 0.007843
0.525490 0.227451 0.003922
0.811765 0.231373 0.003922
0.996078 0.235294 0.003922
0.117647 0.486275 0.000000
0.298039 0.494118 0.003922
0.545098 0.490196 0.000000
0.811765 0.501961 0.000000
1.000000 0.494118 0.015686
0.090196 0.784314 0.000000
0.294118 0.780392 0.003922
0.552941 0.780392 0.003922
0.807843 0.780392 0.000000
1.000000 0.756863 0.000000
0.000000 0.996078 0.000000
0.243137 1.000000 0.000000
0.529412 1.000000 0.000000
0.815686 1.000000 0.003922
1.000000 0.996078 0.003922
0.000000 0.003922 0.223529
0.243137 0.000000 0.211765
0.521569 0.000000 0.223529
0.815686 0.003922 0.247059
0.996078 0.000000 0.262745
0.015686 0.219608 0.211765
0.258824 0.215686 0.207843
0.525490 0.219608 0.211765
0.811765 0.227451 0.219608
1.000000 0.243137 0.254902
0.047059 0.490196 0.176471
0.278431 0.494118 0.168627
0.537255 0.490196 0.160784
0.807843 0.490196 0.141176
0.992157 0.494118 0.160784
0.000000 0.772549 0.015686
0.270588 0.780392 0.011765
0.549020 0.776471 0.000000
0.803922 0.764706 0.000000
1.000000 0.752941 0.000000
0.000000 1.000000 0.000000
0.207843 0.996078 0.000000
0.517647 1.000000 0.003922
0.803922 1.000000 0.000000
1.000000 1.000000 0.000000
0.000000 0.007843 0.474510
0.254902 0.000000 0.470588
0.513725 0.000000 0.470588
0.803922 0.007843 0.478431
0.992157 0.007843 0.494118
0.000000 0.203922 0.462745
0.262745 0.203922 0.474510
0.529412 0.184314 0.474510
0.819608 0.184314 0.478431
0.992157 0.317647 0.521569
0.000000 0.490196 0.474510
0.250980 0.498039 0.462745
0.552941 0.486275 0.454902
0.823529 0.498039 0.474510
1.000000 0.521569 0.501961
0.003922 0.780392 0.431373
0.164706 0.788235 0.427451
0.525490 0.780392 0.419608
0.811765 0.772549 0.400000
1.000000 0.745098 0.407843
0.000000 0.996078 0.368627
0.011765 0.996078 0.372549
0.470588 0.996078 0.364706
0.792157 0.996078 0.356863
1.000000 0.996078 0.321569
0.000000 0.000000 0.741176
0.270588 0.000000 0.749020
0.537255 0.003922 0.741176
0.807843 0.000000 0.737255
0.996078 0.003922 0.713725
0.000000 0.176471 0.745098
0.247059 0.176471 0.749020
0.537255 0.141176 0.745098
0.815686 0.035294 0.737255
0.996078 0.000000 0.717647
0.003922 0.470588 0.760784
0.172549 0.474510 0.741176
0.521569 0.458824 0.745098
0.819608 0.443137 0.733333
1.000000 0.494118 0.717647
0.000000 0.780392 0.721569
0.086275 0.776471 0.725490
0.498039 0.772549 0.729412
0.792157 0.760784 0.721569
1.000000 0.776471 0.756863
0.000000 1.000000 0.717647
0.243137 1.000000 0.721569
0.529412 1.000000 0.741176
0.772549 1.000000 0.698039
1.000000 0.992157 0.690196
0.000000 0.000000 0.996078
0.258824 0.000000 1.000000
0.529412 0.000000 0.992157
0.788235 0.003922 0.988235
1.000000 0.000000 0.996078
0.000000 0.149020 1.000000
0.223529 0.145098 1.000000
0.521569 0.094118 1.000000
0.788235 0.003922 0.988235
0.988235 0.007843 0.988235
0.000000 0.423529 0.992157
0.000000 0.435294 0.988235
0.482353 0.419608 1.000000
0.776471 0.407843 0.996078
0.992157 0.411765 1.000000
0.000000 0.749020 0.992157
0.003922 0.745098 1.000000
0.462745 0.741176 1.000000
0.764706 0.741176 0.992157
1.000000 0.741176 0.984314
0.000000 0.992157 0.984314
0.000000 1.000000 0.988235
0.470588 1.000000 0.972549
0.796078 1.000000 0.984314
1.000000 1.000000 1.000000
