lut_library_archive/removed_20260629/50个风景lut/50个风景lut07.cube
# 版权归凌孟成所有，侵权必究
TITLE "Jungle LUT #7"
#LUT size
LUT_3D_SIZE 25
#LUT data points
0.039216 0.039216 0.039216
0.043137 0.035294 0.039216
0.074510 0.035294 0.039216
0.125490 0.019608 0.039216
0.172549 0.003922 0.039216
0.223529 0.000000 0.035294
0.262745 0.000000 0.035294
0.298039 0.000000 0.039216
0.341176 0.003922 0.015686
0.380392 0.003922 0.019608
0.423529 0.003922 0.027451
0.454902 0.003922 0.031373
0.498039 0.007843 0.039216
0.529412 0.007843 0.043137
0.568627 0.011765 0.058824
0.607843 0.011765 0.062745
0.643137 0.023529 0.078431
0.678431 0.027451 0.082353
0.713725 0.039216 0.094118
0.745098 0.047059 0.101961
0.788235 0.058824 0.113725
0.823529 0.070588 0.121569
0.862745 0.082353 0.125490
0.905882 0.094118 0.133333
0.952941 0.101961 0.137255
0.039216 0.039216 0.047059
0.039216 0.039216 0.039216
0.082353 0.050980 0.039216
0.121569 0.050980 0.035294
0.168627 0.047059 0.039216
0.219608 0.039216 0.039216
0.258824 0.039216 0.043137
0.294118 0.039216 0.023529
0.341176 0.047059 0.027451
0.380392 0.047059 0.027451
0.419608 0.047059 0.031373
0.458824 0.047059 0.035294
0.501961 0.050980 0.047059
0.537255 0.050980 0.050980
0.576471 0.050980 0.062745
0.607843 0.058824 0.070588
0.639216 0.058824 0.082353
0.678431 0.066667 0.082353
0.709804 0.074510 0.094118
0.752941 0.086275 0.105882
0.788235 0.090196 0.113725
0.823529 0.094118 0.117647
0.870588 0.098039 0.137255
0.909804 0.117647 0.141176
0.964706 0.121569 0.145098
0.003922 0.090196 0.039216
0.027451 0.094118 0.023529
0.086275 0.086275 0.039216
0.121569 0.086275 0.027451
0.168627 0.082353 0.031373
0.203922 0.090196 0.035294
0.254902 0.086275 0.023529
0.298039 0.090196 0.035294
0.337255 0.090196 0.031373
0.376471 0.090196 0.035294
0.419608 0.094118 0.039216
0.458824 0.090196 0.043137
0.498039 0.090196 0.047059
0.537255 0.090196 0.058824
0.564706 0.094118 0.070588
0.607843 0.094118 0.078431
0.639216 0.094118 0.082353
0.674510 0.098039 0.090196
0.713725 0.101961 0.105882
0.741176 0.109804 0.109804
0.788235 0.117647 0.117647
0.827451 0.121569 0.125490
0.874510 0.121569 0.133333
0.913725 0.141176 0.141176
0.960784 0.149020 0.156863
0.000000 0.137255 0.019608
0.039216 0.129412 0.011765
0.090196 0.125490 0.011765
0.137255 0.133333 0.011765
0.172549 0.129412 0.019608
0.211765 0.125490 0.031373
0.254902 0.129412 0.039216
0.294118 0.129412 0.043137
0.333333 0.129412 0.043137
0.376471 0.133333 0.050980
0.415686 0.133333 0.047059
0.454902 0.133333 0.050980
0.498039 0.133333 0.062745
0.529412 0.133333 0.070588
0.568627 0.129412 0.074510
0.603922 0.137255 0.082353
0.639216 0.137255 0.094118
0.670588 0.137255 0.105882
0.705882 0.141176 0.109804
0.749020 0.145098 0.113725
0.788235 0.149020 0.121569
0.823529 0.156863 0.129412
0.862745 0.160784 0.145098
0.913725 0.164706 0.156863
0.960784 0.180392 0.160784
0.000000 0.164706 0.007843
0.039216 0.176471 0.007843
0.082353 0.180392 0.015686
0.129412 0.172549 0.003922
0.176471 0.172549 0.000000
0.219608 0.176471 0.007843
0.258824 0.172549 0.027451
0.290196 0.168627 0.047059
0.329412 0.168627 0.058824
0.372549 0.172549 0.058824
0.411765 0.172549 0.062745
0.450980 0.172549 0.070588
0.490196 0.176471 0.070588
0.525490 0.172549 0.078431
0.564706 0.168627 0.090196
0.600000 0.176471 0.098039
0.631373 0.172549 0.101961
0.670588 0.180392 0.109804
0.705882 0.184314 0.125490
0.745098 0.184314 0.129412
0.780392 0.184314 0.133333
0.827451 0.192157 0.145098
0.862745 0.196078 0.160784
0.909804 0.203922 0.168627
0.952941 0.207843 0.168627
0.000000 0.223529 0.015686
0.031373 0.223529 0.003922
0.086275 0.223529 0.003922
0.133333 0.223529 0.011765
0.180392 0.219608 0.011765
0.227451 0.223529 0.011765
0.270588 0.219608 0.015686
0.301961 0.215686 0.031373
0.341176 0.211765 0.074510
0.376471 0.207843 0.074510
0.411765 0.211765 0.090196
0.454902 0.215686 0.101961
0.494118 0.215686 0.105882
0.529412 0.219608 0.101961
0.564706 0.215686 0.105882
0.596078 0.215686 0.109804
0.631373 0.215686 0.121569
0.670588 0.215686 0.125490
0.709804 0.223529 0.133333
0.741176 0.223529 0.137255
0.784314 0.227451 0.149020
0.827451 0.231373 0.156863
0.870588 0.235294 0.156863
0.913725 0.243137 0.172549
0.968627 0.250980 0.188235
0.000000 0.258824 0.015686
0.039216 0.258824 0.019608
0.082353 0.262745 0.019608
0.125490 0.258824 0.019608
0.168627 0.266667 0.007843
0.223529 0.262745 0.015686
0.254902 0.262745 0.015686
0.309804 0.250980 0.019608
0.345098 0.254902 0.043137
0.380392 0.254902 0.070588
0.407843 0.254902 0.094118
0.447059 0.250980 0.105882
0.482353 0.254902 0.109804
0.513725 0.254902 0.117647
0.552941 0.254902 0.121569
0.588235 0.258824 0.125490
0.627451 0.254902 0.137255
0.670588 0.258824 0.152941
0.705882 0.258824 0.156863
0.745098 0.258824 0.160784
0.780392 0.262745 0.172549
0.823529 0.266667 0.172549
0.862745 0.274510 0.180392
0.913725 0.270588 0.196078
0.949020 0.282353 0.200000
0.000000 0.298039 0.007843
0.027451 0.309804 0.023529
0.066667 0.301961 0.011765
0.125490 0.305882 0.023529
0.168627 0.309804 0.019608
0.215686 0.301961 0.019608
0.254902 0.301961 0.019608
0.301961 0.301961 0.019608
0.352941 0.301961 0.027451
0.392157 0.301961 0.039216
0.419608 0.294118 0.070588
0.450980 0.294118 0.101961
0.482353 0.298039 0.133333
0.513725 0.298039 0.145098
0.552941 0.298039 0.149020
0.588235 0.298039 0.152941
0.623529 0.294118 0.145098
0.666667 0.298039 0.156863
0.701961 0.301961 0.160784
0.741176 0.298039 0.164706
0.784314 0.301961 0.172549
0.819608 0.305882 0.188235
0.858824 0.313725 0.200000
0.913725 0.317647 0.196078
0.956863 0.325490 0.215686
0.000000 0.341176 0.031373
0.011765 0.345098 0.027451
0.074510 0.345098 0.019608
0.113725 0.345098 0.023529
0.160784 0.349020 0.019608
0.211765 0.349020 0.019608
0.254902 0.345098 0.031373
0.301961 0.345098 0.035294
0.345098 0.341176 0.027451
0.388235 0.337255 0.031373
0.423529 0.337255 0.050980
0.454902 0.329412 0.090196
0.490196 0.329412 0.121569
0.513725 0.329412 0.149020
0.549020 0.337255 0.164706
0.588235 0.333333 0.176471
0.623529 0.337255 0.180392
0.658824 0.337255 0.184314
0.698039 0.337255 0.184314
0.737255 0.337255 0.188235
0.780392 0.337255 0.203922
0.815686 0.345098 0.207843
0.862745 0.349020 0.207843
0.909804 0.356863 0.215686
0.949020 0.364706 0.215686
0.000000 0.384314 0.035294
0.000000 0.388235 0.031373
0.054902 0.380392 0.027451
0.109804 0.388235 0.027451
0.164706 0.384314 0.043137
0.207843 0.380392 0.039216
0.250980 0.380392 0.031373
0.294118 0.384314 0.039216
0.345098 0.384314 0.043137
0.384314 0.384314 0.047059
0.423529 0.384314 0.050980
0.458824 0.376471 0.058824
0.498039 0.368627 0.105882
0.521569 0.364706 0.125490
0.556863 0.360784 0.152941
0.588235 0.368627 0.180392
0.615686 0.368627 0.200000
0.650980 0.372549 0.200000
0.686275 0.380392 0.200000
0.729412 0.384314 0.207843
0.768627 0.384314 0.207843
0.811765 0.388235 0.215686
0.866667 0.392157 0.223529
0.901961 0.392157 0.227451
0.952941 0.403922 0.243137
0.000000 0.419608 0.050980
0.011765 0.415686 0.054902
0.054902 0.419608 0.054902
0.117647 0.419608 0.050980
0.160784 0.415686 0.039216
0.196078 0.419608 0.047059
0.247059 0.419608 0.047059
0.305882 0.419608 0.054902
0.345098 0.419608 0.058824
0.380392 0.415686 0.050980
0.419608 0.415686 0.050980
0.458824 0.415686 0.054902
0.498039 0.411765 0.074510
0.533333 0.407843 0.105882
0.556863 0.403922 0.141176
0.584314 0.403922 0.168627
0.615686 0.407843 0.196078
0.654902 0.411765 0.211765
0.694118 0.411765 0.215686
0.733333 0.415686 0.231373
0.776471 0.419608 0.243137
0.819608 0.423529 0.243137
0.862745 0.427451 0.250980
0.909804 0.435294 0.258824
0.949020 0.439216 0.258824
0.000000 0.454902 0.058824
0.003922 0.466667 0.058824
0.070588 0.454902 0.058824
0.117647 0.462745 0.070588
0.164706 0.454902 0.066667
0.200000 0.450980 0.070588
0.239216 0.458824 0.062745
0.282353 0.454902 0.070588
0.329412 0.454902 0.066667
0.376471 0.454902 0.066667
0.415686 0.454902 0.066667
0.462745 0.450980 0.070588
0.494118 0.454902 0.074510
0.529412 0.447059 0.098039
0.564706 0.443137 0.121569
0.596078 0.443137 0.149020
0.627451 0.443137 0.168627
0.662745 0.447059 0.196078
0.694118 0.450980 0.227451
0.733333 0.454902 0.243137
0.772549 0.458824 0.258824
0.815686 0.462745 0.258824
0.858824 0.466667 0.262745
0.901961 0.470588 0.270588
0.960784 0.486275 0.282353
0.000000 0.498039 0.074510
0.015686 0.490196 0.078431
0.058824 0.494118 0.074510
0.113725 0.494118 0.074510
0.160784 0.486275 0.078431
0.196078 0.494118 0.066667
0.243137 0.490196 0.070588
0.282353 0.490196 0.074510
0.329412 0.490196 0.082353
0.368627 0.490196 0.082353
0.407843 0.490196 0.078431
0.447059 0.490196 0.082353
0.498039 0.490196 0.094118
0.537255 0.490196 0.098039
0.572549 0.486275 0.098039
0.603922 0.482353 0.129412
0.635294 0.474510 0.160784
0.666667 0.478431 0.196078
0.698039 0.482353 0.219608
0.729412 0.490196 0.235294
0.772549 0.498039 0.254902
0.811765 0.501961 0.278431
0.854902 0.505882 0.286275
0.898039 0.509804 0.278431
0.949020 0.525490 0.282353
0.000000 0.525490 0.086275
0.027451 0.537255 0.090196
0.066667 0.521569 0.086275
0.113725 0.529412 0.098039
0.172549 0.521569 0.098039
0.203922 0.525490 0.090196
0.243137 0.525490 0.094118
0.282353 0.525490 0.090196
0.321569 0.525490 0.090196
0.368627 0.521569 0.094118
0.407843 0.521569 0.098039
0.447059 0.521569 0.098039
0.486275 0.521569 0.101961
0.525490 0.521569 0.098039
0.564706 0.521569 0.101961
0.603922 0.521569 0.109804
0.643137 0.517647 0.125490
0.678431 0.517647 0.164706
0.705882 0.517647 0.196078
0.741176 0.521569 0.227451
0.772549 0.529412 0.243137
0.823529 0.529412 0.266667
0.847059 0.545098 0.282353
0.886275 0.549020 0.309804
0.949020 0.556863 0.313725
0.000000 0.564706 0.105882
0.027451 0.564706 0.101961
0.086275 0.556863 0.101961
0.113725 0.556863 0.101961
0.168627 0.560784 0.105882
0.207843 0.560784 0.105882
0.235294 0.560784 0.098039
0.278431 0.564706 0.105882
0.325490 0.560784 0.105882
0.364706 0.564706 0.101961
0.407843 0.560784 0.109804
0.447059 0.556863 0.113725
0.474510 0.564706 0.117647
0.513725 0.564706 0.113725
0.560784 0.564706 0.105882
0.600000 0.564706 0.105882
0.639216 0.560784 0.117647
0.678431 0.556863 0.141176
0.709804 0.552941 0.168627
0.752941 0.552941 0.196078
0.788235 0.560784 0.231373
0.827451 0.572549 0.258824
0.858824 0.572549 0.274510
0.909804 0.584314 0.309804
0.945098 0.592157 0.325490
0.007843 0.603922 0.109804
0.039216 0.603922 0.117647
0.086275 0.600000 0.121569
0.129412 0.600000 0.117647
0.164706 0.600000 0.125490
0.196078 0.603922 0.113725
0.243137 0.600000 0.117647
0.286275 0.596078 0.125490
0.321569 0.603922 0.109804
0.360784 0.603922 0.113725
0.400000 0.603922 0.117647
0.439216 0.600000 0.121569
0.482353 0.600000 0.121569
0.525490 0.603922 0.121569
0.564706 0.603922 0.125490
0.600000 0.600000 0.129412
0.643137 0.596078 0.125490
0.682353 0.600000 0.133333
0.717647 0.600000 0.152941
0.749020 0.600000 0.172549
0.792157 0.607843 0.203922
0.827451 0.607843 0.235294
0.870588 0.615686 0.262745
0.917647 0.619608 0.286275
0.972549 0.631373 0.321569
0.003922 0.643137 0.129412
0.050980 0.631373 0.121569
0.090196 0.635294 0.125490
0.109804 0.643137 0.117647
0.160784 0.635294 0.113725
0.207843 0.635294 0.125490
0.247059 0.639216 0.113725
0.282353 0.643137 0.113725
0.321569 0.639216 0.125490
0.360784 0.639216 0.129412
0.400000 0.639216 0.125490
0.443137 0.639216 0.125490
0.482353 0.639216 0.117647
0.521569 0.639216 0.121569
0.560784 0.635294 0.133333
0.603922 0.643137 0.129412
0.639216 0.639216 0.129412
0.678431 0.639216 0.125490
0.717647 0.643137 0.133333
0.756863 0.639216 0.152941
0.796078 0.643137 0.176471
0.843137 0.647059 0.211765
0.890196 0.650980 0.235294
0.925490 0.654902 0.258824
0.964706 0.666667 0.301961
0.015686 0.674510 0.125490
0.054902 0.674510 0.129412
0.082353 0.682353 0.125490
0.133333 0.674510 0.125490
0.156863 0.682353 0.129412
0.203922 0.674510 0.141176
0.239216 0.682353 0.133333
0.278431 0.682353 0.129412
0.321569 0.678431 0.125490
0.356863 0.682353 0.125490
0.400000 0.678431 0.137255
0.435294 0.682353 0.133333
0.478431 0.678431 0.133333
0.517647 0.678431 0.129412
0.556863 0.678431 0.129412
0.596078 0.678431 0.133333
0.635294 0.678431 0.137255
0.678431 0.682353 0.133333
0.725490 0.682353 0.129412
0.764706 0.678431 0.137255
0.807843 0.682353 0.152941
0.850980 0.682353 0.168627
0.886275 0.686275 0.196078
0.933333 0.694118 0.239216
0.980392 0.698039 0.274510
0.015686 0.721569 0.137255
0.047059 0.721569 0.125490
0.078431 0.721569 0.129412
0.125490 0.717647 0.133333
0.156863 0.725490 0.125490
0.207843 0.717647 0.129412
0.247059 0.717647 0.125490
0.286275 0.717647 0.125490
0.317647 0.721569 0.129412
0.368627 0.721569 0.137255
0.400000 0.725490 0.137255
0.439216 0.725490 0.129412
0.474510 0.721569 0.121569
0.525490 0.725490 0.121569
0.568627 0.725490 0.133333
0.603922 0.721569 0.133333
0.647059 0.721569 0.129412
0.686275 0.721569 0.129412
0.729412 0.725490 0.129412
0.768627 0.725490 0.129412
0.807843 0.721569 0.141176
0.858824 0.729412 0.121569
0.890196 0.733333 0.156863
0.941176 0.733333 0.215686
0.984314 0.737255 0.231373
0.000000 0.768627 0.141176
0.031373 0.760784 0.121569
0.070588 0.768627 0.133333
0.121569 0.760784 0.137255
0.160784 0.764706 0.121569
0.200000 0.768627 0.121569
0.247059 0.764706 0.121569
0.290196 0.768627 0.129412
0.325490 0.764706 0.129412
0.364706 0.764706 0.129412
0.407843 0.768627 0.129412
0.443137 0.764706 0.137255
0.498039 0.764706 0.117647
0.529412 0.764706 0.129412
0.568627 0.768627 0.129412
0.607843 0.768627 0.125490
0.647059 0.768627 0.121569
0.694118 0.764706 0.121569
0.737255 0.768627 0.121569
0.776471 0.768627 0.133333
0.819608 0.768627 0.117647
0.862745 0.772549 0.125490
0.905882 0.776471 0.129412
0.945098 0.772549 0.149020
0.996078 0.784314 0.196078
0.000000 0.819608 0.117647
0.023529 0.819608 0.117647
0.070588 0.815686 0.125490
0.113725 0.811765 0.121569
0.156863 0.815686 0.125490
0.196078 0.819608 0.121569
0.239216 0.815686 0.121569
0.274510 0.815686 0.125490
0.329412 0.811765 0.109804
0.364706 0.815686 0.113725
0.407843 0.815686 0.121569
0.447059 0.819608 0.121569
0.490196 0.815686 0.117647
0.533333 0.819608 0.117647
0.580392 0.819608 0.109804
0.615686 0.815686 0.109804
0.662745 0.815686 0.105882
0.698039 0.819608 0.109804
0.741176 0.815686 0.113725
0.784314 0.819608 0.117647
0.831373 0.823529 0.117647
0.866667 0.819608 0.105882
0.913725 0.819608 0.098039
0.956863 0.823529 0.098039
0.992157 0.831373 0.141176
0.003922 0.854902 0.082353
0.000000 0.862745 0.117647
0.047059 0.858824 0.105882
0.098039 0.862745 0.105882
0.152941 0.870588 0.109804
0.188235 0.866667 0.101961
0.239216 0.858824 0.109804
0.290196 0.866667 0.105882
0.325490 0.862745 0.101961
0.368627 0.866667 0.101961
0.411765 0.866667 0.101961
0.458824 0.862745 0.105882
0.498039 0.862745 0.098039
0.545098 0.862745 0.105882
0.584314 0.862745 0.109804
0.615686 0.862745 0.098039
0.662745 0.866667 0.098039
0.701961 0.866667 0.098039
0.745098 0.870588 0.090196
0.788235 0.870588 0.090196
0.835294 0.866667 0.086275
0.874510 0.866667 0.086275
0.917647 0.870588 0.094118
0.960784 0.874510 0.070588
0.988235 0.878431 0.074510
0.003922 0.901961 0.082353
0.007843 0.917647 0.074510
0.015686 0.909804 0.082353
0.082353 0.909804 0.094118
0.137255 0.905882 0.066667
0.200000 0.909804 0.090196
0.239216 0.913725 0.078431
0.282353 0.909804 0.078431
0.321569 0.909804 0.074510
0.364706 0.909804 0.074510
0.415686 0.909804 0.074510
0.458824 0.913725 0.078431
0.501961 0.913725 0.066667
0.541176 0.913725 0.066667
0.576471 0.909804 0.058824
0.619608 0.905882 0.066667
0.662745 0.913725 0.058824
0.713725 0.913725 0.062745
0.752941 0.913725 0.058824
0.796078 0.913725 0.050980
0.835294 0.913725 0.047059
0.882353 0.913725 0.047059
0.925490 0.917647 0.047059
0.952941 0.913725 0.043137
0.996078 0.921569 0.043137
0.003922 0.952941 0.035294
0.003922 0.956863 0.047059
0.003922 0.956863 0.039216
0.062745 0.956863 0.019608
0.125490 0.960784 0.050980
0.184314 0.960784 0.039216
0.223529 0.960784 0.035294
0.270588 0.956863 0.035294
0.313725 0.956863 0.031373
0.360784 0.956863 0.035294
0.411765 0.960784 0.035294
0.454902 0.960784 0.019608
0.494118 0.960784 0.019608
0.545098 0.956863 0.015686
0.588235 0.956863 0.023529
0.627451 0.956863 0.023529
0.666667 0.960784 0.019608
0.709804 0.956863 0.011765
0.752941 0.964706 0.007843
0.800000 0.964706 0.000000
0.835294 0.956863 0.000000
0.878431 0.960784 0.007843
0.917647 0.964706 0.000000
0.964706 0.956863 0.000000
1.000000 0.960784 0.007843
0.007843 1.000000 0.000000
0.003922 0.992157 0.000000
0.007843 1.000000 0.000000
0.047059 1.000000 0.000000
0.121569 0.996078 0.000000
0.172549 1.000000 0.000000
0.219608 0.996078 0.000000
0.270588 1.000000 0.011765
0.321569 1.000000 0.000000
0.364706 1.000000 0.000000
0.407843 1.000000 0.000000
0.447059 1.000000 0.000000
0.501961 1.000000 0.000000
0.541176 1.000000 0.003922
0.580392 1.000000 0.007843
0.619608 1.000000 0.007843
0.662745 0.996078 0.000000
0.709804 0.996078 0.000000
0.752941 1.000000 0.000000
0.792157 1.000000 0.000000
0.835294 1.000000 0.000000
0.882353 1.000000 0.007843
0.913725 1.000000 0.000000
0.964706 1.000000 0.000000
0.996078 1.000000 0.000000
0.039216 0.035294 0.054902
0.039216 0.035294 0.054902
0.070588 0.035294 0.054902
0.125490 0.019608 0.047059
0.176471 0.007843 0.047059
0.223529 0.003922 0.054902
0.266667 0.000000 0.058824
0.309804 0.003922 0.058824
0.356863 0.000000 0.066667
0.384314 0.000000 0.066667
0.427451 0.000000 0.074510
0.466667 0.000000 0.078431
0.501961 0.000000 0.078431
0.537255 0.000000 0.078431
0.572549 0.003922 0.086275
0.607843 0.003922 0.098039
0.643137 0.027451 0.109804
0.678431 0.031373 0.117647
0.705882 0.039216 0.113725
0.752941 0.054902 0.125490
0.796078 0.062745 0.137255
0.827451 0.074510 0.137255
0.866667 0.086275 0.145098
0.917647 0.094118 0.160784
0.960784 0.098039 0.168627
0.031373 0.047059 0.058824
0.043137 0.043137 0.043137
0.098039 0.039216 0.058824
0.133333 0.047059 0.058824
0.176471 0.039216 0.054902
0.219608 0.047059 0.050980
0.274510 0.039216 0.070588
0.301961 0.039216 0.066667
0.341176 0.039216 0.062745
0.392157 0.043137 0.066667
0.431373 0.039216 0.078431
0.462745 0.043137 0.082353
0.498039 0.047059 0.078431
0.533333 0.050980 0.082353
0.568627 0.054902 0.086275
0.611765 0.054902 0.101961
0.647059 0.062745 0.109804
0.678431 0.066667 0.117647
0.709804 0.078431 0.117647
0.745098 0.082353 0.125490
0.780392 0.094118 0.129412
0.827451 0.101961 0.141176
0.874510 0.105882 0.152941
0.909804 0.117647 0.149020
0.956863 0.125490 0.180392
0.000000 0.094118 0.043137
0.043137 0.086275 0.054902
0.086275 0.094118 0.050980
0.133333 0.082353 0.058824
0.164706 0.101961 0.050980
0.203922 0.090196 0.066667
0.258824 0.090196 0.058824
0.305882 0.090196 0.074510
0.345098 0.090196 0.082353
0.380392 0.086275 0.074510
0.423529 0.090196 0.082353
0.462745 0.090196 0.082353
0.498039 0.090196 0.086275
0.537255 0.090196 0.090196
0.564706 0.094118 0.109804
0.600000 0.094118 0.109804
0.639216 0.101961 0.109804
0.674510 0.101961 0.113725
0.713725 0.109804 0.121569
0.745098 0.117647 0.133333
0.788235 0.121569 0.141176
0.823529 0.125490 0.149020
0.870588 0.133333 0.160784
0.909804 0.137255 0.172549
0.960784 0.145098 0.176471
0.000000 0.137255 0.043137
0.039216 0.129412 0.058824
0.078431 0.133333 0.043137
0.141176 0.137255 0.066667
0.180392 0.129412 0.054902
0.211765 0.137255 0.074510
0.250980 0.137255 0.082353
0.298039 0.133333 0.078431
0.333333 0.129412 0.078431
0.380392 0.129412 0.090196
0.419608 0.129412 0.094118
0.458824 0.129412 0.090196
0.494118 0.125490 0.094118
0.525490 0.133333 0.109804
0.564706 0.133333 0.105882
0.600000 0.137255 0.101961
0.643137 0.137255 0.113725
0.670588 0.137255 0.121569
0.709804 0.141176 0.137255
0.749020 0.149020 0.137255
0.780392 0.149020 0.141176
0.831373 0.149020 0.156863
0.866667 0.160784 0.164706
0.909804 0.164706 0.164706
0.964706 0.176471 0.176471
0.000000 0.176471 0.054902
0.035294 0.176471 0.058824
0.090196 0.168627 0.054902
0.133333 0.176471 0.050980
0.172549 0.172549 0.062745
0.215686 0.176471 0.070588
0.250980 0.172549 0.078431
0.294118 0.172549 0.094118
0.337255 0.176471 0.105882
0.376471 0.176471 0.101961
0.419608 0.172549 0.101961
0.458824 0.172549 0.105882
0.494118 0.176471 0.094118
0.521569 0.176471 0.101961
0.568627 0.168627 0.113725
0.603922 0.176471 0.125490
0.635294 0.172549 0.125490
0.670588 0.176471 0.129412
0.705882 0.180392 0.137255
0.745098 0.188235 0.149020
0.788235 0.184314 0.160784
0.827451 0.188235 0.160784
0.874510 0.196078 0.164706
0.905882 0.200000 0.172549
0.952941 0.211765 0.196078
0.000000 0.215686 0.062745
0.031373 0.219608 0.062745
0.082353 0.227451 0.058824
0.133333 0.223529 0.058824
0.176471 0.219608 0.062745
0.227451 0.219608 0.058824
0.270588 0.215686 0.070588
0.305882 0.215686 0.082353
0.337255 0.215686 0.101961
0.368627 0.211765 0.109804
0.411765 0.215686 0.109804
0.450980 0.215686 0.113725
0.490196 0.215686 0.117647
0.521569 0.215686 0.125490
0.560784 0.215686 0.129412
0.600000 0.215686 0.133333
0.635294 0.211765 0.133333
0.674510 0.215686 0.149020
0.709804 0.215686 0.156863
0.745098 0.223529 0.164706
0.788235 0.227451 0.172549
0.827451 0.235294 0.172549
0.866667 0.235294 0.172549
0.905882 0.243137 0.184314
0.960784 0.247059 0.196078
0.000000 0.262745 0.070588
0.019608 0.266667 0.058824
0.070588 0.266667 0.058824
0.129412 0.262745 0.062745
0.168627 0.262745 0.058824
0.215686 0.266667 0.058824
0.262745 0.262745 0.058824
0.309804 0.262745 0.074510
0.341176 0.258824 0.082353
0.372549 0.258824 0.101961
0.407843 0.258824 0.117647
0.447059 0.254902 0.137255
0.478431 0.254902 0.141176
0.517647 0.254902 0.141176
0.560784 0.258824 0.149020
0.592157 0.258824 0.145098
0.631373 0.258824 0.149020
0.674510 0.262745 0.156863
0.709804 0.262745 0.168627
0.741176 0.262745 0.172549
0.780392 0.270588 0.180392
0.823529 0.274510 0.192157
0.858824 0.278431 0.200000
0.909804 0.278431 0.200000
0.952941 0.286275 0.203922
0.000000 0.305882 0.062745
0.019608 0.298039 0.062745
0.066667 0.301961 0.066667
0.121569 0.309804 0.066667
0.172549 0.294118 0.070588
0.215686 0.309804 0.066667
0.254902 0.309804 0.070588
0.301961 0.305882 0.070588
0.345098 0.305882 0.066667
0.384314 0.301961 0.078431
0.419608 0.294118 0.109804
0.454902 0.290196 0.133333
0.482353 0.294118 0.152941
0.517647 0.298039 0.160784
0.549020 0.298039 0.156863
0.588235 0.298039 0.168627
0.623529 0.298039 0.172549
0.662745 0.298039 0.176471
0.701961 0.298039 0.180392
0.737255 0.301961 0.188235
0.776471 0.301961 0.188235
0.823529 0.309804 0.200000
0.858824 0.313725 0.200000
0.909804 0.313725 0.200000
0.952941 0.321569 0.219608
0.000000 0.349020 0.074510
0.000000 0.349020 0.066667
0.066667 0.345098 0.078431
0.109804 0.341176 0.074510
0.160784 0.345098 0.062745
0.203922 0.345098 0.070588
0.254902 0.345098 0.078431
0.305882 0.341176 0.078431
0.352941 0.341176 0.070588
0.392157 0.341176 0.066667
0.423529 0.341176 0.086275
0.454902 0.333333 0.113725
0.486275 0.325490 0.145098
0.509804 0.333333 0.168627
0.545098 0.337255 0.180392
0.584314 0.333333 0.184314
0.623529 0.341176 0.192157
0.658824 0.337255 0.192157
0.698039 0.337255 0.192157
0.741176 0.341176 0.200000
0.784314 0.341176 0.215686
0.811765 0.345098 0.219608
0.854902 0.352941 0.215686
0.909804 0.352941 0.227451
0.945098 0.364706 0.231373
0.000000 0.388235 0.074510
0.000000 0.384314 0.074510
0.058824 0.380392 0.078431
0.105882 0.384314 0.070588
0.164706 0.388235 0.086275
0.211765 0.384314 0.082353
0.250980 0.380392 0.070588
0.298039 0.380392 0.070588
0.349020 0.380392 0.078431
0.380392 0.384314 0.086275
0.419608 0.384314 0.090196
0.458824 0.380392 0.101961
0.490196 0.372549 0.129412
0.521569 0.368627 0.152941
0.552941 0.364706 0.168627
0.584314 0.372549 0.200000
0.619608 0.372549 0.211765
0.654902 0.372549 0.215686
0.694118 0.372549 0.215686
0.741176 0.380392 0.227451
0.776471 0.380392 0.215686
0.815686 0.388235 0.235294
0.862745 0.384314 0.231373
0.905882 0.392157 0.239216
0.945098 0.400000 0.247059
0.000000 0.419608 0.074510
0.011765 0.419608 0.078431
0.054902 0.423529 0.086275
0.113725 0.423529 0.094118
0.164706 0.419608 0.090196
0.203922 0.419608 0.086275
0.250980 0.423529 0.090196
0.294118 0.419608 0.086275
0.333333 0.419608 0.094118
0.372549 0.419608 0.090196
