lut_library_archive/removed_20260629/50个风景lut/50个风景lut18.cube
# 版权归凌孟成所有，侵权必究
TITLE "Jungle LUT #18"
#LUT size
LUT_3D_SIZE 9
#LUT data points
0.050980 0.035294 0.023529
0.145098 0.019608 0.031373
0.270588 0.011765 0.027451
0.368627 0.007843 0.027451
0.482353 0.015686 0.031373
0.584314 0.035294 0.039216
0.713725 0.050980 0.047059
0.847059 0.066667 0.054902
0.992157 0.078431 0.070588
0.105882 0.125490 0.000000
0.168627 0.129412 0.000000
0.262745 0.125490 0.039216
0.380392 0.125490 0.039216
0.474510 0.129412 0.050980
0.588235 0.133333 0.043137
0.713725 0.141176 0.058824
0.843137 0.145098 0.066667
0.988235 0.164706 0.078431
0.168627 0.207843 0.000000
0.211765 0.203922 0.003922
0.282353 0.223529 0.000000
0.372549 0.231373 0.035294
0.482353 0.239216 0.086275
0.592157 0.250980 0.074510
0.721569 0.258824 0.086275
0.862745 0.266667 0.090196
0.980392 0.274510 0.098039
0.227451 0.270588 0.000000
0.254902 0.278431 0.000000
0.301961 0.286275 0.000000
0.384314 0.317647 0.003922
0.482353 0.345098 0.027451
0.596078 0.356863 0.101961
0.729412 0.380392 0.121569
0.858824 0.392157 0.133333
0.996078 0.407843 0.141176
0.278431 0.341176 0.000000
0.298039 0.337255 0.000000
0.325490 0.341176 0.007843
0.384314 0.372549 0.000000
0.470588 0.415686 0.000000
0.596078 0.458824 0.003922
0.733333 0.482353 0.098039
0.874510 0.513725 0.180392
1.000000 0.525490 0.215686
0.321569 0.403922 0.000000
0.333333 0.400000 0.000000
0.360784 0.392157 0.000000
0.403922 0.415686 0.003922
0.482353 0.462745 0.000000
0.596078 0.525490 0.000000
0.733333 0.588235 0.000000
0.870588 0.615686 0.058824
1.000000 0.643137 0.196078
0.368627 0.478431 0.003922
0.384314 0.478431 0.000000
0.400000 0.470588 0.007843
0.443137 0.482353 0.000000
0.513725 0.525490 0.003922
0.611765 0.588235 0.000000
0.729412 0.654902 0.003922
0.874510 0.725490 0.003922
0.996078 0.741176 0.000000
0.458824 0.623529 0.000000
0.478431 0.623529 0.003922
0.501961 0.627451 0.000000
0.549020 0.615686 0.000000
0.603922 0.654902 0.000000
0.690196 0.713725 0.000000
0.788235 0.760784 0.000000
0.909804 0.811765 0.003922
1.000000 0.858824 0.003922
0.647059 0.894118 0.000000
0.662745 0.894118 0.000000
0.690196 0.890196 0.000000
0.745098 0.898039 0.000000
0.803922 0.913725 0.003922
0.870588 0.937255 0.003922
0.945098 0.960784 0.000000
1.000000 0.976471 0.000000
1.000000 0.988235 0.003922
0.047059 0.035294 0.117647
0.152941 0.011765 0.113725
0.274510 0.015686 0.121569
0.368627 0.019608 0.105882
0.478431 0.035294 0.113725
0.580392 0.054902 0.113725
0.717647 0.066667 0.129412
0.843137 0.066667 0.125490
0.976471 0.082353 0.117647
0.082353 0.129412 0.121569
0.160784 0.133333 0.109804
0.262745 0.133333 0.113725
0.368627 0.129412 0.117647
0.470588 0.137255 0.125490
0.588235 0.137255 0.117647
0.717647 0.149020 0.129412
0.850980 0.149020 0.125490
0.984314 0.164706 0.145098
0.168627 0.211765 0.078431
0.207843 0.215686 0.070588
0.282353 0.235294 0.086275
0.372549 0.235294 0.125490
0.470588 0.247059 0.141176
0.592157 0.250980 0.145098
0.717647 0.258824 0.149020
0.850980 0.258824 0.145098
0.988235 0.274510 0.160784
0.223529 0.286275 0.031373
0.250980 0.286275 0.039216
0.313725 0.294118 0.039216
0.376471 0.321569 0.074510
0.482353 0.345098 0.125490
0.603922 0.368627 0.172549
0.737255 0.384314 0.180392
0.866667 0.392157 0.184314
1.000000 0.403922 0.188235
0.274510 0.349020 0.000000
0.294118 0.341176 0.003922
0.325490 0.341176 0.007843
0.388235 0.368627 0.000000
0.478431 0.415686 0.039216
0.596078 0.458824 0.090196
0.733333 0.490196 0.156863
0.882353 0.513725 0.231373
1.000000 0.525490 0.247059
0.317647 0.400000 0.000000
0.321569 0.403922 0.000000
0.352941 0.392157 0.003922
0.403922 0.419608 0.000000
0.486275 0.466667 0.003922
0.584314 0.529412 0.007843
0.729412 0.588235 0.007843
0.874510 0.615686 0.137255
0.988235 0.647059 0.227451
0.364706 0.474510 0.000000
0.372549 0.482353 0.000000
0.400000 0.478431 0.003922
0.439216 0.478431 0.000000
0.501961 0.529412 0.011765
0.607843 0.592157 0.000000
0.741176 0.658824 0.000000
0.866667 0.729412 0.000000
1.000000 0.749020 0.090196
0.466667 0.631373 0.000000
0.470588 0.635294 0.000000
0.501961 0.623529 0.011765
0.537255 0.623529 0.000000
0.592157 0.654902 0.000000
0.690196 0.709804 0.003922
0.788235 0.760784 0.000000
0.898039 0.811765 0.000000
0.992157 0.854902 0.015686
0.631373 0.894118 0.000000
0.654902 0.882353 0.003922
0.686275 0.894118 0.000000
0.733333 0.894118 0.000000
0.800000 0.909804 0.000000
0.866667 0.933333 0.000000
0.949020 0.964706 0.007843
1.000000 0.980392 0.000000
1.000000 0.992157 0.007843
0.066667 0.015686 0.223529
0.152941 0.019608 0.219608
0.274510 0.011765 0.219608
0.372549 0.019608 0.219608
0.478431 0.027451 0.200000
0.580392 0.023529 0.211765
0.705882 0.027451 0.207843
0.847059 0.015686 0.207843
0.984314 0.003922 0.223529
0.101961 0.125490 0.219608
0.172549 0.125490 0.219608
0.266667 0.117647 0.215686
0.376471 0.121569 0.215686
0.474510 0.125490 0.211765
0.588235 0.129412 0.203922
0.709804 0.133333 0.207843
0.850980 0.133333 0.223529
0.992157 0.133333 0.227451
0.098039 0.227451 0.200000
0.164706 0.231373 0.200000
0.282353 0.227451 0.215686
0.368627 0.239216 0.219608
0.474510 0.243137 0.219608
0.596078 0.247059 0.223529
0.713725 0.247059 0.223529
0.850980 0.250980 0.227451
0.988235 0.262745 0.223529
0.164706 0.317647 0.141176
0.223529 0.309804 0.156863
0.309804 0.301961 0.152941
0.368627 0.329412 0.188235
0.478431 0.349020 0.227451
0.603922 0.372549 0.254902
0.737255 0.384314 0.258824
0.866667 0.384314 0.254902
0.996078 0.392157 0.258824
0.254902 0.376471 0.109804
0.278431 0.368627 0.101961
0.325490 0.360784 0.098039
0.380392 0.376471 0.113725
0.478431 0.427451 0.168627
0.600000 0.462745 0.211765
0.741176 0.486275 0.258824
0.874510 0.521569 0.294118
1.000000 0.521569 0.290196
0.317647 0.427451 0.035294
0.325490 0.423529 0.027451
0.349020 0.415686 0.007843
0.396078 0.423529 0.019608
0.486275 0.474510 0.070588
0.596078 0.525490 0.125490
0.737255 0.592157 0.176471
0.874510 0.615686 0.247059
1.000000 0.643137 0.317647
0.360784 0.501961 0.007843
0.368627 0.498039 0.000000
0.396078 0.494118 0.000000
0.435294 0.478431 0.000000
0.505882 0.529412 0.003922
0.611765 0.592157 0.000000
0.733333 0.662745 0.003922
0.878431 0.725490 0.109804
1.000000 0.745098 0.227451
0.435294 0.639216 0.000000
0.458824 0.631373 0.003922
0.482353 0.627451 0.007843
0.529412 0.623529 0.003922
0.588235 0.647059 0.000000
0.678431 0.698039 0.000000
0.776471 0.760784 0.000000
0.901961 0.815686 0.000000
1.000000 0.862745 0.000000
0.623529 0.901961 0.007843
0.627451 0.894118 0.011765
0.658824 0.901961 0.000000
0.717647 0.901961 0.000000
0.792157 0.905882 0.000000
0.862745 0.933333 0.007843
0.945098 0.960784 0.000000
1.000000 0.976471 0.000000
1.000000 0.988235 0.003922
0.078431 0.023529 0.325490
0.156863 0.023529 0.321569
0.262745 0.027451 0.317647
0.368627 0.023529 0.321569
0.482353 0.019608 0.317647
0.580392 0.027451 0.305882
0.705882 0.000000 0.317647
0.850980 0.000000 0.309804
0.980392 0.003922 0.301961
0.117647 0.121569 0.333333
0.168627 0.121569 0.317647
0.266667 0.125490 0.321569
0.364706 0.121569 0.321569
0.482353 0.121569 0.321569
0.584314 0.113725 0.313725
0.709804 0.105882 0.317647
0.847059 0.035294 0.317647
0.988235 0.000000 0.309804
0.129412 0.231373 0.321569
0.188235 0.227451 0.325490
0.282353 0.235294 0.321569
0.376471 0.227451 0.317647
0.474510 0.231373 0.321569
0.584314 0.223529 0.313725
0.709804 0.219608 0.305882
0.854902 0.211765 0.309804
0.988235 0.203922 0.313725
0.109804 0.329412 0.286275
0.164706 0.333333 0.298039
0.250980 0.329412 0.286275
0.372549 0.337255 0.309804
0.470588 0.349020 0.329412
0.592157 0.352941 0.333333
0.725490 0.360784 0.333333
0.862745 0.364706 0.337255
0.992157 0.368627 0.345098
0.113725 0.403922 0.196078
0.184314 0.403922 0.219608
0.298039 0.403922 0.243137
0.380392 0.392157 0.223529
0.482353 0.435294 0.286275
0.607843 0.466667 0.333333
0.741176 0.494118 0.364706
0.870588 0.509804 0.368627
1.000000 0.509804 0.380392
0.266667 0.462745 0.176471
0.298039 0.462745 0.180392
0.337255 0.454902 0.164706
0.392157 0.439216 0.156863
0.486275 0.478431 0.188235
0.596078 0.541176 0.254902
0.741176 0.592157 0.305882
0.878431 0.623529 0.364706
1.000000 0.654902 0.435294
0.321569 0.533333 0.062745
0.337255 0.533333 0.058824
0.368627 0.517647 0.043137
0.423529 0.509804 0.023529
0.498039 0.521569 0.035294
0.607843 0.592157 0.101961
0.729412 0.666667 0.188235
0.882353 0.729412 0.262745
1.000000 0.745098 0.364706
0.400000 0.654902 0.003922
0.419608 0.647059 0.003922
0.458824 0.647059 0.003922
0.505882 0.650980 0.000000
0.564706 0.635294 0.000000
0.662745 0.690196 0.000000
0.772549 0.764706 0.000000
0.898039 0.815686 0.011765
1.000000 0.862745 0.168627
0.564706 0.905882 0.007843
0.572549 0.909804 0.000000
0.619608 0.909804 0.000000
0.678431 0.909804 0.000000
0.760784 0.917647 0.000000
0.843137 0.933333 0.000000
0.941176 0.964706 0.000000
1.000000 0.976471 0.000000
1.000000 0.984314 0.000000
0.101961 0.031373 0.423529
0.172549 0.031373 0.423529
0.266667 0.031373 0.423529
0.364706 0.023529 0.431373
0.478431 0.031373 0.423529
0.588235 0.007843 0.439216
0.709804 0.000000 0.427451
0.839216 0.003922 0.435294
0.980392 0.003922 0.435294
0.125490 0.125490 0.415686
0.180392 0.125490 0.419608
0.262745 0.117647 0.427451
0.368627 0.125490 0.427451
0.478431 0.121569 0.431373
0.592157 0.109804 0.427451
0.713725 0.086275 0.439216
0.850980 0.011765 0.450980
0.984314 0.000000 0.431373
0.145098 0.223529 0.419608
0.192157 0.231373 0.431373
0.278431 0.231373 0.427451
0.376471 0.227451 0.427451
0.474510 0.231373 0.431373
0.588235 0.219608 0.431373
0.717647 0.207843 0.427451
0.850980 0.184314 0.431373
0.992157 0.137255 0.435294
0.133333 0.337255 0.423529
0.180392 0.337255 0.427451
0.270588 0.333333 0.423529
0.372549 0.333333 0.427451
0.482353 0.333333 0.431373
0.588235 0.337255 0.431373
0.729412 0.321569 0.419608
0.862745 0.305882 0.415686
0.996078 0.294118 0.419608
0.086275 0.431373 0.376471
0.145098 0.435294 0.384314
0.227451 0.439216 0.384314
0.333333 0.439216 0.380392
0.478431 0.450980 0.411765
0.600000 0.462745 0.439216
0.741176 0.474510 0.439216
0.870588 0.478431 0.454902
0.996078 0.494118 0.450980
0.003922 0.505882 0.266667
0.000000 0.505882 0.247059
0.200000 0.501961 0.282353
0.372549 0.501961 0.317647
0.470588 0.482353 0.298039
0.603922 0.552941 0.376471
0.749020 0.600000 0.447059
0.890196 0.639216 0.501961
1.000000 0.643137 0.513725
0.184314 0.580392 0.203922
0.223529 0.572549 0.211765
0.301961 0.572549 0.215686
0.380392 0.556863 0.200000
0.466667 0.541176 0.188235
0.588235 0.592157 0.227451
0.733333 0.670588 0.325490
0.890196 0.729412 0.419608
0.996078 0.760784 0.494118
0.282353 0.686275 0.000000
0.313725 0.682353 0.000000
0.372549 0.686275 0.000000
0.447059 0.674510 0.000000
0.529412 0.658824 0.000000
0.635294 0.686275 0.000000
0.760784 0.749020 0.054902
0.898039 0.819608 0.239216
1.000000 0.862745 0.368627
0.439216 0.917647 0.000000
0.462745 0.925490 0.007843
0.505882 0.925490 0.000000
0.592157 0.921569 0.000000
0.698039 0.929412 0.000000
0.819608 0.933333 0.000000
0.921569 0.960784 0.000000
1.000000 0.980392 0.003922
1.000000 0.988235 0.129412
0.129412 0.031373 0.541176
0.176471 0.031373 0.549020
0.266667 0.031373 0.549020
0.368627 0.027451 0.549020
0.474510 0.011765 0.552941
0.584314 0.003922 0.552941
0.705882 0.000000 0.552941
0.850980 0.000000 0.560784
0.992157 0.003922 0.556863
0.133333 0.117647 0.556863
0.192157 0.121569 0.552941
0.266667 0.121569 0.537255
0.368627 0.121569 0.549020
0.474510 0.113725 0.541176
0.603922 0.101961 0.552941
0.717647 0.074510 0.556863
0.854902 0.000000 0.560784
1.000000 0.000000 0.564706
0.145098 0.231373 0.556863
0.184314 0.227451 0.549020
0.274510 0.223529 0.545098
0.376471 0.223529 0.541176
0.474510 0.219608 0.541176
0.600000 0.215686 0.549020
0.725490 0.203922 0.552941
0.854902 0.176471 0.560784
0.996078 0.121569 0.549020
0.133333 0.341176 0.552941
0.176471 0.341176 0.537255
0.262745 0.329412 0.541176
0.380392 0.329412 0.549020
0.482353 0.329412 0.552941
0.603922 0.325490 0.545098
0.733333 0.321569 0.549020
0.866667 0.313725 0.552941
0.992157 0.294118 0.568627
0.000000 0.458824 0.529412
0.109804 0.454902 0.541176
0.231373 0.450980 0.533333
0.349020 0.450980 0.541176
0.482353 0.443137 0.545098
0.607843 0.439216 0.545098
0.737255 0.447059 0.552941
0.878431 0.435294 0.545098
0.996078 0.419608 0.560784
0.003922 0.537255 0.490196
0.000000 0.541176 0.474510
0.141176 0.549020 0.490196
0.282353 0.549020 0.490196
0.411765 0.560784 0.501961
0.607843 0.576471 0.533333
0.749020 0.596078 0.568627
0.878431 0.603922 0.576471
0.996078 0.607843 0.588235
0.007843 0.623529 0.345098
0.000000 0.623529 0.341176
0.000000 0.619608 0.321569
0.047059 0.627451 0.329412
0.419608 0.615686 0.376471
0.564706 0.600000 0.352941
0.741176 0.698039 0.490196
0.898039 0.745098 0.584314
0.992157 0.784314 0.658824
0.000000 0.737255 0.172549
0.003922 0.737255 0.176471
0.000000 0.729412 0.200000
0.266667 0.721569 0.239216
0.435294 0.705882 0.200000
0.584314 0.678431 0.137255
0.741176 0.752941 0.247059
0.898039 0.827451 0.427451
1.000000 0.866667 0.549020
0.000000 0.952941 0.000000
0.003922 0.945098 0.000000
0.188235 0.945098 0.000000
0.384314 0.952941 0.000000
0.560784 0.945098 0.000000
0.745098 0.945098 0.000000
0.905882 0.968627 0.003922
1.000000 0.980392 0.164706
1.000000 0.988235 0.396078
0.129412 0.015686 0.674510
0.192157 0.023529 0.686275
0.282353 0.007843 0.690196
0.384314 0.000000 0.686275
0.490196 0.003922 0.686275
0.615686 0.000000 0.682353
0.729412 0.003922 0.686275
0.854902 0.000000 0.694118
0.996078 0.000000 0.701961
0.137255 0.117647 0.690196
0.192157 0.105882 0.670588
0.270588 0.117647 0.686275
0.392157 0.105882 0.698039
0.501961 0.094118 0.686275
0.607843 0.070588 0.686275
0.741176 0.015686 0.694118
0.858824 0.000000 0.682353
0.996078 0.000000 0.701961
0.129412 0.215686 0.690196
0.180392 0.223529 0.678431
0.274510 0.215686 0.682353
0.384314 0.211765 0.686275
0.494118 0.215686 0.678431
0.611765 0.196078 0.698039
0.733333 0.184314 0.682353
0.862745 0.160784 0.690196
0.992157 0.109804 0.682353
0.039216 0.333333 0.690196
0.129412 0.329412 0.678431
0.235294 0.329412 0.674510
0.360784 0.325490 0.674510
0.498039 0.325490 0.698039
0.619608 0.317647 0.694118
0.745098 0.305882 0.705882
0.874510 0.301961 0.698039
1.000000 0.282353 0.698039
0.000000 0.462745 0.682353
0.050980 0.458824 0.690196
0.207843 0.450980 0.690196
0.337255 0.447059 0.694118
0.474510 0.439216 0.686275
0.611765 0.435294 0.690196
0.741176 0.431373 0.690196
0.882353 0.427451 0.690196
0.992157 0.419608 0.674510
0.007843 0.580392 0.662745
0.000000 0.592157 0.662745
0.007843 0.580392 0.662745
0.258824 0.576471 0.682353
0.454902 0.576471 0.686275
0.600000 0.572549 0.694118
0.745098 0.576471 0.686275
0.878431 0.568627 0.694118
1.000000 0.568627 0.674510
0.000000 0.674510 0.596078
0.011765 0.670588 0.603922
0.000000 0.674510 0.596078
0.000000 0.678431 0.603922
0.329412 0.686275 0.615686
0.545098 0.694118 0.627451
0.741176 0.725490 0.690196
0.898039 0.745098 0.717647
1.000000 0.749020 0.741176
0.000000 0.776471 0.458824
0.000000 0.784314 0.454902
0.000000 0.776471 0.435294
0.000000 0.780392 0.423529
0.000000 0.780392 0.423529
0.462745 0.760784 0.466667
0.670588 0.729412 0.396078
0.890196 0.839216 0.631373
0.992157 0.882353 0.729412
0.007843 0.980392 0.086275
0.000000 0.980392 0.039216
0.000000 0.984314 0.101961
0.003922 0.980392 0.164706
0.007843 0.976471 0.243137
0.490196 0.976471 0.184314
0.815686 0.980392 0.000000
0.992157 0.988235 0.384314
0.996078 1.000000 0.603922
0.125490 0.000000 0.823529
0.184314 0.003922 0.843137
0.286275 0.000000 0.835294
0.392157 0.000000 0.831373
0.498039 0.003922 0.839216
0.639216 0.000000 0.843137
0.768627 0.000000 0.839216
0.886275 0.000000 0.839216
1.000000 0.003922 0.827451
0.109804 0.101961 0.827451
0.172549 0.098039 0.831373
0.278431 0.094118 0.839216
0.396078 0.086275 0.831373
0.505882 0.058824 0.839216
0.639216 0.003922 0.827451
0.764706 0.003922 0.831373
0.890196 0.003922 0.843137
0.996078 0.000000 0.839216
0.066667 0.215686 0.847059
0.156863 0.219608 0.835294
0.270588 0.207843 0.839216
0.384314 0.203922 0.831373
0.501961 0.196078 0.839216
0.639216 0.180392 0.839216
0.768627 0.156863 0.839216
0.886275 0.113725 0.839216
0.996078 0.066667 0.835294
0.000000 0.321569 0.843137
0.023529 0.325490 0.835294
0.215686 0.321569 0.843137
0.364706 0.321569 0.839216
0.494118 0.313725 0.843137
0.627451 0.305882 0.839216
0.768627 0.294118 0.847059
0.894118 0.278431 0.839216
1.000000 0.270588 0.839216
0.000000 0.450980 0.839216
0.003922 0.454902 0.843137
0.117647 0.443137 0.850980
0.301961 0.439216 0.839216
0.478431 0.435294 0.843137
0.615686 0.431373 0.847059
0.760784 0.423529 0.843137
0.905882 0.411765 0.843137
0.996078 0.411765 0.831373
0.003922 0.592157 0.831373
0.003922 0.592157 0.831373
0.003922 0.588235 0.839216
0.254902 0.580392 0.839216
0.439216 0.576471 0.843137
0.596078 0.568627 0.839216
0.760784 0.564706 0.843137
0.890196 0.564706 0.847059
0.996078 0.556863 0.823529
0.011765 0.729412 0.823529
0.007843 0.725490 0.819608
0.000000 0.729412 0.819608
0.000000 0.725490 0.815686
0.352941 0.721569 0.831373
0.580392 0.721569 0.847059
0.729412 0.725490 0.850980
0.901961 0.717647 0.850980
0.996078 0.717647 0.843137
0.003922 0.839216 0.749020
0.000000 0.843137 0.749020
0.000000 0.843137 0.752941
0.003922 0.839216 0.752941
0.011765 0.835294 0.752941
0.415686 0.835294 0.756863
0.643137 0.843137 0.776471
0.882353 0.862745 0.847059
1.000000 0.898039 0.886275
0.007843 1.000000 0.615686
0.000000 0.996078 0.619608
0.000000 1.000000 0.607843
0.007843 0.996078 0.600000
0.000000 1.000000 0.576471
0.000000 1.000000 0.568627
0.517647 0.992157 0.619608
0.929412 1.000000 0.584314
0.992157 0.992157 0.843137
0.090196 0.000000 0.988235
0.164706 0.000000 0.980392
0.278431 0.000000 0.988235
0.396078 0.000000 0.988235
0.521569 0.003922 0.992157
0.654902 0.000000 1.000000
0.776471 0.000000 0.992157
0.905882 0.003922 0.988235
0.992157 0.011765 0.992157
0.086275 0.078431 0.984314
0.160784 0.074510 0.988235
0.278431 0.066667 0.992157
0.396078 0.047059 0.988235
0.521569 0.003922 0.992157
0.650980 0.000000 0.988235
0.788235 0.000000 0.996078
0.905882 0.003922 0.988235
1.000000 0.000000 0.988235
0.003922 0.203922 1.000000
0.109804 0.211765 0.992157
0.250980 0.200000 1.000000
0.388235 0.184314 0.992157
0.513725 0.180392 0.992157
0.650980 0.152941 1.000000
0.772549 0.121569 1.000000
0.913725 0.035294 1.000000
0.992157 0.003922 0.988235
0.003922 0.317647 0.996078
0.000000 0.313725 0.992157
0.176471 0.317647 0.992157
0.345098 0.313725 0.984314
0.498039 0.309804 0.992157
0.631373 0.298039 1.000000
0.772549 0.278431 1.000000
0.905882 0.262745 0.996078
1.000000 0.231373 1.000000
0.003922 0.439216 0.992157
0.000000 0.443137 1.000000
0.000000 0.431373 0.992157
0.286275 0.431373 0.988235
0.458824 0.431373 0.988235
0.611765 0.423529 0.992157
0.764706 0.419608 1.000000
0.901961 0.411765 0.992157
1.000000 0.388235 1.000000
0.000000 0.588235 1.000000
0.003922 0.588235 0.996078
0.003922 0.576471 0.996078
0.164706 0.564706 0.996078
0.403922 0.560784 0.996078
0.592157 0.560784 0.996078
0.749020 0.560784 1.000000
0.898039 0.560784 0.996078
0.992157 0.552941 0.984314
0.011765 0.737255 0.996078
0.007843 0.733333 0.984314
0.003922 0.733333 0.992157
0.007843 0.733333 0.992157
0.376471 0.713725 1.000000
0.564706 0.713725 1.000000
0.737255 0.713725 1.000000
0.890196 0.709804 0.996078
1.000000 0.705882 1.000000
0.003922 0.905882 0.996078
0.011765 0.898039 0.992157
0.000000 0.890196 0.988235
0.000000 0.898039 0.992157
0.000000 0.882353 0.984314
0.454902 0.870588 0.996078
0.698039 0.866667 0.992157
0.874510 0.870588 0.996078
0.996078 0.874510 1.000000
0.011765 0.996078 0.956863
0.003922 0.996078 0.952941
0.000000 1.000000 0.956863
0.000000 0.996078 0.956863
0.007843 1.000000 0.956863
0.000000 1.000000 0.968627
0.584314 1.000000 0.972549
0.870588 0.996078 0.984314
1.000000 1.000000 1.000000
