lut_library_archive/removed_20260629/50个风景lut/50个风景lut23.cube
# 版权归凌孟成所有，侵权必究
TITLE "Jungle LUT #23"
#LUT size
LUT_3D_SIZE 5
#LUT data points
0.062745 0.058824 0.043137
0.262745 0.031373 0.054902
0.482353 0.090196 0.058824
0.733333 0.172549 0.117647
1.000000 0.254902 0.184314
0.011765 0.266667 0.000000
0.266667 0.262745 0.003922
0.470588 0.266667 0.082353
0.729412 0.309804 0.137255
1.000000 0.360784 0.192157
0.054902 0.478431 0.000000
0.239216 0.470588 0.000000
0.478431 0.470588 0.003922
0.729412 0.501961 0.070588
0.992157 0.560784 0.219608
0.007843 0.745098 0.000000
0.243137 0.737255 0.003922
0.494118 0.737255 0.000000
0.752941 0.737255 0.003922
1.000000 0.760784 0.000000
0.000000 1.000000 0.000000
0.180392 0.996078 0.007843
0.490196 1.000000 0.000000
0.756863 1.000000 0.000000
1.000000 1.000000 0.003922
0.019608 0.047059 0.219608
0.282353 0.015686 0.215686
0.494118 0.101961 0.211765
0.737255 0.203922 0.250980
1.000000 0.262745 0.286275
0.058824 0.262745 0.211765
0.274510 0.258824 0.215686
0.478431 0.286275 0.227451
0.733333 0.321569 0.254902
1.000000 0.372549 0.286275
0.109804 0.478431 0.172549
0.258824 0.482353 0.172549
0.486275 0.474510 0.164706
0.737255 0.505882 0.239216
0.996078 0.560784 0.309804
0.000000 0.741176 0.019608
0.223529 0.741176 0.007843
0.486275 0.741176 0.003922
0.752941 0.752941 0.000000
1.000000 0.756863 0.160784
0.000000 1.000000 0.003922
0.070588 1.000000 0.003922
0.466667 1.000000 0.000000
0.745098 1.000000 0.003922
1.000000 1.000000 0.000000
0.129412 0.031373 0.392157
0.270588 0.039216 0.400000
0.490196 0.039216 0.403922
0.721569 0.054902 0.411765
1.000000 0.152941 0.439216
0.137255 0.243137 0.411765
0.274510 0.239216 0.407843
0.490196 0.243137 0.415686
0.733333 0.243137 0.407843
1.000000 0.313725 0.458824
0.141176 0.474510 0.392157
0.266667 0.470588 0.411765
0.482353 0.470588 0.396078
0.756863 0.517647 0.447059
0.996078 0.584314 0.509804
0.000000 0.749020 0.372549
0.000000 0.749020 0.345098
0.447059 0.745098 0.349020
0.756863 0.752941 0.329412
1.000000 0.780392 0.478431
0.000000 1.000000 0.239216
0.003922 1.000000 0.266667
0.400000 0.996078 0.247059
0.733333 0.996078 0.239216
0.992157 1.000000 0.247059
0.152941 0.019608 0.694118
0.282353 0.019608 0.678431
0.505882 0.000000 0.678431
0.752941 0.000000 0.686275
1.000000 0.003922 0.701961
0.117647 0.235294 0.682353
0.286275 0.231373 0.674510
0.501961 0.223529 0.694118
0.749020 0.192157 0.694118
0.996078 0.094118 0.690196
0.007843 0.470588 0.682353
0.164706 0.454902 0.694118
0.474510 0.439216 0.701961
0.764706 0.431373 0.694118
0.996078 0.415686 0.690196
0.000000 0.749020 0.698039
0.000000 0.749020 0.717647
0.419608 0.745098 0.698039
0.749020 0.752941 0.698039
0.992157 0.819608 0.784314
0.000000 0.996078 0.678431
0.003922 1.000000 0.654902
0.372549 1.000000 0.654902
0.729412 1.000000 0.666667
0.992157 1.000000 0.670588
0.007843 0.003922 1.000000
0.243137 0.003922 1.000000
0.513725 0.000000 1.000000
0.752941 0.000000 0.996078
1.000000 0.000000 0.996078
0.000000 0.215686 0.996078
0.223529 0.215686 0.988235
0.490196 0.196078 0.996078
0.749020 0.149020 1.000000
1.000000 0.000000 0.996078
0.000000 0.431373 0.992157
0.003922 0.423529 1.000000
0.427451 0.415686 1.000000
0.733333 0.400000 1.000000
0.996078 0.380392 1.000000
0.000000 0.717647 0.992157
0.000000 0.713725 1.000000
0.349020 0.717647 0.992157
0.717647 0.717647 1.000000
1.000000 0.717647 0.996078
0.003922 1.000000 1.000000
0.003922 0.996078 1.000000
0.384314 0.992157 1.000000
0.749020 1.000000 1.000000
1.000000 1.000000 1.000000
