lut_library_archive/removed_20260629/50个风景lut/50个风景lut01.cube
# 版权归凌孟成所有，侵权必究
TITLE "Jungle LUT #1"
#LUT size
LUT_3D_SIZE 9
#LUT data points
0.000000 0.003922 0.000000
0.105882 0.003922 0.000000
0.235294 0.000000 0.000000
0.360784 0.000000 0.003922
0.505882 0.003922 0.000000
0.631373 0.000000 0.000000
0.772549 0.000000 0.000000
0.909804 0.003922 0.000000
0.996078 0.000000 0.000000
0.007843 0.101961 0.007843
0.105882 0.105882 0.003922
0.235294 0.113725 0.000000
0.368627 0.113725 0.003922
0.501961 0.105882 0.000000
0.639216 0.109804 0.003922
0.776471 0.105882 0.003922
0.901961 0.098039 0.000000
0.996078 0.082353 0.000000
0.000000 0.235294 0.000000
0.101961 0.243137 0.000000
0.239216 0.239216 0.003922
0.372549 0.239216 0.000000
0.501961 0.243137 0.003922
0.647059 0.250980 0.000000
0.780392 0.243137 0.000000
0.913725 0.243137 0.000000
1.000000 0.231373 0.000000
0.000000 0.376471 0.000000
0.090196 0.368627 0.000000
0.243137 0.376471 0.000000
0.384314 0.372549 0.000000
0.509804 0.384314 0.000000
0.647059 0.380392 0.000000
0.788235 0.380392 0.000000
0.921569 0.380392 0.003922
1.000000 0.372549 0.003922
0.000000 0.513725 0.011765
0.074510 0.517647 0.000000
0.243137 0.517647 0.000000
0.388235 0.517647 0.003922
0.517647 0.517647 0.000000
0.658824 0.513725 0.000000
0.788235 0.517647 0.003922
0.917647 0.513725 0.000000
1.000000 0.509804 0.000000
0.000000 0.662745 0.000000
0.000000 0.662745 0.000000
0.235294 0.662745 0.000000
0.372549 0.658824 0.000000
0.517647 0.658824 0.000000
0.662745 0.658824 0.000000
0.792157 0.658824 0.000000
0.921569 0.654902 0.000000
1.000000 0.647059 0.000000
0.003922 0.788235 0.000000
0.007843 0.792157 0.000000
0.207843 0.788235 0.011765
0.364706 0.792157 0.000000
0.509804 0.788235 0.000000
0.654902 0.780392 0.000000
0.788235 0.780392 0.000000
0.921569 0.780392 0.011765
1.000000 0.768627 0.000000
0.003922 0.909804 0.007843
0.003922 0.909804 0.000000
0.168627 0.909804 0.000000
0.349020 0.913725 0.000000
0.494118 0.909804 0.000000
0.635294 0.905882 0.000000
0.776471 0.905882 0.000000
0.909804 0.905882 0.000000
0.996078 0.901961 0.000000
0.000000 1.000000 0.000000
0.000000 1.000000 0.003922
0.113725 0.996078 0.000000
0.329412 1.000000 0.003922
0.478431 1.000000 0.000000
0.611765 1.000000 0.000000
0.752941 1.000000 0.000000
0.878431 1.000000 0.000000
0.988235 1.000000 0.000000
0.003922 0.000000 0.086275
0.121569 0.000000 0.078431
0.247059 0.000000 0.074510
0.364706 0.000000 0.074510
0.509804 0.000000 0.050980
0.643137 0.003922 0.047059
0.772549 0.000000 0.000000
0.917647 0.000000 0.003922
0.996078 0.000000 0.000000
0.003922 0.109804 0.074510
0.125490 0.109804 0.074510
0.243137 0.109804 0.066667
0.376471 0.101961 0.062745
0.509804 0.094118 0.043137
0.643137 0.082353 0.019608
0.784314 0.074510 0.000000
0.917647 0.058824 0.011765
0.996078 0.039216 0.007843
0.000000 0.239216 0.039216
0.098039 0.243137 0.031373
0.243137 0.243137 0.031373
0.376471 0.239216 0.023529
0.501961 0.243137 0.015686
0.639216 0.243137 0.000000
0.776471 0.239216 0.000000
0.917647 0.235294 0.000000
0.996078 0.219608 0.000000
0.003922 0.368627 0.003922
0.078431 0.380392 0.003922
0.243137 0.376471 0.000000
0.372549 0.380392 0.000000
0.513725 0.380392 0.000000
0.650980 0.376471 0.000000
0.796078 0.380392 0.003922
0.921569 0.380392 0.003922
1.000000 0.372549 0.000000
0.000000 0.513725 0.000000
0.035294 0.513725 0.007843
0.231373 0.517647 0.000000
0.384314 0.513725 0.000000
0.517647 0.517647 0.000000
0.658824 0.513725 0.000000
0.788235 0.513725 0.000000
0.921569 0.509804 0.007843
1.000000 0.509804 0.007843
0.000000 0.650980 0.000000
0.003922 0.658824 0.000000
0.215686 0.658824 0.000000
0.372549 0.658824 0.003922
0.517647 0.654902 0.003922
0.658824 0.654902 0.003922
0.796078 0.650980 0.000000
0.925490 0.643137 0.000000
1.000000 0.643137 0.003922
0.000000 0.788235 0.000000
0.000000 0.780392 0.007843
0.184314 0.788235 0.000000
0.360784 0.784314 0.003922
0.517647 0.788235 0.000000
0.650980 0.784314 0.000000
0.792157 0.784314 0.003922
0.921569 0.780392 0.003922
1.000000 0.772549 0.000000
0.003922 0.909804 0.000000
0.000000 0.913725 0.000000
0.152941 0.909804 0.000000
0.345098 0.905882 0.000000
0.490196 0.913725 0.000000
0.639216 0.909804 0.003922
0.776471 0.905882 0.000000
0.909804 0.905882 0.000000
0.992157 0.905882 0.000000
0.007843 0.988235 0.007843
0.000000 1.000000 0.003922
0.078431 1.000000 0.000000
0.313725 1.000000 0.007843
0.478431 1.000000 0.000000
0.611765 1.000000 0.000000
0.741176 1.000000 0.000000
0.882353 1.000000 0.003922
0.988235 1.000000 0.000000
0.027451 0.003922 0.192157
0.145098 0.003922 0.200000
0.243137 0.007843 0.207843
0.380392 0.003922 0.200000
0.505882 0.000000 0.192157
0.643137 0.003922 0.196078
0.788235 0.000000 0.176471
0.917647 0.000000 0.168627
1.000000 0.000000 0.149020
0.003922 0.105882 0.203922
0.121569 0.098039 0.200000
0.247059 0.098039 0.200000
0.380392 0.086275 0.203922
0.509804 0.074510 0.200000
0.647059 0.035294 0.180392
0.780392 0.003922 0.172549
0.929412 0.003922 0.164706
1.000000 0.000000 0.152941
0.000000 0.243137 0.200000
0.109804 0.239216 0.196078
0.250980 0.235294 0.192157
0.380392 0.239216 0.192157
0.505882 0.231373 0.192157
0.650980 0.227451 0.180392
0.788235 0.219608 0.168627
0.925490 0.211765 0.160784
1.000000 0.207843 0.137255
0.000000 0.376471 0.180392
0.011765 0.380392 0.176471
0.231373 0.384314 0.168627
0.384314 0.372549 0.164706
0.513725 0.372549 0.168627
0.650980 0.368627 0.172549
0.792157 0.372549 0.168627
0.921569 0.368627 0.156863
1.000000 0.364706 0.145098
0.000000 0.525490 0.133333
0.003922 0.517647 0.141176
0.207843 0.521569 0.141176
0.376471 0.517647 0.133333
0.525490 0.513725 0.133333
0.658824 0.509804 0.121569
0.796078 0.509804 0.141176
0.921569 0.509804 0.152941
0.996078 0.501961 0.133333
0.007843 0.662745 0.113725
0.000000 0.666667 0.113725
0.188235 0.662745 0.109804
0.364706 0.654902 0.101961
0.513725 0.658824 0.101961
0.658824 0.654902 0.090196
0.796078 0.654902 0.082353
0.925490 0.643137 0.101961
1.000000 0.635294 0.121569
0.003922 0.792157 0.078431
0.000000 0.788235 0.074510
0.137255 0.788235 0.082353
0.341176 0.796078 0.070588
0.494118 0.792157 0.070588
0.647059 0.784314 0.070588
0.792157 0.788235 0.082353
0.921569 0.784314 0.090196
0.996078 0.772549 0.086275
0.003922 0.909804 0.078431
0.000000 0.909804 0.094118
0.074510 0.913725 0.082353
0.317647 0.913725 0.101961
0.486275 0.913725 0.101961
0.627451 0.913725 0.078431
0.768627 0.905882 0.098039
0.905882 0.901961 0.101961
0.988235 0.898039 0.113725
0.000000 0.996078 0.141176
0.000000 1.000000 0.137255
0.007843 1.000000 0.129412
0.286275 0.992157 0.149020
0.454902 1.000000 0.141176
0.607843 1.000000 0.156863
0.745098 0.996078 0.168627
0.874510 1.000000 0.180392
0.992157 1.000000 0.196078
0.015686 0.000000 0.368627
0.117647 0.003922 0.368627
0.235294 0.003922 0.364706
0.376471 0.000000 0.376471
0.501961 0.003922 0.384314
0.647059 0.000000 0.388235
0.788235 0.000000 0.376471
0.925490 0.000000 0.364706
1.000000 0.003922 0.349020
0.000000 0.082353 0.376471
0.086275 0.082353 0.380392
0.223529 0.074510 0.368627
0.380392 0.050980 0.384314
0.521569 0.043137 0.384314
0.643137 0.007843 0.376471
0.788235 0.000000 0.376471
0.925490 0.000000 0.364706
1.000000 0.000000 0.360784
0.015686 0.231373 0.392157
0.000000 0.227451 0.384314
0.215686 0.223529 0.376471
0.380392 0.219608 0.384314
0.513725 0.219608 0.372549
0.654902 0.215686 0.380392
0.788235 0.207843 0.380392
0.921569 0.180392 0.360784
1.000000 0.172549 0.349020
0.000000 0.372549 0.396078
0.000000 0.380392 0.392157
0.203922 0.380392 0.392157
0.368627 0.364706 0.384314
0.505882 0.368627 0.384314
0.643137 0.368627 0.380392
0.792157 0.364706 0.384314
0.929412 0.356863 0.376471
1.000000 0.345098 0.364706
0.003922 0.521569 0.400000
0.000000 0.521569 0.384314
0.145098 0.521569 0.376471
0.345098 0.521569 0.368627
0.513725 0.513725 0.364706
0.650980 0.509804 0.368627
0.788235 0.509804 0.392157
0.917647 0.501961 0.376471
1.000000 0.486275 0.380392
0.000000 0.666667 0.368627
0.003922 0.662745 0.360784
0.027451 0.662745 0.360784
0.329412 0.658824 0.364706
0.498039 0.662745 0.372549
0.654902 0.654902 0.364706
0.796078 0.647059 0.360784
0.917647 0.643137 0.372549
0.996078 0.631373 0.376471
0.000000 0.788235 0.368627
0.003922 0.792157 0.372549
0.007843 0.788235 0.360784
0.298039 0.792157 0.352941
0.482353 0.784314 0.368627
0.635294 0.788235 0.360784
0.780392 0.788235 0.368627
0.917647 0.784314 0.360784
0.996078 0.772549 0.368627
0.000000 0.913725 0.380392
0.000000 0.917647 0.372549
0.000000 0.913725 0.376471
0.270588 0.913725 0.372549
0.450980 0.905882 0.368627
0.607843 0.909804 0.360784
0.756863 0.905882 0.368627
0.905882 0.905882 0.380392
0.996078 0.901961 0.368627
0.003922 0.992157 0.392157
0.000000 1.000000 0.380392
0.000000 1.000000 0.380392
0.239216 0.992157 0.384314
0.431373 1.000000 0.392157
0.584314 0.996078 0.388235
0.729412 1.000000 0.400000
0.866667 1.000000 0.407843
0.996078 0.996078 0.407843
0.011765 0.003922 0.576471
0.007843 0.000000 0.580392
0.176471 0.003922 0.580392
0.345098 0.000000 0.580392
0.486275 0.000000 0.588235
0.631373 0.000000 0.588235
0.780392 0.000000 0.588235
0.909804 0.003922 0.592157
1.000000 0.000000 0.580392
0.003922 0.078431 0.588235
0.000000 0.074510 0.588235
0.172549 0.066667 0.580392
0.337255 0.035294 0.592157
0.501961 0.000000 0.592157
0.635294 0.000000 0.592157
0.780392 0.000000 0.600000
0.909804 0.003922 0.584314
0.996078 0.000000 0.576471
0.000000 0.215686 0.580392
0.000000 0.211765 0.592157
0.125490 0.215686 0.584314
0.333333 0.207843 0.611765
0.490196 0.196078 0.600000
0.643137 0.184314 0.592157
0.780392 0.184314 0.588235
0.921569 0.164706 0.584314
1.000000 0.152941 0.572549
0.003922 0.360784 0.607843
0.003922 0.364706 0.596078
0.007843 0.360784 0.603922
0.309804 0.352941 0.600000
0.490196 0.349020 0.600000
0.635294 0.360784 0.603922
0.784314 0.352941 0.600000
0.913725 0.349020 0.592157
0.996078 0.341176 0.584314
0.000000 0.517647 0.603922
0.000000 0.525490 0.619608
0.000000 0.521569 0.619608
0.290196 0.509804 0.607843
0.482353 0.513725 0.603922
0.627451 0.509804 0.603922
0.776471 0.509804 0.607843
0.909804 0.501961 0.600000
1.000000 0.490196 0.592157
0.000000 0.666667 0.603922
0.007843 0.658824 0.611765
0.007843 0.658824 0.603922
0.239216 0.658824 0.596078
0.454902 0.654902 0.588235
0.639216 0.654902 0.596078
0.776471 0.647059 0.588235
0.905882 0.643137 0.607843
1.000000 0.639216 0.596078
0.000000 0.796078 0.588235
0.000000 0.792157 0.588235
0.000000 0.796078 0.580392
0.188235 0.792157 0.580392
0.431373 0.796078 0.580392
0.611765 0.784314 0.576471
0.772549 0.792157 0.580392
0.913725 0.772549 0.576471
1.000000 0.768627 0.580392
0.000000 0.917647 0.576471
0.007843 0.913725 0.584314
0.007843 0.913725 0.568627
0.168627 0.909804 0.572549
0.423529 0.909804 0.572549
0.588235 0.909804 0.576471
0.737255 0.909804 0.576471
0.890196 0.905882 0.572549
1.000000 0.894118 0.568627
0.000000 1.000000 0.572549
0.000000 0.996078 0.580392
0.000000 1.000000 0.572549
0.141176 1.000000 0.576471
0.396078 1.000000 0.576471
0.568627 0.996078 0.576471
0.721569 1.000000 0.584314
0.854902 1.000000 0.584314
0.988235 1.000000 0.588235
0.007843 0.000000 0.764706
0.003922 0.000000 0.745098
0.074510 0.000000 0.752941
0.305882 0.003922 0.756863
0.462745 0.003922 0.764706
0.623529 0.000000 0.756863
0.768627 0.000000 0.768627
0.898039 0.003922 0.760784
1.000000 0.000000 0.752941
0.000000 0.062745 0.760784
0.003922 0.050980 0.756863
0.031373 0.031373 0.745098
0.301961 0.003922 0.764706
0.470588 0.000000 0.764706
0.627451 0.000000 0.768627
0.772549 0.000000 0.768627
0.909804 0.003922 0.764706
0.996078 0.007843 0.756863
0.003922 0.200000 0.776471
0.000000 0.192157 0.764706
0.003922 0.200000 0.772549
0.301961 0.184314 0.764706
0.470588 0.180392 0.764706
0.619608 0.160784 0.772549
0.772549 0.145098 0.764706
0.909804 0.137255 0.752941
1.000000 0.117647 0.737255
0.000000 0.356863 0.772549
0.007843 0.345098 0.772549
0.000000 0.337255 0.772549
0.254902 0.341176 0.776471
0.454902 0.341176 0.772549
0.631373 0.329412 0.776471
0.776471 0.333333 0.764706
0.913725 0.337255 0.756863
1.000000 0.337255 0.756863
0.007843 0.501961 0.772549
0.003922 0.498039 0.768627
0.007843 0.501961 0.772549
0.211765 0.498039 0.768627
0.431373 0.498039 0.768627
0.619608 0.490196 0.776471
0.776471 0.490196 0.760784
0.898039 0.498039 0.756863
1.000000 0.494118 0.752941
0.007843 0.654902 0.772549
0.003922 0.658824 0.764706
0.003922 0.654902 0.772549
0.176471 0.654902 0.784314
0.431373 0.654902 0.768627
0.611765 0.647059 0.768627
0.760784 0.647059 0.764706
0.894118 0.647059 0.760784
0.992157 0.643137 0.752941
0.007843 0.792157 0.772549
0.000000 0.788235 0.756863
0.000000 0.788235 0.749020
0.101961 0.788235 0.752941
0.407843 0.788235 0.752941
0.596078 0.792157 0.749020
0.760784 0.792157 0.749020
0.901961 0.780392 0.760784
1.000000 0.772549 0.760784
0.000000 0.917647 0.749020
0.003922 0.913725 0.749020
0.003922 0.909804 0.737255
0.082353 0.913725 0.745098
0.396078 0.909804 0.737255
0.572549 0.905882 0.741176
0.733333 0.909804 0.741176
0.886275 0.905882 0.749020
1.000000 0.894118 0.733333
0.000000 0.996078 0.729412
0.000000 1.000000 0.733333
0.000000 0.996078 0.741176
0.149020 1.000000 0.737255
0.392157 1.000000 0.733333
0.564706 1.000000 0.733333
0.713725 0.996078 0.745098
0.862745 1.000000 0.741176
0.980392 1.000000 0.741176
0.000000 0.000000 0.882353
0.000000 0.000000 0.882353
0.003922 0.000000 0.882353
0.282353 0.000000 0.878431
0.462745 0.000000 0.878431
0.615686 0.000000 0.886275
0.756863 0.000000 0.882353
0.909804 0.007843 0.890196
1.000000 0.000000 0.882353
0.000000 0.031373 0.882353
0.003922 0.019608 0.886275
0.000000 0.000000 0.882353
0.298039 0.000000 0.890196
0.458824 0.003922 0.886275
0.615686 0.003922 0.886275
0.756863 0.003922 0.886275
0.905882 0.003922 0.878431
0.992157 0.000000 0.874510
0.000000 0.192157 0.878431
0.000000 0.196078 0.898039
0.000000 0.188235 0.886275
0.270588 0.180392 0.886275
0.443137 0.168627 0.890196
0.607843 0.152941 0.894118
0.760784 0.121569 0.886275
0.905882 0.082353 0.886275
1.000000 0.078431 0.858824
0.000000 0.333333 0.890196
0.000000 0.329412 0.894118
0.000000 0.333333 0.890196
0.235294 0.325490 0.882353
0.439216 0.325490 0.890196
0.611765 0.317647 0.886275
0.768627 0.317647 0.894118
0.917647 0.309804 0.890196
1.000000 0.317647 0.874510
0.003922 0.486275 0.894118
0.003922 0.486275 0.882353
0.000000 0.486275 0.894118
0.164706 0.482353 0.894118
0.411765 0.478431 0.890196
0.596078 0.474510 0.890196
0.772549 0.470588 0.886275
0.913725 0.474510 0.882353
1.000000 0.474510 0.874510
0.003922 0.635294 0.886275
0.000000 0.639216 0.890196
0.003922 0.635294 0.878431
0.121569 0.635294 0.878431
0.400000 0.635294 0.878431
0.592157 0.631373 0.878431
0.768627 0.631373 0.890196
0.901961 0.635294 0.874510
0.996078 0.643137 0.882353
0.000000 0.784314 0.882353
0.003922 0.788235 0.878431
0.003922 0.788235 0.878431
0.098039 0.788235 0.878431
0.407843 0.792157 0.882353
0.603922 0.792157 0.882353
0.752941 0.784314 0.874510
0.890196 0.780392 0.878431
0.992157 0.788235 0.874510
0.000000 0.913725 0.870588
0.003922 0.909804 0.866667
0.000000 0.905882 0.862745
0.113725 0.909804 0.866667
0.407843 0.913725 0.866667
0.580392 0.905882 0.858824
0.737255 0.905882 0.866667
0.882353 0.905882 0.858824
1.000000 0.894118 0.850980
0.000000 1.000000 0.843137
0.000000 1.000000 0.850980
0.000000 1.000000 0.843137
0.200000 0.996078 0.847059
0.427451 1.000000 0.854902
0.588235 0.996078 0.850980
0.733333 1.000000 0.847059
0.862745 0.996078 0.850980
0.980392 0.996078 0.850980
0.000000 0.000000 0.972549
0.003922 0.003922 0.976471
0.090196 0.003922 0.976471
0.309804 0.003922 0.968627
0.466667 0.003922 0.972549
0.611765 0.007843 0.972549
0.752941 0.003922 0.968627
0.886275 0.000000 0.976471
1.000000 0.000000 0.976471
0.000000 0.003922 0.976471
0.000000 0.000000 0.980392
0.043137 0.000000 0.964706
0.305882 0.000000 0.972549
0.462745 0.000000 0.976471
0.607843 0.000000 0.964706
0.749020 0.003922 0.976471
0.894118 0.003922 0.980392
1.000000 0.003922 0.976471
0.000000 0.188235 0.964706
0.000000 0.184314 0.972549
0.000000 0.176471 0.972549
0.274510 0.164706 0.972549
0.458824 0.152941 0.976471
0.607843 0.145098 0.976471
0.749020 0.117647 0.972549
0.901961 0.074510 0.980392
1.000000 0.000000 0.976471
0.000000 0.325490 0.968627
0.000000 0.325490 0.976471
0.003922 0.321569 0.984314
0.247059 0.317647 0.976471
0.443137 0.321569 0.972549
0.596078 0.309804 0.972549
0.760784 0.305882 0.976471
0.894118 0.298039 0.976471
1.000000 0.290196 0.968627
0.000000 0.474510 0.964706
0.000000 0.466667 0.968627
0.000000 0.470588 0.968627
0.184314 0.462745 0.964706
0.411765 0.462745 0.980392
0.588235 0.458824 0.968627
0.745098 0.458824 0.972549
0.901961 0.458824 0.972549
1.000000 0.458824 0.968627
0.007843 0.623529 0.964706
0.007843 0.623529 0.972549
0.000000 0.619608 0.968627
0.164706 0.615686 0.972549
0.407843 0.619608 0.964706
0.592157 0.619608 0.964706
0.749020 0.619608 0.968627
0.894118 0.619608 0.964706
1.000000 0.623529 0.945098
0.000000 0.756863 0.964706
0.000000 0.760784 0.968627
0.000000 0.764706 0.949020
0.184314 0.768627 0.968627
0.427451 0.764706 0.956863
0.603922 0.768627 0.956863
0.756863 0.772549 0.960784
0.898039 0.776471 0.949020
1.000000 0.780392 0.956863
0.011765 0.909804 0.952941
0.000000 0.905882 0.952941
0.000000 0.909804 0.945098
0.207843 0.901961 0.960784
0.435294 0.901961 0.949020
0.607843 0.905882 0.956863
0.756863 0.898039 0.945098
0.890196 0.905882 0.949020
1.000000 0.905882 0.960784
0.003922 0.996078 0.945098
0.003922 1.000000 0.937255
0.000000 1.000000 0.937255
0.258824 1.000000 0.941176
0.458824 1.000000 0.937255
0.615686 1.000000 0.933333
0.760784 1.000000 0.941176
0.878431 1.000000 0.941176
0.988235 0.996078 0.941176
0.000000 0.003922 0.996078
0.000000 0.000000 0.992157
0.184314 0.000000 1.000000
0.341176 0.000000 1.000000
0.478431 0.003922 0.996078
0.627451 0.003922 0.996078
0.752941 0.003922 1.000000
0.886275 0.003922 1.000000
1.000000 0.000000 1.000000
0.000000 0.000000 0.996078
0.000000 0.003922 0.996078
0.164706 0.000000 1.000000
0.345098 0.000000 1.000000
0.482353 0.000000 1.000000
0.615686 0.000000 1.000000
0.749020 0.000000 0.996078
0.882353 0.000000 0.996078
1.000000 0.000000 1.000000
0.000000 0.180392 1.000000
0.000000 0.176471 0.996078
0.125490 0.172549 0.988235
0.317647 0.168627 0.996078
0.470588 0.152941 1.000000
0.615686 0.141176 1.000000
0.752941 0.117647 1.000000
0.890196 0.086275 1.000000
0.992157 0.023529 0.992157
0.000000 0.309804 1.000000
0.000000 0.313725 1.000000
0.003922 0.317647 0.992157
0.290196 0.317647 1.000000
0.462745 0.309804 1.000000
0.611765 0.309804 1.000000
0.752941 0.301961 1.000000
0.886275 0.294118 1.000000
1.000000 0.290196 1.000000
0.000000 0.454902 1.000000
0.007843 0.454902 1.000000
0.011765 0.447059 1.000000
0.250980 0.450980 1.000000
0.454902 0.450980 1.000000
0.600000 0.454902 1.000000
0.745098 0.454902 1.000000
0.886275 0.450980 1.000000
0.996078 0.443137 0.992157
0.000000 0.600000 1.000000
0.000000 0.600000 1.000000
0.011765 0.600000 1.000000
0.235294 0.600000 0.996078
0.435294 0.600000 1.000000
0.600000 0.600000 0.992157
0.745098 0.603922 0.996078
0.886275 0.611765 1.000000
1.000000 0.611765 0.996078
0.007843 0.737255 1.000000
0.000000 0.745098 0.988235
0.000000 0.741176 1.000000
0.286275 0.741176 1.000000
0.454902 0.749020 1.000000
0.615686 0.749020 1.000000
0.756863 0.756863 1.000000
0.882353 0.760784 0.996078
1.000000 0.756863 1.000000
0.007843 0.878431 0.992157
0.000000 0.870588 0.992157
0.000000 0.878431 1.000000
0.290196 0.882353 0.996078
0.474510 0.878431 0.996078
0.623529 0.886275 1.000000
0.764706 0.886275 1.000000
0.894118 0.894118 1.000000
1.000000 0.894118 1.000000
0.000000 1.000000 0.988235
0.000000 1.000000 1.000000
0.160784 1.000000 1.000000
0.356863 1.000000 0.996078
0.513725 1.000000 1.000000
0.662745 0.996078 1.000000
0.788235 1.000000 1.000000
0.913725 0.996078 1.000000
1.000000 0.996078 1.000000
