lut_library_archive/removed_20260629/50个风景lut/50个风景lut39.cube
# 版权归凌孟成所有，侵权必究
TITLE "Jungle LUT #39"
#LUT size
LUT_3D_SIZE 5
#LUT data points
0.003922 0.000000 0.000000
0.231373 0.003922 0.000000
0.486275 0.000000 0.007843
0.768627 0.003922 0.035294
1.000000 0.054902 0.082353
0.000000 0.239216 0.000000
0.219608 0.235294 0.000000
0.490196 0.250980 0.070588
0.768627 0.274510 0.086275
1.000000 0.282353 0.133333
0.000000 0.501961 0.000000
0.223529 0.505882 0.011765
0.498039 0.509804 0.003922
0.776471 0.525490 0.101961
0.996078 0.560784 0.250980
0.000000 0.776471 0.000000
0.164706 0.776471 0.000000
0.498039 0.772549 0.000000
0.760784 0.776471 0.000000
1.000000 0.776471 0.074510
0.007843 1.000000 0.000000
0.101961 1.000000 0.000000
0.470588 1.000000 0.007843
0.741176 0.996078 0.000000
0.992157 0.996078 0.000000
0.003922 0.000000 0.243137
0.239216 0.003922 0.239216
0.494118 0.003922 0.239216
0.768627 0.003922 0.243137
0.996078 0.003922 0.235294
0.000000 0.235294 0.243137
0.235294 0.227451 0.239216
0.490196 0.239216 0.243137
0.764706 0.247059 0.258824
1.000000 0.266667 0.270588
0.007843 0.501961 0.215686
0.196078 0.509804 0.223529
0.494118 0.509804 0.219608
0.772549 0.533333 0.290196
1.000000 0.560784 0.333333
0.000000 0.772549 0.164706
0.121569 0.772549 0.168627
0.470588 0.784314 0.160784
0.764706 0.780392 0.156863
0.996078 0.780392 0.286275
0.000000 1.000000 0.082353
0.074510 1.000000 0.066667
0.474510 1.000000 0.070588
0.741176 1.000000 0.066667
0.992157 1.000000 0.082353
0.054902 0.000000 0.474510
0.254902 0.000000 0.478431
0.505882 0.003922 0.486275
0.772549 0.000000 0.482353
1.000000 0.000000 0.486275
0.000000 0.227451 0.494118
0.231373 0.219608 0.490196
0.513725 0.211765 0.494118
0.776471 0.200000 0.482353
1.000000 0.168627 0.478431
0.003922 0.501961 0.498039
0.188235 0.505882 0.486275
0.498039 0.501961 0.482353
0.776471 0.513725 0.490196
1.000000 0.541176 0.505882
0.003922 0.784314 0.466667
0.019608 0.776471 0.450980
0.474510 0.784314 0.454902
0.764706 0.776471 0.458824
0.992157 0.803922 0.560784
0.000000 1.000000 0.427451
0.129412 0.992157 0.435294
0.478431 1.000000 0.431373
0.752941 1.000000 0.439216
1.000000 0.996078 0.431373
0.094118 0.003922 0.756863
0.278431 0.000000 0.745098
0.517647 0.000000 0.745098
0.776471 0.000000 0.741176
1.000000 0.003922 0.737255
0.000000 0.200000 0.745098
0.250980 0.203922 0.737255
0.513725 0.196078 0.749020
0.776471 0.176471 0.745098
0.996078 0.149020 0.741176
0.003922 0.490196 0.733333
0.176471 0.486275 0.749020
0.494118 0.486275 0.749020
0.780392 0.478431 0.745098
0.996078 0.490196 0.749020
0.000000 0.772549 0.737255
0.113725 0.772549 0.745098
0.490196 0.780392 0.729412
0.784314 0.772549 0.745098
1.000000 0.792157 0.768627
0.000000 1.000000 0.713725
0.164706 1.000000 0.717647
0.501961 1.000000 0.721569
0.780392 0.996078 0.729412
0.996078 1.000000 0.733333
0.117647 0.003922 0.992157
0.278431 0.000000 0.988235
0.513725 0.000000 0.988235
0.764706 0.003922 0.980392
0.988235 0.000000 0.984314
0.054902 0.192157 0.996078
0.262745 0.200000 0.972549
0.509804 0.192157 0.980392
0.760784 0.184314 0.988235
1.000000 0.168627 0.984314
0.000000 0.478431 0.992157
0.219608 0.466667 0.980392
0.494118 0.474510 0.984314
0.756863 0.470588 0.984314
1.000000 0.482353 0.984314
0.000000 0.745098 0.980392
0.250980 0.752941 0.980392
0.521569 0.752941 0.972549
0.780392 0.760784 0.972549
1.000000 0.764706 0.968627
0.000000 1.000000 0.949020
0.262745 1.000000 0.945098
0.545098 1.000000 0.949020
0.835294 1.000000 0.945098
1.000000 1.000000 0.941176
