lut_library_archive/removed_20260629/50个风景lut/50个风景lut37.cube
# 版权归凌孟成所有，侵权必究
TITLE "Jungle LUT #37"
#LUT size
LUT_3D_SIZE 25
#LUT data points
0.003922 0.000000 0.000000
0.003922 0.003922 0.000000
0.054902 0.000000 0.000000
0.117647 0.000000 0.000000
0.152941 0.000000 0.000000
0.192157 0.003922 0.003922
0.231373 0.003922 0.000000
0.274510 0.000000 0.003922
0.317647 0.000000 0.011765
0.356863 0.000000 0.000000
0.400000 0.003922 0.003922
0.439216 0.003922 0.000000
0.490196 0.003922 0.011765
0.537255 0.003922 0.011765
0.580392 0.003922 0.007843
0.631373 0.003922 0.019608
0.674510 0.000000 0.015686
0.717647 0.003922 0.023529
0.772549 0.000000 0.035294
0.815686 0.003922 0.043137
0.862745 0.003922 0.050980
0.905882 0.015686 0.054902
0.945098 0.035294 0.066667
0.992157 0.047059 0.074510
1.000000 0.058824 0.086275
0.000000 0.023529 0.000000
0.011765 0.023529 0.000000
0.066667 0.023529 0.007843
0.101961 0.027451 0.003922
0.152941 0.023529 0.003922
0.184314 0.023529 0.007843
0.231373 0.023529 0.003922
0.266667 0.031373 0.000000
0.305882 0.031373 0.000000
0.356863 0.031373 0.000000
0.403922 0.031373 0.007843
0.454902 0.031373 0.019608
0.494118 0.035294 0.015686
0.533333 0.027451 0.007843
0.584314 0.031373 0.015686
0.635294 0.035294 0.015686
0.674510 0.035294 0.015686
0.725490 0.039216 0.027451
0.772549 0.047059 0.039216
0.815686 0.050980 0.035294
0.854902 0.058824 0.050980
0.901961 0.062745 0.062745
0.949020 0.074510 0.062745
0.988235 0.082353 0.082353
0.996078 0.098039 0.094118
0.007843 0.062745 0.003922
0.015686 0.074510 0.000000
0.070588 0.062745 0.003922
0.105882 0.062745 0.000000
0.141176 0.066667 0.003922
0.172549 0.074510 0.003922
0.219608 0.074510 0.003922
0.266667 0.074510 0.007843
0.317647 0.078431 0.007843
0.356863 0.078431 0.007843
0.400000 0.074510 0.011765
0.443137 0.078431 0.011765
0.494118 0.082353 0.015686
0.537255 0.078431 0.019608
0.584314 0.078431 0.015686
0.627451 0.082353 0.023529
0.678431 0.086275 0.023529
0.721569 0.090196 0.027451
0.768627 0.086275 0.043137
0.807843 0.094118 0.050980
0.858824 0.098039 0.058824
0.901961 0.101961 0.066667
0.949020 0.109804 0.078431
0.992157 0.121569 0.086275
1.000000 0.125490 0.098039
0.000000 0.109804 0.000000
0.019608 0.105882 0.015686
0.070588 0.105882 0.000000
0.105882 0.109804 0.000000
0.149020 0.105882 0.000000
0.188235 0.109804 0.015686
0.223529 0.113725 0.019608
0.274510 0.117647 0.019608
0.317647 0.113725 0.019608
0.360784 0.117647 0.019608
0.400000 0.125490 0.023529
0.450980 0.121569 0.019608
0.498039 0.121569 0.023529
0.537255 0.125490 0.019608
0.580392 0.125490 0.027451
0.631373 0.133333 0.035294
0.678431 0.129412 0.031373
0.725490 0.129412 0.039216
0.772549 0.137255 0.058824
0.815686 0.141176 0.062745
0.858824 0.145098 0.062745
0.901961 0.149020 0.066667
0.952941 0.152941 0.086275
0.996078 0.156863 0.078431
1.000000 0.164706 0.117647
0.000000 0.156863 0.000000
0.015686 0.149020 0.003922
0.066667 0.156863 0.000000
0.109804 0.149020 0.003922
0.149020 0.149020 0.000000
0.203922 0.152941 0.015686
0.223529 0.152941 0.011765
0.266667 0.152941 0.019608
0.317647 0.160784 0.031373
0.352941 0.160784 0.031373
0.407843 0.160784 0.031373
0.450980 0.164706 0.035294
0.498039 0.168627 0.035294
0.537255 0.164706 0.039216
0.584314 0.168627 0.043137
0.631373 0.176471 0.047059
0.682353 0.176471 0.054902
0.721569 0.176471 0.062745
0.772549 0.180392 0.066667
0.815686 0.184314 0.070588
0.862745 0.188235 0.070588
0.905882 0.192157 0.078431
0.949020 0.192157 0.094118
0.988235 0.200000 0.101961
1.000000 0.207843 0.113725
0.000000 0.196078 0.000000
0.019608 0.192157 0.000000
0.062745 0.196078 0.000000
0.105882 0.200000 0.003922
0.152941 0.200000 0.003922
0.196078 0.196078 0.000000
0.243137 0.196078 0.000000
0.286275 0.200000 0.007843
0.321569 0.203922 0.007843
0.364706 0.203922 0.035294
0.407843 0.203922 0.050980
0.458824 0.207843 0.058824
0.498039 0.211765 0.054902
0.541176 0.215686 0.058824
0.588235 0.215686 0.058824
0.635294 0.223529 0.066667
0.686275 0.227451 0.066667
0.725490 0.223529 0.070588
0.772549 0.227451 0.074510
0.815686 0.231373 0.074510
0.866667 0.235294 0.086275
0.909804 0.239216 0.098039
0.949020 0.239216 0.101961
0.992157 0.239216 0.117647
1.000000 0.247059 0.125490
0.000000 0.243137 0.007843
0.007843 0.243137 0.007843
0.050980 0.239216 0.000000
0.101961 0.239216 0.003922
0.152941 0.239216 0.000000
0.184314 0.239216 0.000000
0.243137 0.243137 0.000000
0.290196 0.235294 0.000000
0.325490 0.239216 0.003922
0.368627 0.239216 0.023529
0.407843 0.243137 0.047059
0.454902 0.250980 0.066667
0.494118 0.254902 0.074510
0.541176 0.258824 0.078431
0.596078 0.266667 0.086275
0.635294 0.266667 0.086275
0.686275 0.270588 0.086275
0.729412 0.274510 0.090196
0.776471 0.274510 0.082353
0.823529 0.274510 0.105882
0.866667 0.278431 0.113725
0.905882 0.278431 0.105882
0.952941 0.286275 0.125490
0.992157 0.294118 0.121569
1.000000 0.290196 0.152941
0.000000 0.278431 0.003922
0.000000 0.278431 0.003922
0.043137 0.286275 0.000000
0.101961 0.286275 0.003922
0.152941 0.278431 0.000000
0.196078 0.282353 0.000000
0.243137 0.282353 0.007843
0.290196 0.278431 0.000000
0.337255 0.282353 0.003922
0.372549 0.286275 0.000000
0.415686 0.286275 0.015686
0.450980 0.298039 0.043137
0.498039 0.301961 0.070588
0.541176 0.309804 0.090196
0.592157 0.309804 0.113725
0.635294 0.317647 0.109804
0.682353 0.321569 0.105882
0.733333 0.321569 0.113725
0.776471 0.317647 0.109804
0.819608 0.321569 0.113725
0.866667 0.325490 0.113725
0.909804 0.325490 0.125490
0.956863 0.333333 0.137255
0.996078 0.333333 0.141176
1.000000 0.333333 0.160784
0.000000 0.321569 0.000000
0.011765 0.321569 0.000000
0.035294 0.329412 0.003922
0.098039 0.329412 0.015686
0.149020 0.325490 0.000000
0.192157 0.333333 0.000000
0.239216 0.333333 0.000000
0.282353 0.329412 0.000000
0.321569 0.329412 0.003922
0.372549 0.325490 0.000000
0.419608 0.325490 0.000000
0.458824 0.333333 0.007843
0.501961 0.337255 0.039216
0.545098 0.345098 0.086275
0.592157 0.352941 0.105882
0.639216 0.356863 0.125490
0.682353 0.360784 0.133333
0.733333 0.364706 0.125490
0.776471 0.368627 0.129412
0.823529 0.368627 0.129412
0.870588 0.368627 0.141176
0.909804 0.376471 0.156863
0.945098 0.380392 0.145098
0.992157 0.376471 0.168627
1.000000 0.380392 0.164706
0.003922 0.372549 0.000000
0.000000 0.380392 0.003922
0.019608 0.368627 0.015686
0.082353 0.380392 0.000000
0.141176 0.376471 0.000000
0.196078 0.372549 0.000000
0.239216 0.372549 0.000000
0.286275 0.368627 0.000000
0.329412 0.372549 0.000000
0.368627 0.372549 0.003922
0.415686 0.376471 0.003922
0.450980 0.372549 0.000000
0.494118 0.384314 0.000000
0.541176 0.384314 0.039216
0.588235 0.388235 0.070588
0.635294 0.403922 0.113725
0.678431 0.403922 0.129412
0.721569 0.403922 0.145098
0.776471 0.411765 0.149020
0.819608 0.415686 0.145098
0.862745 0.419608 0.160784
0.905882 0.423529 0.168627
0.952941 0.423529 0.168627
0.988235 0.427451 0.176471
1.000000 0.427451 0.184314
0.000000 0.419608 0.000000
0.000000 0.419608 0.000000
0.000000 0.423529 0.000000
0.074510 0.423529 0.000000
0.145098 0.415686 0.000000
0.192157 0.423529 0.007843
0.231373 0.415686 0.000000
0.278431 0.419608 0.000000
0.321569 0.419608 0.011765
0.368627 0.419608 0.003922
0.415686 0.423529 0.003922
0.462745 0.419608 0.000000
0.509804 0.423529 0.000000
0.549020 0.427451 0.003922
0.592157 0.427451 0.035294
0.643137 0.431373 0.078431
0.694118 0.439216 0.117647
0.733333 0.447059 0.137255
0.780392 0.458824 0.168627
0.827451 0.466667 0.180392
0.866667 0.466667 0.176471
0.905882 0.466667 0.180392
0.949020 0.470588 0.192157
0.992157 0.470588 0.207843
1.000000 0.470588 0.211765
0.000000 0.474510 0.000000
0.000000 0.462745 0.000000
0.007843 0.470588 0.000000
0.058824 0.462745 0.003922
0.137255 0.462745 0.000000
0.192157 0.470588 0.007843
0.231373 0.462745 0.000000
0.270588 0.462745 0.000000
0.321569 0.466667 0.011765
0.368627 0.466667 0.000000
0.407843 0.466667 0.000000
0.458824 0.474510 0.003922
0.501961 0.466667 0.000000
0.549020 0.462745 0.000000
0.596078 0.470588 0.003922
0.639216 0.482353 0.007843
0.686275 0.478431 0.070588
0.737255 0.486275 0.105882
0.784314 0.494118 0.145098
0.827451 0.505882 0.176471
0.870588 0.513725 0.200000
0.909804 0.513725 0.207843
0.949020 0.517647 0.192157
0.984314 0.517647 0.227451
1.000000 0.517647 0.223529
0.000000 0.513725 0.000000
0.000000 0.505882 0.000000
0.000000 0.517647 0.003922
0.035294 0.513725 0.007843
0.113725 0.509804 0.000000
0.180392 0.501961 0.000000
0.227451 0.509804 0.007843
0.270588 0.509804 0.003922
0.317647 0.513725 0.000000
0.364706 0.509804 0.000000
0.411765 0.509804 0.000000
0.454902 0.513725 0.007843
0.505882 0.509804 0.007843
0.552941 0.509804 0.007843
0.600000 0.509804 0.000000
0.643137 0.517647 0.000000
0.690196 0.521569 0.011765
0.729412 0.525490 0.058824
0.776471 0.533333 0.105882
0.823529 0.541176 0.141176
0.870588 0.545098 0.184314
0.909804 0.549020 0.215686
0.945098 0.560784 0.227451
1.000000 0.556863 0.250980
0.988235 0.572549 0.247059
0.003922 0.556863 0.003922
0.000000 0.549020 0.000000
0.000000 0.560784 0.007843
0.000000 0.549020 0.000000
0.113725 0.564706 0.003922
0.156863 0.552941 0.000000
0.223529 0.552941 0.003922
0.274510 0.552941 0.000000
0.313725 0.552941 0.000000
0.372549 0.556863 0.000000
0.403922 0.556863 0.003922
0.450980 0.556863 0.003922
0.505882 0.556863 0.003922
0.549020 0.556863 0.000000
0.592157 0.556863 0.011765
0.639216 0.556863 0.003922
0.682353 0.564706 0.000000
0.725490 0.564706 0.000000
0.776471 0.572549 0.043137
0.819608 0.576471 0.101961
0.866667 0.576471 0.156863
0.913725 0.588235 0.188235
0.949020 0.596078 0.219608
0.976471 0.600000 0.262745
1.000000 0.611765 0.278431
0.000000 0.596078 0.000000
0.007843 0.603922 0.003922
0.003922 0.600000 0.000000
0.007843 0.600000 0.000000
0.090196 0.596078 0.000000
0.152941 0.603922 0.003922
0.219608 0.596078 0.003922
0.254902 0.603922 0.000000
0.309804 0.603922 0.003922
0.356863 0.603922 0.003922
0.415686 0.600000 0.000000
0.462745 0.600000 0.000000
0.501961 0.600000 0.000000
0.545098 0.603922 0.000000
0.596078 0.600000 0.000000
0.639216 0.600000 0.007843
0.682353 0.600000 0.007843
0.725490 0.607843 0.000000
0.776471 0.607843 0.003922
0.819608 0.603922 0.035294
0.866667 0.615686 0.101961
0.909804 0.619608 0.145098
0.949020 0.627451 0.196078
0.984314 0.635294 0.243137
0.996078 0.643137 0.266667
0.000000 0.654902 0.000000
0.003922 0.647059 0.000000
0.000000 0.650980 0.007843
0.011765 0.647059 0.000000
0.070588 0.650980 0.007843
0.133333 0.647059 0.003922
0.211765 0.647059 0.003922
0.254902 0.650980 0.000000
0.309804 0.650980 0.000000
0.356863 0.650980 0.003922
0.411765 0.650980 0.003922
0.458824 0.647059 0.003922
0.501961 0.647059 0.000000
0.549020 0.647059 0.000000
0.588235 0.650980 0.000000
0.635294 0.654902 0.007843
0.686275 0.650980 0.003922
0.729412 0.654902 0.003922
0.772549 0.650980 0.000000
0.815686 0.654902 0.000000
0.866667 0.654902 0.027451
0.905882 0.662745 0.094118
0.952941 0.666667 0.156863
0.988235 0.662745 0.207843
0.992157 0.678431 0.243137
0.003922 0.682353 0.007843
0.000000 0.686275 0.007843
0.000000 0.690196 0.000000
0.003922 0.686275 0.000000
0.023529 0.690196 0.000000
0.129412 0.690196 0.000000
0.207843 0.694118 0.003922
0.250980 0.694118 0.000000
0.309804 0.698039 0.000000
0.360784 0.694118 0.000000
0.403922 0.690196 0.000000
0.462745 0.694118 0.000000
0.501961 0.694118 0.000000
0.541176 0.694118 0.000000
0.588235 0.694118 0.000000
0.639216 0.690196 0.003922
0.682353 0.694118 0.000000
0.733333 0.694118 0.007843
0.772549 0.694118 0.007843
0.811765 0.690196 0.000000
0.854902 0.698039 0.000000
0.901961 0.701961 0.015686
0.949020 0.690196 0.109804
0.984314 0.698039 0.156863
0.992157 0.713725 0.219608
0.003922 0.741176 0.000000
0.000000 0.729412 0.003922
0.007843 0.733333 0.011765
0.003922 0.733333 0.000000
0.000000 0.741176 0.000000
0.117647 0.737255 0.000000
0.184314 0.737255 0.000000
0.243137 0.737255 0.000000
0.298039 0.737255 0.000000
0.349020 0.737255 0.000000
0.403922 0.737255 0.000000
0.454902 0.737255 0.003922
0.498039 0.737255 0.000000
0.541176 0.733333 0.000000
0.584314 0.737255 0.003922
0.631373 0.737255 0.000000
0.678431 0.737255 0.000000
0.725490 0.733333 0.007843
0.772549 0.733333 0.007843
0.815686 0.741176 0.003922
0.858824 0.741176 0.000000
0.898039 0.737255 0.000000
0.945098 0.737255 0.000000
0.988235 0.737255 0.109804
1.000000 0.749020 0.172549
0.000000 0.780392 0.000000
0.003922 0.780392 0.000000
0.003922 0.772549 0.003922
0.000000 0.780392 0.007843
0.003922 0.772549 0.000000
0.090196 0.780392 0.000000
0.184314 0.780392 0.000000
0.243137 0.776471 0.000000
0.286275 0.784314 0.000000
0.356863 0.780392 0.007843
0.407843 0.776471 0.000000
0.447059 0.776471 0.000000
0.494118 0.776471 0.000000
0.541176 0.780392 0.000000
0.584314 0.784314 0.003922
0.627451 0.776471 0.000000
0.674510 0.780392 0.000000
0.721569 0.776471 0.000000
0.764706 0.772549 0.000000
0.811765 0.772549 0.003922
0.858824 0.772549 0.000000
0.898039 0.772549 0.000000
0.937255 0.788235 0.000000
0.976471 0.784314 0.007843
1.000000 0.768627 0.105882
0.000000 0.823529 0.000000
0.000000 0.815686 0.003922
0.000000 0.823529 0.000000
0.000000 0.815686 0.003922
0.000000 0.819608 0.003922
0.082353 0.815686 0.003922
0.160784 0.823529 0.003922
0.227451 0.823529 0.000000
0.290196 0.819608 0.000000
0.349020 0.815686 0.000000
0.376471 0.823529 0.000000
0.443137 0.815686 0.000000
0.490196 0.815686 0.007843
0.529412 0.819608 0.007843
0.576471 0.819608 0.000000
0.627451 0.823529 0.003922
0.666667 0.815686 0.000000
0.709804 0.823529 0.000000
0.764706 0.819608 0.000000
0.803922 0.819608 0.003922
0.854902 0.815686 0.000000
0.898039 0.819608 0.000000
0.937255 0.819608 0.000000
0.980392 0.815686 0.000000
1.000000 0.819608 0.000000
0.003922 0.866667 0.003922
0.000000 0.866667 0.007843
0.000000 0.858824 0.003922
0.000000 0.866667 0.003922
0.000000 0.858824 0.000000
0.070588 0.866667 0.000000
0.156863 0.862745 0.000000
0.235294 0.858824 0.007843
0.286275 0.858824 0.000000
0.333333 0.858824 0.000000
0.388235 0.862745 0.003922
0.431373 0.862745 0.000000
0.482353 0.862745 0.000000
0.533333 0.862745 0.000000
0.580392 0.858824 0.000000
0.623529 0.866667 0.000000
0.674510 0.862745 0.000000
0.717647 0.862745 0.000000
0.756863 0.866667 0.000000
0.803922 0.866667 0.003922
0.847059 0.862745 0.003922
0.894118 0.862745 0.000000
0.937255 0.858824 0.000000
0.984314 0.854902 0.003922
0.996078 0.854902 0.000000
0.000000 0.901961 0.000000
0.011765 0.909804 0.000000
0.000000 0.898039 0.000000
0.000000 0.905882 0.003922
0.000000 0.909804 0.000000
0.035294 0.901961 0.003922
0.149020 0.898039 0.000000
0.223529 0.909804 0.000000
0.274510 0.909804 0.000000
0.329412 0.905882 0.000000
0.384314 0.905882 0.000000
0.439216 0.905882 0.003922
0.482353 0.901961 0.007843
0.529412 0.901961 0.007843
0.564706 0.898039 0.003922
0.623529 0.901961 0.000000
0.658824 0.901961 0.000000
0.705882 0.898039 0.000000
0.749020 0.901961 0.000000
0.796078 0.905882 0.000000
0.839216 0.901961 0.000000
0.886275 0.898039 0.007843
0.925490 0.901961 0.000000
0.972549 0.898039 0.007843
1.000000 0.905882 0.000000
0.000000 0.937255 0.000000
0.000000 0.952941 0.011765
0.003922 0.941176 0.000000
0.000000 0.941176 0.000000
0.000000 0.945098 0.000000
0.019608 0.945098 0.000000
0.156863 0.941176 0.000000
0.207843 0.949020 0.000000
0.270588 0.949020 0.007843
0.325490 0.941176 0.000000
0.380392 0.941176 0.000000
0.431373 0.941176 0.000000
0.474510 0.941176 0.000000
0.521569 0.941176 0.000000
0.568627 0.937255 0.003922
0.615686 0.941176 0.007843
0.662745 0.941176 0.000000
0.705882 0.937255 0.000000
0.749020 0.933333 0.000000
0.796078 0.941176 0.007843
0.843137 0.941176 0.003922
0.878431 0.937255 0.000000
0.925490 0.937255 0.007843
0.972549 0.937255 0.000000
0.996078 0.933333 0.011765
0.007843 0.980392 0.000000
0.000000 0.980392 0.000000
0.000000 0.980392 0.007843
0.003922 0.988235 0.000000
0.000000 0.988235 0.000000
0.007843 0.976471 0.000000
0.125490 0.976471 0.007843
0.215686 0.976471 0.000000
0.274510 0.980392 0.000000
0.333333 0.976471 0.000000
0.372549 0.980392 0.000000
0.415686 0.984314 0.000000
0.470588 0.980392 0.007843
0.513725 0.984314 0.000000
0.556863 0.984314 0.000000
0.603922 0.980392 0.003922
0.650980 0.984314 0.000000
0.705882 0.984314 0.003922
0.749020 0.980392 0.000000
0.796078 0.976471 0.000000
0.835294 0.976471 0.000000
0.874510 0.976471 0.007843
0.925490 0.972549 0.000000
0.964706 0.972549 0.003922
1.000000 0.968627 0.000000
0.000000 1.000000 0.007843
0.003922 0.996078 0.000000
0.000000 1.000000 0.011765
0.000000 1.000000 0.003922
0.000000 0.992157 0.000000
0.000000 1.000000 0.000000
0.117647 1.000000 0.000000
0.211765 1.000000 0.003922
0.262745 0.996078 0.003922
0.313725 1.000000 0.000000
0.384314 1.000000 0.007843
0.427451 0.996078 0.003922
0.478431 1.000000 0.000000
0.517647 1.000000 0.003922
0.560784 0.996078 0.000000
0.603922 1.000000 0.000000
0.647059 1.000000 0.000000
0.698039 1.000000 0.011765
0.741176 0.996078 0.000000
0.788235 0.996078 0.000000
0.831373 1.000000 0.000000
0.874510 0.996078 0.003922
0.917647 0.996078 0.000000
0.968627 0.996078 0.000000
0.992157 0.996078 0.000000
0.000000 0.003922 0.023529
0.011765 0.003922 0.023529
0.066667 0.000000 0.031373
0.113725 0.000000 0.027451
0.145098 0.007843 0.031373
0.184314 0.000000 0.031373
0.235294 0.000000 0.031373
0.274510 0.000000 0.039216
0.321569 0.003922 0.039216
0.360784 0.003922 0.035294
0.407843 0.003922 0.039216
0.443137 0.000000 0.047059
0.494118 0.000000 0.047059
0.541176 0.003922 0.043137
0.584314 0.000000 0.043137
0.627451 0.003922 0.050980
0.674510 0.000000 0.054902
0.721569 0.000000 0.062745
0.768627 0.000000 0.062745
0.815686 0.000000 0.070588
0.858824 0.003922 0.078431
0.901961 0.011765 0.086275
0.945098 0.031373 0.086275
0.992157 0.043137 0.098039
1.000000 0.062745 0.113725
0.000000 0.019608 0.031373
0.023529 0.015686 0.019608
0.066667 0.023529 0.039216
0.101961 0.019608 0.039216
0.145098 0.027451 0.035294
0.192157 0.027451 0.035294
0.223529 0.027451 0.039216
0.278431 0.023529 0.047059
0.321569 0.019608 0.043137
0.360784 0.023529 0.043137
0.403922 0.027451 0.043137
0.450980 0.023529 0.043137
0.494118 0.027451 0.043137
0.545098 0.027451 0.047059
0.588235 0.031373 0.054902
0.631373 0.023529 0.054902
0.678431 0.031373 0.058824
0.729412 0.035294 0.074510
0.768627 0.043137 0.066667
0.815686 0.047059 0.070588
0.858824 0.054902 0.090196
0.905882 0.062745 0.086275
0.949020 0.066667 0.090196
0.988235 0.078431 0.101961
0.996078 0.090196 0.121569
0.011765 0.062745 0.023529
0.023529 0.062745 0.019608
0.058824 0.070588 0.027451
0.113725 0.062745 0.039216
0.145098 0.062745 0.043137
0.180392 0.066667 0.043137
0.235294 0.066667 0.043137
0.282353 0.074510 0.050980
0.325490 0.070588 0.047059
0.364706 0.070588 0.047059
0.403922 0.070588 0.050980
0.447059 0.074510 0.050980
0.494118 0.074510 0.050980
0.541176 0.074510 0.058824
0.580392 0.074510 0.050980
0.623529 0.078431 0.058824
0.670588 0.082353 0.058824
0.721569 0.082353 0.062745
0.768627 0.082353 0.062745
0.815686 0.090196 0.074510
0.862745 0.098039 0.082353
0.905882 0.101961 0.082353
0.949020 0.113725 0.101961
0.992157 0.109804 0.109804
1.000000 0.125490 0.125490
0.000000 0.109804 0.039216
0.023529 0.109804 0.027451
0.058824 0.109804 0.031373
0.109804 0.105882 0.027451
0.152941 0.105882 0.043137
0.184314 0.117647 0.050980
0.231373 0.117647 0.062745
0.266667 0.113725 0.054902
0.305882 0.113725 0.047059
0.372549 0.113725 0.058824
0.407843 0.121569 0.066667
0.447059 0.121569 0.058824
0.494118 0.121569 0.050980
0.545098 0.125490 0.062745
0.584314 0.125490 0.066667
0.639216 0.121569 0.070588
0.682353 0.129412 0.062745
0.729412 0.129412 0.070588
0.768627 0.133333 0.086275
0.811765 0.137255 0.090196
0.854902 0.141176 0.090196
0.905882 0.149020 0.098039
0.945098 0.149020 0.101961
0.992157 0.156863 0.101961
0.988235 0.168627 0.121569
0.000000 0.141176 0.023529
0.015686 0.156863 0.039216
0.070588 0.156863 0.015686
0.109804 0.152941 0.027451
0.164706 0.152941 0.031373
0.192157 0.149020 0.031373
0.235294 0.152941 0.047059
0.278431 0.152941 0.062745
0.305882 0.156863 0.066667
0.364706 0.160784 0.074510
0.407843 0.164706 0.066667
0.443137 0.168627 0.066667
0.501961 0.172549 0.070588
0.537255 0.168627 0.066667
0.588235 0.168627 0.066667
0.631373 0.172549 0.074510
0.682353 0.172549 0.082353
0.729412 0.180392 0.090196
0.772549 0.176471 0.086275
0.811765 0.184314 0.090196
0.862745 0.192157 0.094118
0.905882 0.192157 0.105882
0.949020 0.196078 0.113725
0.984314 0.200000 0.117647
1.000000 0.203922 0.129412
0.000000 0.196078 0.027451
0.011765 0.196078 0.023529
0.050980 0.196078 0.027451
0.113725 0.203922 0.031373
0.152941 0.196078 0.027451
0.196078 0.200000 0.035294
0.239216 0.196078 0.027451
0.282353 0.196078 0.035294
0.317647 0.200000 0.058824
0.360784 0.203922 0.074510
0.411765 0.203922 0.082353
0.454902 0.207843 0.086275
0.494118 0.207843 0.082353
0.541176 0.215686 0.090196
0.588235 0.215686 0.090196
0.631373 0.223529 0.086275
0.678431 0.223529 0.094118
0.725490 0.219608 0.094118
0.768627 0.227451 0.094118
0.815686 0.227451 0.098039
0.862745 0.227451 0.105882
0.905882 0.231373 0.113725
0.945098 0.235294 0.121569
0.992157 0.243137 0.141176
1.000000 0.243137 0.145098
0.000000 0.235294 0.023529
0.003922 0.239216 0.027451
0.043137 0.243137 0.019608
0.098039 0.247059 0.015686
0.160784 0.243137 0.023529
0.196078 0.239216 0.019608
0.243137 0.247059 0.019608
0.274510 0.239216 0.015686
0.317647 0.239216 0.031373
0.364706 0.247059 0.050980
0.403922 0.254902 0.078431
0.447059 0.254902 0.094118
0.498039 0.254902 0.101961
0.545098 0.258824 0.101961
0.588235 0.262745 0.105882
0.639216 0.266667 0.109804
0.690196 0.270588 0.113725
0.733333 0.274510 0.113725
0.772549 0.270588 0.117647
0.819608 0.274510 0.121569
0.862745 0.278431 0.121569
0.909804 0.278431 0.137255
0.952941 0.282353 0.133333
0.988235 0.290196 0.141176
0.988235 0.290196 0.141176
0.000000 0.278431 0.011765
0.000000 0.282353 0.003922
0.043137 0.278431 0.027451
0.101961 0.286275 0.019608
0.149020 0.286275 0.019608
0.196078 0.286275 0.019608
0.235294 0.286275 0.007843
0.282353 0.286275 0.019608
0.325490 0.286275 0.015686
0.364706 0.282353 0.019608
0.411765 0.286275 0.047059
0.450980 0.298039 0.082353
0.498039 0.301961 0.105882
0.545098 0.305882 0.125490
0.592157 0.309804 0.129412
0.635294 0.313725 0.129412
0.682353 0.313725 0.125490
0.725490 0.321569 0.129412
0.776471 0.321569 0.129412
0.815686 0.321569 0.133333
0.862745 0.321569 0.141176
0.905882 0.325490 0.152941
0.949020 0.333333 0.141176
0.988235 0.329412 0.152941
0.996078 0.333333 0.149020
0.000000 0.333333 0.000000
0.000000 0.325490 0.011765
0.027451 0.329412 0.007843
0.098039 0.329412 0.007843
0.141176 0.325490 0.003922
0.184314 0.333333 0.000000
0.239216 0.333333 0.003922
0.282353 0.329412 0.007843
0.321569 0.325490 0.011765
0.372549 0.329412 0.007843
0.415686 0.325490 0.011765
0.462745 0.329412 0.039216
0.505882 0.337255 0.078431
0.541176 0.345098 0.105882
0.588235 0.352941 0.125490
0.639216 0.352941 0.145098
0.682353 0.364706 0.145098
0.725490 0.364706 0.141176
0.768627 0.368627 0.141176
0.819608 0.368627 0.145098
0.866667 0.372549 0.152941
0.913725 0.372549 0.160784
0.949020 0.376471 0.152941
0.980392 0.384314 0.168627
1.000000 0.380392 0.172549
0.000000 0.372549 0.003922
0.000000 0.368627 0.000000
0.011765 0.368627 0.003922
0.078431 0.372549 0.007843
0.137255 0.376471 0.003922
0.184314 0.376471 0.007843
0.231373 0.376471 0.000000
0.278431 0.372549 0.000000
0.333333 0.368627 0.003922
0.364706 0.380392 0.007843
0.407843 0.376471 0.000000
0.462745 0.372549 0.000000
0.498039 0.380392 0.035294
0.545098 0.384314 0.074510
0.596078 0.388235 0.113725
0.635294 0.400000 0.133333
0.686275 0.407843 0.149020
0.729412 0.411765 0.164706
0.776471 0.407843 0.164706
0.823529 0.415686 0.168627
0.866667 0.419608 0.172549
0.913725 0.423529 0.180392
0.952941 0.419608 0.184314
0.992157 0.419608 0.188235
1.000000 0.423529 0.188235
0.000000 0.419608 0.003922
0.000000 0.415686 0.000000
0.003922 0.423529 0.000000
0.062745 0.419608 0.003922
0.137255 0.415686 0.000000
0.180392 0.419608 0.003922
0.235294 0.419608 0.000000
0.278431 0.419608 0.000000
0.321569 0.423529 0.003922
0.368627 0.419608 0.003922
