lut_library_archive/removed_20260629/50个风景lut/50个风景lut45.cube
# 版权归凌孟成所有，侵权必究
TITLE "Jungle LUT #45"
#LUT size
LUT_3D_SIZE 25
#LUT data points
0.000000 0.000000 0.000000
0.000000 0.000000 0.000000
0.047059 0.000000 0.000000
0.098039 0.000000 0.000000
0.149020 0.000000 0.000000
0.192157 0.003922 0.000000
0.239216 0.003922 0.000000
0.282353 0.003922 0.003922
0.321569 0.003922 0.000000
0.368627 0.000000 0.000000
0.411765 0.000000 0.000000
0.462745 0.000000 0.000000
0.509804 0.000000 0.000000
0.556863 0.003922 0.000000
0.611765 0.003922 0.000000
0.658824 0.003922 0.003922
0.709804 0.000000 0.003922
0.760784 0.000000 0.000000
0.807843 0.003922 0.000000
0.850980 0.000000 0.000000
0.901961 0.003922 0.000000
0.945098 0.000000 0.000000
0.988235 0.003922 0.007843
0.996078 0.000000 0.000000
0.996078 0.000000 0.000000
0.000000 0.015686 0.000000
0.007843 0.015686 0.003922
0.058824 0.019608 0.011765
0.094118 0.011765 0.000000
0.141176 0.007843 0.000000
0.192157 0.003922 0.000000
0.239216 0.003922 0.000000
0.278431 0.000000 0.000000
0.329412 0.000000 0.000000
0.372549 0.000000 0.000000
0.415686 0.003922 0.000000
0.466667 0.003922 0.003922
0.509804 0.000000 0.000000
0.564706 0.000000 0.000000
0.611765 0.000000 0.003922
0.662745 0.000000 0.000000
0.709804 0.000000 0.003922
0.760784 0.000000 0.003922
0.807843 0.003922 0.000000
0.850980 0.000000 0.000000
0.901961 0.003922 0.000000
0.945098 0.000000 0.000000
0.984314 0.000000 0.000000
0.996078 0.000000 0.000000
0.996078 0.000000 0.000000
0.003922 0.058824 0.000000
0.003922 0.058824 0.000000
0.050980 0.058824 0.007843
0.105882 0.050980 0.007843
0.149020 0.054902 0.007843
0.192157 0.050980 0.003922
0.235294 0.047059 0.000000
0.282353 0.047059 0.003922
0.333333 0.050980 0.003922
0.376471 0.047059 0.003922
0.419608 0.039216 0.003922
0.466667 0.035294 0.000000
0.509804 0.031373 0.000000
0.552941 0.019608 0.000000
0.615686 0.007843 0.000000
0.658824 0.003922 0.003922
0.709804 0.000000 0.000000
0.756863 0.000000 0.000000
0.803922 0.000000 0.000000
0.850980 0.000000 0.000000
0.901961 0.003922 0.000000
0.949020 0.003922 0.007843
0.992157 0.000000 0.003922
0.996078 0.000000 0.000000
0.988235 0.003922 0.000000
0.000000 0.105882 0.007843
0.000000 0.094118 0.000000
0.050980 0.098039 0.003922
0.105882 0.098039 0.000000
0.141176 0.101961 0.000000
0.196078 0.101961 0.000000
0.239216 0.105882 0.000000
0.286275 0.101961 0.000000
0.321569 0.098039 0.000000
0.372549 0.098039 0.000000
0.415686 0.094118 0.000000
0.466667 0.090196 0.000000
0.513725 0.094118 0.000000
0.560784 0.090196 0.003922
0.607843 0.082353 0.000000
0.662745 0.070588 0.000000
0.709804 0.066667 0.000000
0.760784 0.047059 0.000000
0.807843 0.031373 0.000000
0.854902 0.011765 0.000000
0.898039 0.000000 0.000000
0.945098 0.000000 0.003922
0.980392 0.003922 0.003922
1.000000 0.003922 0.003922
0.984314 0.007843 0.000000
0.003922 0.137255 0.003922
0.015686 0.141176 0.000000
0.058824 0.145098 0.003922
0.109804 0.141176 0.000000
0.141176 0.141176 0.000000
0.192157 0.141176 0.003922
0.235294 0.141176 0.000000
0.278431 0.141176 0.000000
0.329412 0.141176 0.000000
0.372549 0.145098 0.000000
0.423529 0.141176 0.000000
0.466667 0.145098 0.000000
0.513725 0.145098 0.000000
0.552941 0.141176 0.000000
0.603922 0.133333 0.000000
0.662745 0.137255 0.000000
0.709804 0.125490 0.000000
0.752941 0.117647 0.000000
0.803922 0.109804 0.000000
0.854902 0.105882 0.003922
0.894118 0.086275 0.000000
0.945098 0.074510 0.000000
0.988235 0.050980 0.003922
1.000000 0.027451 0.000000
1.000000 0.003922 0.003922
0.003922 0.192157 0.003922
0.007843 0.188235 0.003922
0.066667 0.192157 0.007843
0.117647 0.184314 0.007843
0.156863 0.188235 0.003922
0.200000 0.192157 0.003922
0.231373 0.184314 0.000000
0.286275 0.184314 0.000000
0.337255 0.188235 0.003922
0.376471 0.188235 0.000000
0.427451 0.184314 0.000000
0.478431 0.188235 0.003922
0.525490 0.188235 0.003922
0.568627 0.184314 0.000000
0.623529 0.184314 0.003922
0.666667 0.180392 0.000000
0.721569 0.180392 0.000000
0.764706 0.176471 0.000000
0.811765 0.176471 0.000000
0.862745 0.160784 0.000000
0.905882 0.156863 0.003922
0.949020 0.145098 0.000000
0.992157 0.137255 0.000000
0.992157 0.125490 0.000000
0.996078 0.113725 0.000000
0.000000 0.235294 0.000000
0.015686 0.227451 0.000000
0.078431 0.231373 0.007843
0.125490 0.223529 0.000000
0.156863 0.227451 0.000000
0.211765 0.231373 0.011765
0.250980 0.227451 0.000000
0.286275 0.227451 0.000000
0.333333 0.231373 0.000000
0.380392 0.227451 0.000000
0.427451 0.231373 0.000000
0.474510 0.231373 0.000000
0.521569 0.231373 0.000000
0.568627 0.231373 0.000000
0.615686 0.227451 0.000000
0.662745 0.223529 0.000000
0.713725 0.227451 0.000000
0.764706 0.223529 0.000000
0.811765 0.219608 0.003922
0.862745 0.215686 0.000000
0.905882 0.211765 0.000000
0.952941 0.203922 0.000000
0.992157 0.196078 0.000000
1.000000 0.184314 0.003922
1.000000 0.176471 0.000000
0.007843 0.270588 0.000000
0.011765 0.274510 0.000000
0.066667 0.274510 0.000000
0.117647 0.274510 0.000000
0.164706 0.270588 0.000000
0.203922 0.270588 0.000000
0.247059 0.278431 0.000000
0.294118 0.278431 0.000000
0.341176 0.274510 0.000000
0.384314 0.274510 0.000000
0.427451 0.270588 0.000000
0.478431 0.270588 0.000000
0.525490 0.274510 0.000000
0.572549 0.270588 0.003922
0.623529 0.270588 0.000000
0.674510 0.270588 0.000000
0.721569 0.274510 0.000000
0.764706 0.270588 0.000000
0.811765 0.270588 0.000000
0.854902 0.266667 0.000000
0.901961 0.262745 0.000000
0.941176 0.258824 0.000000
0.992157 0.250980 0.003922
1.000000 0.243137 0.003922
1.000000 0.231373 0.000000
0.000000 0.313725 0.000000
0.015686 0.317647 0.003922
0.066667 0.309804 0.007843
0.113725 0.317647 0.000000
0.160784 0.325490 0.003922
0.203922 0.317647 0.000000
0.254902 0.321569 0.003922
0.301961 0.321569 0.000000
0.337255 0.317647 0.000000
0.384314 0.317647 0.000000
0.427451 0.317647 0.000000
0.474510 0.313725 0.000000
0.521569 0.313725 0.000000
0.576471 0.321569 0.000000
0.619608 0.321569 0.000000
0.662745 0.317647 0.000000
0.713725 0.317647 0.000000
0.764706 0.313725 0.000000
0.811765 0.313725 0.003922
0.854902 0.313725 0.000000
0.898039 0.305882 0.003922
0.956863 0.301961 0.003922
0.992157 0.298039 0.000000
1.000000 0.286275 0.000000
1.000000 0.282353 0.000000
0.000000 0.364706 0.000000
0.000000 0.364706 0.000000
0.054902 0.364706 0.007843
0.113725 0.360784 0.000000
0.164706 0.364706 0.003922
0.211765 0.364706 0.007843
0.258824 0.364706 0.000000
0.301961 0.360784 0.000000
0.345098 0.364706 0.003922
0.388235 0.360784 0.003922
0.435294 0.360784 0.000000
0.478431 0.364706 0.003922
0.533333 0.364706 0.003922
0.576471 0.360784 0.000000
0.619608 0.356863 0.000000
0.670588 0.360784 0.000000
0.713725 0.356863 0.000000
0.764706 0.360784 0.000000
0.815686 0.356863 0.003922
0.862745 0.356863 0.000000
0.901961 0.356863 0.003922
0.941176 0.349020 0.000000
0.980392 0.341176 0.000000
0.996078 0.341176 0.000000
0.992157 0.337255 0.000000
0.000000 0.415686 0.000000
0.003922 0.419608 0.000000
0.058824 0.415686 0.000000
0.117647 0.419608 0.003922
0.168627 0.415686 0.000000
0.215686 0.419608 0.000000
0.258824 0.411765 0.000000
0.309804 0.415686 0.000000
0.349020 0.415686 0.000000
0.392157 0.415686 0.000000
0.439216 0.411765 0.000000
0.486275 0.411765 0.000000
0.533333 0.411765 0.000000
0.580392 0.411765 0.000000
0.631373 0.407843 0.000000
0.678431 0.407843 0.000000
0.721569 0.415686 0.000000
0.768627 0.411765 0.000000
0.811765 0.407843 0.000000
0.862745 0.403922 0.000000
0.909804 0.403922 0.007843
0.949020 0.396078 0.003922
0.992157 0.388235 0.003922
1.000000 0.384314 0.000000
0.996078 0.388235 0.000000
0.007843 0.450980 0.000000
0.000000 0.466667 0.003922
0.050980 0.454902 0.000000
0.117647 0.466667 0.003922
0.156863 0.458824 0.000000
0.215686 0.470588 0.015686
0.262745 0.462745 0.000000
0.301961 0.454902 0.000000
0.349020 0.454902 0.003922
0.400000 0.458824 0.000000
0.443137 0.454902 0.000000
0.494118 0.454902 0.003922
0.537255 0.454902 0.003922
0.584314 0.458824 0.000000
0.631373 0.454902 0.003922
0.674510 0.450980 0.000000
0.717647 0.454902 0.003922
0.768627 0.450980 0.000000
0.815686 0.450980 0.003922
0.862745 0.450980 0.000000
0.905882 0.447059 0.000000
0.949020 0.447059 0.000000
0.988235 0.443137 0.000000
0.996078 0.443137 0.000000
1.000000 0.427451 0.000000
0.000000 0.509804 0.007843
0.011765 0.505882 0.011765
0.043137 0.494118 0.000000
0.117647 0.513725 0.003922
0.164706 0.505882 0.000000
0.211765 0.513725 0.000000
0.258824 0.501961 0.000000
0.305882 0.505882 0.003922
0.352941 0.505882 0.000000
0.400000 0.505882 0.000000
0.443137 0.501961 0.000000
0.494118 0.505882 0.000000
0.537255 0.501961 0.000000
0.580392 0.498039 0.000000
0.627451 0.498039 0.000000
0.674510 0.498039 0.000000
0.725490 0.498039 0.003922
0.768627 0.498039 0.000000
0.815686 0.498039 0.000000
0.862745 0.494118 0.007843
0.913725 0.490196 0.003922
0.952941 0.482353 0.003922
0.980392 0.482353 0.000000
0.992157 0.478431 0.000000
1.000000 0.478431 0.003922
0.000000 0.549020 0.000000
0.000000 0.552941 0.000000
0.031373 0.552941 0.000000
0.098039 0.556863 0.000000
0.156863 0.556863 0.000000
0.211765 0.552941 0.000000
0.262745 0.552941 0.000000
0.313725 0.552941 0.003922
0.360784 0.552941 0.000000
0.403922 0.549020 0.000000
0.450980 0.545098 0.000000
0.494118 0.541176 0.000000
0.541176 0.545098 0.000000
0.592157 0.545098 0.003922
0.631373 0.537255 0.003922
0.682353 0.541176 0.000000
0.725490 0.545098 0.000000
0.764706 0.541176 0.000000
0.811765 0.541176 0.000000
0.862745 0.545098 0.000000
0.901961 0.537255 0.000000
0.945098 0.529412 0.000000
0.992157 0.529412 0.000000
1.000000 0.525490 0.000000
1.000000 0.513725 0.000000
0.011765 0.592157 0.003922
0.000000 0.592157 0.000000
0.035294 0.596078 0.000000
0.109804 0.600000 0.000000
0.164706 0.600000 0.000000
0.207843 0.596078 0.000000
0.262745 0.596078 0.000000
0.309804 0.596078 0.000000
0.356863 0.592157 0.000000
0.400000 0.600000 0.000000
0.450980 0.592157 0.000000
0.494118 0.596078 0.000000
0.541176 0.592157 0.003922
0.592157 0.592157 0.003922
0.635294 0.592157 0.000000
0.682353 0.588235 0.000000
0.725490 0.584314 0.003922
0.768627 0.584314 0.003922
0.819608 0.576471 0.000000
0.866667 0.572549 0.003922
0.909804 0.580392 0.000000
0.949020 0.572549 0.000000
0.988235 0.564706 0.000000
1.000000 0.560784 0.000000
1.000000 0.560784 0.000000
0.007843 0.643137 0.003922
0.000000 0.650980 0.000000
0.031373 0.643137 0.000000
0.101961 0.654902 0.003922
0.164706 0.643137 0.003922
0.219608 0.643137 0.003922
0.262745 0.643137 0.000000
0.313725 0.647059 0.000000
0.360784 0.643137 0.000000
0.407843 0.647059 0.000000
0.458824 0.643137 0.000000
0.501961 0.639216 0.000000
0.549020 0.635294 0.000000
0.592157 0.643137 0.000000
0.643137 0.635294 0.000000
0.690196 0.639216 0.000000
0.729412 0.635294 0.000000
0.772549 0.635294 0.000000
0.823529 0.635294 0.000000
0.862745 0.627451 0.000000
0.909804 0.627451 0.000000
0.949020 0.619608 0.000000
0.992157 0.615686 0.000000
1.000000 0.619608 0.000000
0.996078 0.607843 0.007843
0.011765 0.686275 0.000000
0.000000 0.690196 0.000000
0.019608 0.682353 0.003922
0.101961 0.682353 0.000000
0.160784 0.686275 0.000000
0.207843 0.686275 0.007843
0.262745 0.690196 0.000000
0.313725 0.682353 0.000000
0.360784 0.682353 0.003922
0.411765 0.686275 0.003922
0.454902 0.682353 0.000000
0.498039 0.682353 0.000000
0.545098 0.678431 0.000000
0.592157 0.678431 0.000000
0.639216 0.678431 0.000000
0.682353 0.674510 0.000000
0.729412 0.674510 0.003922
0.776471 0.674510 0.000000
0.819608 0.670588 0.000000
0.866667 0.666667 0.003922
0.913725 0.670588 0.007843
0.952941 0.662745 0.000000
1.000000 0.658824 0.003922
1.000000 0.654902 0.000000
0.992157 0.650980 0.000000
0.003922 0.725490 0.003922
0.000000 0.721569 0.007843
0.019608 0.729412 0.003922
0.086275 0.729412 0.003922
0.160784 0.725490 0.000000
0.215686 0.725490 0.003922
0.258824 0.721569 0.000000
0.309804 0.721569 0.003922
0.356863 0.725490 0.003922
0.403922 0.721569 0.003922
0.447059 0.721569 0.000000
0.494118 0.721569 0.003922
0.545098 0.717647 0.000000
0.592157 0.713725 0.000000
0.635294 0.717647 0.000000
0.678431 0.717647 0.000000
0.725490 0.717647 0.000000
0.772549 0.717647 0.000000
0.815686 0.713725 0.003922
0.866667 0.713725 0.003922
0.909804 0.713725 0.000000
0.952941 0.709804 0.007843
0.988235 0.705882 0.000000
1.000000 0.694118 0.000000
0.996078 0.694118 0.003922
0.007843 0.756863 0.003922
0.003922 0.760784 0.003922
0.000000 0.768627 0.000000
0.094118 0.764706 0.000000
0.160784 0.760784 0.000000
0.207843 0.760784 0.003922
0.254902 0.764706 0.000000
0.305882 0.764706 0.000000
0.349020 0.760784 0.003922
0.403922 0.768627 0.003922
0.447059 0.764706 0.007843
0.486275 0.760784 0.000000
0.533333 0.756863 0.000000
0.588235 0.756863 0.000000
0.631373 0.752941 0.000000
0.678431 0.756863 0.000000
0.725490 0.752941 0.000000
0.768627 0.752941 0.000000
0.807843 0.749020 0.000000
0.858824 0.745098 0.000000
0.901961 0.741176 0.000000
0.956863 0.749020 0.007843
0.992157 0.737255 0.000000
0.996078 0.741176 0.003922
1.000000 0.737255 0.003922
0.000000 0.800000 0.000000
0.007843 0.800000 0.007843
0.007843 0.800000 0.007843
0.090196 0.796078 0.007843
0.152941 0.807843 0.007843
0.200000 0.803922 0.003922
0.250980 0.807843 0.000000
0.305882 0.803922 0.000000
0.352941 0.803922 0.000000
0.400000 0.803922 0.000000
0.450980 0.800000 0.000000
0.498039 0.800000 0.000000
0.533333 0.796078 0.000000
0.580392 0.792157 0.000000
0.623529 0.792157 0.000000
0.670588 0.792157 0.000000
0.717647 0.792157 0.000000
0.756863 0.792157 0.000000
0.807843 0.788235 0.000000
0.854902 0.788235 0.000000
0.894118 0.784314 0.007843
0.937255 0.784314 0.003922
0.988235 0.784314 0.003922
1.000000 0.780392 0.000000
0.996078 0.776471 0.000000
0.000000 0.839216 0.000000
0.000000 0.843137 0.000000
0.019608 0.839216 0.000000
0.094118 0.847059 0.003922
0.152941 0.843137 0.000000
0.211765 0.839216 0.000000
0.254902 0.843137 0.003922
0.298039 0.843137 0.000000
0.349020 0.839216 0.000000
0.396078 0.839216 0.000000
0.443137 0.835294 0.000000
0.490196 0.839216 0.000000
0.537255 0.835294 0.003922
0.584314 0.835294 0.007843
0.627451 0.835294 0.000000
0.674510 0.831373 0.000000
0.717647 0.831373 0.000000
0.764706 0.827451 0.000000
0.811765 0.827451 0.000000
0.854902 0.827451 0.003922
0.894118 0.827451 0.000000
0.941176 0.823529 0.000000
0.988235 0.823529 0.000000
1.000000 0.827451 0.000000
1.000000 0.819608 0.000000
0.000000 0.870588 0.000000
0.000000 0.882353 0.003922
0.003922 0.874510 0.000000
0.090196 0.878431 0.007843
0.145098 0.874510 0.000000
0.203922 0.878431 0.000000
0.254902 0.874510 0.000000
0.298039 0.878431 0.000000
0.341176 0.874510 0.000000
0.396078 0.874510 0.000000
0.435294 0.874510 0.000000
0.478431 0.870588 0.000000
0.529412 0.874510 0.000000
0.576471 0.874510 0.000000
0.619608 0.874510 0.000000
0.666667 0.870588 0.000000
0.709804 0.866667 0.000000
0.756863 0.866667 0.000000
0.800000 0.862745 0.000000
0.843137 0.858824 0.000000
0.894118 0.862745 0.000000
0.937255 0.858824 0.000000
0.976471 0.858824 0.000000
1.000000 0.858824 0.000000
1.000000 0.858824 0.003922
0.000000 0.901961 0.000000
0.000000 0.909804 0.003922
0.000000 0.909804 0.000000
0.074510 0.909804 0.000000
0.141176 0.905882 0.000000
0.200000 0.913725 0.000000
0.254902 0.909804 0.000000
0.298039 0.909804 0.003922
0.349020 0.909804 0.000000
0.392157 0.909804 0.000000
0.431373 0.909804 0.003922
0.478431 0.905882 0.000000
0.521569 0.901961 0.000000
0.568627 0.901961 0.007843
0.607843 0.905882 0.003922
0.654902 0.901961 0.007843
0.709804 0.901961 0.003922
0.752941 0.898039 0.000000
0.796078 0.898039 0.000000
0.835294 0.898039 0.000000
0.886275 0.890196 0.000000
0.933333 0.886275 0.000000
0.972549 0.882353 0.000000
1.000000 0.882353 0.000000
0.996078 0.882353 0.003922
0.003922 0.945098 0.000000
0.000000 0.937255 0.000000
0.000000 0.941176 0.000000
0.070588 0.933333 0.000000
0.129412 0.945098 0.011765
0.192157 0.937255 0.003922
0.239216 0.941176 0.000000
0.294118 0.937255 0.000000
0.333333 0.941176 0.000000
0.380392 0.941176 0.000000
0.431373 0.941176 0.000000
0.474510 0.937255 0.003922
0.517647 0.937255 0.000000
0.552941 0.933333 0.000000
0.603922 0.933333 0.000000
0.650980 0.937255 0.000000
0.698039 0.933333 0.000000
0.745098 0.929412 0.003922
0.792157 0.925490 0.000000
0.843137 0.921569 0.000000
0.890196 0.921569 0.000000
0.929412 0.917647 0.000000
0.968627 0.917647 0.000000
1.000000 0.917647 0.003922
0.996078 0.913725 0.007843
0.007843 0.972549 0.000000
0.003922 0.972549 0.003922
0.000000 0.964706 0.000000
0.035294 0.976471 0.007843
0.125490 0.964706 0.000000
0.176471 0.968627 0.000000
0.231373 0.964706 0.000000
0.278431 0.968627 0.000000
0.329412 0.960784 0.000000
0.372549 0.968627 0.000000
0.423529 0.964706 0.000000
0.470588 0.964706 0.000000
0.517647 0.964706 0.000000
0.564706 0.960784 0.003922
0.611765 0.956863 0.000000
0.666667 0.964706 0.000000
0.705882 0.956863 0.000000
0.756863 0.956863 0.003922
0.803922 0.952941 0.000000
0.850980 0.949020 0.003922
0.905882 0.941176 0.000000
0.949020 0.941176 0.000000
0.996078 0.937255 0.000000
1.000000 0.925490 0.000000
1.000000 0.925490 0.000000
0.000000 0.000000 0.007843
0.003922 0.003922 0.011765
0.047059 0.000000 0.007843
0.101961 0.000000 0.011765
0.149020 0.000000 0.000000
0.196078 0.007843 0.007843
0.235294 0.000000 0.000000
0.278431 0.000000 0.000000
0.333333 0.003922 0.003922
0.372549 0.003922 0.003922
0.423529 0.000000 0.000000
0.470588 0.000000 0.003922
0.513725 0.000000 0.000000
0.556863 0.003922 0.000000
0.611765 0.000000 0.003922
0.654902 0.000000 0.000000
0.713725 0.003922 0.000000
0.760784 0.000000 0.000000
0.807843 0.003922 0.000000
0.850980 0.000000 0.000000
0.901961 0.000000 0.007843
0.941176 0.003922 0.000000
0.984314 0.000000 0.003922
0.996078 0.000000 0.000000
0.996078 0.000000 0.000000
0.007843 0.015686 0.011765
0.007843 0.011765 0.019608
0.054902 0.015686 0.007843
0.094118 0.011765 0.007843
0.152941 0.015686 0.007843
0.188235 0.011765 0.000000
0.231373 0.015686 0.007843
0.282353 0.003922 0.003922
0.329412 0.000000 0.000000
0.376471 0.000000 0.003922
0.423529 0.000000 0.000000
0.466667 0.000000 0.000000
0.509804 0.000000 0.000000
0.564706 0.000000 0.000000
0.611765 0.000000 0.003922
0.666667 0.000000 0.003922
0.709804 0.000000 0.003922
0.760784 0.000000 0.003922
0.803922 0.000000 0.000000
0.850980 0.000000 0.000000
0.901961 0.003922 0.000000
0.945098 0.000000 0.000000
0.996078 0.000000 0.007843
0.988235 0.003922 0.000000
0.992157 0.000000 0.003922
0.000000 0.066667 0.003922
0.011765 0.058824 0.019608
0.058824 0.058824 0.019608
0.105882 0.058824 0.011765
0.149020 0.054902 0.007843
0.192157 0.058824 0.011765
0.227451 0.054902 0.003922
0.278431 0.058824 0.007843
0.325490 0.054902 0.003922
0.376471 0.047059 0.003922
0.423529 0.039216 0.003922
0.466667 0.035294 0.000000
0.513725 0.027451 0.000000
0.556863 0.023529 0.000000
0.615686 0.000000 0.000000
0.662745 0.000000 0.000000
0.709804 0.000000 0.000000
0.760784 0.000000 0.000000
0.807843 0.003922 0.000000
0.850980 0.000000 0.000000
0.901961 0.003922 0.000000
0.945098 0.000000 0.000000
0.984314 0.007843 0.007843
1.000000 0.003922 0.003922
0.996078 0.000000 0.000000
0.003922 0.098039 0.003922
0.015686 0.101961 0.011765
0.062745 0.098039 0.015686
0.117647 0.098039 0.011765
0.149020 0.101961 0.007843
0.188235 0.101961 0.011765
0.239216 0.105882 0.007843
0.282353 0.101961 0.007843
0.321569 0.098039 0.000000
0.372549 0.090196 0.000000
0.423529 0.094118 0.000000
0.466667 0.090196 0.003922
0.513725 0.094118 0.000000
0.560784 0.082353 0.000000
0.611765 0.078431 0.000000
0.658824 0.066667 0.000000
0.709804 0.054902 0.000000
0.756863 0.035294 0.003922
0.803922 0.019608 0.000000
0.854902 0.003922 0.000000
0.905882 0.000000 0.007843
0.933333 0.003922 0.000000
0.984314 0.000000 0.000000
0.996078 0.000000 0.000000
1.000000 0.007843 0.000000
0.000000 0.137255 0.011765
0.007843 0.141176 0.000000
0.058824 0.145098 0.000000
0.105882 0.149020 0.000000
0.145098 0.145098 0.003922
0.192157 0.141176 0.003922
0.239216 0.145098 0.003922
0.286275 0.145098 0.003922
0.333333 0.145098 0.003922
0.372549 0.145098 0.000000
0.415686 0.141176 0.000000
0.466667 0.145098 0.000000
0.517647 0.145098 0.000000
0.560784 0.137255 0.000000
0.615686 0.137255 0.000000
0.662745 0.129412 0.003922
0.709804 0.121569 0.000000
0.760784 0.113725 0.003922
0.807843 0.101961 0.003922
0.847059 0.098039 0.000000
0.894118 0.078431 0.000000
0.945098 0.066667 0.000000
0.988235 0.039216 0.003922
0.996078 0.015686 0.000000
0.996078 0.000000 0.007843
0.000000 0.188235 0.000000
0.007843 0.188235 0.003922
0.062745 0.192157 0.007843
0.113725 0.188235 0.000000
0.156863 0.188235 0.000000
0.200000 0.192157 0.000000
0.235294 0.188235 0.000000
0.290196 0.188235 0.000000
0.333333 0.184314 0.000000
0.384314 0.184314 0.000000
0.427451 0.184314 0.000000
0.474510 0.184314 0.000000
0.521569 0.184314 0.000000
0.568627 0.184314 0.000000
0.619608 0.184314 0.003922
0.662745 0.184314 0.000000
0.713725 0.172549 0.000000
0.760784 0.172549 0.000000
0.803922 0.168627 0.000000
0.858824 0.156863 0.000000
0.901961 0.152941 0.000000
0.941176 0.145098 0.000000
0.988235 0.133333 0.000000
0.992157 0.125490 0.000000
1.000000 0.113725 0.000000
0.000000 0.227451 0.000000
0.011765 0.227451 0.000000
0.058824 0.227451 0.007843
0.117647 0.231373 0.003922
0.152941 0.231373 0.000000
0.211765 0.231373 0.011765
0.247059 0.227451 0.007843
0.290196 0.227451 0.000000
0.341176 0.227451 0.000000
0.388235 0.231373 0.000000
0.431373 0.227451 0.000000
0.482353 0.227451 0.000000
0.521569 0.231373 0.000000
0.572549 0.223529 0.000000
0.619608 0.227451 0.000000
0.666667 0.227451 0.000000
0.717647 0.231373 0.000000
0.764706 0.223529 0.007843
0.811765 0.219608 0.003922
0.858824 0.211765 0.000000
0.901961 0.207843 0.003922
0.949020 0.200000 0.000000
0.988235 0.192157 0.000000
1.000000 0.184314 0.003922
1.000000 0.180392 0.003922
0.000000 0.270588 0.000000
0.003922 0.278431 0.003922
0.054902 0.274510 0.000000
0.113725 0.274510 0.000000
0.156863 0.274510 0.000000
0.200000 0.278431 0.000000
0.247059 0.274510 0.000000
0.294118 0.278431 0.000000
0.341176 0.274510 0.000000
0.380392 0.274510 0.000000
0.423529 0.274510 0.000000
0.470588 0.274510 0.003922
0.521569 0.278431 0.000000
0.564706 0.274510 0.003922
0.619608 0.270588 0.003922
0.666667 0.274510 0.007843
0.713725 0.270588 0.003922
0.756863 0.270588 0.000000
0.803922 0.270588 0.003922
0.850980 0.266667 0.000000
0.901961 0.262745 0.000000
0.945098 0.258824 0.003922
0.988235 0.243137 0.007843
0.996078 0.235294 0.000000
0.996078 0.235294 0.000000
0.000000 0.325490 0.000000
0.000000 0.321569 0.000000
0.054902 0.321569 0.000000
0.117647 0.321569 0.000000
0.164706 0.317647 0.000000
0.203922 0.317647 0.000000
0.250980 0.317647 0.000000
0.301961 0.321569 0.000000
0.341176 0.313725 0.000000
0.380392 0.313725 0.000000
0.427451 0.317647 0.000000
0.478431 0.317647 0.003922
0.521569 0.317647 0.000000
0.572549 0.317647 0.003922
0.619608 0.317647 0.003922
0.662745 0.317647 0.000000
0.713725 0.317647 0.003922
0.756863 0.313725 0.000000
0.800000 0.313725 0.000000
0.850980 0.309804 0.000000
0.898039 0.305882 0.003922
0.949020 0.290196 0.003922
0.984314 0.298039 0.003922
1.000000 0.286275 0.007843
1.000000 0.282353 0.007843
0.000000 0.360784 0.003922
0.007843 0.364706 0.000000
0.066667 0.356863 0.007843
0.109804 0.364706 0.000000
0.160784 0.360784 0.000000
0.207843 0.360784 0.003922
0.258824 0.360784 0.003922
0.301961 0.360784 0.000000
0.349020 0.360784 0.003922
0.388235 0.360784 0.003922
0.435294 0.360784 0.000000
0.478431 0.356863 0.000000
0.525490 0.364706 0.003922
0.572549 0.364706 0.000000
0.619608 0.356863 0.000000
0.662745 0.364706 0.000000
0.713725 0.356863 0.000000
0.756863 0.360784 0.000000
0.807843 0.356863 0.000000
0.850980 0.352941 0.003922
0.898039 0.352941 0.000000
0.941176 0.349020 0.000000
0.984314 0.345098 0.003922
0.996078 0.341176 0.003922
1.000000 0.333333 0.000000
0.000000 0.415686 0.000000
0.000000 0.415686 0.000000
0.050980 0.415686 0.000000
0.105882 0.415686 0.000000
0.160784 0.419608 0.003922
0.207843 0.415686 0.000000
0.254902 0.415686 0.000000
0.309804 0.415686 0.011765
0.345098 0.411765 0.003922
0.392157 0.411765 0.007843
