lut_library_archive/removed_20260629/50个风景lut/50个风景lut16.cube
# 版权归凌孟成所有，侵权必究
TITLE "Jungle LUT #16"
#LUT size
LUT_3D_SIZE 9
#LUT data points
0.000000 0.000000 0.000000
0.094118 0.000000 0.000000
0.231373 0.003922 0.000000
0.356863 0.000000 0.000000
0.490196 0.000000 0.000000
0.627451 0.000000 0.000000
0.760784 0.000000 0.000000
0.890196 0.000000 0.000000
1.000000 0.007843 0.000000
0.007843 0.094118 0.003922
0.098039 0.098039 0.000000
0.231373 0.090196 0.000000
0.356863 0.090196 0.000000
0.486275 0.086275 0.000000
0.627451 0.066667 0.003922
0.764706 0.039216 0.000000
0.886275 0.003922 0.000000
0.984314 0.003922 0.000000
0.000000 0.227451 0.007843
0.117647 0.215686 0.000000
0.239216 0.219608 0.000000
0.364706 0.219608 0.003922
0.494118 0.215686 0.003922
0.627451 0.215686 0.000000
0.760784 0.207843 0.000000
0.901961 0.188235 0.000000
1.000000 0.164706 0.000000
0.007843 0.345098 0.003922
0.109804 0.345098 0.003922
0.250980 0.345098 0.000000
0.376471 0.349020 0.003922
0.494118 0.349020 0.003922
0.631373 0.341176 0.000000
0.768627 0.337255 0.000000
0.894118 0.333333 0.003922
1.000000 0.317647 0.000000
0.000000 0.482353 0.003922
0.105882 0.478431 0.000000
0.247059 0.474510 0.003922
0.380392 0.474510 0.003922
0.509804 0.470588 0.000000
0.635294 0.470588 0.000000
0.768627 0.470588 0.003922
0.901961 0.462745 0.003922
1.000000 0.454902 0.011765
0.000000 0.603922 0.000000
0.101961 0.607843 0.000000
0.250980 0.600000 0.000000
0.384314 0.603922 0.003922
0.509804 0.600000 0.000000
0.643137 0.600000 0.003922
0.776471 0.600000 0.000000
0.901961 0.592157 0.000000
1.000000 0.576471 0.007843
0.000000 0.725490 0.000000
0.098039 0.725490 0.000000
0.247059 0.721569 0.000000
0.380392 0.725490 0.000000
0.517647 0.717647 0.000000
0.647059 0.717647 0.000000
0.772549 0.717647 0.000000
0.913725 0.717647 0.003922
1.000000 0.709804 0.000000
0.007843 0.839216 0.000000
0.086275 0.839216 0.000000
0.239216 0.839216 0.000000
0.384314 0.839216 0.000000
0.509804 0.835294 0.000000
0.643137 0.835294 0.000000
0.772549 0.835294 0.000000
0.909804 0.831373 0.003922
0.992157 0.831373 0.000000
0.003922 0.956863 0.000000
0.000000 0.956863 0.000000
0.211765 0.952941 0.000000
0.364706 0.941176 0.000000
0.505882 0.952941 0.000000
0.654902 0.949020 0.000000
0.803922 0.941176 0.000000
0.941176 0.937255 0.003922
1.000000 0.921569 0.000000
0.000000 0.007843 0.094118
0.105882 0.000000 0.094118
0.227451 0.000000 0.094118
0.364706 0.000000 0.090196
0.498039 0.000000 0.078431
0.623529 0.003922 0.070588
0.760784 0.000000 0.062745
0.894118 0.000000 0.027451
0.996078 0.000000 0.000000
0.000000 0.098039 0.082353
0.101961 0.098039 0.090196
0.227451 0.094118 0.090196
0.360784 0.086275 0.086275
0.490196 0.078431 0.074510
0.627451 0.047059 0.062745
0.760784 0.003922 0.047059
0.890196 0.003922 0.027451
1.000000 0.003922 0.015686
0.003922 0.223529 0.086275
0.094118 0.227451 0.082353
0.239216 0.215686 0.082353
0.368627 0.219608 0.074510
0.501961 0.219608 0.070588
0.631373 0.211765 0.054902
0.760784 0.200000 0.027451
0.898039 0.184314 0.007843
0.992157 0.168627 0.007843
0.000000 0.349020 0.047059
0.090196 0.349020 0.058824
0.235294 0.345098 0.047059
0.368627 0.345098 0.039216
0.505882 0.345098 0.031373
0.635294 0.341176 0.015686
0.772549 0.341176 0.000000
0.901961 0.329412 0.000000
0.996078 0.313725 0.000000
0.007843 0.482353 0.015686
0.090196 0.474510 0.007843
0.243137 0.478431 0.000000
0.376471 0.474510 0.003922
0.509804 0.466667 0.003922
0.631373 0.466667 0.000000
0.772549 0.462745 0.000000
0.909804 0.458824 0.003922
1.000000 0.447059 0.000000
0.003922 0.600000 0.000000
0.078431 0.600000 0.000000
0.250980 0.600000 0.000000
0.380392 0.600000 0.000000
0.517647 0.600000 0.000000
0.647059 0.596078 0.000000
0.780392 0.596078 0.000000
0.905882 0.588235 0.003922
0.996078 0.580392 0.000000
0.007843 0.717647 0.000000
0.066667 0.721569 0.000000
0.239216 0.725490 0.003922
0.376471 0.721569 0.000000
0.509804 0.721569 0.000000
0.643137 0.721569 0.000000
0.780392 0.717647 0.007843
0.909804 0.717647 0.003922
0.988235 0.713725 0.000000
0.007843 0.839216 0.000000
0.062745 0.843137 0.000000
0.231373 0.843137 0.000000
0.372549 0.839216 0.000000
0.505882 0.839216 0.000000
0.643137 0.835294 0.000000
0.768627 0.831373 0.000000
0.905882 0.827451 0.000000
1.000000 0.831373 0.003922
0.000000 0.956863 0.000000
0.000000 0.956863 0.000000
0.211765 0.952941 0.003922
0.364706 0.949020 0.007843
0.501961 0.945098 0.000000
0.643137 0.949020 0.000000
0.796078 0.941176 0.000000
0.941176 0.937255 0.000000
1.000000 0.925490 0.000000
0.003922 0.000000 0.219608
0.105882 0.000000 0.223529
0.231373 0.000000 0.219608
0.368627 0.003922 0.227451
0.498039 0.000000 0.219608
0.635294 0.000000 0.211765
0.760784 0.000000 0.207843
0.894118 0.003922 0.192157
0.992157 0.000000 0.184314
0.000000 0.098039 0.219608
0.090196 0.086275 0.219608
0.231373 0.086275 0.223529
0.364706 0.070588 0.223529
0.494118 0.054902 0.219608
0.627451 0.000000 0.211765
0.768627 0.003922 0.207843
0.898039 0.000000 0.200000
0.996078 0.000000 0.180392
0.000000 0.215686 0.223529
0.074510 0.223529 0.223529
0.227451 0.223529 0.207843
0.368627 0.219608 0.215686
0.494118 0.215686 0.215686
0.635294 0.203922 0.207843
0.760784 0.188235 0.192157
0.898039 0.168627 0.188235
0.996078 0.137255 0.184314
0.007843 0.349020 0.211765
0.035294 0.349020 0.203922
0.227451 0.352941 0.207843
0.368627 0.345098 0.203922
0.505882 0.341176 0.192157
0.627451 0.337255 0.200000
0.772549 0.333333 0.188235
0.901961 0.321569 0.188235
1.000000 0.305882 0.172549
0.000000 0.482353 0.196078
0.007843 0.478431 0.196078
0.227451 0.474510 0.188235
0.368627 0.478431 0.188235
0.505882 0.474510 0.188235
0.639216 0.466667 0.188235
0.768627 0.462745 0.180392
0.901961 0.454902 0.172549
0.992157 0.447059 0.145098
0.003922 0.603922 0.176471
0.000000 0.607843 0.176471
0.223529 0.600000 0.176471
0.372549 0.603922 0.172549
0.513725 0.600000 0.172549
0.643137 0.596078 0.164706
0.776471 0.592157 0.152941
0.905882 0.596078 0.141176
0.996078 0.576471 0.137255
0.003922 0.725490 0.145098
0.011765 0.721569 0.145098
0.227451 0.729412 0.160784
0.368627 0.721569 0.133333
0.509804 0.725490 0.125490
0.643137 0.721569 0.129412
0.772549 0.721569 0.117647
0.901961 0.721569 0.101961
0.996078 0.705882 0.074510
0.003922 0.847059 0.098039
0.000000 0.839216 0.101961
0.211765 0.843137 0.090196
0.364706 0.839216 0.090196
0.498039 0.839216 0.086275
0.639216 0.835294 0.062745
0.772549 0.827451 0.039216
0.905882 0.827451 0.003922
0.988235 0.835294 0.000000
0.003922 0.956863 0.015686
0.000000 0.952941 0.003922
0.188235 0.952941 0.003922
0.345098 0.952941 0.003922
0.501961 0.952941 0.000000
0.643137 0.949020 0.000000
0.796078 0.941176 0.000000
0.945098 0.933333 0.003922
1.000000 0.921569 0.000000
0.003922 0.000000 0.364706
0.101961 0.000000 0.356863
0.235294 0.000000 0.352941
0.364706 0.003922 0.345098
0.501961 0.000000 0.356863
0.627451 0.000000 0.352941
0.764706 0.003922 0.349020
0.901961 0.003922 0.337255
0.996078 0.003922 0.329412
0.007843 0.082353 0.352941
0.082353 0.082353 0.364706
0.223529 0.078431 0.349020
0.372549 0.058824 0.352941
0.505882 0.023529 0.341176
0.635294 0.003922 0.349020
0.760784 0.000000 0.345098
0.901961 0.003922 0.337255
0.996078 0.003922 0.321569
0.003922 0.215686 0.356863
0.050980 0.219608 0.352941
0.219608 0.211765 0.356863
0.368627 0.203922 0.352941
0.501961 0.203922 0.352941
0.631373 0.192157 0.341176
0.768627 0.180392 0.337255
0.901961 0.145098 0.329412
1.000000 0.094118 0.337255
0.003922 0.349020 0.352941
0.023529 0.352941 0.352941
0.227451 0.349020 0.356863
0.368627 0.345098 0.345098
0.498039 0.341176 0.345098
0.627451 0.337255 0.333333
0.768627 0.329412 0.337255
0.905882 0.317647 0.333333
0.996078 0.298039 0.329412
0.000000 0.486275 0.352941
0.007843 0.474510 0.349020
0.203922 0.478431 0.333333
0.356863 0.474510 0.333333
0.509804 0.470588 0.333333
0.643137 0.470588 0.333333
0.776471 0.462745 0.333333
0.905882 0.450980 0.321569
0.996078 0.439216 0.313725
0.000000 0.607843 0.321569
0.000000 0.603922 0.329412
0.188235 0.611765 0.317647
0.356863 0.603922 0.325490
0.501961 0.603922 0.317647
0.647059 0.600000 0.317647
0.780392 0.592157 0.309804
0.913725 0.584314 0.309804
0.996078 0.576471 0.301961
0.000000 0.729412 0.309804
0.003922 0.725490 0.309804
0.188235 0.725490 0.309804
0.352941 0.729412 0.305882
0.494118 0.725490 0.301961
0.635294 0.721569 0.294118
0.780392 0.713725 0.298039
0.913725 0.717647 0.282353
0.992157 0.701961 0.274510
0.000000 0.847059 0.286275
0.000000 0.843137 0.290196
0.168627 0.847059 0.290196
0.341176 0.839216 0.278431
0.490196 0.839216 0.282353
0.631373 0.835294 0.266667
0.776471 0.835294 0.266667
0.913725 0.831373 0.262745
1.000000 0.827451 0.247059
0.003922 0.956863 0.250980
0.000000 0.949020 0.235294
0.113725 0.956863 0.247059
0.321569 0.952941 0.243137
0.486275 0.949020 0.235294
0.635294 0.949020 0.223529
0.788235 0.941176 0.200000
0.941176 0.937255 0.196078
1.000000 0.925490 0.160784
0.000000 0.000000 0.501961
0.101961 0.000000 0.482353
0.239216 0.000000 0.478431
0.360784 0.003922 0.486275
0.494118 0.003922 0.482353
0.627451 0.000000 0.486275
0.768627 0.003922 0.482353
0.901961 0.003922 0.478431
0.996078 0.000000 0.458824
0.003922 0.078431 0.486275
0.062745 0.074510 0.486275
0.227451 0.066667 0.474510
0.368627 0.047059 0.482353
0.505882 0.000000 0.474510
0.643137 0.000000 0.490196
0.768627 0.003922 0.482353
0.905882 0.007843 0.482353
0.996078 0.003922 0.470588
0.000000 0.215686 0.470588
0.003922 0.215686 0.490196
0.211765 0.207843 0.482353
0.364706 0.200000 0.482353
0.509804 0.196078 0.490196
0.635294 0.180392 0.474510
0.776471 0.160784 0.478431
0.905882 0.129412 0.470588
1.000000 0.066667 0.470588
0.000000 0.352941 0.478431
0.000000 0.352941 0.486275
0.203922 0.345098 0.486275
0.364706 0.337255 0.470588
0.498039 0.333333 0.482353
0.643137 0.329412 0.482353
0.776471 0.321569 0.474510
0.901961 0.301961 0.474510
0.996078 0.286275 0.470588
0.000000 0.474510 0.478431
0.000000 0.474510 0.478431
0.196078 0.474510 0.474510
0.356863 0.474510 0.474510
0.498039 0.474510 0.474510
0.631373 0.466667 0.474510
0.776471 0.462745 0.474510
0.913725 0.447059 0.462745
0.996078 0.427451 0.454902
0.000000 0.611765 0.474510
0.003922 0.600000 0.478431
0.168627 0.603922 0.466667
0.341176 0.603922 0.466667
0.494118 0.600000 0.462745
0.639216 0.600000 0.458824
0.784314 0.596078 0.454902
0.913725 0.580392 0.458824
1.000000 0.572549 0.454902
0.000000 0.733333 0.462745
0.000000 0.729412 0.458824
0.129412 0.729412 0.454902
0.325490 0.725490 0.439216
0.490196 0.725490 0.450980
0.635294 0.717647 0.447059
0.776471 0.717647 0.447059
0.913725 0.717647 0.439216
1.000000 0.701961 0.427451
0.000000 0.847059 0.435294
0.000000 0.843137 0.439216
0.098039 0.843137 0.443137
0.321569 0.843137 0.431373
0.486275 0.843137 0.439216
0.623529 0.839216 0.431373
0.764706 0.839216 0.427451
0.905882 0.831373 0.423529
1.000000 0.827451 0.423529
0.011765 0.949020 0.419608
0.003922 0.952941 0.411765
0.035294 0.952941 0.407843
0.305882 0.949020 0.407843
0.466667 0.952941 0.403922
0.619608 0.945098 0.396078
0.784314 0.945098 0.396078
0.941176 0.937255 0.388235
1.000000 0.921569 0.368627
0.000000 0.000000 0.607843
0.086275 0.003922 0.619608
0.239216 0.000000 0.615686
0.368627 0.003922 0.611765
0.498039 0.000000 0.615686
0.631373 0.000000 0.619608
0.772549 0.000000 0.615686
0.901961 0.003922 0.611765
1.000000 0.000000 0.611765
0.007843 0.066667 0.619608
0.054902 0.058824 0.607843
0.223529 0.047059 0.615686
0.364706 0.015686 0.619608
0.498039 0.000000 0.615686
0.635294 0.000000 0.619608
0.772549 0.000000 0.623529
0.894118 0.007843 0.603922
1.000000 0.000000 0.603922
0.000000 0.211765 0.627451
0.000000 0.203922 0.631373
0.196078 0.200000 0.615686
0.356863 0.192157 0.615686
0.498039 0.188235 0.619608
0.643137 0.160784 0.615686
0.772549 0.141176 0.615686
0.901961 0.109804 0.603922
0.996078 0.039216 0.596078
0.000000 0.345098 0.627451
0.000000 0.341176 0.619608
0.180392 0.337255 0.611765
0.349020 0.337255 0.615686
0.498039 0.325490 0.619608
0.639216 0.317647 0.615686
0.780392 0.305882 0.607843
0.905882 0.301961 0.615686
1.000000 0.286275 0.615686
0.011765 0.470588 0.631373
0.000000 0.478431 0.607843
0.172549 0.466667 0.627451
0.337255 0.470588 0.619608
0.498039 0.454902 0.619608
0.639216 0.458824 0.611765
0.776471 0.454902 0.611765
0.905882 0.450980 0.611765
0.996078 0.431373 0.603922
0.000000 0.611765 0.623529
0.000000 0.603922 0.615686
0.152941 0.603922 0.615686
0.333333 0.603922 0.623529
0.490196 0.600000 0.615686
0.635294 0.592157 0.607843
0.780392 0.588235 0.603922
0.913725 0.580392 0.611765
0.996078 0.568627 0.588235
0.000000 0.725490 0.592157
0.000000 0.721569 0.600000
0.109804 0.721569 0.603922
0.321569 0.725490 0.600000
0.490196 0.721569 0.603922
0.635294 0.717647 0.596078
0.776471 0.717647 0.596078
0.917647 0.705882 0.596078
1.000000 0.698039 0.596078
0.003922 0.843137 0.584314
0.000000 0.847059 0.592157
0.105882 0.843137 0.584314
0.325490 0.843137 0.588235
0.482353 0.843137 0.596078
0.623529 0.839216 0.584314
0.772549 0.835294 0.580392
0.909804 0.835294 0.576471
1.000000 0.827451 0.572549
0.003922 0.956863 0.572549
0.007843 0.952941 0.572549
0.050980 0.956863 0.580392
0.305882 0.952941 0.580392
0.474510 0.949020 0.568627
0.631373 0.949020 0.576471
0.784314 0.941176 0.564706
0.937255 0.933333 0.568627
1.000000 0.921569 0.549020
0.003922 0.000000 0.752941
0.070588 0.000000 0.749020
0.239216 0.000000 0.756863
0.372549 0.000000 0.745098
0.505882 0.000000 0.749020
0.639216 0.003922 0.752941
0.772549 0.000000 0.756863
0.894118 0.000000 0.749020
0.996078 0.000000 0.741176
0.000000 0.047059 0.752941
0.039216 0.043137 0.749020
0.219608 0.023529 0.756863
0.364706 0.000000 0.760784
0.505882 0.000000 0.749020
0.639216 0.003922 0.752941
0.772549 0.003922 0.749020
0.905882 0.000000 0.752941
1.000000 0.003922 0.745098
0.011765 0.192157 0.760784
0.003922 0.192157 0.749020
0.203922 0.192157 0.745098
0.360784 0.184314 0.752941
0.501961 0.172549 0.752941
0.635294 0.145098 0.749020
0.784314 0.117647 0.749020
0.909804 0.066667 0.745098
1.000000 0.003922 0.737255
0.003922 0.325490 0.756863
0.007843 0.329412 0.756863
0.160784 0.325490 0.764706
0.337255 0.321569 0.752941
0.498039 0.317647 0.752941
0.639216 0.309804 0.756863
0.780392 0.294118 0.749020
0.913725 0.286275 0.749020
0.996078 0.270588 0.741176
0.000000 0.470588 0.749020
0.000000 0.466667 0.756863
0.125490 0.462745 0.756863
0.325490 0.454902 0.756863
0.490196 0.447059 0.756863
0.635294 0.450980 0.756863
0.772549 0.443137 0.749020
0.913725 0.439216 0.749020
1.000000 0.423529 0.741176
0.000000 0.596078 0.749020
0.000000 0.603922 0.752941
0.090196 0.596078 0.749020
0.309804 0.596078 0.760784
0.474510 0.588235 0.752941
0.631373 0.580392 0.752941
0.784314 0.584314 0.752941
0.913725 0.580392 0.741176
0.996078 0.568627 0.745098
0.007843 0.729412 0.752941
0.003922 0.733333 0.752941
0.031373 0.733333 0.749020
0.309804 0.729412 0.752941
0.486275 0.725490 0.745098
0.639216 0.717647 0.745098
0.780392 0.713725 0.752941
0.913725 0.705882 0.752941
1.000000 0.701961 0.749020
0.003922 0.843137 0.725490
0.000000 0.839216 0.737255
0.086275 0.847059 0.733333
0.325490 0.843137 0.729412
0.486275 0.839216 0.737255
0.643137 0.839216 0.741176
0.776471 0.831373 0.733333
0.913725 0.827451 0.733333
0.996078 0.823529 0.725490
0.003922 0.956863 0.725490
0.007843 0.952941 0.721569
0.070588 0.952941 0.709804
0.321569 0.952941 0.721569
0.490196 0.949020 0.725490
0.631373 0.941176 0.725490
0.788235 0.941176 0.733333
0.941176 0.933333 0.733333
1.000000 0.913725 0.717647
0.003922 0.000000 0.882353
0.058824 0.000000 0.882353
0.231373 0.003922 0.882353
0.372549 0.000000 0.886275
0.509804 0.000000 0.882353
0.635294 0.000000 0.882353
0.768627 0.000000 0.878431
0.909804 0.000000 0.878431
1.000000 0.000000 0.882353
0.000000 0.011765 0.870588
0.000000 0.011765 0.870588
0.223529 0.000000 0.886275
0.372549 0.000000 0.886275
0.501961 0.007843 0.882353
0.643137 0.000000 0.882353
0.776471 0.000000 0.882353
0.909804 0.000000 0.878431
1.000000 0.000000 0.886275
0.000000 0.184314 0.866667
0.007843 0.192157 0.882353
0.200000 0.180392 0.886275
0.360784 0.172549 0.878431
0.501961 0.156863 0.882353
0.639216 0.133333 0.870588
0.772549 0.098039 0.882353
0.913725 0.011765 0.882353
1.000000 0.000000 0.878431
0.003922 0.317647 0.890196
0.003922 0.317647 0.894118
0.164706 0.313725 0.890196
0.345098 0.309804 0.878431
0.498039 0.309804 0.882353
0.631373 0.294118 0.886275
0.776471 0.286275 0.890196
0.905882 0.266667 0.882353
0.996078 0.250980 0.878431
0.003922 0.447059 0.886275
0.003922 0.447059 0.886275
0.074510 0.450980 0.890196
0.321569 0.447059 0.882353
0.482353 0.443137 0.890196
0.627451 0.435294 0.886275
0.776471 0.427451 0.890196
0.921569 0.411765 0.890196
1.000000 0.403922 0.882353
0.000000 0.584314 0.882353
0.003922 0.588235 0.886275
0.000000 0.592157 0.878431
0.298039 0.576471 0.890196
0.474510 0.576471 0.878431
0.631373 0.576471 0.886275
0.776471 0.576471 0.886275
0.921569 0.560784 0.886275
1.000000 0.560784 0.862745
0.011765 0.717647 0.886275
0.003922 0.709804 0.870588
0.003922 0.721569 0.878431
0.290196 0.713725 0.886275
0.470588 0.713725 0.874510
0.627451 0.709804 0.886275
0.776471 0.709804 0.882353
0.921569 0.701961 0.886275
1.000000 0.701961 0.882353
0.007843 0.847059 0.886275
0.000000 0.858824 0.890196
0.000000 0.850980 0.878431
0.290196 0.847059 0.886275
0.474510 0.843137 0.882353
0.635294 0.839216 0.882353
0.780392 0.827451 0.874510
0.913725 0.819608 0.874510
1.000000 0.819608 0.890196
0.003922 0.949020 0.854902
0.000000 0.952941 0.858824
0.086275 0.952941 0.854902
0.321569 0.952941 0.862745
0.486275 0.949020 0.854902
0.643137 0.945098 0.866667
0.803922 0.937255 0.874510
0.937255 0.929412 0.882353
1.000000 0.913725 0.894118
0.000000 0.003922 0.996078
0.039216 0.000000 1.000000
0.223529 0.000000 0.992157
0.364706 0.000000 1.000000
0.505882 0.000000 0.992157
0.639216 0.000000 1.000000
0.772549 0.000000 1.000000
0.898039 0.003922 0.996078
0.996078 0.003922 1.000000
0.000000 0.000000 0.996078
0.000000 0.000000 0.996078
0.219608 0.000000 1.000000
0.360784 0.003922 1.000000
0.498039 0.000000 0.992157
0.635294 0.000000 0.996078
0.768627 0.003922 1.000000
0.898039 0.003922 0.996078
1.000000 0.000000 0.996078
0.003922 0.180392 1.000000
0.000000 0.180392 1.000000
0.200000 0.164706 1.000000
0.349020 0.156863 1.000000
0.498039 0.145098 1.000000
0.631373 0.109804 1.000000
0.768627 0.062745 1.000000
0.905882 0.000000 0.996078
0.988235 0.007843 0.988235
0.000000 0.321569 1.000000
0.000000 0.313725 1.000000
0.180392 0.305882 1.000000
0.337255 0.294118 0.992157
0.490196 0.298039 1.000000
0.627451 0.282353 0.996078
0.772549 0.270588 0.996078
0.898039 0.250980 1.000000
1.000000 0.223529 1.000000
0.003922 0.439216 1.000000
0.003922 0.427451 0.996078
0.129412 0.435294 1.000000
0.333333 0.435294 1.000000
0.470588 0.435294 1.000000
0.631373 0.427451 1.000000
0.768627 0.415686 1.000000
0.898039 0.403922 0.996078
0.996078 0.396078 0.996078
0.000000 0.564706 1.000000
0.000000 0.560784 1.000000
0.007843 0.564706 0.988235
0.278431 0.556863 1.000000
0.486275 0.564706 1.000000
0.627451 0.564706 0.992157
0.772549 0.560784 1.000000
0.901961 0.556863 0.996078
1.000000 0.545098 0.996078
0.007843 0.709804 1.000000
0.003922 0.694118 1.000000
0.000000 0.701961 0.996078
0.278431 0.690196 1.000000
0.466667 0.698039 0.996078
0.623529 0.690196 0.996078
0.780392 0.698039 1.000000
0.905882 0.694118 1.000000
1.000000 0.694118 1.000000
0.011765 0.831373 0.992157
0.000000 0.835294 1.000000
0.007843 0.831373 1.000000
0.243137 0.831373 1.000000
0.447059 0.827451 0.992157
0.623529 0.823529 1.000000
0.772549 0.823529 1.000000
0.921569 0.819608 1.000000
0.992157 0.823529 1.000000
0.003922 0.968627 0.996078
0.007843 0.964706 1.000000
0.007843 0.956863 1.000000
0.211765 0.964706 1.000000
0.450980 0.952941 0.996078
0.643137 0.952941 1.000000
0.811765 0.937255 0.996078
0.960784 0.925490 1.000000
1.000000 0.909804 0.996078
