lut_library_archive/removed_20260629/50个风景lut/50个风景lut05.cube
# 版权归凌孟成所有，侵权必究
TITLE "Jungle LUT #5"
#LUT size
LUT_3D_SIZE 9
#LUT data points
0.000000 0.000000 0.000000
0.117647 0.000000 0.000000
0.243137 0.003922 0.000000
0.376471 0.000000 0.003922
0.509804 0.000000 0.000000
0.631373 0.000000 0.000000
0.760784 0.000000 0.000000
0.886275 0.003922 0.003922
0.992157 0.000000 0.003922
0.003922 0.125490 0.003922
0.129412 0.125490 0.003922
0.247059 0.125490 0.011765
0.376471 0.121569 0.003922
0.501961 0.113725 0.000000
0.631373 0.109804 0.003922
0.764706 0.098039 0.000000
0.878431 0.094118 0.000000
1.000000 0.086275 0.000000
0.000000 0.254902 0.000000
0.101961 0.254902 0.000000
0.239216 0.258824 0.000000
0.376471 0.254902 0.000000
0.501961 0.250980 0.000000
0.639216 0.247059 0.003922
0.760784 0.247059 0.003922
0.890196 0.243137 0.000000
1.000000 0.239216 0.000000
0.000000 0.392157 0.000000
0.050980 0.384314 0.011765
0.239216 0.388235 0.000000
0.380392 0.388235 0.007843
0.513725 0.384314 0.011765
0.635294 0.384314 0.000000
0.756863 0.368627 0.000000
0.886275 0.368627 0.003922
1.000000 0.364706 0.000000
0.000000 0.521569 0.007843
0.003922 0.525490 0.003922
0.207843 0.529412 0.003922
0.364706 0.521569 0.000000
0.509804 0.521569 0.007843
0.631373 0.513725 0.000000
0.760784 0.509804 0.000000
0.886275 0.505882 0.000000
0.992157 0.501961 0.007843
0.000000 0.666667 0.007843
0.000000 0.662745 0.003922
0.168627 0.662745 0.000000
0.349020 0.658824 0.000000
0.494118 0.654902 0.000000
0.631373 0.650980 0.003922
0.768627 0.643137 0.003922
0.886275 0.639216 0.000000
0.992157 0.643137 0.007843
0.000000 0.776471 0.000000
0.000000 0.776471 0.000000
0.129412 0.768627 0.011765
0.329412 0.772549 0.003922
0.474510 0.776471 0.000000
0.615686 0.772549 0.007843
0.741176 0.764706 0.003922
0.878431 0.764706 0.011765
0.996078 0.760784 0.000000
0.000000 0.898039 0.000000
0.003922 0.890196 0.003922
0.031373 0.898039 0.000000
0.298039 0.898039 0.000000
0.458824 0.894118 0.003922
0.607843 0.894118 0.003922
0.741176 0.890196 0.000000
0.870588 0.890196 0.003922
1.000000 0.890196 0.003922
0.000000 1.000000 0.000000
0.000000 1.000000 0.003922
0.000000 1.000000 0.000000
0.266667 1.000000 0.000000
0.443137 1.000000 0.003922
0.580392 1.000000 0.000000
0.717647 1.000000 0.000000
0.850980 0.996078 0.000000
0.976471 1.000000 0.000000
0.000000 0.000000 0.149020
0.125490 0.003922 0.137255
0.254902 0.000000 0.137255
0.376471 0.000000 0.145098
0.509804 0.000000 0.141176
0.635294 0.003922 0.137255
0.764706 0.000000 0.133333
0.886275 0.000000 0.133333
1.000000 0.000000 0.125490
0.000000 0.125490 0.145098
0.121569 0.125490 0.145098
0.247059 0.117647 0.145098
0.388235 0.109804 0.149020
0.505882 0.101961 0.137255
0.631373 0.086275 0.137255
0.764706 0.070588 0.141176
0.882353 0.058824 0.133333
1.000000 0.043137 0.133333
0.000000 0.250980 0.145098
0.066667 0.258824 0.141176
0.243137 0.258824 0.129412
0.372549 0.250980 0.137255
0.505882 0.247059 0.145098
0.635294 0.235294 0.145098
0.756863 0.235294 0.137255
0.886275 0.231373 0.129412
0.992157 0.219608 0.117647
0.000000 0.384314 0.121569
0.000000 0.388235 0.125490
0.211765 0.388235 0.117647
0.380392 0.384314 0.117647
0.509804 0.380392 0.117647
0.631373 0.380392 0.141176
0.764706 0.372549 0.137255
0.894118 0.368627 0.129412
1.000000 0.364706 0.133333
0.003922 0.513725 0.117647
0.003922 0.517647 0.109804
0.188235 0.521569 0.113725
0.360784 0.521569 0.105882
0.501961 0.521569 0.117647
0.635294 0.513725 0.105882
0.756863 0.505882 0.125490
0.882353 0.505882 0.137255
0.996078 0.505882 0.121569
0.000000 0.650980 0.094118
0.000000 0.650980 0.101961
0.152941 0.650980 0.090196
0.337255 0.654902 0.101961
0.494118 0.647059 0.094118
0.631373 0.650980 0.094118
0.764706 0.643137 0.086275
0.882353 0.635294 0.090196
0.996078 0.631373 0.117647
0.000000 0.780392 0.066667
0.003922 0.772549 0.078431
0.082353 0.764706 0.070588
0.305882 0.764706 0.070588
0.470588 0.760784 0.066667
0.607843 0.768627 0.062745
0.749020 0.768627 0.062745
0.878431 0.764706 0.050980
1.000000 0.756863 0.027451
0.003922 0.890196 0.011765
0.000000 0.901961 0.027451
0.000000 0.901961 0.027451
0.290196 0.901961 0.035294
0.447059 0.898039 0.015686
0.607843 0.890196 0.011765
0.729412 0.890196 0.000000
0.862745 0.890196 0.000000
1.000000 0.886275 0.000000
0.007843 1.000000 0.000000
0.000000 1.000000 0.000000
0.000000 1.000000 0.003922
0.282353 0.996078 0.003922
0.439216 1.000000 0.000000
0.580392 1.000000 0.000000
0.721569 1.000000 0.003922
0.850980 0.996078 0.000000
0.976471 1.000000 0.003922
0.003922 0.003922 0.286275
0.125490 0.000000 0.294118
0.247059 0.000000 0.278431
0.384314 0.003922 0.286275
0.513725 0.000000 0.282353
0.639216 0.000000 0.286275
0.764706 0.000000 0.278431
0.890196 0.000000 0.278431
0.996078 0.003922 0.286275
0.007843 0.109804 0.301961
0.098039 0.105882 0.294118
0.247059 0.105882 0.294118
0.372549 0.101961 0.286275
0.513725 0.098039 0.290196
0.635294 0.086275 0.290196
0.764706 0.035294 0.282353
0.890196 0.003922 0.270588
1.000000 0.003922 0.278431
0.007843 0.250980 0.294118
0.039216 0.262745 0.298039
0.223529 0.247059 0.294118
0.376471 0.247059 0.290196
0.505882 0.243137 0.282353
0.639216 0.235294 0.282353
0.764706 0.227451 0.274510
0.882353 0.219608 0.270588
0.996078 0.215686 0.266667
0.000000 0.384314 0.278431
0.000000 0.392157 0.290196
0.200000 0.392157 0.278431
0.372549 0.384314 0.270588
0.501961 0.376471 0.294118
0.627451 0.376471 0.278431
0.764706 0.372549 0.282353
0.886275 0.364706 0.274510
1.000000 0.360784 0.270588
0.003922 0.513725 0.270588
0.007843 0.517647 0.266667
0.149020 0.521569 0.262745
0.352941 0.517647 0.266667
0.498039 0.517647 0.266667
0.631373 0.509804 0.258824
0.760784 0.501961 0.274510
0.886275 0.498039 0.266667
1.000000 0.498039 0.270588
0.003922 0.654902 0.254902
0.000000 0.658824 0.262745
0.078431 0.650980 0.254902
0.321569 0.654902 0.258824
0.482353 0.647059 0.254902
0.627451 0.647059 0.254902
0.764706 0.639216 0.243137
0.886275 0.635294 0.254902
1.000000 0.635294 0.270588
0.003922 0.772549 0.239216
0.000000 0.776471 0.239216
0.003922 0.772549 0.231373
0.294118 0.764706 0.239216
0.458824 0.764706 0.227451
0.607843 0.764706 0.235294
0.752941 0.768627 0.227451
0.894118 0.768627 0.239216
0.996078 0.760784 0.235294
0.003922 0.898039 0.219608
0.003922 0.894118 0.227451
0.003922 0.898039 0.219608
0.266667 0.901961 0.219608
0.450980 0.886275 0.231373
0.592157 0.890196 0.219608
0.733333 0.886275 0.215686
0.870588 0.886275 0.203922
0.996078 0.886275 0.211765
0.007843 1.000000 0.196078
0.003922 1.000000 0.188235
0.000000 1.000000 0.192157
0.254902 0.996078 0.196078
0.435294 1.000000 0.172549
0.580392 1.000000 0.184314
0.713725 0.996078 0.180392
0.858824 0.996078 0.180392
0.980392 1.000000 0.184314
0.007843 0.000000 0.415686
0.117647 0.003922 0.427451
0.243137 0.003922 0.411765
0.384314 0.000000 0.435294
0.517647 0.000000 0.435294
0.639216 0.000000 0.435294
0.764706 0.003922 0.423529
0.894118 0.003922 0.423529
0.992157 0.003922 0.415686
0.000000 0.098039 0.439216
0.074510 0.094118 0.423529
0.247059 0.078431 0.431373
0.376471 0.066667 0.435294
0.509804 0.050980 0.431373
0.639216 0.047059 0.427451
0.760784 0.023529 0.427451
0.894118 0.003922 0.423529
0.996078 0.000000 0.415686
0.000000 0.239216 0.439216
0.000000 0.231373 0.427451
0.211765 0.235294 0.439216
0.376471 0.223529 0.431373
0.509804 0.223529 0.431373
0.635294 0.227451 0.427451
0.764706 0.223529 0.423529
0.890196 0.215686 0.411765
0.992157 0.211765 0.403922
0.011765 0.376471 0.435294
0.003922 0.388235 0.439216
0.188235 0.384314 0.427451
0.360784 0.372549 0.431373
0.498039 0.372549 0.431373
0.631373 0.372549 0.427451
0.764706 0.368627 0.431373
0.886275 0.364706 0.415686
1.000000 0.360784 0.411765
0.000000 0.521569 0.435294
0.007843 0.521569 0.427451
0.121569 0.521569 0.427451
0.313725 0.521569 0.411765
0.494118 0.517647 0.415686
0.627451 0.505882 0.427451
0.760784 0.505882 0.427451
0.882353 0.498039 0.415686
0.992157 0.498039 0.400000
0.000000 0.662745 0.415686
0.000000 0.654902 0.415686
0.007843 0.658824 0.407843
0.294118 0.654902 0.407843
0.478431 0.650980 0.411765
0.623529 0.647059 0.403922
0.760784 0.635294 0.396078
0.886275 0.631373 0.411765
0.992157 0.631373 0.400000
0.003922 0.768627 0.392157
0.000000 0.776471 0.388235
0.003922 0.768627 0.388235
0.266667 0.776471 0.384314
0.450980 0.768627 0.396078
0.603922 0.768627 0.384314
0.749020 0.764706 0.384314
0.882353 0.768627 0.372549
1.000000 0.760784 0.376471
0.007843 0.890196 0.372549
0.007843 0.898039 0.372549
0.000000 0.898039 0.360784
0.270588 0.890196 0.376471
0.439216 0.894118 0.364706
0.588235 0.890196 0.364706
0.733333 0.890196 0.368627
0.874510 0.886275 0.364706
0.996078 0.886275 0.356863
0.007843 0.996078 0.349020
0.003922 1.000000 0.341176
0.003922 1.000000 0.341176
0.243137 0.996078 0.349020
0.427451 0.996078 0.341176
0.572549 1.000000 0.337255
0.721569 1.000000 0.341176
0.858824 0.996078 0.345098
0.976471 1.000000 0.341176
0.000000 0.003922 0.568627
0.090196 0.003922 0.572549
0.250980 0.000000 0.568627
0.376471 0.003922 0.576471
0.517647 0.000000 0.572549
0.643137 0.003922 0.564706
0.764706 0.000000 0.564706
0.890196 0.000000 0.560784
0.996078 0.000000 0.556863
0.003922 0.082353 0.564706
0.058824 0.082353 0.568627
0.231373 0.066667 0.568627
0.384314 0.047059 0.576471
0.509804 0.011765 0.572549
0.643137 0.003922 0.564706
0.764706 0.003922 0.556863
0.890196 0.000000 0.560784
0.992157 0.000000 0.529412
0.000000 0.219608 0.560784
0.000000 0.215686 0.580392
0.196078 0.211765 0.568627
0.352941 0.207843 0.572549
0.501961 0.207843 0.572549
0.643137 0.192157 0.564706
0.768627 0.203922 0.556863
0.894118 0.192157 0.552941
1.000000 0.184314 0.549020
0.000000 0.368627 0.564706
0.003922 0.368627 0.572549
0.137255 0.360784 0.576471
0.341176 0.341176 0.576471
0.494118 0.345098 0.576471
0.643137 0.349020 0.572549
0.760784 0.352941 0.560784
0.886275 0.349020 0.552941
1.000000 0.341176 0.541176
0.007843 0.513725 0.568627
0.003922 0.505882 0.580392
0.062745 0.517647 0.576471
0.305882 0.505882 0.580392
0.478431 0.498039 0.572549
0.631373 0.501961 0.568627
0.756863 0.505882 0.568627
0.882353 0.505882 0.560784
0.992157 0.505882 0.560784
0.000000 0.654902 0.576471
0.000000 0.654902 0.568627
0.003922 0.650980 0.564706
0.278431 0.650980 0.572549
0.462745 0.650980 0.564706
0.615686 0.647059 0.564706
0.749020 0.639216 0.556863
0.878431 0.639216 0.564706
0.996078 0.635294 0.552941
0.000000 0.768627 0.549020
0.000000 0.776471 0.545098
0.003922 0.772549 0.545098
0.235294 0.772549 0.537255
0.443137 0.772549 0.529412
0.600000 0.772549 0.533333
0.745098 0.768627 0.525490
0.882353 0.756863 0.525490
1.000000 0.772549 0.533333
0.003922 0.894118 0.501961
0.007843 0.894118 0.501961
0.003922 0.894118 0.513725
0.247059 0.894118 0.521569
0.435294 0.894118 0.517647
0.592157 0.894118 0.517647
0.733333 0.890196 0.513725
0.866667 0.890196 0.505882
1.000000 0.894118 0.505882
0.000000 1.000000 0.490196
0.007843 0.996078 0.490196
0.000000 1.000000 0.490196
0.243137 0.996078 0.490196
0.427451 0.996078 0.482353
0.580392 1.000000 0.490196
0.721569 1.000000 0.490196
0.850980 0.996078 0.490196
0.980392 1.000000 0.498039
0.000000 0.007843 0.686275
0.074510 0.000000 0.694118
0.231373 0.000000 0.698039
0.372549 0.000000 0.698039
0.505882 0.000000 0.705882
0.627451 0.000000 0.690196
0.764706 0.000000 0.701961
0.890196 0.003922 0.701961
1.000000 0.000000 0.698039
0.007843 0.062745 0.686275
0.031373 0.070588 0.694118
0.215686 0.054902 0.698039
0.352941 0.023529 0.701961
0.486275 0.000000 0.690196
0.623529 0.003922 0.690196
0.760784 0.000000 0.701961
0.898039 0.003922 0.698039
1.000000 0.007843 0.686275
0.007843 0.207843 0.705882
0.007843 0.207843 0.698039
0.184314 0.203922 0.701961
0.341176 0.196078 0.701961
0.478431 0.196078 0.698039
0.619608 0.184314 0.698039
0.764706 0.168627 0.698039
0.894118 0.156863 0.698039
1.000000 0.145098 0.686275
0.000000 0.345098 0.698039
0.000000 0.349020 0.694118
0.105882 0.337255 0.694118
0.321569 0.333333 0.705882
0.474510 0.337255 0.705882
0.623529 0.333333 0.705882
0.764706 0.329412 0.709804
0.898039 0.329412 0.694118
0.996078 0.329412 0.686275
0.000000 0.482353 0.686275
0.007843 0.490196 0.694118
0.000000 0.490196 0.698039
0.298039 0.482353 0.701961
0.458824 0.482353 0.709804
0.611765 0.474510 0.701961
0.768627 0.474510 0.698039
0.886275 0.482353 0.690196
1.000000 0.474510 0.674510
0.011765 0.631373 0.713725
0.000000 0.631373 0.701961
0.000000 0.627451 0.690196
0.274510 0.631373 0.705882
0.443137 0.627451 0.698039
0.603922 0.627451 0.690196
0.752941 0.623529 0.690196
0.878431 0.635294 0.686275
1.000000 0.647059 0.694118
0.000000 0.772549 0.701961
0.000000 0.772549 0.686275
0.007843 0.768627 0.701961
0.207843 0.768627 0.698039
0.423529 0.772549 0.694118
0.588235 0.764706 0.674510
0.745098 0.764706 0.678431
0.882353 0.760784 0.678431
0.992157 0.764706 0.686275
0.000000 0.898039 0.658824
0.000000 0.898039 0.658824
0.000000 0.886275 0.658824
0.129412 0.894118 0.658824
0.403922 0.898039 0.650980
0.584314 0.890196 0.654902
0.733333 0.890196 0.654902
0.874510 0.890196 0.658824
1.000000 0.890196 0.650980
0.000000 1.000000 0.615686
0.007843 0.992157 0.611765
0.007843 0.996078 0.623529
0.207843 0.996078 0.627451
0.435294 1.000000 0.647059
0.592157 0.996078 0.639216
0.729412 1.000000 0.643137
0.862745 1.000000 0.639216
0.976471 1.000000 0.639216
0.000000 0.003922 0.811765
0.039216 0.007843 0.819608
0.207843 0.003922 0.811765
0.360784 0.000000 0.819608
0.486275 0.000000 0.815686
0.600000 0.007843 0.811765
0.737255 0.003922 0.815686
0.866667 0.000000 0.819608
1.000000 0.000000 0.839216
0.015686 0.039216 0.815686
0.000000 0.047059 0.811765
0.200000 0.027451 0.815686
0.341176 0.007843 0.811765
0.478431 0.000000 0.819608
0.607843 0.000000 0.811765
0.737255 0.003922 0.815686
0.866667 0.000000 0.819608
1.000000 0.003922 0.835294
0.000000 0.192157 0.827451
0.003922 0.200000 0.815686
0.176471 0.196078 0.807843
0.329412 0.188235 0.815686
0.470588 0.188235 0.819608
0.603922 0.168627 0.811765
0.733333 0.156863 0.815686
0.874510 0.137255 0.819608
1.000000 0.086275 0.823529
0.000000 0.337255 0.819608
0.000000 0.329412 0.823529
0.101961 0.329412 0.823529
0.305882 0.325490 0.823529
0.454902 0.329412 0.827451
0.596078 0.321569 0.811765
0.737255 0.321569 0.823529
0.882353 0.309804 0.831373
1.000000 0.298039 0.831373
0.000000 0.470588 0.800000
0.007843 0.466667 0.815686
0.000000 0.470588 0.815686
0.266667 0.470588 0.807843
0.439216 0.466667 0.819608
0.592157 0.462745 0.819608
0.721569 0.462745 0.815686
0.874510 0.458824 0.819608
0.992157 0.458824 0.819608
0.000000 0.603922 0.823529
0.011765 0.611765 0.815686
0.007843 0.607843 0.811765
0.258824 0.607843 0.819608
0.427451 0.607843 0.811765
0.588235 0.611765 0.815686
0.741176 0.603922 0.823529
0.882353 0.607843 0.819608
0.992157 0.607843 0.807843
0.000000 0.745098 0.819608
0.000000 0.737255 0.811765
0.007843 0.745098 0.823529
0.231373 0.760784 0.815686
0.427451 0.749020 0.803922
0.584314 0.752941 0.815686
0.741176 0.752941 0.811765
0.870588 0.764706 0.800000
1.000000 0.768627 0.807843
0.000000 0.890196 0.815686
0.000000 0.898039 0.827451
0.000000 0.894118 0.811765
0.125490 0.886275 0.811765
0.392157 0.890196 0.811765
0.560784 0.894118 0.800000
0.729412 0.882353 0.800000
0.870588 0.890196 0.796078
0.992157 0.882353 0.800000
0.000000 0.996078 0.780392
0.003922 1.000000 0.784314
0.003922 1.000000 0.776471
0.070588 1.000000 0.780392
0.384314 1.000000 0.768627
0.576471 0.996078 0.776471
0.760784 0.996078 0.784314
0.870588 1.000000 0.784314
0.984314 1.000000 0.784314
0.000000 0.000000 0.933333
0.007843 0.000000 0.925490
0.211765 0.000000 0.933333
0.341176 0.003922 0.925490
0.466667 0.003922 0.929412
0.592157 0.003922 0.941176
0.721569 0.000000 0.933333
0.843137 0.000000 0.925490
0.976471 0.003922 0.937255
0.003922 0.019608 0.929412
0.000000 0.007843 0.921569
0.188235 0.000000 0.929412
0.337255 0.000000 0.925490
0.466667 0.003922 0.929412
0.596078 0.000000 0.929412
0.717647 0.003922 0.933333
0.847059 0.003922 0.929412
0.976471 0.003922 0.937255
0.000000 0.196078 0.929412
0.000000 0.188235 0.925490
0.164706 0.184314 0.929412
0.321569 0.176471 0.925490
0.450980 0.172549 0.917647
0.588235 0.168627 0.929412
0.721569 0.156863 0.937255
0.843137 0.145098 0.937255
0.976471 0.117647 0.941176
0.003922 0.317647 0.933333
0.000000 0.329412 0.929412
0.101961 0.321569 0.937255
0.294118 0.317647 0.937255
0.447059 0.313725 0.929412
0.584314 0.309804 0.929412
0.717647 0.309804 0.933333
0.850980 0.301961 0.941176
0.976471 0.294118 0.941176
0.000000 0.454902 0.929412
0.003922 0.458824 0.941176
0.000000 0.454902 0.929412
0.258824 0.447059 0.925490
0.431373 0.447059 0.929412
0.580392 0.447059 0.929412
0.717647 0.450980 0.933333
0.843137 0.443137 0.933333
0.988235 0.443137 0.941176
0.000000 0.584314 0.937255
0.000000 0.588235 0.925490
0.000000 0.592157 0.925490
0.258824 0.596078 0.937255
0.435294 0.592157 0.933333
0.576471 0.592157 0.933333
0.717647 0.592157 0.929412
0.858824 0.592157 0.933333
0.996078 0.588235 0.929412
0.000000 0.721569 0.933333
0.000000 0.725490 0.929412
0.003922 0.721569 0.925490
0.250980 0.725490 0.929412
0.427451 0.733333 0.925490
0.588235 0.737255 0.929412
0.729412 0.745098 0.933333
0.866667 0.741176 0.925490
1.000000 0.745098 0.941176
0.000000 0.854902 0.921569
0.000000 0.866667 0.925490
0.000000 0.862745 0.937255
0.243137 0.866667 0.929412
0.423529 0.866667 0.929412
0.580392 0.870588 0.913725
0.729412 0.878431 0.921569
0.866667 0.882353 0.917647
0.988235 0.882353 0.909804
0.000000 1.000000 0.929412
0.003922 1.000000 0.937255
0.003922 1.000000 0.929412
0.125490 0.996078 0.937255
0.400000 1.000000 0.921569
0.576471 1.000000 0.921569
0.745098 1.000000 0.921569
0.890196 0.996078 0.921569
0.992157 0.996078 0.925490
0.003922 0.000000 0.996078
0.003922 0.003922 1.000000
0.188235 0.003922 1.000000
0.325490 0.000000 0.996078
0.454902 0.003922 1.000000
0.576471 0.000000 0.996078
0.698039 0.000000 0.996078
0.819608 0.003922 1.000000
0.945098 0.000000 0.996078
0.000000 0.011765 0.996078
0.003922 0.000000 0.996078
0.180392 0.000000 1.000000
0.321569 0.003922 1.000000
0.454902 0.000000 1.000000
0.576471 0.000000 1.000000
0.694118 0.000000 1.000000
0.815686 0.000000 0.988235
0.937255 0.003922 1.000000
0.003922 0.180392 1.000000
0.000000 0.188235 1.000000
0.152941 0.180392 1.000000
0.309804 0.176471 1.000000
0.447059 0.172549 1.000000
0.580392 0.164706 1.000000
0.694118 0.160784 1.000000
0.815686 0.149020 0.992157
0.941176 0.137255 0.988235
0.000000 0.313725 1.000000
0.000000 0.313725 1.000000
0.105882 0.313725 0.988235
0.301961 0.313725 1.000000
0.443137 0.313725 1.000000
0.568627 0.305882 1.000000
0.698039 0.305882 0.996078
0.823529 0.301961 1.000000
0.945098 0.298039 1.000000
0.000000 0.450980 1.000000
0.000000 0.439216 1.000000
0.003922 0.439216 0.984314
0.274510 0.439216 1.000000
0.427451 0.435294 1.000000
0.560784 0.435294 0.996078
0.690196 0.435294 1.000000
0.823529 0.435294 1.000000
0.941176 0.435294 0.992157
0.007843 0.580392 1.000000
0.000000 0.584314 0.996078
0.141176 0.588235 1.000000
0.309804 0.588235 1.000000
0.431373 0.580392 1.000000
0.552941 0.580392 1.000000
0.698039 0.584314 1.000000
0.831373 0.584314 0.996078
0.949020 0.584314 1.000000
0.000000 0.721569 1.000000
0.000000 0.713725 1.000000
0.152941 0.709804 1.000000
0.325490 0.713725 1.000000
0.458824 0.721569 0.996078
0.596078 0.725490 1.000000
0.713725 0.725490 1.000000
0.847059 0.733333 0.996078
0.956863 0.733333 1.000000
0.000000 0.858824 1.000000
0.000000 0.854902 1.000000
0.019608 0.858824 1.000000
0.282353 0.862745 1.000000
0.454902 0.870588 1.000000
0.600000 0.870588 1.000000
0.737255 0.874510 0.992157
0.874510 0.890196 1.000000
0.968627 0.890196 0.996078
0.000000 1.000000 0.992157
0.000000 1.000000 1.000000
0.003922 1.000000 1.000000
0.250980 1.000000 1.000000
0.447059 1.000000 1.000000
0.611765 0.996078 1.000000
0.784314 1.000000 1.000000
0.925490 0.996078 1.000000
1.000000 0.996078 1.000000
