lut_library_archive/removed_20260629/50个风景lut/50个风景lut46.cube
# 版权归凌孟成所有，侵权必究
TITLE "Jungle LUT #46"
#LUT size
LUT_3D_SIZE 5
#LUT data points
0.003922 0.000000 0.000000
0.231373 0.000000 0.000000
0.509804 0.000000 0.000000
0.792157 0.003922 0.000000
0.996078 0.000000 0.000000
0.000000 0.235294 0.000000
0.247059 0.239216 0.007843
0.513725 0.239216 0.003922
0.803922 0.239216 0.000000
0.996078 0.235294 0.000000
0.000000 0.517647 0.000000
0.243137 0.529412 0.000000
0.525490 0.525490 0.000000
0.811765 0.529412 0.003922
0.988235 0.545098 0.003922
0.007843 0.803922 0.000000
0.219608 0.815686 0.003922
0.525490 0.815686 0.003922
0.811765 0.811765 0.000000
1.000000 0.800000 0.000000
0.000000 1.000000 0.000000
0.203922 0.996078 0.007843
0.517647 1.000000 0.000000
0.768627 1.000000 0.000000
0.992157 1.000000 0.003922
0.000000 0.000000 0.219608
0.239216 0.003922 0.215686
0.521569 0.000000 0.215686
0.800000 0.000000 0.207843
1.000000 0.000000 0.196078
0.000000 0.227451 0.211765
0.243137 0.231373 0.211765
0.521569 0.227451 0.207843
0.803922 0.219608 0.196078
1.000000 0.207843 0.184314
0.000000 0.529412 0.184314
0.227451 0.525490 0.180392
0.525490 0.517647 0.176471
0.811765 0.521569 0.180392
0.996078 0.521569 0.172549
0.011765 0.807843 0.133333
0.203922 0.803922 0.133333
0.517647 0.807843 0.129412
0.811765 0.811765 0.121569
0.996078 0.800000 0.113725
0.007843 0.996078 0.105882
0.160784 1.000000 0.098039
0.498039 1.000000 0.109804
0.776471 1.000000 0.145098
1.000000 1.000000 0.192157
0.000000 0.000000 0.501961
0.235294 0.000000 0.501961
0.521569 0.000000 0.513725
0.807843 0.003922 0.517647
0.992157 0.003922 0.517647
0.003922 0.223529 0.513725
0.231373 0.223529 0.517647
0.533333 0.211765 0.513725
0.807843 0.203922 0.509804
1.000000 0.172549 0.505882
0.000000 0.517647 0.505882
0.203922 0.521569 0.525490
0.525490 0.525490 0.517647
0.811765 0.513725 0.513725
0.996078 0.509804 0.501961
0.007843 0.807843 0.505882
0.074510 0.819608 0.505882
0.509804 0.811765 0.498039
0.811765 0.807843 0.494118
0.992157 0.800000 0.498039
0.003922 0.992157 0.478431
0.141176 0.992157 0.501961
0.494118 1.000000 0.486275
0.776471 1.000000 0.490196
1.000000 1.000000 0.505882
0.000000 0.000000 0.811765
0.235294 0.000000 0.819608
0.525490 0.003922 0.807843
0.803922 0.003922 0.800000
0.996078 0.000000 0.800000
0.000000 0.207843 0.803922
0.215686 0.203922 0.803922
0.525490 0.192157 0.807843
0.803922 0.160784 0.803922
1.000000 0.145098 0.800000
0.000000 0.517647 0.803922
0.125490 0.513725 0.815686
0.513725 0.501961 0.811765
0.815686 0.498039 0.807843
0.988235 0.501961 0.807843
0.000000 0.811765 0.803922
0.000000 0.807843 0.800000
0.494118 0.815686 0.807843
0.807843 0.807843 0.807843
1.000000 0.811765 0.811765
0.000000 0.996078 0.784314
0.239216 0.996078 0.780392
0.552941 1.000000 0.796078
0.811765 1.000000 0.811765
1.000000 1.000000 0.811765
0.000000 0.000000 0.996078
0.223529 0.000000 0.992157
0.517647 0.003922 1.000000
0.788235 0.000000 0.996078
0.992157 0.000000 1.000000
0.000000 0.200000 1.000000
0.203922 0.200000 0.992157
0.513725 0.184314 1.000000
0.788235 0.176471 1.000000
1.000000 0.160784 0.992157
0.003922 0.494118 0.988235
0.156863 0.490196 0.996078
0.498039 0.494118 1.000000
0.776471 0.498039 1.000000
0.996078 0.501961 0.992157
0.000000 0.776471 1.000000
0.243137 0.768627 1.000000
0.545098 0.776471 1.000000
0.796078 0.796078 1.000000
1.000000 0.811765 1.000000
0.337255 1.000000 0.992157
0.431373 0.996078 0.996078
0.647059 0.996078 1.000000
0.890196 1.000000 0.996078
1.000000 1.000000 0.992157
