lut_library_archive/removed_20260629/50个风景lut/50个风景lut47.cube
# 版权归凌孟成所有，侵权必究
TITLE "Jungle LUT #47"
#LUT size
LUT_3D_SIZE 9
#LUT data points
0.039216 0.047059 0.035294
0.145098 0.023529 0.043137
0.262745 0.027451 0.035294
0.364706 0.035294 0.035294
0.462745 0.050980 0.047059
0.580392 0.066667 0.050980
0.709804 0.078431 0.070588
0.839216 0.098039 0.086275
0.972549 0.105882 0.094118
0.109804 0.145098 0.023529
0.117647 0.145098 0.023529
0.243137 0.141176 0.050980
0.356863 0.141176 0.062745
0.466667 0.141176 0.070588
0.584314 0.149020 0.074510
0.713725 0.152941 0.082353
0.843137 0.168627 0.090196
0.976471 0.176471 0.109804
0.219608 0.254902 0.007843
0.231373 0.258824 0.000000
0.211765 0.254902 0.027451
0.345098 0.270588 0.035294
0.454902 0.247059 0.090196
0.588235 0.262745 0.105882
0.725490 0.262745 0.113725
0.854902 0.278431 0.117647
0.984314 0.286275 0.137255
0.309804 0.368627 0.003922
0.356863 0.372549 0.000000
0.349020 0.372549 0.000000
0.305882 0.364706 0.007843
0.443137 0.403922 0.019608
0.596078 0.384314 0.133333
0.733333 0.384314 0.164706
0.858824 0.392157 0.164706
0.992157 0.403922 0.168627
0.427451 0.509804 0.003922
0.466667 0.517647 0.003922
0.501961 0.513725 0.000000
0.466667 0.501961 0.000000
0.415686 0.490196 0.000000
0.505882 0.521569 0.000000
0.705882 0.541176 0.101961
0.866667 0.529412 0.203922
1.000000 0.529412 0.219608
0.552941 0.658824 0.003922
0.576471 0.662745 0.000000
0.639216 0.662745 0.000000
0.627451 0.662745 0.007843
0.592157 0.639216 0.003922
0.537255 0.623529 0.000000
0.576471 0.647059 0.011765
0.827451 0.698039 0.011765
0.984314 0.686275 0.207843
0.670588 0.796078 0.015686
0.682353 0.796078 0.003922
0.729412 0.796078 0.003922
0.776471 0.796078 0.000000
0.737255 0.784314 0.007843
0.694118 0.776471 0.000000
0.650980 0.756863 0.007843
0.639216 0.784314 0.000000
0.952941 0.850980 0.000000
0.752941 0.905882 0.000000
0.776471 0.905882 0.007843
0.819608 0.909804 0.007843
0.886275 0.909804 0.000000
0.866667 0.913725 0.000000
0.843137 0.913725 0.000000
0.807843 0.909804 0.003922
0.760784 0.901961 0.000000
0.737255 0.925490 0.007843
0.819608 0.996078 0.003922
0.831373 1.000000 0.000000
0.862745 1.000000 0.000000
0.929412 0.996078 0.000000
0.960784 1.000000 0.000000
0.949020 1.000000 0.000000
0.917647 1.000000 0.000000
0.898039 1.000000 0.000000
0.862745 1.000000 0.000000
0.023529 0.039216 0.137255
0.141176 0.023529 0.125490
0.254902 0.035294 0.133333
0.356863 0.047059 0.121569
0.470588 0.070588 0.133333
0.580392 0.086275 0.141176
0.709804 0.090196 0.145098
0.843137 0.101961 0.149020
0.964706 0.109804 0.145098
0.043137 0.141176 0.129412
0.141176 0.141176 0.133333
0.239216 0.137255 0.133333
0.349020 0.149020 0.137255
0.462745 0.149020 0.145098
0.580392 0.156863 0.149020
0.705882 0.160784 0.149020
0.839216 0.168627 0.160784
0.980392 0.168627 0.160784
0.152941 0.254902 0.109804
0.235294 0.250980 0.113725
0.223529 0.250980 0.121569
0.345098 0.262745 0.141176
0.478431 0.250980 0.164706
0.588235 0.258824 0.156863
0.713725 0.266667 0.172549
0.847059 0.270588 0.172549
0.980392 0.274510 0.176471
0.266667 0.372549 0.070588
0.325490 0.376471 0.054902
0.345098 0.372549 0.066667
0.309804 0.356863 0.098039
0.450980 0.400000 0.125490
0.588235 0.384314 0.188235
0.725490 0.388235 0.203922
0.854902 0.392157 0.203922
1.000000 0.403922 0.219608
0.400000 0.513725 0.007843
0.439216 0.513725 0.011765
0.494118 0.513725 0.011765
0.466667 0.505882 0.015686
0.419608 0.486275 0.086275
0.513725 0.521569 0.094118
0.709804 0.537255 0.160784
0.866667 0.517647 0.250980
1.000000 0.529412 0.250980
0.529412 0.658824 0.007843
0.552941 0.650980 0.007843
0.623529 0.658824 0.000000
0.619608 0.654902 0.000000
0.592157 0.643137 0.000000
0.533333 0.615686 0.000000
0.580392 0.647059 0.003922
0.835294 0.698039 0.105882
0.980392 0.678431 0.231373
0.643137 0.792157 0.003922
0.666667 0.796078 0.000000
0.725490 0.792157 0.000000
0.776471 0.796078 0.000000
0.741176 0.792157 0.000000
0.705882 0.776471 0.000000
0.654902 0.760784 0.011765
0.666667 0.776471 0.000000
0.956863 0.854902 0.000000
0.745098 0.917647 0.003922
0.764706 0.913725 0.000000
0.803922 0.913725 0.000000
0.874510 0.909804 0.003922
0.874510 0.909804 0.003922
0.847059 0.913725 0.000000
0.803922 0.905882 0.000000
0.756863 0.898039 0.000000
0.737255 0.917647 0.007843
0.815686 1.000000 0.000000
0.827451 0.996078 0.000000
0.866667 0.996078 0.000000
0.921569 1.000000 0.011765
0.968627 0.996078 0.000000
0.949020 1.000000 0.000000
0.921569 1.000000 0.000000
0.898039 1.000000 0.000000
0.858824 0.996078 0.000000
0.039216 0.031373 0.227451
0.125490 0.031373 0.235294
0.247059 0.043137 0.235294
0.360784 0.050980 0.235294
0.462745 0.062745 0.227451
0.576471 0.066667 0.219608
0.705882 0.062745 0.227451
0.850980 0.062745 0.235294
0.984314 0.047059 0.239216
0.050980 0.137255 0.227451
0.137255 0.137255 0.231373
0.247059 0.137255 0.235294
0.356863 0.141176 0.231373
0.470588 0.145098 0.231373
0.588235 0.145098 0.223529
0.698039 0.152941 0.235294
0.839216 0.156863 0.223529
0.984314 0.152941 0.219608
0.074510 0.239216 0.223529
0.156863 0.243137 0.235294
0.247059 0.243137 0.223529
0.352941 0.243137 0.231373
0.458824 0.250980 0.231373
0.584314 0.258824 0.243137
0.709804 0.258824 0.239216
0.854902 0.262745 0.250980
0.988235 0.270588 0.250980
0.141176 0.364706 0.200000
0.223529 0.360784 0.196078
0.352941 0.364706 0.188235
0.317647 0.356863 0.219608
0.458824 0.380392 0.235294
0.588235 0.372549 0.262745
0.725490 0.388235 0.266667
0.858824 0.388235 0.262745
1.000000 0.392157 0.282353
0.325490 0.501961 0.176471
0.368627 0.494118 0.168627
0.470588 0.501961 0.164706
0.466667 0.498039 0.164706
0.423529 0.486275 0.203922
0.549020 0.521569 0.215686
0.721569 0.521569 0.262745
0.866667 0.517647 0.305882
0.992157 0.525490 0.305882
0.478431 0.643137 0.149020
0.501961 0.647059 0.133333
0.572549 0.654902 0.109804
0.635294 0.650980 0.109804
0.592157 0.639216 0.145098
0.529412 0.619608 0.172549
0.619608 0.650980 0.176471
0.847059 0.686275 0.231373
0.996078 0.666667 0.321569
0.603922 0.792157 0.070588
0.627451 0.784314 0.050980
0.686275 0.796078 0.027451
0.776471 0.792157 0.003922
0.749020 0.784314 0.043137
0.709804 0.776471 0.094118
0.654902 0.764706 0.121569
0.690196 0.780392 0.113725
0.952941 0.843137 0.172549
0.709804 0.913725 0.000000
0.733333 0.921569 0.007843
0.776471 0.909804 0.000000
0.843137 0.913725 0.003922
0.886275 0.913725 0.000000
0.850980 0.913725 0.007843
0.811765 0.901961 0.000000
0.768627 0.898039 0.000000
0.741176 0.925490 0.000000
0.788235 0.996078 0.000000
0.800000 1.000000 0.007843
0.839216 1.000000 0.000000
0.894118 1.000000 0.000000
0.976471 1.000000 0.003922
0.952941 1.000000 0.000000
0.929412 0.996078 0.000000
0.898039 1.000000 0.000000
0.862745 1.000000 0.000000
0.039216 0.035294 0.333333
0.133333 0.039216 0.333333
0.239216 0.054902 0.337255
0.349020 0.050980 0.333333
0.470588 0.058824 0.329412
0.584314 0.054902 0.325490
0.701961 0.027451 0.325490
0.839216 0.003922 0.333333
0.984314 0.000000 0.309804
0.074510 0.137255 0.337255
0.137255 0.137255 0.333333
0.243137 0.133333 0.325490
0.356863 0.133333 0.333333
0.462745 0.145098 0.321569
0.576471 0.129412 0.329412
0.694118 0.125490 0.325490
0.843137 0.078431 0.313725
0.976471 0.000000 0.321569
0.094118 0.239216 0.341176
0.156863 0.235294 0.329412
0.250980 0.243137 0.333333
0.356863 0.239216 0.333333
0.470588 0.235294 0.333333
0.580392 0.231373 0.317647
0.709804 0.223529 0.317647
0.847059 0.219608 0.321569
0.996078 0.211765 0.321569
0.094118 0.345098 0.341176
0.160784 0.341176 0.329412
0.247059 0.352941 0.333333
0.349020 0.345098 0.329412
0.470588 0.356863 0.333333
0.584314 0.360784 0.341176
0.717647 0.360784 0.341176
0.854902 0.372549 0.352941
0.996078 0.364706 0.356863
0.000000 0.486275 0.274510
0.133333 0.478431 0.282353
0.329412 0.482353 0.309804
0.478431 0.494118 0.298039
0.427451 0.470588 0.305882
0.580392 0.505882 0.341176
0.733333 0.501961 0.384314
0.874510 0.509804 0.380392
1.000000 0.513725 0.380392
0.341176 0.631373 0.290196
0.380392 0.631373 0.286275
0.478431 0.635294 0.286275
0.603922 0.647059 0.270588
0.600000 0.635294 0.286275
0.545098 0.611765 0.298039
0.674510 0.654902 0.298039
0.858824 0.662745 0.376471
1.000000 0.658824 0.447059
0.501961 0.780392 0.270588
0.541176 0.784314 0.278431
0.603922 0.784314 0.258824
0.705882 0.792157 0.254902
0.772549 0.788235 0.254902
0.717647 0.776471 0.278431
0.662745 0.756863 0.270588
0.737255 0.792157 0.262745
0.968627 0.831373 0.329412
0.650980 0.913725 0.254902
0.650980 0.909804 0.243137
0.713725 0.917647 0.250980
0.803922 0.913725 0.239216
0.890196 0.921569 0.243137
0.858824 0.905882 0.239216
0.835294 0.905882 0.239216
0.784314 0.898039 0.231373
0.784314 0.921569 0.184314
0.745098 0.992157 0.227451
0.752941 0.996078 0.215686
0.796078 1.000000 0.223529
0.850980 1.000000 0.211765
0.949020 1.000000 0.211765
0.964706 1.000000 0.203922
0.937255 1.000000 0.200000
0.901961 1.000000 0.156863
0.862745 1.000000 0.101961
0.054902 0.047059 0.427451
0.133333 0.047059 0.431373
0.247059 0.050980 0.431373
0.349020 0.058824 0.439216
0.462745 0.054902 0.435294
0.580392 0.054902 0.443137
0.709804 0.015686 0.439216
0.839216 0.000000 0.447059
0.980392 0.000000 0.450980
0.082353 0.129412 0.427451
0.145098 0.141176 0.439216
0.247059 0.137255 0.439216
0.349020 0.137255 0.431373
0.462745 0.141176 0.443137
0.576471 0.129412 0.431373
0.701961 0.117647 0.439216
0.843137 0.058824 0.447059
0.984314 0.000000 0.431373
0.101961 0.243137 0.431373
0.172549 0.239216 0.450980
0.247059 0.239216 0.435294
0.352941 0.243137 0.435294
0.462745 0.235294 0.431373
0.580392 0.227451 0.435294
0.705882 0.215686 0.435294
0.843137 0.203922 0.435294
0.996078 0.149020 0.450980
0.090196 0.341176 0.439216
0.160784 0.341176 0.435294
0.254902 0.341176 0.431373
0.352941 0.337255 0.435294
0.466667 0.337255 0.419608
0.584314 0.341176 0.431373
0.721569 0.329412 0.431373
0.854902 0.321569 0.439216
0.992157 0.305882 0.427451
0.109804 0.447059 0.427451
0.149020 0.458824 0.443137
0.250980 0.458824 0.427451
0.345098 0.462745 0.431373
0.466667 0.466667 0.435294
0.592157 0.470588 0.450980
0.725490 0.478431 0.443137
0.866667 0.478431 0.458824
0.996078 0.494118 0.458824
0.000000 0.603922 0.407843
0.007843 0.607843 0.388235
0.200000 0.611765 0.384314
0.435294 0.619608 0.415686
0.611765 0.631373 0.411765
0.549020 0.600000 0.419608
0.725490 0.639216 0.454902
0.878431 0.643137 0.509804
1.000000 0.650980 0.517647
0.266667 0.764706 0.392157
0.337255 0.772549 0.403922
0.447059 0.772549 0.419608
0.576471 0.776471 0.411765
0.749020 0.788235 0.407843
0.737255 0.772549 0.407843
0.674510 0.752941 0.403922
0.796078 0.796078 0.411765
0.984314 0.807843 0.498039
0.498039 0.905882 0.415686
0.529412 0.905882 0.411765
0.607843 0.905882 0.407843
0.705882 0.909804 0.415686
0.827451 0.913725 0.415686
0.886275 0.913725 0.407843
0.843137 0.909804 0.407843
0.788235 0.894118 0.388235
0.835294 0.933333 0.360784
0.643137 0.996078 0.400000
0.662745 1.000000 0.415686
0.709804 0.996078 0.400000
0.784314 1.000000 0.403922
0.862745 1.000000 0.388235
0.968627 0.992157 0.396078
0.941176 1.000000 0.384314
0.905882 1.000000 0.360784
0.882353 0.996078 0.329412
0.062745 0.054902 0.552941
0.137255 0.054902 0.552941
0.247059 0.054902 0.545098
0.352941 0.054902 0.549020
0.462745 0.050980 0.552941
0.588235 0.035294 0.549020
0.705882 0.007843 0.556863
0.843137 0.000000 0.568627
0.984314 0.007843 0.580392
0.078431 0.133333 0.549020
0.145098 0.141176 0.549020
0.247059 0.133333 0.549020
0.360784 0.129412 0.552941
0.470588 0.129412 0.549020
0.588235 0.121569 0.552941
0.709804 0.098039 0.556863
0.847059 0.031373 0.572549
0.984314 0.000000 0.576471
0.082353 0.243137 0.556863
0.145098 0.231373 0.564706
0.247059 0.235294 0.545098
0.356863 0.231373 0.556863
0.478431 0.227451 0.564706
0.592157 0.227451 0.552941
0.713725 0.211765 0.552941
0.854902 0.192157 0.564706
0.980392 0.145098 0.560784
0.058824 0.345098 0.552941
0.133333 0.349020 0.560784
0.231373 0.337255 0.545098
0.356863 0.337255 0.549020
0.470588 0.337255 0.545098
0.600000 0.329412 0.552941
0.721569 0.329412 0.549020
0.858824 0.317647 0.552941
0.992157 0.294118 0.560784
0.011765 0.458824 0.552941
0.113725 0.466667 0.560784
0.231373 0.454902 0.552941
0.345098 0.454902 0.549020
0.470588 0.447059 0.549020
0.600000 0.450980 0.552941
0.733333 0.447059 0.552941
0.854902 0.439216 0.556863
0.992157 0.423529 0.545098
0.000000 0.580392 0.556863
0.050980 0.580392 0.545098
0.203922 0.584314 0.549020
0.345098 0.576471 0.552941
0.458824 0.580392 0.549020
0.584314 0.592157 0.549020
0.741176 0.603922 0.588235
0.874510 0.611765 0.580392
1.000000 0.611765 0.592157
0.003922 0.741176 0.541176
0.000000 0.737255 0.537255
0.101961 0.745098 0.537255
0.301961 0.752941 0.521569
0.564706 0.760784 0.552941
0.764706 0.776471 0.560784
0.690196 0.737255 0.541176
0.862745 0.784314 0.584314
0.996078 0.772549 0.658824
0.000000 0.909804 0.490196
0.000000 0.905882 0.498039
0.325490 0.901961 0.525490
0.537255 0.905882 0.568627
0.690196 0.905882 0.572549
0.866667 0.913725 0.576471
0.866667 0.905882 0.564706
0.800000 0.898039 0.537255
0.909804 0.929412 0.529412
0.482353 1.000000 0.564706
0.517647 1.000000 0.564706
0.584314 1.000000 0.568627
0.666667 1.000000 0.568627
0.776471 0.996078 0.560784
0.913725 1.000000 0.576471
0.972549 0.996078 0.564706
0.929412 1.000000 0.537255
0.901961 0.996078 0.509804
0.086275 0.047059 0.678431
0.149020 0.050980 0.690196
0.258824 0.043137 0.686275
0.368627 0.035294 0.686275
0.482353 0.015686 0.682353
0.600000 0.003922 0.682353
0.725490 0.000000 0.690196
0.847059 0.003922 0.682353
0.992157 0.000000 0.701961
0.062745 0.129412 0.686275
0.152941 0.133333 0.698039
0.254902 0.129412 0.690196
0.364706 0.121569 0.690196
0.486275 0.117647 0.698039
0.607843 0.098039 0.686275
0.725490 0.070588 0.690196
0.854902 0.000000 0.686275
0.996078 0.000000 0.698039
0.035294 0.227451 0.698039
0.133333 0.231373 0.694118
0.250980 0.231373 0.686275
0.360784 0.223529 0.686275
0.490196 0.215686 0.694118
0.600000 0.207843 0.694118
0.733333 0.192157 0.678431
0.862745 0.176471 0.690196
0.992157 0.129412 0.682353
0.003922 0.341176 0.682353
0.047059 0.341176 0.690196
0.219608 0.333333 0.690196
0.352941 0.325490 0.698039
0.474510 0.333333 0.678431
0.603922 0.325490 0.694118
0.741176 0.313725 0.682353
0.866667 0.301961 0.686275
0.996078 0.286275 0.698039
0.000000 0.458824 0.698039
0.007843 0.462745 0.686275
0.184314 0.450980 0.690196
0.337255 0.447059 0.694118
0.458824 0.454902 0.690196
0.603922 0.439216 0.690196
0.733333 0.435294 0.686275
0.874510 0.435294 0.694118
1.000000 0.427451 0.701961
0.003922 0.588235 0.698039
0.000000 0.588235 0.686275
0.133333 0.584314 0.698039
0.305882 0.584314 0.694118
0.443137 0.576471 0.686275
0.596078 0.568627 0.690196
0.749020 0.572549 0.694118
0.878431 0.568627 0.690196
1.000000 0.568627 0.698039
0.003922 0.717647 0.690196
0.003922 0.721569 0.682353
0.007843 0.725490 0.678431
0.266667 0.725490 0.694118
0.439216 0.725490 0.690196
0.596078 0.725490 0.690196
0.733333 0.721569 0.686275
0.886275 0.737255 0.725490
1.000000 0.749020 0.725490
0.003922 0.870588 0.690196
0.000000 0.874510 0.670588
0.007843 0.878431 0.678431
0.274510 0.882353 0.686275
0.462745 0.890196 0.674510
0.694118 0.898039 0.709804
0.890196 0.913725 0.741176
0.831373 0.886275 0.694118
0.992157 0.929412 0.725490
0.011765 1.000000 0.643137
0.000000 1.000000 0.639216
0.105882 0.992157 0.639216
0.368627 0.996078 0.650980
0.615686 1.000000 0.705882
0.796078 0.996078 0.725490
0.960784 1.000000 0.745098
0.956863 0.996078 0.717647
0.929412 0.996078 0.678431
0.070588 0.023529 0.839216
0.156863 0.019608 0.835294
0.262745 0.011765 0.827451
0.380392 0.003922 0.839216
0.505882 0.000000 0.839216
0.623529 0.003922 0.823529
0.760784 0.000000 0.835294
0.874510 0.003922 0.839216
1.000000 0.000000 0.831373
0.043137 0.113725 0.835294
0.137255 0.117647 0.831373
0.250980 0.109804 0.835294
0.380392 0.105882 0.839216
0.505882 0.090196 0.835294
0.627451 0.047059 0.839216
0.749020 0.000000 0.839216
0.882353 0.003922 0.839216
1.000000 0.003922 0.835294
0.000000 0.219608 0.827451
0.109804 0.227451 0.839216
0.231373 0.227451 0.839216
0.360784 0.223529 0.835294
0.494118 0.203922 0.827451
0.627451 0.192157 0.843137
0.752941 0.168627 0.831373
0.886275 0.129412 0.839216
0.996078 0.086275 0.839216
0.000000 0.333333 0.827451
0.003922 0.325490 0.847059
0.184314 0.329412 0.839216
0.341176 0.329412 0.839216
0.486275 0.325490 0.843137
0.611765 0.313725 0.839216
0.745098 0.298039 0.835294
0.886275 0.282353 0.831373
0.996078 0.274510 0.831373
0.000000 0.458824 0.839216
0.000000 0.466667 0.843137
0.050980 0.450980 0.843137
0.290196 0.443137 0.839216
0.454902 0.447059 0.843137
0.607843 0.431373 0.843137
0.752941 0.427451 0.843137
0.886275 0.419608 0.843137
1.000000 0.403922 0.831373
0.003922 0.596078 0.843137
0.000000 0.592157 0.839216
0.011765 0.588235 0.831373
0.250980 0.584314 0.847059
0.423529 0.568627 0.835294
0.596078 0.572549 0.847059
0.745098 0.564706 0.847059
0.890196 0.564706 0.847059
0.996078 0.560784 0.827451
0.003922 0.729412 0.839216
0.000000 0.733333 0.847059
0.000000 0.729412 0.835294
0.200000 0.725490 0.854902
0.415686 0.725490 0.843137
0.576471 0.717647 0.843137
0.721569 0.717647 0.843137
0.878431 0.717647 0.843137
0.996078 0.721569 0.835294
0.015686 0.870588 0.843137
0.007843 0.874510 0.835294
0.000000 0.878431 0.831373
0.101961 0.866667 0.831373
0.372549 0.870588 0.827451
0.568627 0.870588 0.847059
0.721569 0.858824 0.831373
0.870588 0.870588 0.839216
1.000000 0.890196 0.882353
0.003922 1.000000 0.827451
0.000000 1.000000 0.827451
0.000000 0.996078 0.823529
0.156863 0.996078 0.831373
0.419608 1.000000 0.823529
0.615686 1.000000 0.831373
0.819608 0.996078 0.866667
0.980392 0.996078 0.898039
0.972549 1.000000 0.866667
0.035294 0.000000 0.984314
0.137255 0.003922 0.972549
0.270588 0.000000 0.992157
0.392157 0.000000 0.984314
0.513725 0.000000 0.984314
0.650980 0.000000 0.996078
0.776471 0.000000 0.984314
0.905882 0.003922 0.988235
1.000000 0.003922 0.980392
0.000000 0.101961 0.988235
0.125490 0.101961 0.972549
0.247059 0.098039 0.988235
0.384314 0.070588 0.992157
0.517647 0.027451 0.984314
0.643137 0.000000 0.984314
0.772549 0.003922 0.992157
0.905882 0.003922 0.984314
0.996078 0.000000 0.984314
0.003922 0.211765 0.992157
0.047059 0.219608 0.992157
0.231373 0.207843 0.976471
0.360784 0.200000 0.984314
0.513725 0.188235 0.996078
0.639216 0.172549 0.988235
0.764706 0.133333 0.988235
0.905882 0.047059 0.988235
1.000000 0.000000 0.996078
0.000000 0.321569 0.996078
0.007843 0.325490 0.980392
0.145098 0.329412 0.988235
0.337255 0.313725 0.988235
0.482353 0.309804 0.996078
0.623529 0.298039 0.996078
0.756863 0.282353 0.992157
0.905882 0.254902 0.992157
0.996078 0.231373 0.992157
0.003922 0.439216 0.984314
0.000000 0.439216 0.988235
0.000000 0.435294 0.988235
0.270588 0.431373 0.988235
0.458824 0.427451 0.996078
0.600000 0.423529 0.992157
0.752941 0.419608 0.996078
0.894118 0.400000 0.992157
1.000000 0.392157 0.992157
0.007843 0.584314 0.988235
0.000000 0.584314 0.992157
0.000000 0.576471 0.992157
0.129412 0.572549 1.000000
0.388235 0.568627 0.996078
0.576471 0.568627 0.996078
0.729412 0.556863 1.000000
0.894118 0.552941 0.996078
1.000000 0.545098 0.992157
0.000000 0.737255 0.992157
0.003922 0.725490 0.992157
0.003922 0.733333 0.996078
0.003922 0.725490 0.992157
0.352941 0.713725 0.992157
0.545098 0.709804 1.000000
0.721569 0.705882 0.996078
0.878431 0.709804 0.992157
1.000000 0.701961 1.000000
0.003922 0.886275 0.996078
0.007843 0.878431 1.000000
0.000000 0.882353 0.992157
0.000000 0.874510 0.992157
0.321569 0.878431 1.000000
0.537255 0.870588 0.992157
0.705882 0.862745 0.992157
0.878431 0.862745 0.992157
1.000000 0.866667 1.000000
0.000000 1.000000 0.988235
0.003922 1.000000 1.000000
0.003922 1.000000 0.992157
0.015686 1.000000 0.996078
0.278431 1.000000 0.992157
0.529412 1.000000 0.992157
0.737255 0.996078 0.996078
0.905882 1.000000 1.000000
1.000000 1.000000 1.000000
