lut_library_archive/removed_20260629/50个风景lut/50个风景lut06.cube
# 版权归凌孟成所有，侵权必究
TITLE "Jungle LUT #6"
#LUT size
LUT_3D_SIZE 25
#LUT data points
0.023529 0.019608 0.011765
0.047059 0.015686 0.007843
0.090196 0.011765 0.015686
0.133333 0.007843 0.011765
0.184314 0.003922 0.011765
0.223529 0.003922 0.007843
0.270588 0.003922 0.003922
0.305882 0.007843 0.007843
0.337255 0.007843 0.000000
0.368627 0.011765 0.007843
0.411765 0.023529 0.011765
0.439216 0.027451 0.011765
0.490196 0.039216 0.019608
0.521569 0.050980 0.015686
0.556863 0.062745 0.015686
0.596078 0.070588 0.027451
0.631373 0.086275 0.027451
0.670588 0.094118 0.035294
0.713725 0.105882 0.050980
0.756863 0.117647 0.050980
0.803922 0.129412 0.058824
0.847059 0.141176 0.054902
0.890196 0.156863 0.066667
0.941176 0.164706 0.082353
0.988235 0.176471 0.074510
0.019608 0.047059 0.019608
0.058824 0.047059 0.011765
0.094118 0.054902 0.015686
0.141176 0.050980 0.019608
0.180392 0.047059 0.011765
0.219608 0.054902 0.007843
0.258824 0.054902 0.011765
0.298039 0.047059 0.007843
0.345098 0.054902 0.011765
0.380392 0.058824 0.003922
0.411765 0.062745 0.007843
0.450980 0.066667 0.015686
0.482353 0.078431 0.023529
0.513725 0.086275 0.027451
0.552941 0.094118 0.023529
0.592157 0.101961 0.023529
0.627451 0.109804 0.031373
0.670588 0.117647 0.043137
0.713725 0.133333 0.054902
0.756863 0.137255 0.054902
0.800000 0.149020 0.062745
0.847059 0.156863 0.062745
0.886275 0.168627 0.066667
0.941176 0.176471 0.066667
0.984314 0.192157 0.082353
0.058824 0.090196 0.000000
0.098039 0.090196 0.003922
0.109804 0.086275 0.000000
0.133333 0.090196 0.011765
0.176471 0.090196 0.007843
0.215686 0.094118 0.015686
0.258824 0.094118 0.007843
0.298039 0.094118 0.011765
0.341176 0.098039 0.015686
0.380392 0.098039 0.019608
0.415686 0.098039 0.015686
0.443137 0.098039 0.019608
0.478431 0.105882 0.019608
0.509804 0.117647 0.027451
0.552941 0.121569 0.031373
0.592157 0.129412 0.043137
0.631373 0.137255 0.039216
0.670588 0.137255 0.043137
0.717647 0.145098 0.054902
0.752941 0.160784 0.062745
0.800000 0.168627 0.058824
0.847059 0.176471 0.066667
0.882353 0.192157 0.070588
0.933333 0.203922 0.082353
0.988235 0.211765 0.078431
0.109804 0.133333 0.000000
0.117647 0.129412 0.007843
0.133333 0.129412 0.007843
0.152941 0.129412 0.003922
0.172549 0.133333 0.000000
0.227451 0.137255 0.011765
0.258824 0.137255 0.015686
0.294118 0.141176 0.019608
0.333333 0.141176 0.023529
0.372549 0.141176 0.023529
0.411765 0.141176 0.019608
0.443137 0.141176 0.023529
0.474510 0.149020 0.031373
0.513725 0.149020 0.027451
0.552941 0.156863 0.039216
0.588235 0.160784 0.039216
0.635294 0.168627 0.050980
0.678431 0.172549 0.050980
0.709804 0.180392 0.062745
0.749020 0.192157 0.066667
0.784314 0.196078 0.066667
0.827451 0.200000 0.066667
0.874510 0.211765 0.090196
0.929412 0.223529 0.094118
0.976471 0.227451 0.082353
0.129412 0.172549 0.003922
0.156863 0.164706 0.007843
0.164706 0.168627 0.000000
0.176471 0.172549 0.000000
0.188235 0.172549 0.000000
0.227451 0.176471 0.003922
0.250980 0.176471 0.007843
0.286275 0.180392 0.011765
0.333333 0.180392 0.027451
0.368627 0.180392 0.031373
0.400000 0.184314 0.031373
0.439216 0.188235 0.039216
0.478431 0.188235 0.043137
0.513725 0.192157 0.047059
0.545098 0.196078 0.047059
0.584314 0.200000 0.054902
0.631373 0.207843 0.058824
0.662745 0.211765 0.066667
0.705882 0.211765 0.074510
0.749020 0.223529 0.086275
0.796078 0.227451 0.074510
0.839216 0.239216 0.086275
0.886275 0.239216 0.082353
0.933333 0.247059 0.086275
0.976471 0.258824 0.101961
0.160784 0.219608 0.000000
0.176471 0.219608 0.000000
0.203922 0.223529 0.003922
0.215686 0.215686 0.003922
0.223529 0.219608 0.000000
0.239216 0.219608 0.000000
0.266667 0.223529 0.003922
0.301961 0.227451 0.007843
0.333333 0.227451 0.027451
0.368627 0.227451 0.039216
0.403922 0.231373 0.054902
0.439216 0.231373 0.058824
0.482353 0.235294 0.058824
0.521569 0.239216 0.058824
0.560784 0.243137 0.066667
0.603922 0.247059 0.082353
0.643137 0.247059 0.082353
0.682353 0.258824 0.086275
0.721569 0.258824 0.086275
0.760784 0.262745 0.086275
0.811765 0.270588 0.090196
0.850980 0.278431 0.086275
0.898039 0.286275 0.098039
0.941176 0.290196 0.109804
0.992157 0.301961 0.117647
0.176471 0.258824 0.000000
0.196078 0.258824 0.011765
0.231373 0.247059 0.007843
0.227451 0.250980 0.007843
0.243137 0.262745 0.000000
0.254902 0.258824 0.000000
0.278431 0.258824 0.000000
0.301961 0.262745 0.000000
0.333333 0.262745 0.011765
0.360784 0.266667 0.031373
0.396078 0.266667 0.050980
0.439216 0.274510 0.078431
0.478431 0.274510 0.082353
0.513725 0.278431 0.082353
0.560784 0.286275 0.086275
0.592157 0.286275 0.094118
0.631373 0.290196 0.082353
0.682353 0.290196 0.086275
0.721569 0.301961 0.090196
0.764706 0.305882 0.105882
0.807843 0.309804 0.109804
0.850980 0.313725 0.101961
0.898039 0.321569 0.109804
0.937255 0.333333 0.101961
0.984314 0.337255 0.129412
0.211765 0.301961 0.000000
0.207843 0.298039 0.000000
0.243137 0.290196 0.000000
0.270588 0.294118 0.003922
0.278431 0.294118 0.000000
0.286275 0.294118 0.000000
0.294118 0.298039 0.000000
0.317647 0.294118 0.000000
0.337255 0.301961 0.000000
0.356863 0.305882 0.007843
0.396078 0.305882 0.031373
0.435294 0.313725 0.058824
0.478431 0.321569 0.082353
0.513725 0.321569 0.094118
0.560784 0.325490 0.098039
0.600000 0.329412 0.105882
0.631373 0.333333 0.105882
0.670588 0.341176 0.105882
0.717647 0.341176 0.105882
0.756863 0.349020 0.109804
0.800000 0.352941 0.109804
0.850980 0.356863 0.125490
0.898039 0.356863 0.133333
0.937255 0.368627 0.121569
0.996078 0.364706 0.145098
0.223529 0.333333 0.000000
0.243137 0.337255 0.007843
0.262745 0.333333 0.000000
0.294118 0.325490 0.000000
0.298039 0.337255 0.000000
0.313725 0.337255 0.000000
0.329412 0.337255 0.007843
0.337255 0.333333 0.007843
0.352941 0.337255 0.000000
0.372549 0.333333 0.000000
0.400000 0.345098 0.007843
0.431373 0.345098 0.047059
0.462745 0.352941 0.066667
0.513725 0.360784 0.105882
0.556863 0.368627 0.125490
0.592157 0.376471 0.125490
0.631373 0.372549 0.133333
0.670588 0.376471 0.129412
0.713725 0.380392 0.129412
0.756863 0.384314 0.125490
0.800000 0.388235 0.129412
0.850980 0.388235 0.137255
0.898039 0.392157 0.125490
0.933333 0.407843 0.137255
0.980392 0.407843 0.137255
0.235294 0.364706 0.000000
0.266667 0.364706 0.000000
0.274510 0.372549 0.011765
0.305882 0.364706 0.000000
0.325490 0.368627 0.000000
0.341176 0.368627 0.000000
0.349020 0.368627 0.000000
0.360784 0.376471 0.003922
0.372549 0.368627 0.003922
0.384314 0.372549 0.000000
0.400000 0.376471 0.000000
0.431373 0.384314 0.000000
0.462745 0.384314 0.047059
0.501961 0.392157 0.074510
0.545098 0.396078 0.109804
0.588235 0.403922 0.129412
0.627451 0.415686 0.141176
0.666667 0.415686 0.137255
0.709804 0.419608 0.133333
0.752941 0.423529 0.141176
0.796078 0.427451 0.145098
0.839216 0.431373 0.152941
0.886275 0.439216 0.156863
0.929412 0.439216 0.156863
0.976471 0.443137 0.168627
0.286275 0.419608 0.000000
0.294118 0.419608 0.000000
0.313725 0.419608 0.000000
0.333333 0.419608 0.000000
0.352941 0.411765 0.000000
0.364706 0.415686 0.000000
0.380392 0.415686 0.000000
0.388235 0.419608 0.000000
0.396078 0.423529 0.007843
0.407843 0.419608 0.007843
0.423529 0.419608 0.003922
0.439216 0.423529 0.003922
0.474510 0.423529 0.007843
0.513725 0.439216 0.039216
0.556863 0.443137 0.082353
0.592157 0.450980 0.113725
0.635294 0.450980 0.137255
0.682353 0.466667 0.152941
0.725490 0.466667 0.160784
0.768627 0.474510 0.164706
0.815686 0.474510 0.172549
0.858824 0.474510 0.180392
0.901961 0.482353 0.176471
0.949020 0.490196 0.176471
0.996078 0.490196 0.196078
0.321569 0.450980 0.007843
0.317647 0.447059 0.000000
0.317647 0.454902 0.000000
0.345098 0.454902 0.000000
0.360784 0.450980 0.000000
0.388235 0.454902 0.007843
0.400000 0.450980 0.000000
0.400000 0.450980 0.000000
0.419608 0.454902 0.003922
0.427451 0.454902 0.000000
0.443137 0.458824 0.000000
0.462745 0.462745 0.000000
0.474510 0.454902 0.000000
0.505882 0.462745 0.007843
0.552941 0.474510 0.035294
0.600000 0.474510 0.090196
0.639216 0.478431 0.117647
0.678431 0.490196 0.156863
0.721569 0.505882 0.180392
0.768627 0.513725 0.184314
0.811765 0.521569 0.184314
0.854902 0.517647 0.192157
0.901961 0.521569 0.203922
0.945098 0.521569 0.207843
0.988235 0.537255 0.219608
0.329412 0.486275 0.007843
0.341176 0.494118 0.000000
0.345098 0.486275 0.000000
0.372549 0.490196 0.003922
0.380392 0.482353 0.000000
0.411765 0.494118 0.000000
0.423529 0.486275 0.000000
0.431373 0.486275 0.000000
0.447059 0.494118 0.000000
0.450980 0.490196 0.000000
0.478431 0.486275 0.003922
0.486275 0.486275 0.000000
0.494118 0.486275 0.003922
0.501961 0.486275 0.003922
0.545098 0.501961 0.007843
0.584314 0.501961 0.035294
0.631373 0.513725 0.082353
0.674510 0.521569 0.117647
0.725490 0.529412 0.149020
0.764706 0.545098 0.172549
0.811765 0.549020 0.192157
0.854902 0.560784 0.211765
0.901961 0.560784 0.219608
0.949020 0.568627 0.227451
0.992157 0.572549 0.227451
0.356863 0.521569 0.000000
0.368627 0.525490 0.003922
0.372549 0.533333 0.000000
0.384314 0.521569 0.011765
0.403922 0.529412 0.000000
0.431373 0.521569 0.000000
0.447059 0.525490 0.003922
0.462745 0.525490 0.000000
0.470588 0.525490 0.000000
0.486275 0.525490 0.000000
0.494118 0.521569 0.003922
0.505882 0.529412 0.000000
0.525490 0.525490 0.000000
0.529412 0.529412 0.003922
0.541176 0.525490 0.000000
0.572549 0.533333 0.007843
0.619608 0.549020 0.031373
0.670588 0.552941 0.066667
0.717647 0.564706 0.105882
0.760784 0.560784 0.133333
0.815686 0.572549 0.176471
0.854902 0.588235 0.200000
0.894118 0.596078 0.231373
0.937255 0.603922 0.239216
0.984314 0.611765 0.250980
0.384314 0.560784 0.000000
0.396078 0.556863 0.003922
0.396078 0.560784 0.000000
0.411765 0.564706 0.003922
0.435294 0.564706 0.003922
0.450980 0.556863 0.000000
0.474510 0.560784 0.000000
0.494118 0.564706 0.000000
0.505882 0.556863 0.000000
0.509804 0.560784 0.003922
0.517647 0.560784 0.007843
0.537255 0.564706 0.007843
0.552941 0.568627 0.000000
0.568627 0.564706 0.007843
0.572549 0.564706 0.000000
0.580392 0.560784 0.000000
0.615686 0.568627 0.000000
0.650980 0.580392 0.015686
0.705882 0.588235 0.062745
0.756863 0.596078 0.101961
0.807843 0.607843 0.141176
0.850980 0.615686 0.168627
0.890196 0.623529 0.196078
0.941176 0.639216 0.239216
0.976471 0.639216 0.258824
0.439216 0.619608 0.000000
0.443137 0.623529 0.000000
0.443137 0.623529 0.000000
0.458824 0.619608 0.000000
0.474510 0.619608 0.003922
0.494118 0.615686 0.003922
0.517647 0.615686 0.003922
0.537255 0.619608 0.003922
0.549020 0.619608 0.000000
0.560784 0.615686 0.000000
0.572549 0.615686 0.003922
0.576471 0.615686 0.000000
0.592157 0.619608 0.000000
0.603922 0.619608 0.000000
0.615686 0.615686 0.000000
0.635294 0.611765 0.000000
0.627451 0.607843 0.000000
0.674510 0.623529 0.003922
0.709804 0.631373 0.015686
0.756863 0.639216 0.050980
0.811765 0.647059 0.105882
0.850980 0.654902 0.149020
0.905882 0.662745 0.188235
0.949020 0.670588 0.223529
0.992157 0.686275 0.262745
0.462745 0.647059 0.003922
0.470588 0.647059 0.007843
0.478431 0.643137 0.007843
0.482353 0.650980 0.000000
0.505882 0.650980 0.000000
0.521569 0.643137 0.000000
0.545098 0.650980 0.003922
0.568627 0.650980 0.000000
0.584314 0.643137 0.000000
0.600000 0.650980 0.003922
0.607843 0.650980 0.000000
0.615686 0.647059 0.000000
0.619608 0.654902 0.000000
0.631373 0.658824 0.007843
0.647059 0.658824 0.011765
0.666667 0.654902 0.000000
0.682353 0.654902 0.003922
0.682353 0.647059 0.000000
0.705882 0.658824 0.000000
0.760784 0.666667 0.000000
0.815686 0.678431 0.035294
0.858824 0.686275 0.101961
0.901961 0.694118 0.152941
0.952941 0.705882 0.200000
1.000000 0.713725 0.231373
0.498039 0.682353 0.000000
0.494118 0.682353 0.000000
0.505882 0.698039 0.000000
0.521569 0.690196 0.000000
0.529412 0.698039 0.000000
0.549020 0.694118 0.003922
0.576471 0.690196 0.000000
0.596078 0.682353 0.003922
0.615686 0.686275 0.003922
0.619608 0.686275 0.003922
0.631373 0.686275 0.000000
0.643137 0.694118 0.000000
0.654902 0.698039 0.000000
0.674510 0.694118 0.000000
0.682353 0.694118 0.000000
0.698039 0.694118 0.003922
0.705882 0.694118 0.007843
0.717647 0.690196 0.000000
0.733333 0.690196 0.000000
0.764706 0.701961 0.000000
0.807843 0.709804 0.000000
0.850980 0.713725 0.007843
0.901961 0.713725 0.078431
0.949020 0.733333 0.137255
1.000000 0.737255 0.188235
0.525490 0.729412 0.000000
0.545098 0.721569 0.011765
0.545098 0.725490 0.003922
0.545098 0.737255 0.000000
0.564706 0.729412 0.000000
0.572549 0.729412 0.000000
0.600000 0.733333 0.007843
0.623529 0.721569 0.007843
0.647059 0.733333 0.003922
0.662745 0.725490 0.003922
0.674510 0.733333 0.000000
0.682353 0.729412 0.003922
0.694118 0.725490 0.003922
0.713725 0.729412 0.003922
0.721569 0.729412 0.000000
0.737255 0.733333 0.000000
0.749020 0.733333 0.000000
0.752941 0.733333 0.000000
0.764706 0.733333 0.000000
0.776471 0.733333 0.000000
0.807843 0.733333 0.000000
0.850980 0.745098 0.000000
0.901961 0.756863 0.003922
0.952941 0.760784 0.062745
0.984314 0.764706 0.141176
0.564706 0.768627 0.000000
0.568627 0.772549 0.003922
0.572549 0.768627 0.003922
0.596078 0.768627 0.000000
0.592157 0.772549 0.000000
0.611765 0.768627 0.000000
0.631373 0.772549 0.000000
0.654902 0.776471 0.000000
0.678431 0.772549 0.000000
0.701961 0.772549 0.003922
0.717647 0.772549 0.000000
0.733333 0.760784 0.000000
0.729412 0.772549 0.000000
0.745098 0.768627 0.000000
0.752941 0.764706 0.000000
0.764706 0.772549 0.007843
0.792157 0.764706 0.003922
0.803922 0.772549 0.003922
0.811765 0.772549 0.003922
0.827451 0.780392 0.003922
0.835294 0.772549 0.000000
0.866667 0.776471 0.000000
0.909804 0.784314 0.003922
0.945098 0.792157 0.011765
0.988235 0.800000 0.023529
0.619608 0.827451 0.000000
0.631373 0.827451 0.000000
0.635294 0.827451 0.000000
0.647059 0.827451 0.000000
0.650980 0.831373 0.000000
0.658824 0.827451 0.000000
0.682353 0.823529 0.000000
0.705882 0.823529 0.000000
0.729412 0.823529 0.007843
0.749020 0.819608 0.003922
0.764706 0.819608 0.000000
0.772549 0.823529 0.000000
0.788235 0.819608 0.000000
0.800000 0.819608 0.003922
0.807843 0.815686 0.003922
0.823529 0.815686 0.003922
0.831373 0.827451 0.000000
0.850980 0.823529 0.000000
0.862745 0.815686 0.000000
0.878431 0.823529 0.000000
0.886275 0.823529 0.003922
0.898039 0.819608 0.003922
0.917647 0.823529 0.000000
0.952941 0.831373 0.000000
0.988235 0.847059 0.000000
0.654902 0.854902 0.000000
0.666667 0.850980 0.000000
0.666667 0.870588 0.000000
0.678431 0.854902 0.003922
0.682353 0.866667 0.003922
0.701961 0.862745 0.007843
0.717647 0.854902 0.000000
0.741176 0.866667 0.000000
0.756863 0.858824 0.000000
0.780392 0.858824 0.000000
0.800000 0.854902 0.003922
0.815686 0.854902 0.000000
0.819608 0.858824 0.003922
0.839216 0.862745 0.000000
0.847059 0.854902 0.000000
0.854902 0.862745 0.000000
0.874510 0.866667 0.000000
0.878431 0.862745 0.000000
0.901961 0.870588 0.007843
0.921569 0.866667 0.003922
0.937255 0.866667 0.003922
0.941176 0.862745 0.003922
0.952941 0.866667 0.000000
0.960784 0.858824 0.000000
0.992157 0.878431 0.000000
0.682353 0.901961 0.000000
0.709804 0.901961 0.003922
0.694118 0.901961 0.000000
0.713725 0.898039 0.011765
0.717647 0.894118 0.003922
0.737255 0.901961 0.000000
0.745098 0.894118 0.003922
0.768627 0.898039 0.000000
0.792157 0.898039 0.000000
0.815686 0.898039 0.000000
0.843137 0.894118 0.000000
0.850980 0.894118 0.000000
0.862745 0.898039 0.003922
0.874510 0.894118 0.003922
0.874510 0.898039 0.000000
0.901961 0.898039 0.000000
0.913725 0.898039 0.000000
0.925490 0.898039 0.000000
0.941176 0.898039 0.000000
0.949020 0.905882 0.003922
0.960784 0.905882 0.000000
0.992157 0.905882 0.000000
0.992157 0.905882 0.000000
0.992157 0.898039 0.003922
1.000000 0.898039 0.007843
0.741176 0.941176 0.000000
0.733333 0.941176 0.000000
0.749020 0.941176 0.000000
0.752941 0.937255 0.000000
0.768627 0.937255 0.000000
0.768627 0.937255 0.000000
0.788235 0.933333 0.000000
0.811765 0.941176 0.003922
0.827451 0.933333 0.003922
0.850980 0.945098 0.000000
0.862745 0.929412 0.000000
0.886275 0.937255 0.000000
0.905882 0.933333 0.000000
0.905882 0.933333 0.000000
0.925490 0.937255 0.007843
0.937255 0.933333 0.000000
0.949020 0.937255 0.000000
0.964706 0.937255 0.003922
0.976471 0.941176 0.000000
0.988235 0.937255 0.003922
1.000000 0.933333 0.003922
0.988235 0.949020 0.000000
0.996078 0.949020 0.000000
1.000000 0.937255 0.003922
1.000000 0.937255 0.003922
0.776471 0.976471 0.000000
0.776471 0.976471 0.000000
0.784314 0.976471 0.000000
0.796078 0.976471 0.003922
0.796078 0.976471 0.003922
0.811765 0.976471 0.003922
0.823529 0.976471 0.007843
0.839216 0.972549 0.003922
0.858824 0.972549 0.000000
0.886275 0.972549 0.000000
0.901961 0.976471 0.000000
0.929412 0.968627 0.000000
0.937255 0.972549 0.000000
0.949020 0.964706 0.000000
0.960784 0.968627 0.000000
0.972549 0.972549 0.000000
0.988235 0.972549 0.000000
0.992157 0.972549 0.000000
0.992157 0.980392 0.000000
1.000000 0.980392 0.000000
0.992157 0.976471 0.000000
1.000000 0.984314 0.003922
0.996078 0.976471 0.000000
1.000000 0.980392 0.000000
1.000000 0.976471 0.000000
0.023529 0.023529 0.054902
0.047059 0.019608 0.050980
0.094118 0.011765 0.047059
0.141176 0.000000 0.039216
0.184314 0.000000 0.039216
0.223529 0.000000 0.043137
0.274510 0.000000 0.043137
0.305882 0.000000 0.050980
0.345098 0.003922 0.047059
0.372549 0.007843 0.043137
0.411765 0.023529 0.043137
0.447059 0.027451 0.050980
0.486275 0.035294 0.062745
0.521569 0.050980 0.066667
0.552941 0.058824 0.062745
0.588235 0.074510 0.058824
0.631373 0.086275 0.074510
0.666667 0.094118 0.066667
0.709804 0.105882 0.074510
0.760784 0.125490 0.086275
0.803922 0.129412 0.090196
0.847059 0.133333 0.082353
0.890196 0.152941 0.086275
0.945098 0.164706 0.105882
0.980392 0.180392 0.113725
0.011765 0.043137 0.050980
0.062745 0.039216 0.039216
0.098039 0.043137 0.043137
0.152941 0.039216 0.047059
0.192157 0.043137 0.043137
0.227451 0.047059 0.054902
0.262745 0.054902 0.031373
0.301961 0.047059 0.039216
0.341176 0.050980 0.047059
0.376471 0.058824 0.047059
0.411765 0.062745 0.047059
0.450980 0.066667 0.054902
0.478431 0.074510 0.058824
0.517647 0.082353 0.066667
0.552941 0.094118 0.066667
0.588235 0.098039 0.074510
0.627451 0.109804 0.070588
0.674510 0.117647 0.078431
0.721569 0.125490 0.082353
0.756863 0.133333 0.082353
0.800000 0.145098 0.090196
0.850980 0.156863 0.094118
0.886275 0.164706 0.094118
0.929412 0.180392 0.105882
0.988235 0.192157 0.098039
0.007843 0.090196 0.023529
0.074510 0.090196 0.035294
0.113725 0.090196 0.043137
0.137255 0.098039 0.050980
0.172549 0.086275 0.043137
0.231373 0.098039 0.050980
0.254902 0.101961 0.050980
0.301961 0.098039 0.054902
0.341176 0.090196 0.050980
0.376471 0.094118 0.047059
0.407843 0.094118 0.050980
0.443137 0.105882 0.054902
0.478431 0.109804 0.062745
0.517647 0.117647 0.070588
0.552941 0.125490 0.074510
0.584314 0.129412 0.070588
0.619608 0.137255 0.074510
0.658824 0.145098 0.082353
0.705882 0.152941 0.086275
0.752941 0.160784 0.094118
0.800000 0.168627 0.090196
0.850980 0.176471 0.090196
0.890196 0.184314 0.094118
0.929412 0.200000 0.117647
0.976471 0.203922 0.098039
0.054902 0.129412 0.043137
0.098039 0.137255 0.031373
0.133333 0.125490 0.035294
0.152941 0.137255 0.039216
0.176471 0.133333 0.047059
0.219608 0.137255 0.062745
0.258824 0.137255 0.054902
0.286275 0.137255 0.054902
0.337255 0.141176 0.050980
0.372549 0.133333 0.062745
0.407843 0.141176 0.066667
0.443137 0.141176 0.070588
0.474510 0.152941 0.070588
0.513725 0.152941 0.062745
0.541176 0.156863 0.066667
0.584314 0.160784 0.078431
0.627451 0.172549 0.082353
0.670588 0.168627 0.086275
0.698039 0.176471 0.078431
0.749020 0.196078 0.090196
0.792157 0.200000 0.094118
0.835294 0.196078 0.098039
0.882353 0.215686 0.094118
0.925490 0.215686 0.101961
0.976471 0.235294 0.129412
0.101961 0.164706 0.023529
0.133333 0.176471 0.019608
0.160784 0.168627 0.023529
0.184314 0.168627 0.023529
0.192157 0.176471 0.027451
0.223529 0.172549 0.039216
0.258824 0.176471 0.062745
0.298039 0.180392 0.078431
0.337255 0.180392 0.078431
0.364706 0.180392 0.070588
0.400000 0.184314 0.062745
0.439216 0.192157 0.070588
0.478431 0.188235 0.082353
0.501961 0.192157 0.074510
0.537255 0.200000 0.078431
0.576471 0.203922 0.086275
0.619608 0.207843 0.094118
0.662745 0.203922 0.094118
0.705882 0.211765 0.086275
0.749020 0.215686 0.090196
0.796078 0.231373 0.098039
0.827451 0.235294 0.098039
0.878431 0.247059 0.105882
0.917647 0.247059 0.105882
0.964706 0.258824 0.121569
0.133333 0.211765 0.003922
0.160784 0.215686 0.007843
0.192157 0.219608 0.015686
0.215686 0.215686 0.019608
0.219608 0.219608 0.023529
0.235294 0.219608 0.031373
0.270588 0.219608 0.043137
0.305882 0.223529 0.047059
0.337255 0.219608 0.078431
0.372549 0.223529 0.082353
0.403922 0.231373 0.086275
0.439216 0.235294 0.090196
0.478431 0.231373 0.094118
0.521569 0.239216 0.098039
0.564706 0.243137 0.098039
0.600000 0.250980 0.101961
0.635294 0.250980 0.098039
0.666667 0.254902 0.101961
0.709804 0.258824 0.105882
0.752941 0.266667 0.101961
0.800000 0.274510 0.098039
0.847059 0.282353 0.109804
0.886275 0.282353 0.109804
0.933333 0.290196 0.121569
0.992157 0.298039 0.133333
0.160784 0.258824 0.000000
0.184314 0.258824 0.000000
0.207843 0.254902 0.000000
0.231373 0.258824 0.000000
0.247059 0.250980 0.000000
0.254902 0.262745 0.015686
0.278431 0.262745 0.023529
0.301961 0.262745 0.031373
0.329412 0.262745 0.050980
0.364706 0.262745 0.070588
0.396078 0.266667 0.090196
0.439216 0.278431 0.105882
0.474510 0.274510 0.105882
0.509804 0.282353 0.105882
0.552941 0.282353 0.113725
0.603922 0.286275 0.109804
0.635294 0.290196 0.113725
0.678431 0.294118 0.117647
0.705882 0.298039 0.121569
0.749020 0.301961 0.117647
0.792157 0.317647 0.113725
0.839216 0.317647 0.117647
0.890196 0.317647 0.117647
0.937255 0.325490 0.137255
0.992157 0.337255 0.141176
0.184314 0.294118 0.003922
0.207843 0.294118 0.000000
0.227451 0.290196 0.003922
0.258824 0.286275 0.011765
0.270588 0.294118 0.003922
0.290196 0.294118 0.000000
0.290196 0.290196 0.007843
0.313725 0.298039 0.019608
0.337255 0.301961 0.039216
0.360784 0.305882 0.058824
0.392157 0.305882 0.074510
0.435294 0.313725 0.101961
0.474510 0.317647 0.109804
0.505882 0.325490 0.125490
0.545098 0.321569 0.113725
0.584314 0.329412 0.117647
0.627451 0.333333 0.117647
0.674510 0.333333 0.121569
0.717647 0.337255 0.129412
0.752941 0.341176 0.125490
0.792157 0.352941 0.133333
0.839216 0.360784 0.145098
0.894118 0.360784 0.141176
0.921569 0.364706 0.137255
0.976471 0.368627 0.156863
0.219608 0.325490 0.007843
0.235294 0.329412 0.000000
0.254902 0.333333 0.000000
0.266667 0.325490 0.007843
0.298039 0.337255 0.000000
0.305882 0.325490 0.000000
0.321569 0.329412 0.000000
0.329412 0.341176 0.000000
0.341176 0.337255 0.011765
0.368627 0.341176 0.023529
0.396078 0.341176 0.054902
0.439216 0.349020 0.086275
0.470588 0.345098 0.105882
0.513725 0.364706 0.121569
0.545098 0.364706 0.129412
0.584314 0.372549 0.137255
0.619608 0.376471 0.145098
0.666667 0.376471 0.145098
0.709804 0.380392 0.145098
0.752941 0.384314 0.145098
0.780392 0.384314 0.141176
0.835294 0.388235 0.145098
0.886275 0.396078 0.152941
0.929412 0.407843 0.149020
0.972549 0.411765 0.160784
0.250980 0.364706 0.000000
0.262745 0.364706 0.007843
0.266667 0.372549 0.007843
0.286275 0.372549 0.000000
0.317647 0.372549 0.000000
0.333333 0.372549 0.000000
0.341176 0.368627 0.000000
0.352941 0.376471 0.000000
0.368627 0.376471 0.000000
0.384314 0.372549 0.007843
0.400000 0.372549 0.027451
0.427451 0.380392 0.058824
0.466667 0.380392 0.082353
0.501961 0.384314 0.101961
0.549020 0.396078 0.133333
0.588235 0.400000 0.141176
0.627451 0.411765 0.156863
0.666667 0.419608 0.156863
0.713725 0.419608 0.156863
0.756863 0.423529 0.168627
0.796078 0.427451 0.156863
0.843137 0.431373 0.172549
0.890196 0.431373 0.160784
0.933333 0.439216 0.168627
0.976471 0.443137 0.176471
0.278431 0.415686 0.007843
0.278431 0.419608 0.003922
0.294118 0.419608 0.000000
0.321569 0.411765 0.000000
0.345098 0.411765 0.000000
0.364706 0.415686 0.003922
0.368627 0.411765 0.000000
0.384314 0.419608 0.000000
0.388235 0.419608 0.000000
0.407843 0.419608 0.000000
