lut_library_archive/removed_20260629/50个风景lut/50个风景lut12.cube
# 版权归凌孟成所有，侵权必究
TITLE "Jungle LUT #12"
#LUT size
LUT_3D_SIZE 5
#LUT data points
0.000000 0.000000 0.000000
0.250980 0.000000 0.000000
0.517647 0.003922 0.003922
0.788235 0.000000 0.000000
0.996078 0.003922 0.000000
0.007843 0.250980 0.000000
0.258824 0.254902 0.003922
0.517647 0.250980 0.003922
0.788235 0.250980 0.000000
1.000000 0.243137 0.003922
0.000000 0.533333 0.007843
0.254902 0.529412 0.000000
0.529412 0.533333 0.000000
0.796078 0.521569 0.003922
1.000000 0.513725 0.000000
0.011765 0.792157 0.011765
0.211765 0.792157 0.000000
0.509804 0.788235 0.000000
0.788235 0.780392 0.000000
0.992157 0.772549 0.000000
0.000000 1.000000 0.000000
0.149020 1.000000 0.000000
0.486275 1.000000 0.003922
0.756863 0.996078 0.000000
0.992157 0.996078 0.007843
0.031373 0.000000 0.203922
0.262745 0.000000 0.211765
0.529412 0.003922 0.211765
0.796078 0.000000 0.196078
0.992157 0.003922 0.172549
0.000000 0.250980 0.215686
0.262745 0.254902 0.207843
0.529412 0.247059 0.207843
0.792157 0.231373 0.176471
1.000000 0.215686 0.168627
0.003922 0.533333 0.164706
0.219608 0.529412 0.160784
0.529412 0.525490 0.160784
0.792157 0.509804 0.172549
1.000000 0.498039 0.160784
0.000000 0.792157 0.141176
0.172549 0.784314 0.141176
0.498039 0.784314 0.129412
0.788235 0.780392 0.141176
0.996078 0.768627 0.145098
0.000000 0.992157 0.192157
0.023529 1.000000 0.176471
0.466667 0.996078 0.188235
0.745098 0.996078 0.203922
0.992157 1.000000 0.227451
0.000000 0.003922 0.600000
0.184314 0.000000 0.603922
0.505882 0.000000 0.603922
0.788235 0.003922 0.596078
0.988235 0.011765 0.584314
0.007843 0.227451 0.607843
0.137255 0.223529 0.619608
0.501961 0.207843 0.603922
0.780392 0.207843 0.603922
1.000000 0.192157 0.588235
0.000000 0.529412 0.623529
0.003922 0.525490 0.631373
0.478431 0.517647 0.615686
0.764706 0.513725 0.607843
1.000000 0.501961 0.607843
0.000000 0.792157 0.603922
0.007843 0.788235 0.596078
0.454902 0.780392 0.592157
0.768627 0.784314 0.588235
1.000000 0.764706 0.584314
0.003922 1.000000 0.584314
0.003922 1.000000 0.576471
0.407843 1.000000 0.588235
0.721569 1.000000 0.584314
0.992157 0.996078 0.588235
0.000000 0.003922 0.886275
0.019608 0.000000 0.878431
0.458824 0.003922 0.878431
0.756863 0.000000 0.882353
0.996078 0.000000 0.886275
0.000000 0.207843 0.882353
0.000000 0.203922 0.878431
0.450980 0.188235 0.886275
0.764706 0.160784 0.890196
1.000000 0.137255 0.866667
0.003922 0.494118 0.878431
0.007843 0.494118 0.878431
0.427451 0.478431 0.878431
0.760784 0.478431 0.878431
1.000000 0.494118 0.866667
0.000000 0.792157 0.878431
0.000000 0.788235 0.874510
0.411765 0.780392 0.878431
0.749020 0.780392 0.870588
1.000000 0.768627 0.878431
0.000000 1.000000 0.850980
0.007843 1.000000 0.847059
0.407843 0.996078 0.847059
0.725490 1.000000 0.847059
0.980392 0.996078 0.850980
0.003922 0.000000 0.996078
0.180392 0.000000 1.000000
0.482353 0.000000 1.000000
0.749020 0.000000 0.996078
1.000000 0.000000 1.000000
0.003922 0.192157 1.000000
0.145098 0.188235 0.988235
0.474510 0.176471 1.000000
0.749020 0.149020 1.000000
0.992157 0.098039 0.996078
0.003922 0.466667 1.000000
0.007843 0.458824 0.996078
0.447059 0.458824 1.000000
0.741176 0.458824 1.000000
1.000000 0.450980 1.000000
0.000000 0.741176 1.000000
0.000000 0.745098 1.000000
0.447059 0.741176 0.988235
0.749020 0.749020 1.000000
1.000000 0.749020 1.000000
0.000000 1.000000 0.988235
0.090196 0.996078 0.996078
0.486275 1.000000 1.000000
0.772549 1.000000 1.000000
1.000000 1.000000 1.000000
