lut_library_archive/removed_20260629/50个风景lut/50个风景lut34.cube
# 版权归凌孟成所有，侵权必究
TITLE "Jungle LUT #34"
#LUT size
LUT_3D_SIZE 25
#LUT data points
0.000000 0.003922 0.000000
0.031373 0.000000 0.000000
0.078431 0.000000 0.003922
0.125490 0.000000 0.003922
0.176471 0.000000 0.011765
0.223529 0.003922 0.015686
0.278431 0.011765 0.011765
0.321569 0.015686 0.015686
0.364706 0.019608 0.015686
0.407843 0.043137 0.023529
0.443137 0.062745 0.035294
0.482353 0.078431 0.050980
0.525490 0.094118 0.058824
0.564706 0.117647 0.078431
0.603922 0.141176 0.101961
0.639216 0.160784 0.109804
0.694118 0.176471 0.125490
0.729412 0.200000 0.152941
0.768627 0.223529 0.172549
0.811765 0.243137 0.192157
0.858824 0.258824 0.200000
0.901961 0.278431 0.223529
0.941176 0.301961 0.250980
0.984314 0.325490 0.282353
0.996078 0.349020 0.305882
0.000000 0.035294 0.000000
0.043137 0.027451 0.000000
0.082353 0.031373 0.000000
0.129412 0.039216 0.007843
0.172549 0.035294 0.011765
0.223529 0.050980 0.015686
0.262745 0.058824 0.007843
0.317647 0.054902 0.019608
0.356863 0.066667 0.023529
0.400000 0.078431 0.031373
0.443137 0.094118 0.039216
0.482353 0.105882 0.043137
0.517647 0.121569 0.058824
0.560784 0.141176 0.078431
0.611765 0.156863 0.105882
0.654902 0.176471 0.125490
0.690196 0.192157 0.125490
0.733333 0.211765 0.145098
0.772549 0.235294 0.172549
0.815686 0.254902 0.184314
0.854902 0.270588 0.207843
0.898039 0.290196 0.235294
0.945098 0.305882 0.254902
0.972549 0.333333 0.274510
1.000000 0.352941 0.298039
0.000000 0.082353 0.003922
0.050980 0.082353 0.000000
0.094118 0.086275 0.000000
0.145098 0.078431 0.007843
0.184314 0.074510 0.000000
0.211765 0.082353 0.015686
0.266667 0.090196 0.007843
0.313725 0.098039 0.019608
0.360784 0.105882 0.035294
0.407843 0.113725 0.039216
0.447059 0.125490 0.043137
0.478431 0.133333 0.054902
0.521569 0.149020 0.070588
0.564706 0.160784 0.094118
0.596078 0.180392 0.098039
0.650980 0.196078 0.113725
0.690196 0.211765 0.137255
0.725490 0.231373 0.145098
0.768627 0.247059 0.180392
0.807843 0.266667 0.188235
0.847059 0.282353 0.211765
0.894118 0.301961 0.235294
0.937255 0.321569 0.254902
0.976471 0.341176 0.290196
0.996078 0.364706 0.301961
0.000000 0.129412 0.000000
0.050980 0.133333 0.003922
0.105882 0.129412 0.000000
0.152941 0.133333 0.007843
0.200000 0.125490 0.007843
0.231373 0.129412 0.000000
0.274510 0.133333 0.007843
0.313725 0.137255 0.015686
0.352941 0.145098 0.023529
0.403922 0.152941 0.047059
0.439216 0.160784 0.058824
0.482353 0.168627 0.070588
0.517647 0.176471 0.066667
0.560784 0.192157 0.090196
0.603922 0.211765 0.121569
0.647059 0.227451 0.133333
0.686275 0.239216 0.129412
0.729412 0.250980 0.160784
0.768627 0.270588 0.172549
0.807843 0.286275 0.196078
0.850980 0.301961 0.219608
0.890196 0.317647 0.235294
0.933333 0.329412 0.250980
0.976471 0.356863 0.282353
0.996078 0.376471 0.301961
0.027451 0.180392 0.003922
0.070588 0.180392 0.000000
0.109804 0.184314 0.000000
0.164706 0.176471 0.000000
0.211765 0.180392 0.000000
0.254902 0.184314 0.003922
0.286275 0.172549 0.000000
0.321569 0.176471 0.011765
0.360784 0.180392 0.039216
0.396078 0.188235 0.054902
0.435294 0.200000 0.066667
0.474510 0.203922 0.074510
0.517647 0.219608 0.086275
0.560784 0.231373 0.098039
0.596078 0.243137 0.117647
0.635294 0.254902 0.141176
0.682353 0.266667 0.141176
0.725490 0.278431 0.168627
0.768627 0.294118 0.192157
0.819608 0.309804 0.207843
0.850980 0.321569 0.215686
0.890196 0.333333 0.239216
0.933333 0.356863 0.258824
0.972549 0.376471 0.286275
0.996078 0.396078 0.305882
0.039216 0.235294 0.000000
0.082353 0.239216 0.000000
0.125490 0.235294 0.000000
0.164706 0.235294 0.000000
0.211765 0.231373 0.003922
0.258824 0.235294 0.007843
0.305882 0.231373 0.000000
0.345098 0.231373 0.003922
0.380392 0.227451 0.003922
0.411765 0.227451 0.047059
0.447059 0.235294 0.086275
0.482353 0.247059 0.105882
0.529412 0.262745 0.117647
0.568627 0.274510 0.113725
0.611765 0.282353 0.133333
0.654902 0.294118 0.152941
0.698039 0.305882 0.176471
0.729412 0.313725 0.180392
0.776471 0.329412 0.196078
0.823529 0.341176 0.211765
0.862745 0.349020 0.231373
0.898039 0.368627 0.254902
0.933333 0.380392 0.270588
0.972549 0.403922 0.298039
0.992157 0.423529 0.317647
0.047059 0.282353 0.007843
0.090196 0.274510 0.000000
0.125490 0.282353 0.000000
0.172549 0.274510 0.000000
0.219608 0.286275 0.003922
0.266667 0.278431 0.000000
0.301961 0.278431 0.000000
0.341176 0.286275 0.000000
0.380392 0.278431 0.000000
0.411765 0.274510 0.007843
0.443137 0.278431 0.043137
0.486275 0.286275 0.101961
0.513725 0.301961 0.129412
0.560784 0.313725 0.145098
0.603922 0.317647 0.149020
0.647059 0.329412 0.160784
0.690196 0.341176 0.184314
0.729412 0.345098 0.192157
0.784314 0.364706 0.200000
0.827451 0.364706 0.223529
0.866667 0.380392 0.247059
0.898039 0.392157 0.266667
0.929412 0.411765 0.282353
0.976471 0.427451 0.305882
1.000000 0.439216 0.337255
0.058824 0.321569 0.007843
0.098039 0.325490 0.000000
0.121569 0.325490 0.000000
0.172549 0.329412 0.000000
0.200000 0.329412 0.003922
0.266667 0.325490 0.000000
0.294118 0.325490 0.000000
0.345098 0.325490 0.003922
0.392157 0.325490 0.003922
0.427451 0.325490 0.000000
0.462745 0.325490 0.003922
0.494118 0.329412 0.039216
0.525490 0.337255 0.094118
0.560784 0.341176 0.141176
0.603922 0.360784 0.168627
0.650980 0.368627 0.180392
0.690196 0.372549 0.196078
0.729412 0.388235 0.211765
0.764706 0.396078 0.223529
0.811765 0.403922 0.235294
0.854902 0.411765 0.247059
0.898039 0.431373 0.274510
0.941176 0.439216 0.286275
0.972549 0.458824 0.305882
1.000000 0.470588 0.352941
0.074510 0.376471 0.000000
0.090196 0.368627 0.000000
0.137255 0.368627 0.007843
0.176471 0.372549 0.000000
0.215686 0.380392 0.000000
0.254902 0.368627 0.003922
0.298039 0.376471 0.003922
0.345098 0.372549 0.000000
0.384314 0.372549 0.007843
0.427451 0.372549 0.000000
0.466667 0.372549 0.000000
0.501961 0.372549 0.007843
0.533333 0.368627 0.039216
0.568627 0.388235 0.101961
0.603922 0.392157 0.141176
0.639216 0.407843 0.192157
0.678431 0.415686 0.207843
0.725490 0.419608 0.227451
0.768627 0.423529 0.235294
0.811765 0.431373 0.254902
0.850980 0.443137 0.266667
0.894118 0.450980 0.278431
0.921569 0.474510 0.301961
0.964706 0.486275 0.333333
1.000000 0.498039 0.345098
0.074510 0.415686 0.000000
0.105882 0.411765 0.003922
0.133333 0.411765 0.011765
0.172549 0.419608 0.007843
0.207843 0.415686 0.000000
0.250980 0.419608 0.000000
0.294118 0.415686 0.000000
0.333333 0.419608 0.000000
0.380392 0.415686 0.000000
0.419608 0.415686 0.000000
0.462745 0.419608 0.000000
0.501961 0.415686 0.000000
0.537255 0.415686 0.000000
0.584314 0.419608 0.027451
0.615686 0.415686 0.098039
0.654902 0.431373 0.168627
0.686275 0.447059 0.200000
0.717647 0.458824 0.231373
0.760784 0.466667 0.243137
0.807843 0.474510 0.262745
0.847059 0.482353 0.278431
0.886275 0.490196 0.309804
0.925490 0.501961 0.321569
0.960784 0.513725 0.341176
0.992157 0.525490 0.368627
0.078431 0.474510 0.003922
0.109804 0.466667 0.000000
0.137255 0.466667 0.000000
0.172549 0.466667 0.000000
0.215686 0.470588 0.000000
0.254902 0.470588 0.003922
0.294118 0.466667 0.000000
0.337255 0.470588 0.000000
0.376471 0.470588 0.000000
0.415686 0.470588 0.000000
0.466667 0.470588 0.000000
0.509804 0.470588 0.000000
0.552941 0.466667 0.000000
0.584314 0.466667 0.000000
0.623529 0.466667 0.023529
0.670588 0.470588 0.105882
0.698039 0.482353 0.156863
0.737255 0.494118 0.207843
0.776471 0.501961 0.258824
0.811765 0.513725 0.290196
0.854902 0.521569 0.305882
0.890196 0.533333 0.317647
0.933333 0.541176 0.345098
0.976471 0.552941 0.372549
0.996078 0.572549 0.388235
0.074510 0.501961 0.000000
0.113725 0.509804 0.000000
0.133333 0.505882 0.000000
0.172549 0.509804 0.019608
0.207843 0.501961 0.000000
0.254902 0.509804 0.000000
0.294118 0.509804 0.003922
0.341176 0.501961 0.000000
0.380392 0.509804 0.000000
0.419608 0.509804 0.000000
0.466667 0.509804 0.000000
0.505882 0.505882 0.000000
0.549020 0.509804 0.000000
0.588235 0.509804 0.000000
0.623529 0.509804 0.000000
0.670588 0.513725 0.000000
0.709804 0.509804 0.098039
0.749020 0.513725 0.168627
0.776471 0.529412 0.219608
0.819608 0.549020 0.278431
0.850980 0.552941 0.325490
0.890196 0.568627 0.341176
0.933333 0.580392 0.352941
0.976471 0.584314 0.380392
1.000000 0.600000 0.400000
0.074510 0.556863 0.000000
0.098039 0.556863 0.003922
0.133333 0.552941 0.003922
0.176471 0.556863 0.003922
0.200000 0.545098 0.000000
0.235294 0.552941 0.000000
0.286275 0.549020 0.000000
0.329412 0.552941 0.000000
0.380392 0.552941 0.000000
0.415686 0.552941 0.000000
0.458824 0.549020 0.000000
0.505882 0.549020 0.000000
0.545098 0.549020 0.000000
0.596078 0.552941 0.000000
0.623529 0.549020 0.007843
0.670588 0.549020 0.000000
0.705882 0.552941 0.000000
0.749020 0.556863 0.094118
0.792157 0.556863 0.172549
0.827451 0.568627 0.239216
0.854902 0.584314 0.278431
0.890196 0.600000 0.329412
0.921569 0.607843 0.368627
0.964706 0.623529 0.411765
1.000000 0.627451 0.419608
0.058824 0.592157 0.000000
0.101961 0.596078 0.003922
0.137255 0.592157 0.003922
0.164706 0.592157 0.000000
0.203922 0.596078 0.000000
0.239216 0.592157 0.000000
0.282353 0.600000 0.000000
0.321569 0.600000 0.000000
0.364706 0.596078 0.000000
0.415686 0.596078 0.000000
0.454902 0.592157 0.000000
0.498039 0.592157 0.003922
0.541176 0.588235 0.007843
0.592157 0.592157 0.003922
0.627451 0.588235 0.011765
0.670588 0.588235 0.000000
0.713725 0.592157 0.003922
0.756863 0.596078 0.007843
0.792157 0.592157 0.094118
0.827451 0.600000 0.168627
0.862745 0.611765 0.231373
0.909804 0.619608 0.282353
0.933333 0.627451 0.337255
0.968627 0.639216 0.388235
1.000000 0.662745 0.439216
0.062745 0.635294 0.000000
0.098039 0.635294 0.007843
0.117647 0.635294 0.000000
0.160784 0.631373 0.003922
0.200000 0.635294 0.000000
0.243137 0.639216 0.000000
0.278431 0.635294 0.000000
0.321569 0.639216 0.000000
0.356863 0.631373 0.000000
0.407843 0.635294 0.000000
0.454902 0.635294 0.003922
0.494118 0.635294 0.000000
0.537255 0.631373 0.003922
0.576471 0.635294 0.000000
0.623529 0.631373 0.000000
0.670588 0.635294 0.000000
0.717647 0.623529 0.003922
0.756863 0.623529 0.007843
0.788235 0.631373 0.007843
0.827451 0.639216 0.082353
0.870588 0.650980 0.184314
0.905882 0.650980 0.250980
0.945098 0.654902 0.305882
0.972549 0.670588 0.364706
0.996078 0.678431 0.419608
0.047059 0.690196 0.000000
0.082353 0.694118 0.000000
0.117647 0.694118 0.000000
0.156863 0.694118 0.000000
0.203922 0.690196 0.000000
0.243137 0.690196 0.000000
0.286275 0.690196 0.000000
0.329412 0.694118 0.000000
0.376471 0.690196 0.011765
0.415686 0.682353 0.003922
0.458824 0.682353 0.000000
0.509804 0.682353 0.000000
0.549020 0.682353 0.007843
0.588235 0.682353 0.000000
0.627451 0.686275 0.000000
0.670588 0.686275 0.000000
0.721569 0.678431 0.011765
0.764706 0.678431 0.000000
0.803922 0.674510 0.000000
0.847059 0.678431 0.023529
0.882353 0.682353 0.090196
0.917647 0.686275 0.184314
0.956863 0.694118 0.274510
0.988235 0.698039 0.325490
1.000000 0.713725 0.396078
0.039216 0.729412 0.000000
0.070588 0.725490 0.000000
0.113725 0.729412 0.003922
0.152941 0.725490 0.000000
0.184314 0.733333 0.000000
0.235294 0.729412 0.000000
0.278431 0.733333 0.000000
0.321569 0.729412 0.011765
0.356863 0.725490 0.003922
0.415686 0.729412 0.003922
0.447059 0.721569 0.000000
0.498039 0.725490 0.007843
0.533333 0.725490 0.000000
0.592157 0.725490 0.000000
0.627451 0.721569 0.000000
0.678431 0.713725 0.003922
0.721569 0.721569 0.000000
0.756863 0.717647 0.000000
0.803922 0.717647 0.003922
0.843137 0.709804 0.000000
0.886275 0.721569 0.000000
0.917647 0.725490 0.090196
0.956863 0.729412 0.200000
0.992157 0.729412 0.282353
1.000000 0.737255 0.349020
0.011765 0.768627 0.000000
0.070588 0.764706 0.011765
0.101961 0.764706 0.000000
0.149020 0.764706 0.007843
0.196078 0.768627 0.000000
0.239216 0.760784 0.003922
0.274510 0.768627 0.000000
0.313725 0.768627 0.003922
0.360784 0.764706 0.000000
0.400000 0.764706 0.000000
0.447059 0.768627 0.000000
0.494118 0.768627 0.000000
0.537255 0.760784 0.000000
0.576471 0.760784 0.007843
0.623529 0.764706 0.003922
0.670588 0.760784 0.000000
0.709804 0.764706 0.000000
0.752941 0.756863 0.003922
0.800000 0.760784 0.000000
0.850980 0.764706 0.000000
0.890196 0.764706 0.000000
0.917647 0.756863 0.011765
0.964706 0.760784 0.090196
0.984314 0.760784 0.207843
0.992157 0.772549 0.298039
0.003922 0.807843 0.000000
0.043137 0.807843 0.000000
0.098039 0.803922 0.000000
0.141176 0.807843 0.003922
0.188235 0.807843 0.000000
0.227451 0.803922 0.000000
0.266667 0.803922 0.000000
0.317647 0.807843 0.000000
0.360784 0.803922 0.000000
0.407843 0.807843 0.000000
0.454902 0.803922 0.000000
0.494118 0.803922 0.000000
0.525490 0.807843 0.000000
0.572549 0.807843 0.000000
0.619608 0.807843 0.000000
0.670588 0.800000 0.003922
0.709804 0.800000 0.007843
0.749020 0.800000 0.000000
0.788235 0.800000 0.003922
0.835294 0.800000 0.003922
0.878431 0.796078 0.000000
0.917647 0.796078 0.003922
0.960784 0.796078 0.011765
1.000000 0.796078 0.086275
0.996078 0.800000 0.227451
0.003922 0.847059 0.000000
0.039216 0.847059 0.007843
0.090196 0.843137 0.000000
0.137255 0.843137 0.007843
0.184314 0.843137 0.011765
0.223529 0.847059 0.007843
0.270588 0.843137 0.007843
0.313725 0.847059 0.007843
0.356863 0.847059 0.003922
0.400000 0.843137 0.000000
0.447059 0.843137 0.000000
0.490196 0.839216 0.000000
0.533333 0.843137 0.007843
0.572549 0.843137 0.000000
0.619608 0.839216 0.011765
0.658824 0.843137 0.000000
0.705882 0.843137 0.000000
0.741176 0.839216 0.000000
0.784314 0.839216 0.000000
0.827451 0.839216 0.003922
0.874510 0.839216 0.000000
0.921569 0.839216 0.000000
0.968627 0.839216 0.000000
0.992157 0.839216 0.003922
1.000000 0.835294 0.058824
0.000000 0.894118 0.000000
0.047059 0.898039 0.000000
0.094118 0.894118 0.000000
0.133333 0.894118 0.000000
0.184314 0.894118 0.003922
0.227451 0.898039 0.003922
0.270588 0.890196 0.000000
0.313725 0.894118 0.000000
0.356863 0.894118 0.000000
0.396078 0.894118 0.000000
0.439216 0.890196 0.000000
0.486275 0.886275 0.000000
0.533333 0.890196 0.000000
0.572549 0.890196 0.000000
0.619608 0.886275 0.003922
0.666667 0.890196 0.000000
0.701961 0.886275 0.000000
0.741176 0.886275 0.000000
0.784314 0.882353 0.000000
0.827451 0.886275 0.000000
0.870588 0.878431 0.000000
0.913725 0.878431 0.000000
0.964706 0.878431 0.003922
1.000000 0.882353 0.011765
0.996078 0.882353 0.003922
0.007843 0.921569 0.003922
0.015686 0.925490 0.007843
0.074510 0.929412 0.003922
0.133333 0.925490 0.000000
0.176471 0.933333 0.000000
0.223529 0.921569 0.000000
0.262745 0.929412 0.000000
0.305882 0.925490 0.000000
0.349020 0.929412 0.000000
0.392157 0.929412 0.000000
0.447059 0.933333 0.007843
0.482353 0.921569 0.000000
0.529412 0.929412 0.003922
0.572549 0.925490 0.000000
0.615686 0.921569 0.003922
0.654902 0.929412 0.003922
0.698039 0.925490 0.000000
0.741176 0.925490 0.000000
0.788235 0.917647 0.011765
0.835294 0.925490 0.000000
0.870588 0.917647 0.000000
0.921569 0.921569 0.003922
0.960784 0.917647 0.015686
1.000000 0.917647 0.000000
1.000000 0.925490 0.000000
0.000000 0.964706 0.000000
0.000000 0.968627 0.000000
0.062745 0.968627 0.003922
0.109804 0.972549 0.000000
0.160784 0.968627 0.000000
0.207843 0.968627 0.003922
0.262745 0.968627 0.000000
0.298039 0.964706 0.000000
0.341176 0.960784 0.000000
0.392157 0.960784 0.000000
0.435294 0.960784 0.000000
0.478431 0.964706 0.000000
0.525490 0.960784 0.000000
0.568627 0.964706 0.007843
0.603922 0.956863 0.000000
0.650980 0.956863 0.000000
0.694118 0.960784 0.000000
0.733333 0.960784 0.000000
0.784314 0.956863 0.003922
0.835294 0.956863 0.003922
0.878431 0.952941 0.003922
0.913725 0.952941 0.000000
0.956863 0.956863 0.000000
1.000000 0.952941 0.007843
1.000000 0.956863 0.000000
0.007843 0.988235 0.007843
0.007843 0.996078 0.011765
0.031373 1.000000 0.000000
0.101961 0.996078 0.000000
0.152941 1.000000 0.007843
0.203922 1.000000 0.000000
0.243137 0.996078 0.003922
0.290196 1.000000 0.000000
0.337255 1.000000 0.000000
0.388235 0.996078 0.000000
0.427451 0.996078 0.000000
0.470588 1.000000 0.000000
0.509804 1.000000 0.003922
0.556863 1.000000 0.000000
0.603922 1.000000 0.000000
0.647059 1.000000 0.000000
0.686275 1.000000 0.000000
0.733333 0.992157 0.011765
0.776471 0.996078 0.000000
0.835294 0.988235 0.003922
0.882353 0.984314 0.007843
0.921569 0.984314 0.007843
0.968627 0.992157 0.000000
0.992157 0.992157 0.000000
1.000000 0.984314 0.000000
0.000000 0.996078 0.000000
0.000000 1.000000 0.000000
0.015686 1.000000 0.003922
0.090196 0.996078 0.000000
0.149020 1.000000 0.000000
0.196078 1.000000 0.007843
0.243137 1.000000 0.000000
0.286275 0.996078 0.000000
0.337255 0.996078 0.003922
0.384314 1.000000 0.000000
0.423529 1.000000 0.000000
0.470588 1.000000 0.000000
0.517647 1.000000 0.000000
0.560784 0.996078 0.000000
0.603922 1.000000 0.003922
0.650980 1.000000 0.011765
0.701961 0.996078 0.003922
0.752941 1.000000 0.003922
0.803922 1.000000 0.000000
0.850980 0.996078 0.000000
0.882353 1.000000 0.000000
0.937255 1.000000 0.007843
0.976471 1.000000 0.003922
1.000000 1.000000 0.003922
1.000000 1.000000 0.007843
0.000000 0.000000 0.019608
0.039216 0.000000 0.019608
0.086275 0.000000 0.019608
0.137255 0.000000 0.023529
0.184314 0.000000 0.031373
0.227451 0.003922 0.031373
0.278431 0.007843 0.027451
0.329412 0.019608 0.035294
0.364706 0.031373 0.054902
0.407843 0.047059 0.050980
0.454902 0.070588 0.066667
0.482353 0.094118 0.082353
0.521569 0.109804 0.094118
0.556863 0.129412 0.101961
0.600000 0.152941 0.121569
0.650980 0.172549 0.129412
0.690196 0.188235 0.152941
0.725490 0.200000 0.156863
0.780392 0.223529 0.176471
0.815686 0.247059 0.196078
0.858824 0.262745 0.219608
0.890196 0.282353 0.235294
0.933333 0.309804 0.258824
0.976471 0.329412 0.274510
0.996078 0.349020 0.301961
0.011765 0.027451 0.023529
0.031373 0.027451 0.011765
0.090196 0.039216 0.015686
0.141176 0.035294 0.007843
0.164706 0.043137 0.023529
0.235294 0.047059 0.031373
0.278431 0.054902 0.035294
0.329412 0.066667 0.043137
0.356863 0.070588 0.043137
0.407843 0.094118 0.058824
0.439216 0.098039 0.070588
0.486275 0.117647 0.086275
0.521569 0.129412 0.090196
0.568627 0.152941 0.101961
0.607843 0.168627 0.121569
0.647059 0.184314 0.145098
0.690196 0.207843 0.149020
0.725490 0.219608 0.164706
0.772549 0.247059 0.180392
0.811765 0.250980 0.188235
0.858824 0.274510 0.211765
0.894118 0.294118 0.243137
0.937255 0.313725 0.258824
0.976471 0.337255 0.286275
0.984314 0.356863 0.317647
0.015686 0.078431 0.027451
0.058824 0.074510 0.007843
0.113725 0.086275 0.015686
0.149020 0.074510 0.011765
0.188235 0.086275 0.031373
0.223529 0.094118 0.035294
0.274510 0.094118 0.043137
0.317647 0.098039 0.047059
0.356863 0.109804 0.050980
0.403922 0.121569 0.066667
0.439216 0.129412 0.078431
0.478431 0.141176 0.090196
0.517647 0.160784 0.090196
0.560784 0.176471 0.101961
0.592157 0.188235 0.129412
0.647059 0.203922 0.133333
0.686275 0.219608 0.156863
0.729412 0.239216 0.168627
0.772549 0.250980 0.192157
0.811765 0.270588 0.192157
0.854902 0.290196 0.219608
0.898039 0.305882 0.243137
0.929412 0.329412 0.270588
0.968627 0.345098 0.282353
0.996078 0.360784 0.309804
0.011765 0.133333 0.011765
0.054902 0.129412 0.003922
0.113725 0.129412 0.000000
0.152941 0.133333 0.007843
0.203922 0.121569 0.007843
0.235294 0.125490 0.039216
0.274510 0.133333 0.039216
0.317647 0.141176 0.050980
0.349020 0.152941 0.054902
0.396078 0.160784 0.066667
0.431373 0.164706 0.074510
0.474510 0.176471 0.086275
0.525490 0.188235 0.105882
0.560784 0.200000 0.117647
0.603922 0.207843 0.129412
0.647059 0.223529 0.141176
0.690196 0.243137 0.149020
0.733333 0.254902 0.172549
0.772549 0.270588 0.180392
0.807843 0.290196 0.200000
0.847059 0.305882 0.235294
0.894118 0.321569 0.239216
0.929412 0.337255 0.262745
0.964706 0.360784 0.290196
0.996078 0.380392 0.313725
0.027451 0.180392 0.007843
0.074510 0.176471 0.000000
0.109804 0.180392 0.000000
0.156863 0.180392 0.000000
0.207843 0.184314 0.000000
0.247059 0.180392 0.007843
0.286275 0.180392 0.011765
0.321569 0.184314 0.035294
0.360784 0.184314 0.054902
0.396078 0.196078 0.074510
0.435294 0.203922 0.090196
0.474510 0.211765 0.105882
0.517647 0.223529 0.109804
0.560784 0.231373 0.121569
0.600000 0.250980 0.133333
0.639216 0.258824 0.152941
0.686275 0.266667 0.172549
0.729412 0.282353 0.180392
0.772549 0.298039 0.196078
0.811765 0.309804 0.219608
0.854902 0.321569 0.227451
0.894118 0.337255 0.250980
0.937255 0.356863 0.278431
0.968627 0.376471 0.301961
0.992157 0.396078 0.313725
0.039216 0.235294 0.000000
0.078431 0.235294 0.000000
0.125490 0.235294 0.000000
0.164706 0.235294 0.000000
0.215686 0.231373 0.000000
0.258824 0.235294 0.000000
0.305882 0.231373 0.000000
0.341176 0.231373 0.000000
0.372549 0.227451 0.050980
0.403922 0.235294 0.070588
0.439216 0.243137 0.098039
0.474510 0.254902 0.117647
0.521569 0.270588 0.129412
0.560784 0.278431 0.137255
0.600000 0.286275 0.156863
0.647059 0.298039 0.172549
0.690196 0.301961 0.172549
0.725490 0.313725 0.192157
0.772549 0.329412 0.211765
0.811765 0.337255 0.223529
0.862745 0.349020 0.239216
0.901961 0.364706 0.262745
0.937255 0.384314 0.278431
0.976471 0.407843 0.301961
0.988235 0.431373 0.313725
0.047059 0.270588 0.003922
0.098039 0.274510 0.003922
0.125490 0.282353 0.003922
0.188235 0.278431 0.011765
0.211765 0.278431 0.000000
0.250980 0.282353 0.000000
0.309804 0.278431 0.000000
0.349020 0.278431 0.000000
0.384314 0.278431 0.007843
0.415686 0.278431 0.027451
0.450980 0.282353 0.074510
0.482353 0.290196 0.121569
0.517647 0.309804 0.152941
0.552941 0.309804 0.149020
0.603922 0.325490 0.156863
0.643137 0.333333 0.172549
0.686275 0.341176 0.192157
0.729412 0.356863 0.207843
0.768627 0.360784 0.231373
0.815686 0.372549 0.239216
0.850980 0.384314 0.258824
0.894118 0.400000 0.274510
0.937255 0.407843 0.294118
0.976471 0.423529 0.313725
0.996078 0.447059 0.325490
0.058824 0.329412 0.003922
0.098039 0.329412 0.007843
0.121569 0.325490 0.003922
0.180392 0.325490 0.011765
0.215686 0.321569 0.003922
0.250980 0.329412 0.000000
0.301961 0.321569 0.000000
0.349020 0.329412 0.007843
0.392157 0.329412 0.000000
0.431373 0.329412 0.000000
0.454902 0.325490 0.023529
0.482353 0.329412 0.066667
0.517647 0.341176 0.125490
0.556863 0.352941 0.168627
0.596078 0.360784 0.172549
0.643137 0.364706 0.192157
0.682353 0.372549 0.203922
0.717647 0.388235 0.215686
0.764706 0.400000 0.239216
0.807843 0.403922 0.247059
0.854902 0.415686 0.266667
0.898039 0.431373 0.282353
0.929412 0.439216 0.290196
0.964706 0.454902 0.329412
1.000000 0.466667 0.341176
0.070588 0.364706 0.000000
0.098039 0.368627 0.011765
0.121569 0.380392 0.000000
0.168627 0.368627 0.003922
0.219608 0.372549 0.007843
0.262745 0.368627 0.003922
0.305882 0.372549 0.000000
0.345098 0.372549 0.000000
0.388235 0.368627 0.007843
0.427451 0.368627 0.003922
0.462745 0.372549 0.000000
0.494118 0.372549 0.015686
0.533333 0.372549 0.058824
0.568627 0.380392 0.129412
0.603922 0.388235 0.168627
0.639216 0.403922 0.215686
0.678431 0.411765 0.219608
0.721569 0.415686 0.235294
0.764706 0.427451 0.243137
0.807843 0.439216 0.266667
0.847059 0.450980 0.278431
0.882353 0.458824 0.286275
0.929412 0.470588 0.309804
0.968627 0.490196 0.345098
0.996078 0.494118 0.341176
0.074510 0.419608 0.011765
0.113725 0.407843 0.003922
0.137255 0.415686 0.007843
0.180392 0.407843 0.003922
0.215686 0.419608 0.000000
0.250980 0.411765 0.000000
0.301961 0.415686 0.000000
0.341176 0.415686 0.003922
0.380392 0.411765 0.007843
0.419608 0.411765 0.007843
0.458824 0.415686 0.003922
0.501961 0.419608 0.007843
0.529412 0.419608 0.000000
0.568627 0.415686 0.050980
0.611765 0.419608 0.121569
0.647059 0.431373 0.168627
0.686275 0.450980 0.207843
0.721569 0.458824 0.250980
0.760784 0.466667 0.258824
0.811765 0.474510 0.274510
0.850980 0.482353 0.294118
0.890196 0.494118 0.313725
0.929412 0.505882 0.325490
0.964706 0.517647 0.345098
0.996078 0.529412 0.372549
0.074510 0.470588 0.007843
0.098039 0.462745 0.000000
0.137255 0.466667 0.000000
0.172549 0.466667 0.000000
0.211765 0.466667 0.000000
0.258824 0.466667 0.003922
0.298039 0.466667 0.003922
0.345098 0.466667 0.000000
0.372549 0.466667 0.000000
0.415686 0.466667 0.003922
