lut_library_archive/removed_20260629/50个风景lut/50个风景lut29.cube
# 版权归凌孟成所有，侵权必究
TITLE "Jungle LUT #29"
#LUT size
LUT_3D_SIZE 25
#LUT data points
0.000000 0.003922 0.000000
0.000000 0.000000 0.000000
0.019608 0.000000 0.000000
0.058824 0.000000 0.000000
0.094118 0.000000 0.000000
0.117647 0.000000 0.000000
0.149020 0.000000 0.000000
0.180392 0.000000 0.000000
0.203922 0.003922 0.000000
0.239216 0.000000 0.000000
0.278431 0.000000 0.000000
0.317647 0.000000 0.000000
0.356863 0.000000 0.000000
0.396078 0.000000 0.000000
0.450980 0.000000 0.000000
0.494118 0.000000 0.003922
0.549020 0.000000 0.000000
0.603922 0.000000 0.007843
0.658824 0.003922 0.003922
0.709804 0.000000 0.003922
0.760784 0.000000 0.003922
0.811765 0.000000 0.000000
0.878431 0.000000 0.000000
0.929412 0.000000 0.000000
0.972549 0.007843 0.000000
0.003922 0.000000 0.000000
0.000000 0.003922 0.000000
0.027451 0.007843 0.000000
0.058824 0.003922 0.000000
0.090196 0.007843 0.003922
0.109804 0.000000 0.000000
0.145098 0.007843 0.000000
0.180392 0.000000 0.007843
0.207843 0.007843 0.003922
0.239216 0.003922 0.000000
0.278431 0.003922 0.003922
0.317647 0.003922 0.007843
0.352941 0.000000 0.000000
0.400000 0.003922 0.003922
0.450980 0.003922 0.003922
0.505882 0.003922 0.000000
0.549020 0.000000 0.000000
0.596078 0.003922 0.000000
0.654902 0.000000 0.000000
0.717647 0.000000 0.003922
0.768627 0.000000 0.000000
0.823529 0.003922 0.000000
0.870588 0.003922 0.000000
0.921569 0.000000 0.000000
0.976471 0.000000 0.000000
0.007843 0.027451 0.003922
0.003922 0.031373 0.000000
0.043137 0.031373 0.003922
0.054902 0.027451 0.000000
0.086275 0.027451 0.000000
0.117647 0.015686 0.011765
0.141176 0.027451 0.003922
0.172549 0.027451 0.000000
0.207843 0.035294 0.000000
0.243137 0.035294 0.003922
0.282353 0.035294 0.000000
0.317647 0.031373 0.003922
0.360784 0.031373 0.000000
0.400000 0.027451 0.003922
0.450980 0.023529 0.003922
0.501961 0.015686 0.007843
0.545098 0.007843 0.000000
0.596078 0.003922 0.000000
0.650980 0.000000 0.007843
0.705882 0.000000 0.003922
0.760784 0.000000 0.000000
0.815686 0.003922 0.003922
0.870588 0.003922 0.000000
0.941176 0.000000 0.003922
0.968627 0.000000 0.000000
0.007843 0.066667 0.000000
0.023529 0.054902 0.003922
0.047059 0.054902 0.000000
0.070588 0.054902 0.007843
0.082353 0.058824 0.003922
0.109804 0.054902 0.003922
0.137255 0.062745 0.007843
0.172549 0.062745 0.011765
0.203922 0.062745 0.007843
0.243137 0.062745 0.003922
0.278431 0.070588 0.007843
0.317647 0.070588 0.003922
0.356863 0.070588 0.011765
0.407843 0.066667 0.007843
0.450980 0.070588 0.003922
0.494118 0.066667 0.000000
0.541176 0.058824 0.000000
0.600000 0.054902 0.003922
0.654902 0.054902 0.000000
0.713725 0.039216 0.000000
0.768627 0.027451 0.011765
0.819608 0.015686 0.003922
0.870588 0.011765 0.003922
0.925490 0.003922 0.000000
0.984314 0.000000 0.007843
0.019608 0.090196 0.003922
0.039216 0.086275 0.000000
0.058824 0.094118 0.000000
0.090196 0.086275 0.007843
0.098039 0.090196 0.000000
0.117647 0.086275 0.000000
0.145098 0.086275 0.003922
0.172549 0.090196 0.007843
0.207843 0.098039 0.015686
0.239216 0.098039 0.011765
0.278431 0.098039 0.007843
0.317647 0.101961 0.019608
0.364706 0.105882 0.019608
0.403922 0.105882 0.015686
0.447059 0.105882 0.007843
0.498039 0.105882 0.003922
0.545098 0.109804 0.000000
0.596078 0.113725 0.000000
0.650980 0.105882 0.000000
0.709804 0.101961 0.000000
0.764706 0.101961 0.000000
0.827451 0.101961 0.000000
0.878431 0.098039 0.000000
0.937255 0.090196 0.000000
0.980392 0.090196 0.000000
0.043137 0.117647 0.000000
0.058824 0.117647 0.003922
0.082353 0.117647 0.003922
0.101961 0.113725 0.000000
0.117647 0.117647 0.007843
0.129412 0.113725 0.000000
0.156863 0.121569 0.007843
0.184314 0.125490 0.011765
0.215686 0.121569 0.019608
0.243137 0.125490 0.015686
0.278431 0.133333 0.027451
0.313725 0.145098 0.027451
0.356863 0.141176 0.023529
0.403922 0.145098 0.019608
0.458824 0.145098 0.007843
0.501961 0.149020 0.007843
0.556863 0.149020 0.011765
0.600000 0.149020 0.003922
0.654902 0.149020 0.000000
0.705882 0.156863 0.000000
0.772549 0.156863 0.000000
0.823529 0.156863 0.000000
0.878431 0.152941 0.000000
0.925490 0.149020 0.011765
0.980392 0.152941 0.007843
0.066667 0.152941 0.003922
0.082353 0.145098 0.000000
0.090196 0.156863 0.000000
0.121569 0.149020 0.015686
0.117647 0.141176 0.000000
0.160784 0.152941 0.000000
0.164706 0.149020 0.003922
0.192157 0.156863 0.000000
0.215686 0.156863 0.000000
0.247059 0.160784 0.007843
0.274510 0.164706 0.019608
0.317647 0.168627 0.027451
0.360784 0.172549 0.031373
0.407843 0.176471 0.027451
0.458824 0.176471 0.027451
0.501961 0.180392 0.023529
0.552941 0.188235 0.027451
0.611765 0.192157 0.019608
0.658824 0.196078 0.007843
0.709804 0.203922 0.007843
0.764706 0.203922 0.000000
0.823529 0.203922 0.000000
0.878431 0.200000 0.003922
0.933333 0.207843 0.003922
0.996078 0.200000 0.003922
0.074510 0.184314 0.000000
0.082353 0.192157 0.000000
0.109804 0.176471 0.000000
0.129412 0.192157 0.007843
0.152941 0.184314 0.000000
0.164706 0.188235 0.000000
0.184314 0.192157 0.000000
0.203922 0.192157 0.000000
0.231373 0.192157 0.000000
0.250980 0.196078 0.003922
0.282353 0.196078 0.011765
0.321569 0.200000 0.019608
0.356863 0.207843 0.031373
0.400000 0.207843 0.047059
0.454902 0.215686 0.035294
0.501961 0.227451 0.035294
0.552941 0.235294 0.027451
0.596078 0.235294 0.011765
0.662745 0.235294 0.011765
0.717647 0.239216 0.007843
0.776471 0.247059 0.000000
0.831373 0.243137 0.003922
0.882353 0.247059 0.015686
0.933333 0.254902 0.003922
0.988235 0.258824 0.000000
0.094118 0.211765 0.000000
0.105882 0.219608 0.000000
0.121569 0.231373 0.003922
0.152941 0.211765 0.000000
0.180392 0.223529 0.003922
0.188235 0.227451 0.000000
0.211765 0.223529 0.000000
0.223529 0.227451 0.000000
0.235294 0.227451 0.003922
0.266667 0.231373 0.007843
0.298039 0.235294 0.003922
0.337255 0.235294 0.003922
0.372549 0.235294 0.007843
0.411765 0.250980 0.039216
0.447059 0.250980 0.050980
0.498039 0.262745 0.058824
0.552941 0.270588 0.050980
0.611765 0.282353 0.047059
0.658824 0.274510 0.027451
0.709804 0.282353 0.019608
0.768627 0.286275 0.015686
0.827451 0.298039 0.007843
0.874510 0.294118 0.003922
0.929412 0.294118 0.007843
0.976471 0.305882 0.003922
0.117647 0.254902 0.000000
0.129412 0.254902 0.000000
0.145098 0.258824 0.007843
0.160784 0.258824 0.003922
0.184314 0.258824 0.000000
0.211765 0.258824 0.000000
0.227451 0.262745 0.000000
0.247059 0.266667 0.000000
0.270588 0.266667 0.003922
0.286275 0.266667 0.000000
0.309804 0.270588 0.000000
0.341176 0.274510 0.000000
0.388235 0.286275 0.000000
0.423529 0.290196 0.007843
0.462745 0.294118 0.027451
0.505882 0.294118 0.043137
0.552941 0.301961 0.058824
0.600000 0.313725 0.054902
0.662745 0.313725 0.047059
0.721569 0.317647 0.047059
0.776471 0.333333 0.035294
0.827451 0.341176 0.035294
0.878431 0.341176 0.027451
0.937255 0.345098 0.035294
0.984314 0.356863 0.031373
0.137255 0.301961 0.003922
0.145098 0.305882 0.000000
0.160784 0.305882 0.000000
0.184314 0.313725 0.003922
0.207843 0.301961 0.000000
0.235294 0.309804 0.000000
0.250980 0.301961 0.000000
0.266667 0.309804 0.000000
0.298039 0.309804 0.000000
0.317647 0.313725 0.000000
0.337255 0.317647 0.000000
0.352941 0.321569 0.003922
0.396078 0.321569 0.011765
0.435294 0.325490 0.000000
0.478431 0.329412 0.003922
0.521569 0.341176 0.007843
0.564706 0.349020 0.035294
0.611765 0.352941 0.054902
0.666667 0.360784 0.070588
0.717647 0.368627 0.062745
0.776471 0.376471 0.054902
0.827451 0.376471 0.050980
0.886275 0.388235 0.054902
0.937255 0.400000 0.054902
0.988235 0.400000 0.070588
0.168627 0.341176 0.000000
0.172549 0.345098 0.003922
0.176471 0.352941 0.000000
0.200000 0.352941 0.000000
0.231373 0.349020 0.000000
0.254902 0.345098 0.000000
0.278431 0.352941 0.000000
0.298039 0.345098 0.007843
0.317647 0.352941 0.003922
0.341176 0.352941 0.000000
0.364706 0.360784 0.000000
0.388235 0.360784 0.003922
0.419608 0.368627 0.000000
0.450980 0.372549 0.000000
0.490196 0.380392 0.000000
0.537255 0.380392 0.000000
0.580392 0.384314 0.000000
0.627451 0.392157 0.007843
0.670588 0.400000 0.027451
0.717647 0.415686 0.070588
0.772549 0.419608 0.082353
0.831373 0.423529 0.082353
0.882353 0.431373 0.082353
0.933333 0.439216 0.070588
0.992157 0.439216 0.090196
0.180392 0.396078 0.000000
0.192157 0.392157 0.000000
0.211765 0.400000 0.007843
0.227451 0.392157 0.000000
0.254902 0.396078 0.011765
0.270588 0.396078 0.000000
0.298039 0.392157 0.007843
0.325490 0.396078 0.003922
0.349020 0.396078 0.003922
0.368627 0.400000 0.000000
0.392157 0.403922 0.000000
0.419608 0.407843 0.000000
0.443137 0.407843 0.000000
0.470588 0.415686 0.000000
0.501961 0.419608 0.000000
0.549020 0.427451 0.011765
0.588235 0.427451 0.003922
0.639216 0.443137 0.007843
0.682353 0.439216 0.003922
0.733333 0.450980 0.027451
0.780392 0.462745 0.058824
0.827451 0.474510 0.098039
0.882353 0.470588 0.109804
0.929412 0.490196 0.098039
0.976471 0.490196 0.113725
0.215686 0.443137 0.000000
0.219608 0.443137 0.000000
0.231373 0.443137 0.000000
0.250980 0.447059 0.011765
0.278431 0.447059 0.000000
0.305882 0.439216 0.000000
0.329412 0.439216 0.000000
0.352941 0.443137 0.000000
0.372549 0.447059 0.000000
0.396078 0.447059 0.000000
0.415686 0.450980 0.000000
0.439216 0.450980 0.000000
0.462745 0.450980 0.007843
0.490196 0.466667 0.000000
0.525490 0.466667 0.000000
0.552941 0.466667 0.000000
0.603922 0.482353 0.000000
0.650980 0.478431 0.000000
0.701961 0.490196 0.003922
0.745098 0.494118 0.007843
0.788235 0.501961 0.000000
0.835294 0.509804 0.054902
0.894118 0.513725 0.101961
0.929412 0.521569 0.133333
0.980392 0.533333 0.149020
0.239216 0.498039 0.011765
0.254902 0.494118 0.015686
0.250980 0.494118 0.000000
0.266667 0.498039 0.003922
0.294118 0.490196 0.000000
0.317647 0.494118 0.000000
0.352941 0.494118 0.000000
0.376471 0.498039 0.000000
0.407843 0.494118 0.000000
0.431373 0.498039 0.000000
0.454902 0.498039 0.000000
0.482353 0.501961 0.007843
0.498039 0.509804 0.003922
0.521569 0.509804 0.000000
0.545098 0.509804 0.000000
0.584314 0.517647 0.000000
0.615686 0.521569 0.003922
0.654902 0.529412 0.000000
0.701961 0.537255 0.003922
0.749020 0.537255 0.003922
0.807843 0.552941 0.000000
0.850980 0.556863 0.003922
0.894118 0.564706 0.047059
0.941176 0.568627 0.113725
0.984314 0.576471 0.156863
0.270588 0.556863 0.003922
0.282353 0.552941 0.000000
0.294118 0.556863 0.003922
0.305882 0.552941 0.000000
0.325490 0.552941 0.007843
0.345098 0.545098 0.000000
0.380392 0.545098 0.003922
0.407843 0.552941 0.007843
0.439216 0.549020 0.003922
0.462745 0.552941 0.000000
0.486275 0.552941 0.000000
0.505882 0.556863 0.000000
0.533333 0.560784 0.003922
0.556863 0.564706 0.003922
0.576471 0.568627 0.003922
0.607843 0.576471 0.015686
0.643137 0.572549 0.007843
0.678431 0.576471 0.000000
0.717647 0.584314 0.000000
0.764706 0.592157 0.000000
0.811765 0.596078 0.000000
0.854902 0.600000 0.003922
0.898039 0.603922 0.011765
0.945098 0.607843 0.039216
0.992157 0.619608 0.125490
0.298039 0.611765 0.000000
0.305882 0.600000 0.000000
0.309804 0.607843 0.007843
0.333333 0.592157 0.000000
0.349020 0.603922 0.000000
0.368627 0.607843 0.000000
0.396078 0.603922 0.007843
0.431373 0.600000 0.003922
0.462745 0.603922 0.007843
0.490196 0.603922 0.000000
0.513725 0.603922 0.003922
0.541176 0.607843 0.003922
0.556863 0.611765 0.003922
0.584314 0.611765 0.000000
0.611765 0.615686 0.003922
0.635294 0.619608 0.000000
0.670588 0.619608 0.000000
0.698039 0.627451 0.000000
0.729412 0.631373 0.000000
0.776471 0.639216 0.003922
0.819608 0.643137 0.003922
0.870588 0.647059 0.000000
0.913725 0.650980 0.000000
0.956863 0.654902 0.011765
1.000000 0.658824 0.066667
0.313725 0.654902 0.000000
0.341176 0.658824 0.015686
0.352941 0.654902 0.003922
0.356863 0.662745 0.000000
0.368627 0.654902 0.000000
0.400000 0.658824 0.000000
0.427451 0.658824 0.000000
0.462745 0.654902 0.000000
0.486275 0.654902 0.000000
0.513725 0.650980 0.000000
0.541176 0.654902 0.003922
0.568627 0.658824 0.000000
0.584314 0.658824 0.000000
0.615686 0.662745 0.003922
0.639216 0.662745 0.000000
0.670588 0.662745 0.000000
0.701961 0.670588 0.003922
0.725490 0.670588 0.000000
0.760784 0.682353 0.007843
0.784314 0.678431 0.000000
0.831373 0.694118 0.000000
0.862745 0.694118 0.000000
0.925490 0.690196 0.000000
0.952941 0.694118 0.000000
1.000000 0.705882 0.000000
0.356863 0.705882 0.000000
0.368627 0.709804 0.007843
0.368627 0.713725 0.000000
0.396078 0.713725 0.000000
0.403922 0.705882 0.007843
0.423529 0.709804 0.003922
0.450980 0.705882 0.000000
0.482353 0.709804 0.000000
0.509804 0.709804 0.000000
0.541176 0.713725 0.000000
0.564706 0.713725 0.000000
0.592157 0.709804 0.000000
0.615686 0.709804 0.000000
0.643137 0.713725 0.000000
0.670588 0.713725 0.000000
0.698039 0.721569 0.000000
0.717647 0.717647 0.000000
0.756863 0.721569 0.003922
0.772549 0.729412 0.000000
0.811765 0.737255 0.000000
0.835294 0.725490 0.000000
0.878431 0.741176 0.000000
0.917647 0.741176 0.007843
0.960784 0.745098 0.003922
1.000000 0.745098 0.000000
0.384314 0.760784 0.000000
0.400000 0.756863 0.000000
0.403922 0.764706 0.000000
0.419608 0.756863 0.000000
0.427451 0.764706 0.000000
0.458824 0.760784 0.000000
0.482353 0.760784 0.000000
0.513725 0.760784 0.000000
0.541176 0.756863 0.003922
0.572549 0.756863 0.000000
0.603922 0.760784 0.000000
0.627451 0.756863 0.000000
0.650980 0.756863 0.000000
0.674510 0.756863 0.000000
0.698039 0.760784 0.000000
0.725490 0.764706 0.007843
0.752941 0.764706 0.000000
0.772549 0.776471 0.000000
0.803922 0.780392 0.000000
0.835294 0.784314 0.000000
0.866667 0.780392 0.007843
0.901961 0.776471 0.000000
0.933333 0.788235 0.000000
0.976471 0.792157 0.003922
1.000000 0.792157 0.007843
0.431373 0.815686 0.003922
0.431373 0.815686 0.000000
0.439216 0.811765 0.000000
0.454902 0.815686 0.000000
0.466667 0.811765 0.000000
0.490196 0.819608 0.000000
0.513725 0.807843 0.000000
0.541176 0.807843 0.000000
0.556863 0.811765 0.000000
0.592157 0.807843 0.000000
0.631373 0.807843 0.000000
0.654902 0.807843 0.000000
0.682353 0.815686 0.000000
0.705882 0.815686 0.000000
0.725490 0.811765 0.000000
0.760784 0.815686 0.000000
0.772549 0.823529 0.000000
0.803922 0.819608 0.000000
0.827451 0.823529 0.000000
0.858824 0.831373 0.000000
0.894118 0.831373 0.003922
0.913725 0.831373 0.003922
0.945098 0.827451 0.000000
0.976471 0.831373 0.000000
1.000000 0.843137 0.000000
0.450980 0.858824 0.000000
0.458824 0.866667 0.007843
0.478431 0.858824 0.007843
0.486275 0.862745 0.000000
0.494118 0.862745 0.000000
0.521569 0.862745 0.007843
0.541176 0.858824 0.000000
0.564706 0.862745 0.000000
0.600000 0.862745 0.003922
0.627451 0.862745 0.000000
0.658824 0.858824 0.000000
0.686275 0.858824 0.000000
0.705882 0.862745 0.000000
0.729412 0.862745 0.003922
0.760784 0.862745 0.000000
0.772549 0.866667 0.003922
0.803922 0.866667 0.003922
0.827451 0.866667 0.003922
0.854902 0.870588 0.003922
0.882353 0.874510 0.000000
0.909804 0.870588 0.000000
0.945098 0.874510 0.000000
0.972549 0.874510 0.000000
0.984314 0.874510 0.007843
0.996078 0.882353 0.003922
0.490196 0.909804 0.007843
0.505882 0.909804 0.000000
0.505882 0.905882 0.000000
0.521569 0.909804 0.000000
0.529412 0.901961 0.007843
0.549020 0.909804 0.000000
0.560784 0.909804 0.000000
0.588235 0.909804 0.000000
0.611765 0.909804 0.000000
0.647059 0.913725 0.000000
0.678431 0.905882 0.000000
0.705882 0.909804 0.000000
0.737255 0.905882 0.000000
0.764706 0.905882 0.003922
0.764706 0.905882 0.003922
0.807843 0.909804 0.003922
0.835294 0.913725 0.000000
0.850980 0.917647 0.000000
0.866667 0.913725 0.000000
0.898039 0.921569 0.011765
0.933333 0.917647 0.007843
0.968627 0.913725 0.000000
0.988235 0.921569 0.000000
0.992157 0.929412 0.007843
1.000000 0.917647 0.003922
0.529412 0.952941 0.000000
0.533333 0.956863 0.000000
0.545098 0.952941 0.000000
0.549020 0.956863 0.003922
0.564706 0.956863 0.000000
0.568627 0.964706 0.000000
0.588235 0.956863 0.000000
0.619608 0.952941 0.000000
0.643137 0.952941 0.000000
0.674510 0.952941 0.003922
0.701961 0.952941 0.000000
0.741176 0.949020 0.000000
0.776471 0.952941 0.007843
0.784314 0.952941 0.011765
0.815686 0.952941 0.003922
0.835294 0.949020 0.000000
0.858824 0.956863 0.007843
0.874510 0.949020 0.000000
0.890196 0.960784 0.000000
0.925490 0.964706 0.000000
0.960784 0.960784 0.003922
0.972549 0.964706 0.011765
1.000000 0.964706 0.000000
0.996078 0.956863 0.000000
1.000000 0.964706 0.000000
0.560784 0.996078 0.000000
0.564706 1.000000 0.000000
0.560784 0.996078 0.000000
0.588235 0.992157 0.000000
0.584314 0.996078 0.003922
0.603922 1.000000 0.003922
0.623529 0.996078 0.000000
0.639216 0.996078 0.003922
0.670588 0.992157 0.003922
0.694118 0.996078 0.000000
0.725490 1.000000 0.000000
0.752941 1.000000 0.000000
0.792157 0.992157 0.000000
0.815686 0.992157 0.000000
0.831373 0.992157 0.000000
0.854902 0.992157 0.000000
0.878431 0.992157 0.003922
0.898039 0.996078 0.007843
0.921569 1.000000 0.000000
0.949020 1.000000 0.000000
0.972549 1.000000 0.003922
0.992157 0.996078 0.000000
0.996078 1.000000 0.000000
1.000000 1.000000 0.000000
1.000000 0.996078 0.000000
0.000000 0.000000 0.007843
0.000000 0.000000 0.007843
0.023529 0.000000 0.007843
0.058824 0.000000 0.007843
0.098039 0.000000 0.015686
0.121569 0.000000 0.019608
0.152941 0.000000 0.011765
0.176471 0.000000 0.019608
0.215686 0.000000 0.019608
0.250980 0.000000 0.019608
0.290196 0.000000 0.023529
0.329412 0.000000 0.027451
0.368627 0.000000 0.019608
0.411765 0.000000 0.019608
0.454902 0.000000 0.019608
0.498039 0.003922 0.019608
0.556863 0.000000 0.023529
0.607843 0.003922 0.015686
0.654902 0.003922 0.011765
0.709804 0.003922 0.015686
0.768627 0.000000 0.015686
0.823529 0.000000 0.003922
0.878431 0.000000 0.000000
0.925490 0.003922 0.007843
0.984314 0.000000 0.000000
0.003922 0.000000 0.019608
0.003922 0.003922 0.011765
0.035294 0.000000 0.011765
0.062745 0.003922 0.000000
0.086275 0.007843 0.015686
0.113725 0.011765 0.015686
0.145098 0.003922 0.011765
0.180392 0.003922 0.015686
0.207843 0.003922 0.019608
0.243137 0.007843 0.015686
0.282353 0.000000 0.015686
0.333333 0.000000 0.023529
0.372549 0.000000 0.023529
0.415686 0.000000 0.019608
0.454902 0.000000 0.019608
0.505882 0.000000 0.015686
0.549020 0.000000 0.011765
0.611765 0.000000 0.011765
0.658824 0.003922 0.011765
0.713725 0.000000 0.015686
0.764706 0.003922 0.007843
0.823529 0.000000 0.003922
0.866667 0.000000 0.000000
0.933333 0.000000 0.000000
0.992157 0.000000 0.003922
0.000000 0.031373 0.000000
0.000000 0.035294 0.000000
0.035294 0.031373 0.015686
0.058824 0.031373 0.007843
0.086275 0.031373 0.027451
0.109804 0.035294 0.011765
0.145098 0.031373 0.015686
0.180392 0.031373 0.019608
0.211765 0.035294 0.023529
0.247059 0.039216 0.019608
0.282353 0.027451 0.019608
0.329412 0.023529 0.023529
0.368627 0.015686 0.015686
0.407843 0.015686 0.023529
0.443137 0.011765 0.023529
0.494118 0.003922 0.027451
0.552941 0.000000 0.023529
0.603922 0.000000 0.019608
0.658824 0.000000 0.019608
0.709804 0.000000 0.003922
0.768627 0.003922 0.000000
0.819608 0.000000 0.000000
0.878431 0.000000 0.000000
0.929412 0.000000 0.007843
0.972549 0.007843 0.000000
0.000000 0.058824 0.015686
0.011765 0.058824 0.011765
0.050980 0.058824 0.007843
0.058824 0.058824 0.027451
0.094118 0.062745 0.019608
0.113725 0.062745 0.027451
0.141176 0.062745 0.035294
0.176471 0.062745 0.031373
0.207843 0.062745 0.023529
0.247059 0.062745 0.031373
0.282353 0.058824 0.023529
0.321569 0.058824 0.023529
0.364706 0.062745 0.039216
0.403922 0.066667 0.023529
0.443137 0.058824 0.023529
0.501961 0.050980 0.031373
0.549020 0.043137 0.019608
0.607843 0.039216 0.019608
0.650980 0.019608 0.011765
0.709804 0.015686 0.015686
0.764706 0.003922 0.007843
0.823529 0.000000 0.011765
0.870588 0.003922 0.000000
0.933333 0.003922 0.003922
0.976471 0.000000 0.011765
0.003922 0.090196 0.007843
0.023529 0.082353 0.000000
0.054902 0.090196 0.015686
0.074510 0.086275 0.003922
0.098039 0.094118 0.015686
0.121569 0.094118 0.023529
0.145098 0.094118 0.023529
0.168627 0.094118 0.031373
0.207843 0.094118 0.039216
0.243137 0.098039 0.035294
0.278431 0.098039 0.035294
0.317647 0.101961 0.031373
0.368627 0.098039 0.039216
0.403922 0.101961 0.039216
0.443137 0.101961 0.027451
0.498039 0.101961 0.023529
0.552941 0.101961 0.027451
0.600000 0.098039 0.023529
0.658824 0.094118 0.023529
0.713725 0.090196 0.027451
0.772549 0.078431 0.007843
0.823529 0.086275 0.007843
0.874510 0.082353 0.000000
0.929412 0.074510 0.000000
0.980392 0.074510 0.003922
0.027451 0.117647 0.007843
0.043137 0.121569 0.007843
0.070588 0.121569 0.011765
0.098039 0.121569 0.019608
0.105882 0.117647 0.011765
0.125490 0.121569 0.011765
0.149020 0.121569 0.019608
0.188235 0.125490 0.027451
0.207843 0.129412 0.035294
0.239216 0.129412 0.047059
0.278431 0.129412 0.047059
0.313725 0.133333 0.043137
0.356863 0.137255 0.039216
0.403922 0.141176 0.035294
0.454902 0.141176 0.035294
0.501961 0.145098 0.039216
0.560784 0.141176 0.031373
0.611765 0.145098 0.035294
0.662745 0.145098 0.027451
0.713725 0.141176 0.011765
0.768627 0.141176 0.000000
0.827451 0.145098 0.007843
0.890196 0.149020 0.003922
0.933333 0.145098 0.003922
0.988235 0.152941 0.000000
0.031373 0.149020 0.007843
0.066667 0.152941 0.000000
0.086275 0.149020 0.000000
0.109804 0.156863 0.015686
0.129412 0.145098 0.007843
0.149020 0.149020 0.000000
0.172549 0.156863 0.011765
0.188235 0.156863 0.011765
0.215686 0.160784 0.023529
0.243137 0.164706 0.035294
0.278431 0.164706 0.047059
0.317647 0.160784 0.058824
0.352941 0.168627 0.058824
0.407843 0.176471 0.050980
0.450980 0.180392 0.050980
0.501961 0.188235 0.043137
0.556863 0.188235 0.047059
0.611765 0.188235 0.039216
0.658824 0.192157 0.027451
0.713725 0.192157 0.023529
0.768627 0.196078 0.011765
0.831373 0.196078 0.015686
0.886275 0.192157 0.027451
0.929412 0.200000 0.019608
0.980392 0.200000 0.015686
0.070588 0.184314 0.003922
0.078431 0.188235 0.000000
0.090196 0.192157 0.007843
0.121569 0.184314 0.000000
0.152941 0.188235 0.011765
0.160784 0.184314 0.003922
0.188235 0.184314 0.003922
0.211765 0.184314 0.003922
0.235294 0.192157 0.015686
0.254902 0.196078 0.027451
0.290196 0.200000 0.039216
0.325490 0.200000 0.047059
0.360784 0.203922 0.062745
0.403922 0.207843 0.070588
0.458824 0.215686 0.062745
0.501961 0.223529 0.054902
0.552941 0.223529 0.043137
0.603922 0.235294 0.047059
0.658824 0.235294 0.050980
0.713725 0.239216 0.035294
0.768627 0.239216 0.023529
0.827451 0.247059 0.027451
0.878431 0.243137 0.011765
0.929412 0.247059 0.019608
0.980392 0.250980 0.027451
0.074510 0.219608 0.007843
0.094118 0.227451 0.000000
0.121569 0.219608 0.000000
0.133333 0.227451 0.000000
0.164706 0.223529 0.000000
0.184314 0.219608 0.000000
0.207843 0.219608 0.000000
0.223529 0.227451 0.000000
0.239216 0.231373 0.000000
0.266667 0.231373 0.000000
0.298039 0.231373 0.011765
0.333333 0.235294 0.023529
0.376471 0.235294 0.039216
0.411765 0.247059 0.058824
0.454902 0.250980 0.066667
0.501961 0.258824 0.074510
0.552941 0.266667 0.066667
0.607843 0.266667 0.058824
0.666667 0.278431 0.054902
0.717647 0.278431 0.043137
0.768627 0.282353 0.039216
0.823529 0.290196 0.031373
0.878431 0.294118 0.027451
0.937255 0.298039 0.035294
0.980392 0.298039 0.031373
0.101961 0.262745 0.003922
0.109804 0.262745 0.000000
0.129412 0.270588 0.000000
0.149020 0.266667 0.000000
0.180392 0.262745 0.000000
0.203922 0.262745 0.000000
0.227451 0.262745 0.000000
0.243137 0.262745 0.000000
0.270588 0.266667 0.003922
0.294118 0.266667 0.000000
0.321569 0.270588 0.000000
0.349020 0.274510 0.003922
0.384314 0.278431 0.007843
0.419608 0.282353 0.023529
0.466667 0.286275 0.050980
0.509804 0.294118 0.070588
0.556863 0.301961 0.082353
0.607843 0.309804 0.074510
0.666667 0.317647 0.066667
0.725490 0.321569 0.058824
0.776471 0.333333 0.058824
0.831373 0.341176 0.058824
0.882353 0.341176 0.054902
0.941176 0.341176 0.047059
0.988235 0.349020 0.047059
0.121569 0.305882 0.000000
0.137255 0.301961 0.003922
0.156863 0.309804 0.000000
0.172549 0.309804 0.000000
0.203922 0.309804 0.000000
0.231373 0.305882 0.000000
0.254902 0.305882 0.000000
0.274510 0.305882 0.003922
0.298039 0.309804 0.000000
0.317647 0.313725 0.000000
