lut_library_archive/removed_20260629/50个风景lut/50个风景lut43.cube
# 版权归凌孟成所有，侵权必究
TITLE "Jungle LUT #43"
#LUT size
LUT_3D_SIZE 9
#LUT data points
0.000000 0.000000 0.000000
0.101961 0.000000 0.000000
0.219608 0.003922 0.000000
0.352941 0.000000 0.000000
0.509804 0.000000 0.007843
0.666667 0.000000 0.003922
0.827451 0.000000 0.000000
0.976471 0.000000 0.000000
0.996078 0.000000 0.000000
0.007843 0.101961 0.000000
0.105882 0.105882 0.003922
0.223529 0.105882 0.000000
0.356863 0.105882 0.000000
0.498039 0.109804 0.000000
0.666667 0.113725 0.003922
0.827451 0.098039 0.007843
0.972549 0.066667 0.003922
0.992157 0.019608 0.000000
0.000000 0.227451 0.000000
0.101961 0.223529 0.000000
0.227451 0.231373 0.003922
0.356863 0.239216 0.003922
0.509804 0.243137 0.003922
0.674510 0.254902 0.000000
0.827451 0.254902 0.000000
0.968627 0.250980 0.000000
1.000000 0.223529 0.000000
0.007843 0.364706 0.000000
0.086275 0.360784 0.007843
0.231373 0.368627 0.000000
0.360784 0.376471 0.003922
0.509804 0.384314 0.000000
0.662745 0.388235 0.003922
0.823529 0.396078 0.000000
0.968627 0.388235 0.003922
1.000000 0.372549 0.003922
0.000000 0.529412 0.000000
0.003922 0.537255 0.003922
0.235294 0.525490 0.000000
0.376471 0.525490 0.000000
0.525490 0.525490 0.000000
0.670588 0.525490 0.003922
0.827451 0.541176 0.000000
0.960784 0.533333 0.000000
1.000000 0.513725 0.000000
0.007843 0.698039 0.007843
0.003922 0.694118 0.000000
0.192157 0.698039 0.000000
0.380392 0.694118 0.000000
0.541176 0.686275 0.000000
0.686275 0.686275 0.000000
0.839216 0.682353 0.003922
0.956863 0.666667 0.000000
1.000000 0.647059 0.007843
0.000000 0.823529 0.000000
0.003922 0.819608 0.000000
0.113725 0.823529 0.003922
0.337255 0.823529 0.000000
0.498039 0.823529 0.000000
0.662745 0.815686 0.003922
0.807843 0.803922 0.000000
0.941176 0.800000 0.000000
0.996078 0.776471 0.000000
0.003922 0.929412 0.000000
0.003922 0.937255 0.015686
0.000000 0.925490 0.000000
0.294118 0.929412 0.007843
0.474510 0.933333 0.000000
0.619608 0.925490 0.000000
0.768627 0.917647 0.000000
0.917647 0.917647 0.000000
0.996078 0.901961 0.000000
0.000000 1.000000 0.000000
0.000000 0.996078 0.000000
0.000000 1.000000 0.000000
0.176471 0.992157 0.000000
0.411765 0.996078 0.000000
0.568627 0.996078 0.003922
0.725490 0.996078 0.003922
0.866667 0.996078 0.000000
0.992157 1.000000 0.011765
0.000000 0.003922 0.109804
0.125490 0.000000 0.109804
0.231373 0.000000 0.109804
0.364706 0.000000 0.105882
0.505882 0.000000 0.082353
0.666667 0.000000 0.074510
0.831373 0.000000 0.019608
0.976471 0.000000 0.000000
0.996078 0.000000 0.007843
0.007843 0.101961 0.101961
0.109804 0.101961 0.105882
0.223529 0.098039 0.101961
0.352941 0.094118 0.094118
0.505882 0.082353 0.074510
0.670588 0.054902 0.050980
0.835294 0.015686 0.007843
0.980392 0.003922 0.003922
0.988235 0.003922 0.007843
0.000000 0.223529 0.086275
0.086275 0.235294 0.082353
0.219608 0.227451 0.082353
0.356863 0.223529 0.074510
0.513725 0.235294 0.054902
0.670588 0.239216 0.007843
0.827451 0.231373 0.000000
0.968627 0.223529 0.000000
1.000000 0.200000 0.000000
0.000000 0.368627 0.031373
0.031373 0.364706 0.039216
0.223529 0.360784 0.031373
0.360784 0.356863 0.003922
0.521569 0.368627 0.000000
0.674510 0.384314 0.003922
0.839216 0.396078 0.003922
0.976471 0.384314 0.000000
0.996078 0.368627 0.007843
0.011765 0.521569 0.003922
0.000000 0.521569 0.000000
0.207843 0.521569 0.000000
0.376471 0.521569 0.003922
0.529412 0.521569 0.000000
0.674510 0.525490 0.000000
0.827451 0.529412 0.000000
0.968627 0.529412 0.000000
0.992157 0.505882 0.000000
0.000000 0.690196 0.000000
0.007843 0.690196 0.003922
0.164706 0.686275 0.000000
0.364706 0.686275 0.007843
0.533333 0.682353 0.000000
0.682353 0.682353 0.003922
0.827451 0.682353 0.000000
0.952941 0.662745 0.000000
1.000000 0.643137 0.000000
0.000000 0.815686 0.000000
0.000000 0.819608 0.003922
0.039216 0.823529 0.000000
0.329412 0.819608 0.003922
0.509804 0.815686 0.003922
0.662745 0.811765 0.000000
0.803922 0.811765 0.000000
0.945098 0.800000 0.000000
1.000000 0.768627 0.000000
0.000000 0.929412 0.000000
0.000000 0.933333 0.011765
0.000000 0.933333 0.007843
0.286275 0.921569 0.000000
0.458824 0.929412 0.000000
0.623529 0.925490 0.000000
0.768627 0.917647 0.000000
0.913725 0.913725 0.000000
0.996078 0.901961 0.000000
0.000000 1.000000 0.011765
0.000000 1.000000 0.000000
0.007843 1.000000 0.000000
0.152941 1.000000 0.007843
0.403922 0.996078 0.000000
0.564706 1.000000 0.000000
0.721569 1.000000 0.000000
0.870588 1.000000 0.000000
0.996078 1.000000 0.011765
0.000000 0.003922 0.227451
0.101961 0.007843 0.235294
0.231373 0.000000 0.231373
0.364706 0.000000 0.231373
0.513725 0.003922 0.247059
0.670588 0.000000 0.235294
0.839216 0.003922 0.196078
0.984314 0.000000 0.180392
0.992157 0.003922 0.164706
0.003922 0.098039 0.231373
0.098039 0.090196 0.235294
0.235294 0.086275 0.239216
0.368627 0.078431 0.223529
0.521569 0.011765 0.231373
0.678431 0.000000 0.211765
0.839216 0.003922 0.192157
0.992157 0.000000 0.184314
0.992157 0.000000 0.141176
0.007843 0.223529 0.231373
0.066667 0.231373 0.227451
0.223529 0.223529 0.223529
0.368627 0.215686 0.227451
0.521569 0.215686 0.215686
0.678431 0.203922 0.192157
0.835294 0.180392 0.188235
0.976471 0.172549 0.160784
0.996078 0.137255 0.133333
0.000000 0.360784 0.207843
0.003922 0.356863 0.207843
0.203922 0.364706 0.192157
0.356863 0.360784 0.196078
0.517647 0.364706 0.196078
0.674510 0.368627 0.176471
0.843137 0.368627 0.160784
0.976471 0.360784 0.129412
1.000000 0.345098 0.109804
0.000000 0.533333 0.160784
0.000000 0.521569 0.156863
0.156863 0.529412 0.160784
0.356863 0.517647 0.149020
0.521569 0.525490 0.129412
0.674510 0.521569 0.117647
0.831373 0.525490 0.101961
0.972549 0.509804 0.078431
1.000000 0.490196 0.003922
0.000000 0.686275 0.070588
0.003922 0.694118 0.062745
0.054902 0.690196 0.050980
0.341176 0.686275 0.035294
0.529412 0.686275 0.003922
0.682353 0.674510 0.000000
0.831373 0.674510 0.000000
0.964706 0.658824 0.000000
1.000000 0.635294 0.000000
0.000000 0.819608 0.000000
0.000000 0.815686 0.003922
0.000000 0.819608 0.003922
0.305882 0.811765 0.000000
0.486275 0.815686 0.000000
0.658824 0.811765 0.000000
0.807843 0.815686 0.003922
0.949020 0.803922 0.003922
0.996078 0.768627 0.003922
0.007843 0.929412 0.007843
0.003922 0.929412 0.000000
0.007843 0.929412 0.007843
0.239216 0.925490 0.003922
0.454902 0.925490 0.000000
0.603922 0.929412 0.000000
0.764706 0.921569 0.003922
0.921569 0.913725 0.000000
0.992157 0.898039 0.000000
0.007843 1.000000 0.000000
0.000000 1.000000 0.000000
0.000000 1.000000 0.000000
0.054902 1.000000 0.000000
0.376471 1.000000 0.007843
0.556863 1.000000 0.000000
0.717647 0.996078 0.000000
0.862745 1.000000 0.003922
0.996078 1.000000 0.003922
0.003922 0.003922 0.380392
0.117647 0.000000 0.384314
0.254902 0.003922 0.380392
0.380392 0.000000 0.380392
0.525490 0.000000 0.372549
0.678431 0.007843 0.388235
0.847059 0.000000 0.388235
0.988235 0.000000 0.364706
0.988235 0.003922 0.337255
0.000000 0.090196 0.372549
0.090196 0.082353 0.376471
0.243137 0.070588 0.372549
0.372549 0.035294 0.376471
0.509804 0.003922 0.368627
0.678431 0.000000 0.380392
0.843137 0.000000 0.372549
0.988235 0.003922 0.352941
0.996078 0.000000 0.313725
0.000000 0.227451 0.376471
0.000000 0.219608 0.380392
0.207843 0.215686 0.376471
0.372549 0.203922 0.380392
0.521569 0.196078 0.368627
0.694118 0.156863 0.368627
0.839216 0.101961 0.360784
0.984314 0.003922 0.325490
0.996078 0.000000 0.313725
0.011765 0.368627 0.372549
0.011765 0.372549 0.368627
0.176471 0.364706 0.372549
0.352941 0.360784 0.349020
0.513725 0.349020 0.352941
0.682353 0.349020 0.341176
0.847059 0.337255 0.345098
0.984314 0.329412 0.329412
1.000000 0.305882 0.305882
0.007843 0.525490 0.360784
0.003922 0.529412 0.360784
0.011765 0.529412 0.337255
0.337255 0.517647 0.333333
0.525490 0.525490 0.321569
0.682353 0.517647 0.321569
0.839216 0.509804 0.325490
0.972549 0.494118 0.301961
1.000000 0.474510 0.278431
0.007843 0.694118 0.313725
0.000000 0.694118 0.309804
0.011765 0.690196 0.305882
0.298039 0.694118 0.294118
0.501961 0.690196 0.298039
0.678431 0.690196 0.286275
0.835294 0.670588 0.270588
0.972549 0.650980 0.262745
0.996078 0.627451 0.250980
0.003922 0.823529 0.254902
0.000000 0.827451 0.250980
0.003922 0.823529 0.254902
0.243137 0.823529 0.243137
0.470588 0.823529 0.239216
0.647059 0.815686 0.223529
0.811765 0.815686 0.215686
0.952941 0.800000 0.200000
1.000000 0.760784 0.176471
0.000000 0.933333 0.184314
0.000000 0.933333 0.192157
0.000000 0.933333 0.192157
0.192157 0.925490 0.192157
0.419608 0.929412 0.168627
0.603922 0.921569 0.137255
0.760784 0.913725 0.101961
0.925490 0.913725 0.054902
1.000000 0.890196 0.000000
0.003922 1.000000 0.015686
0.007843 0.996078 0.003922
0.007843 1.000000 0.000000
0.007843 0.996078 0.003922
0.345098 1.000000 0.000000
0.533333 1.000000 0.000000
0.705882 1.000000 0.000000
0.858824 0.996078 0.000000
0.996078 1.000000 0.003922
0.003922 0.000000 0.541176
0.113725 0.003922 0.545098
0.254902 0.003922 0.545098
0.400000 0.007843 0.537255
0.533333 0.000000 0.533333
0.682353 0.003922 0.537255
0.843137 0.007843 0.541176
0.984314 0.000000 0.525490
1.000000 0.000000 0.494118
0.000000 0.074510 0.545098
0.066667 0.066667 0.537255
0.247059 0.043137 0.545098
0.400000 0.000000 0.529412
0.525490 0.000000 0.545098
0.690196 0.000000 0.537255
0.839216 0.003922 0.537255
0.988235 0.003922 0.525490
1.000000 0.000000 0.501961
0.000000 0.211765 0.545098
0.003922 0.207843 0.545098
0.196078 0.203922 0.537255
0.368627 0.188235 0.533333
0.529412 0.164706 0.529412
0.686275 0.133333 0.541176
0.843137 0.062745 0.529412
0.984314 0.000000 0.513725
1.000000 0.000000 0.478431
0.007843 0.368627 0.521569
0.000000 0.372549 0.537255
0.109804 0.360784 0.541176
0.349020 0.341176 0.533333
0.525490 0.329412 0.529412
0.682353 0.333333 0.513725
0.850980 0.313725 0.517647
0.976471 0.313725 0.505882
1.000000 0.298039 0.494118
0.000000 0.521569 0.537255
0.000000 0.533333 0.525490
0.000000 0.525490 0.537255
0.321569 0.525490 0.517647
0.505882 0.505882 0.505882
0.682353 0.509804 0.505882
0.839216 0.505882 0.498039
0.976471 0.482353 0.486275
1.000000 0.474510 0.462745
0.000000 0.694118 0.513725
0.000000 0.690196 0.517647
0.011765 0.690196 0.513725
0.250980 0.690196 0.501961
0.490196 0.686275 0.486275
0.678431 0.678431 0.474510
0.835294 0.666667 0.470588
0.964706 0.647059 0.470588
0.996078 0.623529 0.466667
0.000000 0.831373 0.470588
0.003922 0.827451 0.470588
0.003922 0.823529 0.454902
0.188235 0.815686 0.462745
0.454902 0.819608 0.454902
0.639216 0.815686 0.443137
0.807843 0.811765 0.443137
0.956863 0.788235 0.427451
0.996078 0.764706 0.403922
0.003922 0.937255 0.431373
0.000000 0.933333 0.423529
0.003922 0.929412 0.423529
0.156863 0.933333 0.419608
0.419608 0.925490 0.419608
0.592157 0.929412 0.407843
0.756863 0.913725 0.396078
0.913725 0.905882 0.372549
1.000000 0.886275 0.360784
0.007843 1.000000 0.345098
0.000000 1.000000 0.341176
0.003922 1.000000 0.349020
0.003922 0.992157 0.337255
0.337255 1.000000 0.329412
0.533333 0.996078 0.313725
0.701961 0.996078 0.286275
0.854902 1.000000 0.250980
1.000000 1.000000 0.184314
0.000000 0.003922 0.701961
0.105882 0.000000 0.701961
0.262745 0.000000 0.698039
0.411765 0.003922 0.698039
0.556863 0.000000 0.701961
0.686275 0.003922 0.698039
0.839216 0.000000 0.690196
0.976471 0.003922 0.686275
1.000000 0.003922 0.662745
0.000000 0.031373 0.701961
0.019608 0.031373 0.686275
0.247059 0.000000 0.690196
0.392157 0.000000 0.698039
0.552941 0.003922 0.698039
0.701961 0.003922 0.694118
0.843137 0.003922 0.694118
0.988235 0.000000 0.678431
0.996078 0.000000 0.650980
0.000000 0.192157 0.694118
0.000000 0.192157 0.694118
0.192157 0.180392 0.701961
0.380392 0.172549 0.698039
0.537255 0.141176 0.698039
0.694118 0.086275 0.690196
0.843137 0.000000 0.678431
0.972549 0.003922 0.674510
0.996078 0.007843 0.662745
0.003922 0.356863 0.694118
0.007843 0.349020 0.690196
0.003922 0.337255 0.701961
0.337255 0.333333 0.698039
0.525490 0.325490 0.698039
0.694118 0.313725 0.694118
0.854902 0.298039 0.690196
0.976471 0.298039 0.678431
0.996078 0.298039 0.650980
0.003922 0.521569 0.701961
0.000000 0.521569 0.682353
0.011765 0.505882 0.694118
0.282353 0.501961 0.690196
0.498039 0.498039 0.694118
0.682353 0.490196 0.678431
0.850980 0.490196 0.674510
0.968627 0.494118 0.670588
1.000000 0.482353 0.643137
0.000000 0.690196 0.682353
0.011765 0.682353 0.690196
0.000000 0.690196 0.682353
0.231373 0.682353 0.686275
0.478431 0.682353 0.674510
0.666667 0.666667 0.666667
0.815686 0.666667 0.662745
0.952941 0.662745 0.658824
0.996078 0.650980 0.643137
0.000000 0.823529 0.654902
0.000000 0.823529 0.654902
0.000000 0.819608 0.666667
0.180392 0.819608 0.643137
0.466667 0.811765 0.647059
0.650980 0.811765 0.647059
0.807843 0.811765 0.654902
0.941176 0.792157 0.639216
1.000000 0.768627 0.647059
0.000000 0.937255 0.611765
0.000000 0.933333 0.600000
0.000000 0.929412 0.615686
0.239216 0.921569 0.619608
0.466667 0.925490 0.619608
0.623529 0.913725 0.619608
0.772549 0.917647 0.615686
0.909804 0.913725 0.607843
0.996078 0.894118 0.592157
0.003922 0.992157 0.580392
0.000000 0.996078 0.572549
0.003922 1.000000 0.592157
0.243137 0.996078 0.592157
0.415686 1.000000 0.576471
0.580392 1.000000 0.576471
0.725490 0.996078 0.568627
0.866667 1.000000 0.556863
0.996078 1.000000 0.529412
0.000000 0.000000 0.831373
0.074510 0.000000 0.835294
0.250980 0.000000 0.835294
0.407843 0.000000 0.827451
0.545098 0.003922 0.835294
0.690196 0.000000 0.831373
0.831373 0.000000 0.839216
0.976471 0.003922 0.835294
0.996078 0.000000 0.800000
0.000000 0.000000 0.839216
0.000000 0.003922 0.843137
0.231373 0.000000 0.839216
0.388235 0.000000 0.843137
0.541176 0.000000 0.839216
0.686275 0.003922 0.839216
0.831373 0.003922 0.831373
0.980392 0.000000 0.835294
1.000000 0.000000 0.807843
0.003922 0.176471 0.847059
0.000000 0.180392 0.831373
0.172549 0.176471 0.843137
0.368627 0.156863 0.835294
0.525490 0.117647 0.835294
0.674510 0.058824 0.847059
0.835294 0.000000 0.827451
0.976471 0.003922 0.835294
1.000000 0.000000 0.800000
0.003922 0.329412 0.831373
0.011765 0.325490 0.831373
0.000000 0.329412 0.827451
0.325490 0.317647 0.839216
0.509804 0.305882 0.831373
0.678431 0.301961 0.835294
0.839216 0.286275 0.839216
0.976471 0.278431 0.827451
1.000000 0.282353 0.800000
0.000000 0.498039 0.839216
0.000000 0.494118 0.831373
0.000000 0.494118 0.823529
0.278431 0.490196 0.843137
0.494118 0.482353 0.831373
0.654902 0.482353 0.831373
0.815686 0.478431 0.819608
0.972549 0.470588 0.811765
1.000000 0.474510 0.764706
0.003922 0.658824 0.831373
0.011765 0.654902 0.831373
0.000000 0.658824 0.819608
0.243137 0.650980 0.827451
0.482353 0.650980 0.819608
0.658824 0.666667 0.819608
0.819608 0.650980 0.819608
0.941176 0.658824 0.803922
1.000000 0.666667 0.788235
0.000000 0.811765 0.819608
0.003922 0.807843 0.827451
0.003922 0.807843 0.811765
0.215686 0.807843 0.803922
0.478431 0.807843 0.815686
0.654902 0.811765 0.807843
0.803922 0.803922 0.803922
0.925490 0.803922 0.796078
0.996078 0.800000 0.803922
0.000000 0.929412 0.768627
0.000000 0.929412 0.768627
0.000000 0.925490 0.764706
0.258824 0.925490 0.780392
0.498039 0.917647 0.776471
0.658824 0.913725 0.780392
0.788235 0.909804 0.780392
0.913725 0.909804 0.792157
1.000000 0.894118 0.780392
0.000000 1.000000 0.752941
0.000000 1.000000 0.733333
0.011765 1.000000 0.745098
0.305882 1.000000 0.745098
0.513725 0.996078 0.772549
0.654902 1.000000 0.772549
0.764706 0.996078 0.768627
0.878431 0.996078 0.752941
1.000000 0.996078 0.745098
0.011765 0.000000 0.937255
0.035294 0.000000 0.945098
0.243137 0.000000 0.941176
0.372549 0.003922 0.937255
0.521569 0.000000 0.945098
0.662745 0.003922 0.937255
0.796078 0.000000 0.937255
0.929412 0.003922 0.945098
1.000000 0.000000 0.945098
0.000000 0.000000 0.933333
0.000000 0.003922 0.925490
0.215686 0.000000 0.945098
0.384314 0.000000 0.952941
0.509804 0.000000 0.933333
0.654902 0.000000 0.933333
0.796078 0.000000 0.937255
0.941176 0.000000 0.937255
1.000000 0.000000 0.945098
0.000000 0.172549 0.929412
0.000000 0.164706 0.941176
0.156863 0.152941 0.945098
0.345098 0.137255 0.945098
0.505882 0.113725 0.937255
0.654902 0.066667 0.945098
0.796078 0.000000 0.937255
0.937255 0.003922 0.937255
1.000000 0.007843 0.949020
0.000000 0.325490 0.937255
0.000000 0.321569 0.933333
0.007843 0.313725 0.933333
0.317647 0.309804 0.941176
0.490196 0.309804 0.941176
0.639216 0.301961 0.941176
0.792157 0.290196 0.937255
0.933333 0.278431 0.937255
1.000000 0.262745 0.937255
0.003922 0.486275 0.933333
0.000000 0.474510 0.925490
0.000000 0.474510 0.925490
0.286275 0.478431 0.933333
0.470588 0.482353 0.933333
0.631373 0.470588 0.933333
0.780392 0.470588 0.937255
0.937255 0.470588 0.933333
1.000000 0.462745 0.929412
0.007843 0.631373 0.929412
0.000000 0.631373 0.925490
0.000000 0.627451 0.933333
0.282353 0.631373 0.937255
0.490196 0.639216 0.925490
0.647059 0.647059 0.929412
0.788235 0.650980 0.921569
0.929412 0.647059 0.933333
1.000000 0.650980 0.917647
0.003922 0.768627 0.909804
0.000000 0.772549 0.917647
0.007843 0.764706 0.925490
0.290196 0.776471 0.909804
0.501961 0.788235 0.917647
0.666667 0.796078 0.925490
0.788235 0.803922 0.917647
0.917647 0.796078 0.917647
0.996078 0.800000 0.913725
0.000000 0.913725 0.901961
0.000000 0.917647 0.929412
0.003922 0.909804 0.901961
0.321569 0.913725 0.917647
0.513725 0.909804 0.909804
0.670588 0.913725 0.901961
0.792157 0.909804 0.909804
0.905882 0.905882 0.898039
0.996078 0.909804 0.921569
0.000000 0.996078 0.878431
0.000000 1.000000 0.886275
0.082353 1.000000 0.886275
0.352941 1.000000 0.886275
0.525490 0.996078 0.886275
0.666667 0.996078 0.886275
0.784314 1.000000 0.898039
0.890196 1.000000 0.894118
0.988235 1.000000 0.886275
0.003922 0.000000 0.996078
0.003922 0.003922 1.000000
0.203922 0.003922 0.996078
0.356863 0.000000 1.000000
0.494118 0.000000 1.000000
0.631373 0.000000 0.996078
0.756863 0.003922 0.996078
0.890196 0.000000 1.000000
1.000000 0.000000 0.996078
0.007843 0.003922 1.000000
0.000000 0.000000 0.996078
0.200000 0.000000 1.000000
0.345098 0.003922 1.000000
0.490196 0.000000 0.996078
0.619608 0.003922 1.000000
0.756863 0.000000 1.000000
0.886275 0.003922 0.992157
1.000000 0.003922 1.000000
0.000000 0.160784 1.000000
0.003922 0.156863 1.000000
0.145098 0.149020 0.996078
0.329412 0.133333 1.000000
0.474510 0.109804 1.000000
0.619608 0.078431 1.000000
0.745098 0.007843 1.000000
0.890196 0.000000 1.000000
1.000000 0.000000 0.996078
0.003922 0.317647 1.000000
0.000000 0.305882 1.000000
0.066667 0.313725 1.000000
0.298039 0.309804 0.996078
0.470588 0.301961 1.000000
0.607843 0.290196 0.996078
0.756863 0.290196 1.000000
0.894118 0.270588 1.000000
0.996078 0.266667 1.000000
0.000000 0.474510 1.000000
0.003922 0.466667 1.000000
0.035294 0.462745 0.996078
0.301961 0.466667 1.000000
0.470588 0.462745 1.000000
0.611765 0.462745 1.000000
0.752941 0.462745 1.000000
0.886275 0.462745 1.000000
1.000000 0.458824 1.000000
0.011765 0.603922 1.000000
0.003922 0.603922 1.000000
0.062745 0.607843 1.000000
0.337255 0.619608 1.000000
0.509804 0.627451 1.000000
0.635294 0.635294 0.988235
0.772549 0.643137 1.000000
0.890196 0.643137 1.000000
1.000000 0.635294 1.000000
0.003922 0.752941 1.000000
0.003922 0.745098 1.000000
0.105882 0.749020 0.996078
0.356863 0.752941 0.996078
0.525490 0.768627 1.000000
0.670588 0.788235 1.000000
0.788235 0.792157 1.000000
0.901961 0.788235 1.000000
0.996078 0.788235 1.000000
0.000000 0.878431 1.000000
0.000000 0.878431 0.996078
0.109804 0.878431 0.996078
0.360784 0.878431 1.000000
0.533333 0.890196 0.996078
0.670588 0.894118 0.992157
0.796078 0.894118 1.000000
0.901961 0.901961 0.996078
1.000000 0.890196 1.000000
0.000000 1.000000 0.988235
0.000000 1.000000 1.000000
0.109804 1.000000 0.996078
0.364706 0.996078 0.996078
0.529412 1.000000 0.996078
0.662745 1.000000 0.996078
0.788235 1.000000 1.000000
0.898039 1.000000 0.996078
1.000000 1.000000 1.000000
