lut_library_archive/removed_20260629/50个风景lut/50个风景lut08.cube
# 版权归凌孟成所有，侵权必究
TITLE "Jungle LUT #8"
#LUT size
LUT_3D_SIZE 5
#LUT data points
0.039216 0.043137 0.050980
0.305882 0.000000 0.027451
0.588235 0.000000 0.000000
0.874510 0.000000 0.000000
0.996078 0.000000 0.000000
0.000000 0.298039 0.117647
0.243137 0.290196 0.000000
0.592157 0.290196 0.015686
0.866667 0.278431 0.000000
1.000000 0.247059 0.007843
0.000000 0.607843 0.258824
0.007843 0.611765 0.172549
0.490196 0.592157 0.000000
0.862745 0.560784 0.003922
1.000000 0.529412 0.007843
0.003922 0.862745 0.392157
0.003922 0.870588 0.388235
0.007843 0.870588 0.000000
0.698039 0.839216 0.007843
1.000000 0.800000 0.000000
0.000000 1.000000 0.501961
0.003922 0.992157 0.486275
0.007843 0.996078 0.396078
0.011765 0.996078 0.003922
0.952941 0.996078 0.000000
0.003922 0.023529 0.278431
0.294118 0.000000 0.278431
0.592157 0.000000 0.258824
0.878431 0.000000 0.254902
1.000000 0.000000 0.235294
0.000000 0.290196 0.270588
0.301961 0.282353 0.266667
0.600000 0.286275 0.258824
0.874510 0.262745 0.243137
1.000000 0.243137 0.215686
0.003922 0.588235 0.368627
0.000000 0.600000 0.317647
0.517647 0.588235 0.196078
0.866667 0.552941 0.219608
0.996078 0.525490 0.188235
0.000000 0.850980 0.462745
0.003922 0.862745 0.439216
0.003922 0.866667 0.035294
0.725490 0.847059 0.066667
0.992157 0.788235 0.113725
0.003922 0.992157 0.541176
0.003922 0.996078 0.537255
0.011765 0.996078 0.482353
0.000000 0.996078 0.000000
0.956863 1.000000 0.000000
0.000000 0.000000 0.556863
0.301961 0.000000 0.560784
0.584314 0.000000 0.564706
0.862745 0.000000 0.552941
0.992157 0.003922 0.509804
0.000000 0.274510 0.549020
0.282353 0.266667 0.564706
0.596078 0.254902 0.564706
0.858824 0.258824 0.533333
1.000000 0.270588 0.533333
0.003922 0.576471 0.556863
0.258824 0.584314 0.545098
0.588235 0.568627 0.545098
0.862745 0.556863 0.541176
1.000000 0.537255 0.521569
0.000000 0.839216 0.627451
0.007843 0.843137 0.623529
0.000000 0.862745 0.552941
0.764706 0.843137 0.470588
1.000000 0.796078 0.498039
0.003922 1.000000 0.682353
0.000000 0.996078 0.658824
0.007843 0.996078 0.631373
0.000000 1.000000 0.356863
0.980392 1.000000 0.435294
0.000000 0.000000 0.827451
0.286275 0.003922 0.827451
0.572549 0.003922 0.823529
0.862745 0.000000 0.823529
0.996078 0.000000 0.784314
0.000000 0.254902 0.819608
0.274510 0.270588 0.819608
0.572549 0.250980 0.823529
0.854902 0.235294 0.819608
0.996078 0.254902 0.796078
0.003922 0.549020 0.811765
0.262745 0.556863 0.811765
0.564706 0.556863 0.819608
0.858824 0.549020 0.815686
0.992157 0.564706 0.796078
0.007843 0.835294 0.807843
0.266667 0.835294 0.807843
0.576471 0.831373 0.800000
0.831373 0.831373 0.800000
0.996078 0.819608 0.807843
0.003922 1.000000 0.835294
0.227451 0.996078 0.847059
0.513725 1.000000 0.858824
0.513725 0.996078 0.815686
1.000000 1.000000 0.780392
0.000000 0.000000 0.996078
0.266667 0.003922 0.996078
0.537255 0.000000 0.996078
0.803922 0.000000 1.000000
1.000000 0.000000 1.000000
0.011765 0.258824 1.000000
0.270588 0.258824 1.000000
0.541176 0.258824 1.000000
0.811765 0.250980 1.000000
0.996078 0.247059 1.000000
0.094118 0.533333 0.992157
0.301961 0.541176 1.000000
0.552941 0.541176 0.992157
0.807843 0.545098 1.000000
1.000000 0.552941 1.000000
0.192157 0.788235 1.000000
0.341176 0.792157 1.000000
0.584314 0.803922 1.000000
0.823529 0.815686 1.000000
0.992157 0.823529 1.000000
0.337255 1.000000 1.000000
0.443137 0.996078 1.000000
0.643137 1.000000 1.000000
0.878431 1.000000 1.000000
1.000000 0.996078 1.000000
