lut_library_archive/removed_20260629/50个风景lut/50个风景lut20.cube
# 版权归凌孟成所有，侵权必究
TITLE "Jungle LUT #20"
#LUT size
LUT_3D_SIZE 5
#LUT data points
0.058824 0.058824 0.058824
0.211765 0.094118 0.094118
0.411765 0.156863 0.141176
0.674510 0.254902 0.223529
0.933333 0.384314 0.345098
0.047059 0.243137 0.043137
0.239216 0.231373 0.031373
0.454902 0.258824 0.113725
0.698039 0.333333 0.211765
0.952941 0.431373 0.341176
0.031373 0.478431 0.003922
0.243137 0.478431 0.000000
0.482353 0.474510 0.000000
0.745098 0.509804 0.078431
0.988235 0.572549 0.278431
0.000000 0.749020 0.000000
0.219608 0.749020 0.003922
0.490196 0.745098 0.000000
0.752941 0.741176 0.000000
0.996078 0.760784 0.000000
0.011765 1.000000 0.023529
0.047059 1.000000 0.000000
0.482353 0.996078 0.000000
0.784314 1.000000 0.003922
1.000000 1.000000 0.000000
0.031373 0.047059 0.231373
0.235294 0.050980 0.231373
0.443137 0.133333 0.247059
0.654902 0.305882 0.333333
0.929412 0.423529 0.439216
0.039216 0.235294 0.231373
0.235294 0.235294 0.235294
0.435294 0.282353 0.270588
0.674510 0.349020 0.325490
0.933333 0.462745 0.431373
0.000000 0.474510 0.188235
0.227451 0.474510 0.196078
0.482353 0.474510 0.184314
0.741176 0.513725 0.262745
0.976471 0.576471 0.396078
0.000000 0.741176 0.098039
0.172549 0.749020 0.098039
0.490196 0.741176 0.058824
0.760784 0.745098 0.019608
1.000000 0.760784 0.211765
0.000000 0.996078 0.000000
0.000000 1.000000 0.011765
0.447059 1.000000 0.003922
0.776471 1.000000 0.000000
1.000000 1.000000 0.000000
0.050980 0.047059 0.454902
0.239216 0.035294 0.466667
0.470588 0.003922 0.458824
0.745098 0.000000 0.470588
0.952941 0.329412 0.521569
0.000000 0.215686 0.466667
0.235294 0.215686 0.466667
0.478431 0.207843 0.462745
0.737255 0.235294 0.466667
0.937255 0.470588 0.564706
0.003922 0.470588 0.454902
0.184314 0.478431 0.458824
0.470588 0.474510 0.454902
0.713725 0.537255 0.517647
0.941176 0.631373 0.611765
0.007843 0.749020 0.427451
0.000000 0.745098 0.423529
0.443137 0.749020 0.403922
0.760784 0.745098 0.396078
1.000000 0.780392 0.529412
0.000000 1.000000 0.333333
0.000000 1.000000 0.325490
0.372549 1.000000 0.317647
0.760784 0.996078 0.305882
1.000000 1.000000 0.274510
0.007843 0.007843 0.721569
0.254902 0.000000 0.733333
0.498039 0.003922 0.737255
0.752941 0.000000 0.741176
0.996078 0.000000 0.729412
0.000000 0.207843 0.741176
0.211765 0.203922 0.741176
0.478431 0.188235 0.733333
0.760784 0.129412 0.737255
0.992157 0.011765 0.717647
0.000000 0.466667 0.741176
0.003922 0.458824 0.737255
0.450980 0.450980 0.741176
0.764706 0.435294 0.737255
0.996078 0.450980 0.721569
0.003922 0.749020 0.733333
0.003922 0.749020 0.741176
0.431373 0.752941 0.737255
0.752941 0.749020 0.733333
0.976471 0.827451 0.815686
0.003922 1.000000 0.694118
0.003922 0.996078 0.701961
0.380392 1.000000 0.701961
0.733333 1.000000 0.690196
0.996078 1.000000 0.678431
0.003922 0.000000 0.996078
0.235294 0.003922 0.992157
0.501961 0.003922 0.996078
0.764706 0.000000 0.996078
1.000000 0.003922 1.000000
0.007843 0.180392 1.000000
0.180392 0.180392 0.996078
0.490196 0.149020 1.000000
0.756863 0.058824 0.992157
1.000000 0.000000 0.988235
0.000000 0.443137 1.000000
0.007843 0.431373 1.000000
0.427451 0.427451 1.000000
0.745098 0.415686 0.996078
1.000000 0.392157 1.000000
0.011765 0.733333 1.000000
0.003922 0.717647 0.996078
0.376471 0.729412 0.996078
0.733333 0.721569 1.000000
1.000000 0.713725 1.000000
0.000000 0.996078 0.996078
0.000000 1.000000 0.988235
0.341176 0.996078 0.996078
0.749020 1.000000 1.000000
1.000000 0.996078 1.000000
