lut_library_archive/removed_20260629/50个风景lut/50个风景lut27.cube
# 版权归凌孟成所有，侵权必究
TITLE "Jungle LUT #27"
#LUT size
LUT_3D_SIZE 25
#LUT data points
0.000000 0.000000 0.000000
0.023529 0.000000 0.000000
0.078431 0.000000 0.003922
0.133333 0.000000 0.003922
0.180392 0.000000 0.007843
0.235294 0.000000 0.000000
0.286275 0.000000 0.000000
0.345098 0.000000 0.003922
0.407843 0.000000 0.000000
0.454902 0.000000 0.003922
0.509804 0.000000 0.000000
0.549020 0.000000 0.000000
0.588235 0.003922 0.000000
0.631373 0.003922 0.003922
0.666667 0.003922 0.000000
0.694118 0.000000 0.007843
0.721569 0.003922 0.000000
0.752941 0.003922 0.000000
0.788235 0.000000 0.000000
0.823529 0.003922 0.000000
0.854902 0.003922 0.000000
0.890196 0.000000 0.000000
0.941176 0.003922 0.000000
0.980392 0.003922 0.003922
0.988235 0.003922 0.000000
0.003922 0.043137 0.000000
0.031373 0.035294 0.003922
0.074510 0.043137 0.000000
0.133333 0.039216 0.000000
0.184314 0.043137 0.000000
0.231373 0.043137 0.000000
0.282353 0.047059 0.003922
0.345098 0.047059 0.000000
0.396078 0.054902 0.000000
0.450980 0.054902 0.000000
0.505882 0.050980 0.000000
0.552941 0.050980 0.000000
0.588235 0.047059 0.003922
0.627451 0.047059 0.000000
0.658824 0.050980 0.000000
0.694118 0.054902 0.003922
0.721569 0.047059 0.000000
0.752941 0.050980 0.003922
0.788235 0.054902 0.003922
0.823529 0.047059 0.003922
0.862745 0.047059 0.000000
0.898039 0.043137 0.003922
0.933333 0.031373 0.000000
0.972549 0.031373 0.000000
1.000000 0.023529 0.000000
0.000000 0.098039 0.000000
0.011765 0.086275 0.000000
0.074510 0.086275 0.003922
0.117647 0.086275 0.000000
0.176471 0.090196 0.000000
0.227451 0.101961 0.003922
0.282353 0.098039 0.000000
0.337255 0.101961 0.000000
0.400000 0.105882 0.000000
0.450980 0.109804 0.000000
0.501961 0.105882 0.000000
0.549020 0.101961 0.000000
0.588235 0.101961 0.000000
0.619608 0.098039 0.000000
0.654902 0.101961 0.000000
0.686275 0.098039 0.000000
0.721569 0.094118 0.000000
0.749020 0.094118 0.000000
0.788235 0.094118 0.000000
0.819608 0.090196 0.000000
0.854902 0.086275 0.000000
0.894118 0.086275 0.000000
0.933333 0.078431 0.003922
0.968627 0.082353 0.003922
0.988235 0.078431 0.000000
0.000000 0.149020 0.003922
0.007843 0.141176 0.003922
0.066667 0.145098 0.007843
0.125490 0.141176 0.000000
0.176471 0.145098 0.000000
0.235294 0.141176 0.000000
0.286275 0.149020 0.000000
0.345098 0.156863 0.007843
0.400000 0.156863 0.003922
0.450980 0.156863 0.003922
0.498039 0.156863 0.000000
0.541176 0.152941 0.000000
0.588235 0.149020 0.000000
0.627451 0.149020 0.003922
0.654902 0.145098 0.003922
0.690196 0.145098 0.000000
0.717647 0.137255 0.003922
0.745098 0.133333 0.003922
0.780392 0.129412 0.003922
0.815686 0.133333 0.000000
0.847059 0.125490 0.000000
0.886275 0.125490 0.000000
0.925490 0.125490 0.000000
0.972549 0.125490 0.003922
1.000000 0.117647 0.000000
0.000000 0.188235 0.000000
0.003922 0.192157 0.000000
0.062745 0.188235 0.000000
0.121569 0.196078 0.007843
0.176471 0.192157 0.000000
0.227451 0.196078 0.003922
0.282353 0.203922 0.003922
0.333333 0.203922 0.000000
0.392157 0.207843 0.003922
0.450980 0.211765 0.000000
0.494118 0.207843 0.000000
0.537255 0.200000 0.000000
0.584314 0.203922 0.003922
0.619608 0.200000 0.003922
0.650980 0.188235 0.000000
0.690196 0.188235 0.003922
0.717647 0.184314 0.000000
0.741176 0.176471 0.000000
0.776471 0.172549 0.000000
0.811765 0.176471 0.000000
0.850980 0.168627 0.000000
0.886275 0.168627 0.003922
0.925490 0.164706 0.000000
0.964706 0.164706 0.000000
0.996078 0.160784 0.003922
0.000000 0.254902 0.000000
0.000000 0.254902 0.000000
0.058824 0.258824 0.000000
0.129412 0.254902 0.000000
0.180392 0.254902 0.000000
0.231373 0.258824 0.000000
0.290196 0.262745 0.000000
0.356863 0.258824 0.000000
0.407843 0.262745 0.000000
0.458824 0.258824 0.003922
0.509804 0.254902 0.003922
0.552941 0.258824 0.003922
0.596078 0.250980 0.000000
0.631373 0.247059 0.000000
0.666667 0.243137 0.000000
0.690196 0.235294 0.000000
0.729412 0.227451 0.003922
0.760784 0.219608 0.003922
0.792157 0.219608 0.000000
0.823529 0.215686 0.000000
0.862745 0.215686 0.000000
0.898039 0.211765 0.003922
0.941176 0.207843 0.000000
0.984314 0.211765 0.003922
1.000000 0.207843 0.007843
0.000000 0.301961 0.000000
0.007843 0.309804 0.003922
0.050980 0.313725 0.003922
0.117647 0.301961 0.000000
0.180392 0.309804 0.000000
0.231373 0.317647 0.000000
0.298039 0.309804 0.000000
0.345098 0.313725 0.000000
0.400000 0.309804 0.003922
0.454902 0.309804 0.003922
0.505882 0.301961 0.003922
0.552941 0.305882 0.003922
0.592157 0.294118 0.000000
0.627451 0.290196 0.000000
0.662745 0.282353 0.003922
0.694118 0.274510 0.000000
0.717647 0.270588 0.000000
0.752941 0.266667 0.000000
0.788235 0.266667 0.003922
0.823529 0.262745 0.003922
0.858824 0.258824 0.003922
0.894118 0.254902 0.000000
0.933333 0.254902 0.003922
0.968627 0.250980 0.000000
0.996078 0.247059 0.003922
0.003922 0.352941 0.000000
0.007843 0.356863 0.000000
0.043137 0.356863 0.000000
0.125490 0.360784 0.007843
0.188235 0.364706 0.000000
0.227451 0.360784 0.000000
0.301961 0.360784 0.000000
0.349020 0.364706 0.000000
0.403922 0.360784 0.000000
0.458824 0.360784 0.000000
0.498039 0.352941 0.003922
0.545098 0.349020 0.007843
0.580392 0.345098 0.000000
0.619608 0.337255 0.000000
0.658824 0.325490 0.000000
0.694118 0.321569 0.000000
0.725490 0.313725 0.000000
0.749020 0.305882 0.000000
0.784314 0.301961 0.000000
0.819608 0.298039 0.003922
0.858824 0.298039 0.000000
0.894118 0.294118 0.000000
0.933333 0.298039 0.003922
0.976471 0.298039 0.000000
1.000000 0.290196 0.000000
0.003922 0.407843 0.000000
0.007843 0.411765 0.000000
0.023529 0.407843 0.011765
0.109804 0.403922 0.000000
0.180392 0.407843 0.003922
0.235294 0.415686 0.000000
0.290196 0.419608 0.000000
0.349020 0.415686 0.000000
0.403922 0.411765 0.000000
0.458824 0.407843 0.000000
0.498039 0.400000 0.000000
0.541176 0.392157 0.003922
0.580392 0.384314 0.003922
0.619608 0.376471 0.000000
0.654902 0.368627 0.000000
0.686275 0.360784 0.000000
0.709804 0.352941 0.000000
0.745098 0.349020 0.000000
0.780392 0.345098 0.003922
0.815686 0.341176 0.000000
0.843137 0.333333 0.000000
0.890196 0.333333 0.003922
0.925490 0.329412 0.000000
0.964706 0.321569 0.000000
1.000000 0.329412 0.007843
0.000000 0.454902 0.007843
0.000000 0.447059 0.000000
0.019608 0.450980 0.000000
0.113725 0.454902 0.011765
0.184314 0.454902 0.000000
0.231373 0.454902 0.003922
0.298039 0.454902 0.003922
0.341176 0.447059 0.000000
0.400000 0.450980 0.000000
0.450980 0.443137 0.000000
0.498039 0.447059 0.000000
0.537255 0.435294 0.000000
0.572549 0.427451 0.007843
0.603922 0.419608 0.003922
0.639216 0.407843 0.000000
0.674510 0.403922 0.000000
0.705882 0.396078 0.003922
0.737255 0.384314 0.003922
0.772549 0.380392 0.003922
0.811765 0.380392 0.007843
0.847059 0.376471 0.000000
0.886275 0.376471 0.000000
0.925490 0.376471 0.000000
0.968627 0.372549 0.003922
1.000000 0.372549 0.003922
0.007843 0.501961 0.007843
0.000000 0.498039 0.000000
0.047059 0.505882 0.000000
0.117647 0.505882 0.000000
0.184314 0.501961 0.000000
0.239216 0.501961 0.000000
0.290196 0.505882 0.000000
0.345098 0.505882 0.000000
0.400000 0.498039 0.000000
0.450980 0.490196 0.000000
0.505882 0.490196 0.000000
0.545098 0.490196 0.000000
0.580392 0.478431 0.000000
0.619608 0.466667 0.000000
0.650980 0.458824 0.000000
0.674510 0.450980 0.000000
0.709804 0.447059 0.000000
0.741176 0.439216 0.000000
0.776471 0.431373 0.000000
0.811765 0.431373 0.000000
0.850980 0.427451 0.000000
0.890196 0.419608 0.000000
0.929412 0.423529 0.000000
0.980392 0.423529 0.003922
1.000000 0.415686 0.007843
0.011765 0.529412 0.000000
0.000000 0.533333 0.000000
0.031373 0.533333 0.000000
0.125490 0.529412 0.000000
0.180392 0.533333 0.007843
0.231373 0.529412 0.000000
0.286275 0.529412 0.000000
0.333333 0.533333 0.000000
0.380392 0.529412 0.000000
0.427451 0.529412 0.007843
0.482353 0.525490 0.011765
0.533333 0.525490 0.000000
0.572549 0.517647 0.000000
0.615686 0.509804 0.003922
0.647059 0.490196 0.003922
0.666667 0.490196 0.000000
0.709804 0.482353 0.000000
0.745098 0.478431 0.000000
0.780392 0.474510 0.000000
0.819608 0.466667 0.000000
0.858824 0.462745 0.000000
0.894118 0.458824 0.000000
0.925490 0.462745 0.007843
0.972549 0.462745 0.000000
0.996078 0.462745 0.000000
0.000000 0.556863 0.007843
0.000000 0.560784 0.003922
0.047059 0.564706 0.000000
0.117647 0.568627 0.000000
0.176471 0.556863 0.003922
0.239216 0.564706 0.000000
0.282353 0.560784 0.003922
0.329412 0.560784 0.003922
0.372549 0.556863 0.000000
0.419608 0.556863 0.000000
0.466667 0.549020 0.000000
0.509804 0.552941 0.003922
0.556863 0.545098 0.000000
0.596078 0.545098 0.000000
0.631373 0.541176 0.000000
0.662745 0.533333 0.000000
0.705882 0.525490 0.000000
0.741176 0.517647 0.000000
0.772549 0.509804 0.000000
0.811765 0.509804 0.000000
0.850980 0.509804 0.003922
0.890196 0.501961 0.003922
0.929412 0.501961 0.003922
0.960784 0.505882 0.000000
0.996078 0.501961 0.000000
0.003922 0.584314 0.003922
0.015686 0.588235 0.000000
0.078431 0.588235 0.000000
0.125490 0.592157 0.000000
0.180392 0.588235 0.000000
0.223529 0.584314 0.000000
0.274510 0.588235 0.003922
0.325490 0.584314 0.000000
0.372549 0.584314 0.000000
0.411765 0.584314 0.000000
0.454902 0.584314 0.000000
0.494118 0.580392 0.003922
0.533333 0.580392 0.007843
0.584314 0.576471 0.000000
0.619608 0.572549 0.000000
0.654902 0.568627 0.000000
0.690196 0.564706 0.000000
0.733333 0.556863 0.003922
0.768627 0.549020 0.003922
0.807843 0.545098 0.000000
0.843137 0.541176 0.000000
0.878431 0.541176 0.003922
0.929412 0.541176 0.011765
0.960784 0.541176 0.000000
0.992157 0.545098 0.000000
0.007843 0.615686 0.003922
0.050980 0.619608 0.003922
0.105882 0.615686 0.000000
0.141176 0.615686 0.000000
0.188235 0.615686 0.003922
0.227451 0.619608 0.000000
0.278431 0.611765 0.000000
0.321569 0.615686 0.000000
0.360784 0.611765 0.000000
0.403922 0.615686 0.003922
0.443137 0.615686 0.000000
0.490196 0.611765 0.003922
0.533333 0.611765 0.000000
0.568627 0.603922 0.000000
0.615686 0.603922 0.000000
0.658824 0.607843 0.003922
0.694118 0.600000 0.003922
0.729412 0.596078 0.003922
0.760784 0.588235 0.003922
0.796078 0.584314 0.000000
0.839216 0.584314 0.000000
0.882353 0.584314 0.003922
0.925490 0.584314 0.000000
0.964706 0.584314 0.000000
0.996078 0.580392 0.000000
0.090196 0.670588 0.000000
0.109804 0.670588 0.003922
0.145098 0.666667 0.003922
0.172549 0.666667 0.000000
0.207843 0.666667 0.003922
0.247059 0.658824 0.003922
0.290196 0.654902 0.000000
0.337255 0.662745 0.003922
0.368627 0.666667 0.000000
0.411765 0.658824 0.003922
0.450980 0.658824 0.000000
0.490196 0.658824 0.000000
0.529412 0.650980 0.000000
0.576471 0.647059 0.003922
0.619608 0.647059 0.000000
0.658824 0.647059 0.007843
0.698039 0.647059 0.000000
0.737255 0.647059 0.000000
0.772549 0.643137 0.003922
0.807843 0.639216 0.000000
0.850980 0.635294 0.000000
0.894118 0.627451 0.003922
0.937255 0.623529 0.000000
0.976471 0.623529 0.000000
1.000000 0.631373 0.003922
0.101961 0.690196 0.000000
0.117647 0.690196 0.011765
0.149020 0.690196 0.000000
0.180392 0.690196 0.000000
0.203922 0.690196 0.000000
0.247059 0.694118 0.003922
0.290196 0.698039 0.003922
0.337255 0.690196 0.000000
0.372549 0.686275 0.000000
0.411765 0.686275 0.000000
0.443137 0.690196 0.000000
0.482353 0.690196 0.000000
0.529412 0.686275 0.000000
0.572549 0.690196 0.000000
0.607843 0.678431 0.000000
0.647059 0.686275 0.000000
0.690196 0.682353 0.003922
0.725490 0.678431 0.003922
0.764706 0.670588 0.000000
0.815686 0.674510 0.000000
0.850980 0.670588 0.000000
0.894118 0.674510 0.000000
0.937255 0.670588 0.000000
0.984314 0.666667 0.003922
0.992157 0.670588 0.000000
0.121569 0.725490 0.003922
0.141176 0.721569 0.000000
0.160784 0.725490 0.000000
0.188235 0.729412 0.000000
0.223529 0.725490 0.000000
0.258824 0.721569 0.000000
0.298039 0.729412 0.000000
0.333333 0.725490 0.000000
0.368627 0.721569 0.000000
0.403922 0.725490 0.000000
0.443137 0.721569 0.000000
0.482353 0.725490 0.000000
0.525490 0.721569 0.000000
0.560784 0.717647 0.000000
0.603922 0.721569 0.000000
0.643137 0.721569 0.000000
0.686275 0.717647 0.000000
0.721569 0.713725 0.000000
0.768627 0.713725 0.000000
0.807843 0.709804 0.000000
0.850980 0.709804 0.000000
0.890196 0.709804 0.000000
0.929412 0.705882 0.003922
0.984314 0.705882 0.007843
0.996078 0.713725 0.000000
0.137255 0.760784 0.000000
0.152941 0.760784 0.000000
0.172549 0.756863 0.003922
0.196078 0.768627 0.003922
0.223529 0.760784 0.007843
0.258824 0.768627 0.000000
0.294118 0.764706 0.000000
0.333333 0.764706 0.000000
0.368627 0.768627 0.000000
0.407843 0.768627 0.003922
0.443137 0.764706 0.000000
0.482353 0.756863 0.000000
0.521569 0.756863 0.000000
0.568627 0.752941 0.000000
0.607843 0.752941 0.003922
0.650980 0.756863 0.007843
0.686275 0.752941 0.000000
0.721569 0.749020 0.000000
0.760784 0.749020 0.000000
0.803922 0.752941 0.000000
0.843137 0.745098 0.000000
0.886275 0.752941 0.000000
0.929412 0.745098 0.000000
0.972549 0.741176 0.000000
1.000000 0.752941 0.000000
0.141176 0.792157 0.007843
0.164706 0.792157 0.007843
0.184314 0.800000 0.003922
0.200000 0.807843 0.000000
0.235294 0.803922 0.000000
0.262745 0.800000 0.000000
0.298039 0.803922 0.000000
0.321569 0.796078 0.000000
0.368627 0.807843 0.000000
0.400000 0.796078 0.000000
0.450980 0.796078 0.003922
0.490196 0.796078 0.011765
0.529412 0.796078 0.007843
0.564706 0.796078 0.003922
0.600000 0.792157 0.000000
0.639216 0.788235 0.000000
0.682353 0.788235 0.000000
0.721569 0.788235 0.000000
0.772549 0.792157 0.000000
0.811765 0.792157 0.000000
0.850980 0.788235 0.000000
0.894118 0.792157 0.003922
0.937255 0.792157 0.000000
0.976471 0.792157 0.000000
0.996078 0.796078 0.000000
0.176471 0.858824 0.031373
0.196078 0.858824 0.039216
0.211765 0.854902 0.031373
0.223529 0.858824 0.023529
0.258824 0.862745 0.031373
0.294118 0.858824 0.031373
0.321569 0.854902 0.023529
0.345098 0.854902 0.015686
0.380392 0.850980 0.011765
0.419608 0.854902 0.007843
0.458824 0.847059 0.003922
0.494118 0.850980 0.000000
0.533333 0.850980 0.000000
0.576471 0.847059 0.000000
0.623529 0.847059 0.000000
0.662745 0.843137 0.003922
0.698039 0.843137 0.000000
0.737255 0.843137 0.000000
0.776471 0.843137 0.000000
0.815686 0.839216 0.000000
0.858824 0.839216 0.000000
0.898039 0.839216 0.003922
0.937255 0.839216 0.000000
0.984314 0.839216 0.003922
0.996078 0.847059 0.000000
0.156863 0.886275 0.003922
0.184314 0.894118 0.003922
0.196078 0.890196 0.000000
0.223529 0.894118 0.000000
0.262745 0.894118 0.000000
0.278431 0.894118 0.000000
0.313725 0.886275 0.011765
0.345098 0.898039 0.003922
0.388235 0.890196 0.000000
0.427451 0.890196 0.000000
0.462745 0.890196 0.000000
0.501961 0.886275 0.000000
0.533333 0.890196 0.000000
0.576471 0.894118 0.003922
0.623529 0.890196 0.007843
0.662745 0.886275 0.000000
0.701961 0.882353 0.007843
0.741176 0.882353 0.003922
0.776471 0.886275 0.000000
0.823529 0.890196 0.003922
0.858824 0.886275 0.000000
0.905882 0.886275 0.000000
0.945098 0.886275 0.003922
0.980392 0.886275 0.000000
1.000000 0.894118 0.000000
0.149020 0.933333 0.000000
0.188235 0.933333 0.003922
0.203922 0.933333 0.003922
0.215686 0.929412 0.000000
0.239216 0.937255 0.003922
0.274510 0.941176 0.003922
0.301961 0.937255 0.011765
0.345098 0.933333 0.003922
0.384314 0.933333 0.000000
0.423529 0.933333 0.000000
0.462745 0.933333 0.000000
0.501961 0.933333 0.003922
0.541176 0.933333 0.000000
0.576471 0.929412 0.000000
0.615686 0.929412 0.000000
0.654902 0.929412 0.003922
0.698039 0.925490 0.000000
0.737255 0.925490 0.000000
0.784314 0.929412 0.000000
0.823529 0.929412 0.000000
0.870588 0.925490 0.000000
0.909804 0.925490 0.003922
0.945098 0.933333 0.000000
0.996078 0.929412 0.000000
1.000000 0.929412 0.000000
0.145098 0.976471 0.000000
0.164706 0.980392 0.000000
0.188235 0.972549 0.000000
0.211765 0.980392 0.000000
0.243137 0.980392 0.000000
0.270588 0.976471 0.000000
0.309804 0.976471 0.007843
0.349020 0.976471 0.003922
0.384314 0.980392 0.000000
0.415686 0.980392 0.007843
0.450980 0.976471 0.000000
0.498039 0.976471 0.000000
0.537255 0.976471 0.000000
0.576471 0.976471 0.000000
0.619608 0.972549 0.000000
0.662745 0.976471 0.000000
0.701961 0.968627 0.000000
0.749020 0.968627 0.000000
0.792157 0.972549 0.000000
0.835294 0.968627 0.000000
0.886275 0.972549 0.007843
0.925490 0.972549 0.000000
0.956863 0.976471 0.000000
0.996078 0.976471 0.000000
0.996078 0.976471 0.000000
0.121569 1.000000 0.000000
0.137255 1.000000 0.000000
0.168627 1.000000 0.007843
0.192157 0.996078 0.000000
0.227451 0.992157 0.000000
0.266667 1.000000 0.007843
0.298039 0.996078 0.000000
0.333333 1.000000 0.000000
0.368627 1.000000 0.003922
0.411765 1.000000 0.003922
0.450980 1.000000 0.000000
0.498039 0.996078 0.003922
0.541176 1.000000 0.000000
0.580392 1.000000 0.000000
0.627451 1.000000 0.000000
0.674510 1.000000 0.000000
0.717647 0.996078 0.000000
0.764706 1.000000 0.003922
0.815686 1.000000 0.003922
0.854902 1.000000 0.000000
0.913725 0.996078 0.003922
0.956863 1.000000 0.003922
0.988235 1.000000 0.007843
1.000000 0.996078 0.003922
1.000000 1.000000 0.000000
0.007843 0.000000 0.031373
0.027451 0.000000 0.031373
0.082353 0.000000 0.035294
0.129412 0.000000 0.027451
0.176471 0.000000 0.019608
0.231373 0.000000 0.023529
0.286275 0.003922 0.019608
0.349020 0.000000 0.023529
0.411765 0.003922 0.007843
0.454902 0.000000 0.003922
0.509804 0.000000 0.007843
0.549020 0.000000 0.003922
0.588235 0.000000 0.003922
0.627451 0.000000 0.000000
0.662745 0.000000 0.000000
0.690196 0.000000 0.003922
0.725490 0.003922 0.003922
0.752941 0.003922 0.003922
0.788235 0.000000 0.000000
0.823529 0.000000 0.003922
0.862745 0.003922 0.000000
0.894118 0.003922 0.007843
0.929412 0.000000 0.000000
0.972549 0.003922 0.003922
0.996078 0.000000 0.000000
0.000000 0.043137 0.019608
0.019608 0.043137 0.035294
0.086275 0.043137 0.027451
0.121569 0.047059 0.031373
0.180392 0.043137 0.035294
0.231373 0.043137 0.027451
0.286275 0.050980 0.011765
0.341176 0.050980 0.015686
0.392157 0.054902 0.011765
0.450980 0.050980 0.003922
0.501961 0.047059 0.003922
0.545098 0.043137 0.000000
0.584314 0.043137 0.000000
0.623529 0.043137 0.000000
0.662745 0.043137 0.000000
0.690196 0.043137 0.000000
0.725490 0.043137 0.000000
0.756863 0.043137 0.000000
0.788235 0.047059 0.000000
0.823529 0.047059 0.003922
0.858824 0.043137 0.000000
0.901961 0.043137 0.000000
0.941176 0.043137 0.000000
0.972549 0.031373 0.003922
1.000000 0.019608 0.000000
0.000000 0.090196 0.011765
0.023529 0.090196 0.027451
0.078431 0.098039 0.019608
0.125490 0.094118 0.015686
0.172549 0.090196 0.015686
0.227451 0.101961 0.019608
0.286275 0.105882 0.015686
0.341176 0.101961 0.019608
0.400000 0.101961 0.007843
0.454902 0.101961 0.000000
0.505882 0.098039 0.000000
0.549020 0.101961 0.000000
0.592157 0.098039 0.003922
0.631373 0.098039 0.011765
0.654902 0.094118 0.000000
0.694118 0.094118 0.003922
0.725490 0.090196 0.000000
0.749020 0.094118 0.000000
0.788235 0.090196 0.003922
0.819608 0.090196 0.000000
0.847059 0.090196 0.000000
0.886275 0.090196 0.000000
0.929412 0.082353 0.000000
0.964706 0.078431 0.000000
0.996078 0.066667 0.003922
0.000000 0.145098 0.015686
0.007843 0.137255 0.015686
0.074510 0.141176 0.015686
0.125490 0.137255 0.015686
0.180392 0.145098 0.023529
0.227451 0.149020 0.011765
0.282353 0.149020 0.003922
0.341176 0.152941 0.003922
0.396078 0.152941 0.000000
0.447059 0.152941 0.000000
0.498039 0.152941 0.003922
0.549020 0.149020 0.000000
0.584314 0.145098 0.000000
0.619608 0.152941 0.000000
0.650980 0.145098 0.000000
0.686275 0.141176 0.000000
0.717647 0.137255 0.000000
0.745098 0.137255 0.000000
0.776471 0.133333 0.000000
0.815686 0.133333 0.000000
0.854902 0.133333 0.000000
0.878431 0.125490 0.003922
0.929412 0.117647 0.007843
0.968627 0.121569 0.000000
1.000000 0.117647 0.000000
0.000000 0.184314 0.011765
0.007843 0.188235 0.007843
0.062745 0.188235 0.003922
0.121569 0.196078 0.019608
0.176471 0.192157 0.000000
0.227451 0.196078 0.003922
0.286275 0.200000 0.003922
0.341176 0.200000 0.000000
0.403922 0.207843 0.007843
0.450980 0.203922 0.003922
0.501961 0.203922 0.007843
0.541176 0.200000 0.000000
0.588235 0.196078 0.000000
0.623529 0.192157 0.000000
0.658824 0.188235 0.000000
0.682353 0.180392 0.000000
0.713725 0.180392 0.000000
0.741176 0.176471 0.000000
0.780392 0.176471 0.003922
0.811765 0.172549 0.003922
0.839216 0.176471 0.000000
0.878431 0.172549 0.000000
0.925490 0.164706 0.000000
0.964706 0.164706 0.000000
0.992157 0.156863 0.000000
0.003922 0.247059 0.000000
0.000000 0.254902 0.000000
0.050980 0.254902 0.000000
0.121569 0.258824 0.000000
0.180392 0.254902 0.003922
0.235294 0.254902 0.000000
0.294118 0.262745 0.007843
0.349020 0.258824 0.000000
0.407843 0.258824 0.003922
0.458824 0.258824 0.003922
0.509804 0.254902 0.003922
0.545098 0.250980 0.000000
0.588235 0.243137 0.000000
0.627451 0.243137 0.000000
0.662745 0.239216 0.000000
0.690196 0.235294 0.000000
0.721569 0.227451 0.000000
0.756863 0.223529 0.003922
0.788235 0.211765 0.000000
0.823529 0.215686 0.003922
0.862745 0.215686 0.000000
0.890196 0.215686 0.003922
0.929412 0.215686 0.000000
0.968627 0.215686 0.000000
0.992157 0.215686 0.007843
0.011765 0.301961 0.000000
0.011765 0.301961 0.000000
0.039216 0.309804 0.000000
0.117647 0.305882 0.000000
0.184314 0.305882 0.000000
0.231373 0.317647 0.000000
0.294118 0.309804 0.011765
0.352941 0.309804 0.000000
0.400000 0.309804 0.000000
0.454902 0.301961 0.000000
0.505882 0.298039 0.000000
0.552941 0.294118 0.000000
0.592157 0.294118 0.000000
0.623529 0.286275 0.000000
0.654902 0.286275 0.003922
0.694118 0.274510 0.000000
0.717647 0.270588 0.000000
0.752941 0.266667 0.000000
0.784314 0.262745 0.000000
0.815686 0.266667 0.003922
0.850980 0.258824 0.003922
0.886275 0.254902 0.000000
0.925490 0.254902 0.003922
0.980392 0.247059 0.000000
1.000000 0.250980 0.007843
0.000000 0.352941 0.007843
0.000000 0.356863 0.000000
0.027451 0.360784 0.003922
0.109804 0.356863 0.007843
0.188235 0.364706 0.007843
0.239216 0.360784 0.000000
0.298039 0.356863 0.000000
0.349020 0.364706 0.000000
0.411765 0.360784 0.000000
0.462745 0.360784 0.000000
0.505882 0.352941 0.000000
0.545098 0.345098 0.000000
0.580392 0.341176 0.000000
0.615686 0.333333 0.000000
0.647059 0.325490 0.000000
0.682353 0.321569 0.003922
0.717647 0.313725 0.003922
0.745098 0.309804 0.000000
0.784314 0.301961 0.000000
0.815686 0.298039 0.003922
0.854902 0.294118 0.000000
0.894118 0.294118 0.000000
0.929412 0.294118 0.000000
0.972549 0.294118 0.000000
1.000000 0.286275 0.000000
0.000000 0.400000 0.000000
0.000000 0.407843 0.003922
0.019608 0.403922 0.007843
0.109804 0.403922 0.000000
0.172549 0.411765 0.003922
0.239216 0.407843 0.000000
0.290196 0.411765 0.003922
0.349020 0.407843 0.000000
0.403922 0.407843 0.000000
0.454902 0.403922 0.000000
0.498039 0.400000 0.000000
0.541176 0.392157 0.003922
0.576471 0.388235 0.003922
0.619608 0.372549 0.007843
0.650980 0.364706 0.003922
0.686275 0.356863 0.003922
0.709804 0.352941 0.003922
0.745098 0.349020 0.003922
0.772549 0.341176 0.000000
0.811765 0.341176 0.003922
0.839216 0.341176 0.007843
0.882353 0.333333 0.000000
0.925490 0.329412 0.000000
0.972549 0.329412 0.007843
1.000000 0.325490 0.000000
0.000000 0.450980 0.003922
0.000000 0.454902 0.000000
0.015686 0.458824 0.000000
0.101961 0.450980 0.000000
0.180392 0.450980 0.000000
0.227451 0.450980 0.000000
0.290196 0.447059 0.000000
0.345098 0.450980 0.000000
0.400000 0.450980 0.000000
0.447059 0.450980 0.000000
0.490196 0.447059 0.000000
0.529412 0.439216 0.000000
0.568627 0.423529 0.003922
0.607843 0.419608 0.003922
0.639216 0.407843 0.000000
0.674510 0.403922 0.000000
0.705882 0.396078 0.003922
0.733333 0.388235 0.003922
0.768627 0.384314 0.000000
0.807843 0.384314 0.000000
0.850980 0.372549 0.000000
0.886275 0.376471 0.007843
0.925490 0.372549 0.000000
0.964706 0.368627 0.000000
1.000000 0.372549 0.003922
0.000000 0.501961 0.003922
0.000000 0.501961 0.003922
0.043137 0.498039 0.000000
0.113725 0.501961 0.003922
0.184314 0.501961 0.000000
0.239216 0.498039 0.003922
0.294118 0.498039 0.000000
0.345098 0.498039 0.000000
0.392157 0.494118 0.000000
0.435294 0.490196 0.003922
