lut_library_archive/removed_20260629/50个风景lut/50个风景lut33.cube
# 版权归凌孟成所有，侵权必究
TITLE "Jungle LUT #33"
#LUT size
LUT_3D_SIZE 25
#LUT data points
0.023529 0.023529 0.015686
0.062745 0.023529 0.019608
0.101961 0.023529 0.019608
0.141176 0.023529 0.023529
0.184314 0.019608 0.023529
0.223529 0.023529 0.019608
0.270588 0.019608 0.015686
0.309804 0.019608 0.015686
0.349020 0.019608 0.011765
0.392157 0.015686 0.019608
0.443137 0.019608 0.011765
0.486275 0.019608 0.011765
0.541176 0.019608 0.003922
0.588235 0.011765 0.003922
0.639216 0.015686 0.003922
0.686275 0.015686 0.007843
0.741176 0.011765 0.000000
0.792157 0.011765 0.000000
0.835294 0.007843 0.000000
0.878431 0.000000 0.000000
0.925490 0.003922 0.000000
0.964706 0.003922 0.000000
0.996078 0.000000 0.000000
0.996078 0.000000 0.000000
1.000000 0.003922 0.003922
0.027451 0.054902 0.027451
0.050980 0.062745 0.019608
0.101961 0.062745 0.015686
0.137255 0.066667 0.027451
0.188235 0.054902 0.011765
0.223529 0.066667 0.027451
0.270588 0.058824 0.011765
0.309804 0.058824 0.019608
0.349020 0.058824 0.015686
0.400000 0.062745 0.019608
0.443137 0.058824 0.007843
0.490196 0.062745 0.011765
0.537255 0.058824 0.007843
0.588235 0.058824 0.003922
0.639216 0.062745 0.003922
0.694118 0.062745 0.000000
0.737255 0.058824 0.000000
0.784314 0.062745 0.000000
0.831373 0.058824 0.000000
0.882353 0.050980 0.003922
0.925490 0.043137 0.003922
0.968627 0.035294 0.000000
1.000000 0.035294 0.000000
1.000000 0.027451 0.000000
0.996078 0.023529 0.000000
0.039216 0.098039 0.023529
0.066667 0.094118 0.023529
0.109804 0.098039 0.023529
0.145098 0.094118 0.023529
0.180392 0.098039 0.015686
0.219608 0.098039 0.019608
0.262745 0.094118 0.019608
0.309804 0.094118 0.015686
0.356863 0.101961 0.023529
0.396078 0.098039 0.007843
0.443137 0.098039 0.011765
0.490196 0.098039 0.007843
0.541176 0.101961 0.007843
0.588235 0.101961 0.003922
0.650980 0.098039 0.000000
0.694118 0.101961 0.003922
0.737255 0.098039 0.000000
0.784314 0.094118 0.000000
0.831373 0.098039 0.000000
0.878431 0.094118 0.000000
0.921569 0.090196 0.003922
0.960784 0.086275 0.000000
0.996078 0.082353 0.000000
1.000000 0.074510 0.000000
0.988235 0.078431 0.007843
0.027451 0.141176 0.015686
0.074510 0.133333 0.011765
0.109804 0.137255 0.007843
0.137255 0.141176 0.007843
0.180392 0.137255 0.019608
0.227451 0.137255 0.015686
0.270588 0.141176 0.019608
0.309804 0.141176 0.015686
0.352941 0.137255 0.015686
0.400000 0.141176 0.015686
0.447059 0.137255 0.007843
0.494118 0.141176 0.000000
0.533333 0.141176 0.000000
0.588235 0.141176 0.000000
0.639216 0.145098 0.007843
0.686275 0.145098 0.000000
0.737255 0.145098 0.000000
0.784314 0.141176 0.000000
0.831373 0.145098 0.000000
0.878431 0.137255 0.000000
0.917647 0.133333 0.000000
0.960784 0.129412 0.003922
0.992157 0.129412 0.000000
0.992157 0.129412 0.000000
0.992157 0.121569 0.000000
0.027451 0.176471 0.015686
0.070588 0.172549 0.019608
0.109804 0.172549 0.019608
0.149020 0.176471 0.015686
0.184314 0.176471 0.015686
0.227451 0.184314 0.015686
0.266667 0.176471 0.011765
0.305882 0.176471 0.007843
0.352941 0.176471 0.015686
0.400000 0.176471 0.007843
0.447059 0.176471 0.007843
0.486275 0.176471 0.007843
0.545098 0.184314 0.000000
0.588235 0.180392 0.000000
0.643137 0.188235 0.003922
0.690196 0.188235 0.003922
0.733333 0.188235 0.003922
0.780392 0.184314 0.000000
0.827451 0.184314 0.003922
0.874510 0.184314 0.000000
0.917647 0.180392 0.000000
0.960784 0.180392 0.000000
0.992157 0.176471 0.000000
0.996078 0.172549 0.000000
0.996078 0.172549 0.003922
0.047059 0.219608 0.027451
0.074510 0.215686 0.019608
0.109804 0.219608 0.019608
0.149020 0.219608 0.015686
0.188235 0.219608 0.019608
0.227451 0.223529 0.011765
0.266667 0.223529 0.011765
0.309804 0.227451 0.011765
0.360784 0.223529 0.007843
0.407843 0.223529 0.011765
0.454902 0.223529 0.003922
0.501961 0.223529 0.003922
0.552941 0.231373 0.003922
0.607843 0.231373 0.000000
0.658824 0.235294 0.000000
0.701961 0.231373 0.000000
0.745098 0.235294 0.007843
0.796078 0.227451 0.003922
0.839216 0.227451 0.000000
0.878431 0.227451 0.000000
0.925490 0.227451 0.007843
0.964706 0.231373 0.000000
0.996078 0.219608 0.000000
0.996078 0.219608 0.000000
0.992157 0.223529 0.003922
0.062745 0.250980 0.015686
0.098039 0.254902 0.011765
0.121569 0.262745 0.019608
0.160784 0.254902 0.019608
0.196078 0.258824 0.003922
0.227451 0.262745 0.007843
0.274510 0.258824 0.011765
0.317647 0.266667 0.007843
0.356863 0.266667 0.003922
0.403922 0.266667 0.000000
0.450980 0.266667 0.000000
0.498039 0.266667 0.000000
0.549020 0.274510 0.000000
0.603922 0.274510 0.000000
0.647059 0.278431 0.003922
0.705882 0.274510 0.003922
0.749020 0.278431 0.003922
0.796078 0.274510 0.003922
0.835294 0.278431 0.000000
0.878431 0.274510 0.000000
0.925490 0.274510 0.000000
0.968627 0.266667 0.003922
0.996078 0.266667 0.003922
1.000000 0.262745 0.003922
1.000000 0.266667 0.000000
0.078431 0.298039 0.019608
0.094118 0.305882 0.007843
0.121569 0.301961 0.007843
0.160784 0.305882 0.003922
0.192157 0.301961 0.003922
0.243137 0.298039 0.003922
0.274510 0.301961 0.000000
0.317647 0.305882 0.003922
0.368627 0.305882 0.003922
0.411765 0.313725 0.000000
0.454902 0.309804 0.000000
0.498039 0.313725 0.000000
0.549020 0.321569 0.000000
0.600000 0.321569 0.000000
0.647059 0.325490 0.000000
0.698039 0.325490 0.003922
0.741176 0.325490 0.000000
0.784314 0.321569 0.000000
0.835294 0.317647 0.000000
0.878431 0.321569 0.007843
0.921569 0.317647 0.003922
0.968627 0.313725 0.000000
1.000000 0.309804 0.000000
1.000000 0.309804 0.000000
1.000000 0.305882 0.000000
0.094118 0.337255 0.000000
0.101961 0.349020 0.000000
0.129412 0.349020 0.000000
0.164706 0.345098 0.000000
0.207843 0.349020 0.003922
0.247059 0.349020 0.000000
0.290196 0.352941 0.003922
0.329412 0.352941 0.000000
0.364706 0.349020 0.000000
0.411765 0.349020 0.003922
0.458824 0.360784 0.007843
0.505882 0.360784 0.003922
0.545098 0.364706 0.000000
0.607843 0.360784 0.000000
0.658824 0.364706 0.007843
0.701961 0.364706 0.000000
0.749020 0.360784 0.000000
0.792157 0.356863 0.003922
0.835294 0.360784 0.003922
0.878431 0.360784 0.000000
0.913725 0.356863 0.000000
0.964706 0.356863 0.003922
1.000000 0.356863 0.003922
1.000000 0.345098 0.000000
0.996078 0.349020 0.000000
0.094118 0.384314 0.000000
0.117647 0.396078 0.000000
0.137255 0.400000 0.000000
0.176471 0.400000 0.000000
0.207843 0.396078 0.000000
0.250980 0.400000 0.000000
0.290196 0.400000 0.000000
0.329412 0.400000 0.000000
0.372549 0.400000 0.000000
0.411765 0.400000 0.000000
0.458824 0.400000 0.000000
0.498039 0.400000 0.000000
0.560784 0.407843 0.000000
0.607843 0.403922 0.003922
0.654902 0.407843 0.000000
0.698039 0.407843 0.000000
0.749020 0.407843 0.003922
0.788235 0.407843 0.000000
0.831373 0.407843 0.000000
0.874510 0.403922 0.000000
0.917647 0.407843 0.000000
0.968627 0.400000 0.003922
1.000000 0.400000 0.003922
1.000000 0.400000 0.003922
1.000000 0.392157 0.000000
0.105882 0.454902 0.000000
0.129412 0.454902 0.000000
0.152941 0.454902 0.000000
0.184314 0.454902 0.000000
0.223529 0.454902 0.000000
0.262745 0.454902 0.003922
0.301961 0.454902 0.003922
0.349020 0.454902 0.003922
0.384314 0.454902 0.000000
0.427451 0.458824 0.000000
0.478431 0.458824 0.000000
0.517647 0.458824 0.000000
0.564706 0.458824 0.000000
0.615686 0.462745 0.003922
0.658824 0.458824 0.000000
0.705882 0.462745 0.003922
0.756863 0.462745 0.003922
0.796078 0.454902 0.000000
0.843137 0.454902 0.000000
0.882353 0.447059 0.000000
0.925490 0.450980 0.000000
0.968627 0.447059 0.000000
0.996078 0.443137 0.000000
1.000000 0.447059 0.000000
0.996078 0.435294 0.000000
0.113725 0.501961 0.007843
0.137255 0.498039 0.007843
0.156863 0.494118 0.000000
0.200000 0.498039 0.003922
0.227451 0.501961 0.011765
0.262745 0.498039 0.003922
0.301961 0.505882 0.003922
0.345098 0.498039 0.000000
0.396078 0.501961 0.000000
0.435294 0.501961 0.000000
0.474510 0.501961 0.000000
0.521569 0.501961 0.000000
0.568627 0.501961 0.000000
0.615686 0.501961 0.000000
0.658824 0.505882 0.000000
0.709804 0.501961 0.000000
0.756863 0.501961 0.000000
0.800000 0.498039 0.000000
0.839216 0.498039 0.000000
0.882353 0.494118 0.000000
0.925490 0.490196 0.000000
0.968627 0.494118 0.003922
1.000000 0.486275 0.000000
0.996078 0.478431 0.011765
1.000000 0.486275 0.000000
0.109804 0.545098 0.000000
0.145098 0.549020 0.000000
0.164706 0.552941 0.000000
0.196078 0.552941 0.000000
0.231373 0.549020 0.003922
0.266667 0.545098 0.000000
0.309804 0.549020 0.000000
0.349020 0.549020 0.000000
0.396078 0.549020 0.000000
0.439216 0.549020 0.003922
0.482353 0.549020 0.000000
0.529412 0.545098 0.000000
0.576471 0.549020 0.000000
0.619608 0.545098 0.003922
0.662745 0.537255 0.000000
0.705882 0.541176 0.000000
0.752941 0.545098 0.003922
0.800000 0.541176 0.000000
0.843137 0.541176 0.000000
0.882353 0.541176 0.000000
0.925490 0.537255 0.000000
0.972549 0.533333 0.000000
0.996078 0.525490 0.007843
0.996078 0.533333 0.007843
1.000000 0.533333 0.000000
0.137255 0.592157 0.000000
0.160784 0.592157 0.000000
0.180392 0.588235 0.003922
0.203922 0.588235 0.003922
0.239216 0.592157 0.003922
0.278431 0.592157 0.000000
0.317647 0.592157 0.003922
0.356863 0.592157 0.003922
0.396078 0.592157 0.000000
0.443137 0.596078 0.003922
0.490196 0.592157 0.000000
0.533333 0.592157 0.000000
0.576471 0.588235 0.000000
0.611765 0.588235 0.000000
0.658824 0.592157 0.003922
0.705882 0.588235 0.000000
0.749020 0.588235 0.000000
0.796078 0.584314 0.000000
0.839216 0.580392 0.000000
0.882353 0.580392 0.000000
0.917647 0.576471 0.000000
0.956863 0.572549 0.003922
0.996078 0.572549 0.003922
1.000000 0.564706 0.003922
0.996078 0.572549 0.007843
0.141176 0.635294 0.003922
0.160784 0.639216 0.000000
0.180392 0.635294 0.003922
0.215686 0.639216 0.000000
0.243137 0.635294 0.003922
0.282353 0.635294 0.000000
0.317647 0.631373 0.000000
0.360784 0.635294 0.003922
0.400000 0.635294 0.000000
0.447059 0.635294 0.003922
0.494118 0.635294 0.000000
0.533333 0.635294 0.000000
0.572549 0.635294 0.003922
0.615686 0.635294 0.000000
0.662745 0.631373 0.000000
0.705882 0.631373 0.000000
0.756863 0.631373 0.003922
0.800000 0.627451 0.003922
0.839216 0.619608 0.000000
0.886275 0.619608 0.000000
0.917647 0.619608 0.000000
0.968627 0.615686 0.000000
1.000000 0.615686 0.000000
1.000000 0.615686 0.000000
1.000000 0.615686 0.000000
0.160784 0.698039 0.007843
0.184314 0.694118 0.003922
0.196078 0.694118 0.000000
0.211765 0.694118 0.000000
0.250980 0.694118 0.003922
0.286275 0.694118 0.000000
0.325490 0.690196 0.000000
0.376471 0.690196 0.003922
0.415686 0.690196 0.000000
0.454902 0.690196 0.000000
0.498039 0.690196 0.000000
0.537255 0.686275 0.000000
0.580392 0.682353 0.007843
0.627451 0.682353 0.003922
0.682353 0.682353 0.003922
0.721569 0.682353 0.003922
0.760784 0.682353 0.000000
0.807843 0.678431 0.000000
0.847059 0.678431 0.000000
0.890196 0.670588 0.000000
0.929412 0.670588 0.003922
0.972549 0.666667 0.000000
1.000000 0.662745 0.000000
0.996078 0.654902 0.000000
1.000000 0.654902 0.003922
0.156863 0.721569 0.000000
0.172549 0.725490 0.003922
0.207843 0.733333 0.007843
0.227451 0.733333 0.000000
0.254902 0.725490 0.000000
0.298039 0.729412 0.000000
0.337255 0.737255 0.000000
0.368627 0.729412 0.000000
0.411765 0.733333 0.003922
0.454902 0.729412 0.000000
0.494118 0.729412 0.007843
0.537255 0.725490 0.003922
0.584314 0.725490 0.000000
0.627451 0.721569 0.000000
0.678431 0.725490 0.000000
0.721569 0.721569 0.000000
0.764706 0.717647 0.003922
0.800000 0.713725 0.000000
0.843137 0.717647 0.000000
0.886275 0.709804 0.000000
0.929412 0.709804 0.000000
0.968627 0.709804 0.003922
1.000000 0.705882 0.003922
1.000000 0.701961 0.003922
0.996078 0.694118 0.011765
0.176471 0.764706 0.000000
0.192157 0.760784 0.003922
0.227451 0.764706 0.011765
0.235294 0.772549 0.011765
0.274510 0.768627 0.003922
0.294118 0.772549 0.000000
0.333333 0.772549 0.003922
0.372549 0.772549 0.000000
0.411765 0.764706 0.000000
0.454902 0.768627 0.000000
0.494118 0.768627 0.000000
0.533333 0.768627 0.000000
0.580392 0.768627 0.000000
0.623529 0.764706 0.000000
0.674510 0.764706 0.003922
0.717647 0.760784 0.007843
0.760784 0.760784 0.007843
0.800000 0.760784 0.003922
0.839216 0.760784 0.003922
0.886275 0.756863 0.000000
0.921569 0.752941 0.000000
0.960784 0.752941 0.000000
1.000000 0.745098 0.000000
1.000000 0.737255 0.000000
1.000000 0.733333 0.000000
0.192157 0.811765 0.000000
0.200000 0.807843 0.000000
0.211765 0.811765 0.003922
0.250980 0.807843 0.000000
0.266667 0.815686 0.000000
0.301961 0.807843 0.000000
0.337255 0.803922 0.000000
0.380392 0.807843 0.000000
0.411765 0.811765 0.000000
0.462745 0.811765 0.003922
0.498039 0.807843 0.003922
0.537255 0.800000 0.000000
0.584314 0.800000 0.000000
0.627451 0.803922 0.000000
0.674510 0.803922 0.007843
0.713725 0.796078 0.000000
0.756863 0.803922 0.003922
0.803922 0.800000 0.000000
0.839216 0.796078 0.000000
0.886275 0.796078 0.003922
0.921569 0.792157 0.003922
0.956863 0.788235 0.000000
0.992157 0.784314 0.000000
1.000000 0.776471 0.003922
0.996078 0.776471 0.000000
0.200000 0.847059 0.000000
0.207843 0.843137 0.000000
0.219608 0.847059 0.007843
0.243137 0.850980 0.003922
0.274510 0.850980 0.000000
0.309804 0.843137 0.000000
0.341176 0.847059 0.000000
0.384314 0.850980 0.003922
0.419608 0.847059 0.003922
0.458824 0.847059 0.003922
0.505882 0.843137 0.000000
0.541176 0.843137 0.000000
0.584314 0.843137 0.003922
0.627451 0.843137 0.000000
0.662745 0.839216 0.000000
0.701961 0.839216 0.000000
0.749020 0.839216 0.000000
0.788235 0.839216 0.000000
0.839216 0.843137 0.000000
0.878431 0.839216 0.003922
0.925490 0.831373 0.000000
0.968627 0.831373 0.000000
1.000000 0.827451 0.000000
1.000000 0.827451 0.000000
0.996078 0.823529 0.000000
0.211765 0.894118 0.000000
0.235294 0.894118 0.000000
0.250980 0.894118 0.000000
0.262745 0.894118 0.000000
0.294118 0.890196 0.000000
0.321569 0.898039 0.003922
0.356863 0.894118 0.000000
0.396078 0.894118 0.003922
0.427451 0.890196 0.003922
0.466667 0.890196 0.003922
0.509804 0.890196 0.000000
0.545098 0.894118 0.000000
0.584314 0.890196 0.003922
0.627451 0.890196 0.000000
0.666667 0.890196 0.000000
0.709804 0.886275 0.000000
0.752941 0.890196 0.003922
0.796078 0.882353 0.000000
0.839216 0.882353 0.000000
0.886275 0.878431 0.000000
0.925490 0.878431 0.000000
0.968627 0.878431 0.000000
1.000000 0.874510 0.000000
1.000000 0.874510 0.003922
1.000000 0.866667 0.000000
0.219608 0.921569 0.007843
0.231373 0.929412 0.003922
0.243137 0.925490 0.000000
0.270588 0.929412 0.000000
0.298039 0.937255 0.000000
0.329412 0.925490 0.000000
0.356863 0.917647 0.007843
0.388235 0.929412 0.003922
0.427451 0.929412 0.000000
0.470588 0.929412 0.000000
0.501961 0.925490 0.000000
0.545098 0.921569 0.003922
0.580392 0.925490 0.000000
0.623529 0.925490 0.000000
0.666667 0.929412 0.000000
0.698039 0.925490 0.000000
0.741176 0.925490 0.000000
0.788235 0.921569 0.000000
0.835294 0.925490 0.000000
0.882353 0.921569 0.000000
0.921569 0.913725 0.000000
0.964706 0.917647 0.000000
1.000000 0.913725 0.000000
1.000000 0.909804 0.000000
1.000000 0.905882 0.000000
0.231373 0.964706 0.000000
0.243137 0.964706 0.000000
0.254902 0.964706 0.000000
0.270588 0.964706 0.000000
0.294118 0.968627 0.000000
0.325490 0.968627 0.007843
0.349020 0.968627 0.000000
0.384314 0.964706 0.000000
0.423529 0.964706 0.000000
0.462745 0.964706 0.000000
0.501961 0.964706 0.000000
0.537255 0.960784 0.003922
0.576471 0.960784 0.000000
0.615686 0.960784 0.000000
0.654902 0.964706 0.000000
0.701961 0.960784 0.000000
0.749020 0.960784 0.000000
0.784314 0.956863 0.000000
0.835294 0.956863 0.000000
0.874510 0.956863 0.003922
0.917647 0.956863 0.000000
0.956863 0.952941 0.003922
0.996078 0.956863 0.003922
0.992157 0.952941 0.000000
0.996078 0.956863 0.000000
0.231373 0.996078 0.000000
0.250980 1.000000 0.000000
0.270588 0.996078 0.000000
0.278431 1.000000 0.007843
0.309804 0.996078 0.003922
0.329412 1.000000 0.000000
0.364706 0.996078 0.000000
0.396078 0.996078 0.000000
0.431373 1.000000 0.000000
0.466667 1.000000 0.007843
0.501961 1.000000 0.000000
0.541176 1.000000 0.000000
0.580392 1.000000 0.003922
0.615686 0.996078 0.000000
0.662745 0.996078 0.000000
0.705882 0.992157 0.000000
0.749020 0.996078 0.000000
0.792157 0.992157 0.000000
0.831373 0.992157 0.000000
0.874510 0.992157 0.000000
0.917647 0.984314 0.000000
0.960784 0.980392 0.000000
0.988235 0.988235 0.000000
1.000000 0.984314 0.003922
0.988235 0.984314 0.000000
0.258824 0.996078 0.007843
0.262745 0.996078 0.000000
0.282353 0.996078 0.003922
0.298039 1.000000 0.000000
0.309804 1.000000 0.000000
0.341176 0.996078 0.000000
0.368627 0.992157 0.000000
0.400000 1.000000 0.003922
0.427451 0.996078 0.003922
0.462745 1.000000 0.003922
0.501961 1.000000 0.000000
0.545098 1.000000 0.007843
0.580392 1.000000 0.000000
0.623529 1.000000 0.000000
0.674510 1.000000 0.000000
0.713725 1.000000 0.000000
0.756863 0.996078 0.000000
0.796078 0.996078 0.003922
0.843137 1.000000 0.000000
0.882353 1.000000 0.003922
0.925490 1.000000 0.000000
0.972549 1.000000 0.003922
1.000000 1.000000 0.000000
1.000000 1.000000 0.003922
1.000000 0.996078 0.003922
0.027451 0.019608 0.062745
0.062745 0.023529 0.058824
0.098039 0.019608 0.054902
0.141176 0.015686 0.058824
0.184314 0.015686 0.054902
0.223529 0.023529 0.058824
0.262745 0.023529 0.050980
0.309804 0.023529 0.058824
0.360784 0.027451 0.050980
0.396078 0.023529 0.054902
0.443137 0.023529 0.047059
0.490196 0.023529 0.047059
0.537255 0.019608 0.043137
0.588235 0.019608 0.047059
0.639216 0.019608 0.039216
0.682353 0.015686 0.035294
0.745098 0.007843 0.023529
0.788235 0.003922 0.015686
0.831373 0.003922 0.007843
0.882353 0.003922 0.007843
0.925490 0.003922 0.007843
0.964706 0.003922 0.003922
0.996078 0.000000 0.007843
0.996078 0.000000 0.000000
1.000000 0.003922 0.003922
0.015686 0.062745 0.047059
0.074510 0.054902 0.043137
0.105882 0.062745 0.054902
0.133333 0.058824 0.066667
0.188235 0.054902 0.050980
0.219608 0.066667 0.054902
0.270588 0.062745 0.043137
0.305882 0.066667 0.054902
0.352941 0.066667 0.050980
0.400000 0.066667 0.054902
0.447059 0.062745 0.050980
0.490196 0.062745 0.050980
0.545098 0.058824 0.050980
0.592157 0.062745 0.047059
0.639216 0.066667 0.047059
0.698039 0.062745 0.023529
0.741176 0.058824 0.023529
0.792157 0.054902 0.019608
0.831373 0.054902 0.019608
0.878431 0.047059 0.003922
0.921569 0.039216 0.000000
0.968627 0.035294 0.000000
1.000000 0.027451 0.000000
0.988235 0.031373 0.000000
1.000000 0.011765 0.011765
0.019608 0.098039 0.050980
0.066667 0.098039 0.054902
0.105882 0.094118 0.058824
0.149020 0.098039 0.066667
0.184314 0.098039 0.047059
0.235294 0.090196 0.050980
0.266667 0.094118 0.050980
0.317647 0.098039 0.050980
0.356863 0.098039 0.043137
0.403922 0.098039 0.047059
0.447059 0.101961 0.054902
0.490196 0.101961 0.050980
0.541176 0.101961 0.047059
0.588235 0.105882 0.047059
0.639216 0.098039 0.027451
0.690196 0.098039 0.031373
0.741176 0.098039 0.023529
0.788235 0.098039 0.015686
0.831373 0.094118 0.015686
0.878431 0.094118 0.003922
0.921569 0.094118 0.000000
0.964706 0.090196 0.000000
1.000000 0.082353 0.000000
0.992157 0.074510 0.007843
1.000000 0.074510 0.000000
0.023529 0.137255 0.050980
0.074510 0.133333 0.058824
0.101961 0.137255 0.062745
0.141176 0.137255 0.050980
0.184314 0.137255 0.050980
0.227451 0.141176 0.050980
0.266667 0.141176 0.058824
0.305882 0.141176 0.047059
0.349020 0.137255 0.043137
0.396078 0.137255 0.043137
0.443137 0.137255 0.047059
0.490196 0.137255 0.035294
0.537255 0.141176 0.039216
0.596078 0.145098 0.035294
0.639216 0.141176 0.035294
0.690196 0.137255 0.027451
0.737255 0.141176 0.019608
0.784314 0.141176 0.011765
0.827451 0.137255 0.003922
0.874510 0.137255 0.000000
0.917647 0.137255 0.000000
0.956863 0.125490 0.000000
0.996078 0.129412 0.000000
1.000000 0.117647 0.000000
1.000000 0.117647 0.000000
0.031373 0.176471 0.047059
0.074510 0.180392 0.050980
0.101961 0.176471 0.058824
0.141176 0.176471 0.054902
0.188235 0.176471 0.054902
0.227451 0.176471 0.050980
0.266667 0.176471 0.050980
0.313725 0.184314 0.054902
0.356863 0.180392 0.050980
0.400000 0.180392 0.050980
0.447059 0.180392 0.043137
0.486275 0.180392 0.039216
0.537255 0.188235 0.039216
0.584314 0.184314 0.035294
0.639216 0.188235 0.035294
0.690196 0.192157 0.031373
0.737255 0.188235 0.019608
0.784314 0.188235 0.011765
0.835294 0.184314 0.003922
0.878431 0.180392 0.000000
0.917647 0.180392 0.000000
0.960784 0.176471 0.003922
0.992157 0.176471 0.003922
0.996078 0.172549 0.003922
0.992157 0.168627 0.000000
0.043137 0.219608 0.050980
0.078431 0.223529 0.054902
0.113725 0.219608 0.050980
0.152941 0.219608 0.054902
0.196078 0.215686 0.054902
0.231373 0.219608 0.050980
0.270588 0.219608 0.047059
0.309804 0.219608 0.054902
0.352941 0.223529 0.047059
0.396078 0.223529 0.047059
0.447059 0.227451 0.039216
0.494118 0.227451 0.035294
0.549020 0.227451 0.039216
0.596078 0.231373 0.027451
0.650980 0.231373 0.019608
0.698039 0.231373 0.019608
0.745098 0.235294 0.007843
0.784314 0.227451 0.000000
0.835294 0.231373 0.000000
0.878431 0.227451 0.000000
0.921569 0.223529 0.000000
0.960784 0.227451 0.000000
0.996078 0.219608 0.000000
0.996078 0.219608 0.000000
0.992157 0.215686 0.000000
0.058824 0.254902 0.054902
0.090196 0.258824 0.050980
0.121569 0.254902 0.047059
0.156863 0.262745 0.062745
0.188235 0.262745 0.047059
0.227451 0.254902 0.050980
0.274510 0.266667 0.043137
0.309804 0.258824 0.050980
0.352941 0.262745 0.050980
0.403922 0.266667 0.039216
0.447059 0.266667 0.031373
0.501961 0.266667 0.023529
0.549020 0.270588 0.019608
0.603922 0.270588 0.015686
0.654902 0.270588 0.015686
0.705882 0.282353 0.007843
0.749020 0.278431 0.011765
0.796078 0.274510 0.003922
0.831373 0.274510 0.000000
0.874510 0.270588 0.000000
0.921569 0.270588 0.003922
0.960784 0.270588 0.003922
0.996078 0.266667 0.000000
1.000000 0.262745 0.000000
1.000000 0.262745 0.000000
0.066667 0.298039 0.039216
0.098039 0.301961 0.043137
0.125490 0.301961 0.047059
0.160784 0.301961 0.050980
0.200000 0.294118 0.050980
0.231373 0.305882 0.054902
0.266667 0.301961 0.047059
0.313725 0.309804 0.050980
0.360784 0.309804 0.043137
0.407843 0.313725 0.039216
0.458824 0.309804 0.031373
0.505882 0.309804 0.023529
0.552941 0.313725 0.007843
0.603922 0.317647 0.015686
0.643137 0.321569 0.000000
0.694118 0.321569 0.007843
0.741176 0.325490 0.000000
0.784314 0.321569 0.000000
0.835294 0.313725 0.003922
0.878431 0.313725 0.003922
0.925490 0.309804 0.000000
0.964706 0.309804 0.003922
1.000000 0.309804 0.000000
1.000000 0.305882 0.000000
1.000000 0.298039 0.000000
0.078431 0.341176 0.031373
0.105882 0.345098 0.043137
0.133333 0.345098 0.039216
0.168627 0.345098 0.023529
0.200000 0.352941 0.035294
0.239216 0.345098 0.043137
0.290196 0.345098 0.043137
0.329412 0.349020 0.035294
0.368627 0.349020 0.031373
0.415686 0.349020 0.027451
0.458824 0.349020 0.023529
0.509804 0.352941 0.011765
0.552941 0.356863 0.015686
0.611765 0.364706 0.007843
0.650980 0.364706 0.003922
0.698039 0.356863 0.003922
0.741176 0.364706 0.003922
0.788235 0.360784 0.003922
0.827451 0.360784 0.000000
0.870588 0.356863 0.000000
0.909804 0.356863 0.003922
0.960784 0.345098 0.000000
1.000000 0.352941 0.000000
1.000000 0.352941 0.000000
1.000000 0.349020 0.000000
0.094118 0.392157 0.031373
0.121569 0.392157 0.027451
0.141176 0.396078 0.027451
0.164706 0.400000 0.023529
0.211765 0.392157 0.035294
0.250980 0.396078 0.031373
0.286275 0.392157 0.019608
0.329412 0.396078 0.019608
0.372549 0.396078 0.019608
0.415686 0.400000 0.011765
0.458824 0.400000 0.003922
0.505882 0.407843 0.007843
0.556863 0.403922 0.000000
0.596078 0.403922 0.000000
0.650980 0.403922 0.000000
0.694118 0.407843 0.003922
0.749020 0.407843 0.003922
0.788235 0.407843 0.000000
0.831373 0.403922 0.000000
0.878431 0.407843 0.000000
0.925490 0.403922 0.000000
0.968627 0.400000 0.003922
1.000000 0.400000 0.003922
1.000000 0.400000 0.003922
1.000000 0.392157 0.000000
0.101961 0.447059 0.003922
0.125490 0.450980 0.003922
0.152941 0.454902 0.000000
0.184314 0.454902 0.000000
0.223529 0.450980 0.007843
0.262745 0.454902 0.003922
0.298039 0.450980 0.000000
0.345098 0.450980 0.007843
0.380392 0.447059 0.000000
0.431373 0.447059 0.003922
