lut_library_archive/removed_20260629/50个风景lut/50个风景lut32.cube
# 版权归凌孟成所有，侵权必究
TITLE "Jungle LUT #32"
#LUT size
LUT_3D_SIZE 9
#LUT data points
0.003922 0.000000 0.000000
0.152941 0.003922 0.003922
0.298039 0.000000 0.000000
0.439216 0.003922 0.000000
0.592157 0.000000 0.000000
0.745098 0.000000 0.000000
0.870588 0.003922 0.000000
0.984314 0.019608 0.000000
1.000000 0.035294 0.000000
0.007843 0.156863 0.000000
0.160784 0.145098 0.000000
0.305882 0.160784 0.000000
0.458824 0.152941 0.000000
0.603922 0.152941 0.007843
0.745098 0.152941 0.000000
0.878431 0.152941 0.000000
0.996078 0.152941 0.000000
1.000000 0.156863 0.003922
0.047059 0.298039 0.000000
0.168627 0.298039 0.011765
0.294118 0.298039 0.000000
0.454902 0.301961 0.000000
0.603922 0.301961 0.003922
0.741176 0.298039 0.000000
0.878431 0.294118 0.003922
0.992157 0.290196 0.000000
0.988235 0.286275 0.000000
0.098039 0.443137 0.000000
0.196078 0.439216 0.000000
0.321569 0.450980 0.000000
0.470588 0.447059 0.007843
0.611765 0.450980 0.000000
0.749020 0.447059 0.000000
0.874510 0.439216 0.000000
0.992157 0.427451 0.007843
1.000000 0.419608 0.043137
0.141176 0.588235 0.003922
0.219608 0.580392 0.003922
0.325490 0.584314 0.000000
0.466667 0.584314 0.000000
0.611765 0.584314 0.000000
0.745098 0.580392 0.000000
0.870588 0.564706 0.000000
0.992157 0.552941 0.023529
1.000000 0.541176 0.058824
0.180392 0.701961 0.007843
0.235294 0.701961 0.000000
0.337255 0.701961 0.000000
0.462745 0.701961 0.000000
0.596078 0.705882 0.000000
0.741176 0.705882 0.003922
0.862745 0.701961 0.011765
0.976471 0.686275 0.062745
1.000000 0.670588 0.090196
0.235294 0.831373 0.050980
0.274510 0.831373 0.047059
0.364706 0.827451 0.050980
0.474510 0.827451 0.058824
0.592157 0.827451 0.066667
0.725490 0.823529 0.070588
0.854902 0.823529 0.090196
0.972549 0.811765 0.113725
0.992157 0.792157 0.129412
0.274510 0.925490 0.141176
0.301961 0.933333 0.121569
0.376471 0.933333 0.125490
0.486275 0.929412 0.121569
0.584314 0.933333 0.133333
0.717647 0.929412 0.137255
0.835294 0.929412 0.145098
0.972549 0.921569 0.160784
0.992157 0.917647 0.180392
0.333333 0.996078 0.231373
0.345098 1.000000 0.207843
0.411765 0.992157 0.207843
0.498039 1.000000 0.219608
0.596078 1.000000 0.223529
0.717647 0.996078 0.235294
0.843137 1.000000 0.239216
0.976471 1.000000 0.254902
1.000000 1.000000 0.270588
0.003922 0.000000 0.133333
0.149020 0.003922 0.145098
0.305882 0.003922 0.145098
0.454902 0.003922 0.137255
0.603922 0.003922 0.137255
0.756863 0.015686 0.141176
0.878431 0.035294 0.129412
0.996078 0.058824 0.141176
0.992157 0.074510 0.149020
0.011765 0.152941 0.145098
0.160784 0.156863 0.137255
0.313725 0.160784 0.141176
0.462745 0.160784 0.137255
0.611765 0.160784 0.141176
0.760784 0.160784 0.141176
0.886275 0.164706 0.133333
1.000000 0.168627 0.145098
0.996078 0.172549 0.145098
0.058824 0.298039 0.137255
0.188235 0.298039 0.141176
0.313725 0.294118 0.137255
0.462745 0.301961 0.133333
0.607843 0.298039 0.129412
0.749020 0.301961 0.129412
0.882353 0.298039 0.133333
0.992157 0.294118 0.145098
0.996078 0.290196 0.152941
0.094118 0.458824 0.141176
0.203922 0.458824 0.137255
0.329412 0.450980 0.137255
0.474510 0.454902 0.133333
0.619608 0.454902 0.133333
0.756863 0.450980 0.137255
0.882353 0.443137 0.152941
0.996078 0.439216 0.156863
0.992157 0.423529 0.168627
0.152941 0.584314 0.125490
0.219608 0.592157 0.121569
0.337255 0.592157 0.129412
0.474510 0.596078 0.129412
0.611765 0.592157 0.129412
0.749020 0.588235 0.141176
0.874510 0.576471 0.141176
0.984314 0.564706 0.156863
0.992157 0.564706 0.172549
0.188235 0.705882 0.133333
0.239216 0.709804 0.125490
0.341176 0.709804 0.129412
0.466667 0.709804 0.133333
0.600000 0.709804 0.133333
0.737255 0.713725 0.141176
0.854902 0.705882 0.145098
0.980392 0.690196 0.168627
1.000000 0.670588 0.184314
0.243137 0.839216 0.168627
0.286275 0.831373 0.160784
0.372549 0.831373 0.168627
0.482353 0.831373 0.164706
0.600000 0.831373 0.172549
0.729412 0.827451 0.176471
0.858824 0.827451 0.188235
0.980392 0.811765 0.200000
0.988235 0.803922 0.215686
0.286275 0.929412 0.203922
0.317647 0.937255 0.200000
0.384314 0.933333 0.200000
0.490196 0.929412 0.200000
0.592157 0.929412 0.203922
0.713725 0.929412 0.215686
0.835294 0.929412 0.215686
0.968627 0.925490 0.227451
1.000000 0.909804 0.250980
0.341176 0.996078 0.278431
0.352941 0.996078 0.262745
0.423529 0.996078 0.266667
0.498039 1.000000 0.274510
0.596078 1.000000 0.286275
0.721569 1.000000 0.286275
0.850980 1.000000 0.290196
0.968627 0.996078 0.298039
1.000000 1.000000 0.321569
0.003922 0.000000 0.266667
0.149020 0.003922 0.278431
0.305882 0.003922 0.278431
0.458824 0.000000 0.286275
0.603922 0.003922 0.286275
0.741176 0.003922 0.274510
0.878431 0.078431 0.294118
0.996078 0.109804 0.274510
0.996078 0.133333 0.290196
0.015686 0.160784 0.274510
0.172549 0.156863 0.294118
0.309804 0.152941 0.286275
0.470588 0.152941 0.282353
0.615686 0.160784 0.282353
0.752941 0.168627 0.286275
0.886275 0.188235 0.290196
0.996078 0.200000 0.286275
1.000000 0.203922 0.294118
0.062745 0.301961 0.282353
0.176471 0.298039 0.274510
0.321569 0.301961 0.286275
0.462745 0.305882 0.278431
0.607843 0.305882 0.282353
0.752941 0.309804 0.278431
0.874510 0.309804 0.278431
0.996078 0.309804 0.290196
1.000000 0.309804 0.282353
0.109804 0.458824 0.286275
0.196078 0.454902 0.274510
0.333333 0.454902 0.282353
0.474510 0.458824 0.282353
0.619608 0.458824 0.286275
0.756863 0.447059 0.286275
0.882353 0.443137 0.286275
0.988235 0.443137 0.290196
1.000000 0.435294 0.298039
0.168627 0.596078 0.270588
0.227451 0.584314 0.274510
0.345098 0.592157 0.274510
0.466667 0.588235 0.274510
0.619608 0.592157 0.274510
0.749020 0.588235 0.278431
0.866667 0.580392 0.282353
0.984314 0.564706 0.290196
0.996078 0.552941 0.286275
0.215686 0.709804 0.282353
0.258824 0.717647 0.270588
0.356863 0.709804 0.266667
0.482353 0.709804 0.278431
0.607843 0.709804 0.282353
0.737255 0.709804 0.286275
0.862745 0.701961 0.286275
0.984314 0.690196 0.301961
1.000000 0.678431 0.301961
0.262745 0.839216 0.290196
0.313725 0.823529 0.298039
0.384314 0.827451 0.301961
0.490196 0.835294 0.301961
0.607843 0.835294 0.294118
0.737255 0.827451 0.301961
0.858824 0.831373 0.305882
0.968627 0.823529 0.313725
1.000000 0.796078 0.317647
0.309804 0.937255 0.317647
0.333333 0.933333 0.313725
0.388235 0.937255 0.313725
0.494118 0.929412 0.313725
0.600000 0.933333 0.321569
0.713725 0.929412 0.321569
0.839216 0.929412 0.329412
0.968627 0.933333 0.333333
0.996078 0.909804 0.333333
0.364706 1.000000 0.380392
0.380392 1.000000 0.356863
0.431373 1.000000 0.352941
0.509804 0.996078 0.364706
0.607843 1.000000 0.368627
0.725490 1.000000 0.368627
0.847059 1.000000 0.380392
0.968627 0.996078 0.380392
1.000000 0.996078 0.400000
0.011765 0.000000 0.411765
0.156863 0.003922 0.423529
0.305882 0.000000 0.415686
0.454902 0.000000 0.419608
0.603922 0.000000 0.415686
0.752941 0.003922 0.411765
0.874510 0.070588 0.411765
0.988235 0.145098 0.411765
0.996078 0.200000 0.419608
0.050980 0.156863 0.427451
0.168627 0.145098 0.419608
0.309804 0.156863 0.419608
0.454902 0.152941 0.419608
0.607843 0.156863 0.431373
0.752941 0.164706 0.415686
0.874510 0.188235 0.411765
0.988235 0.223529 0.411765
0.992157 0.254902 0.411765
0.082353 0.301961 0.423529
0.188235 0.294118 0.407843
0.325490 0.298039 0.419608
0.458824 0.298039 0.415686
0.611765 0.301961 0.415686
0.745098 0.301961 0.411765
0.874510 0.321569 0.419608
0.988235 0.333333 0.419608
1.000000 0.329412 0.427451
0.113725 0.454902 0.419608
0.207843 0.447059 0.419608
0.333333 0.450980 0.419608
0.474510 0.458824 0.423529
0.615686 0.458824 0.419608
0.752941 0.450980 0.419608
0.878431 0.458824 0.435294
0.988235 0.454902 0.431373
1.000000 0.454902 0.435294
0.168627 0.596078 0.419608
0.231373 0.588235 0.415686
0.349020 0.588235 0.415686
0.478431 0.584314 0.415686
0.615686 0.588235 0.415686
0.741176 0.588235 0.419608
0.870588 0.584314 0.419608
0.976471 0.576471 0.427451
0.996078 0.564706 0.419608
0.231373 0.709804 0.415686
0.286275 0.709804 0.415686
0.372549 0.709804 0.415686
0.486275 0.705882 0.411765
0.611765 0.713725 0.419608
0.741176 0.717647 0.419608
0.866667 0.701961 0.419608
0.968627 0.694118 0.423529
0.996078 0.686275 0.427451
0.294118 0.835294 0.439216
0.321569 0.831373 0.435294
0.396078 0.831373 0.423529
0.498039 0.831373 0.427451
0.611765 0.831373 0.435294
0.733333 0.831373 0.431373
0.850980 0.831373 0.439216
0.968627 0.815686 0.443137
1.000000 0.807843 0.439216
0.337255 0.933333 0.435294
0.360784 0.933333 0.435294
0.419608 0.929412 0.443137
0.505882 0.933333 0.435294
0.607843 0.929412 0.443137
0.717647 0.929412 0.443137
0.835294 0.929412 0.443137
0.964706 0.929412 0.454902
1.000000 0.913725 0.447059
0.392157 1.000000 0.482353
0.403922 1.000000 0.470588
0.458824 0.996078 0.470588
0.521569 1.000000 0.474510
0.619608 1.000000 0.478431
0.725490 1.000000 0.474510
0.843137 1.000000 0.478431
0.968627 0.996078 0.490196
1.000000 1.000000 0.501961
0.031373 0.000000 0.545098
0.164706 0.003922 0.552941
0.305882 0.007843 0.545098
0.450980 0.003922 0.549020
0.596078 0.015686 0.556863
0.752941 0.023529 0.560784
0.874510 0.090196 0.549020
0.984314 0.149020 0.541176
1.000000 0.200000 0.525490
0.062745 0.152941 0.560784
0.188235 0.156863 0.552941
0.309804 0.160784 0.564706
0.462745 0.164706 0.556863
0.607843 0.168627 0.560784
0.756863 0.168627 0.560784
0.878431 0.196078 0.549020
0.980392 0.235294 0.549020
0.992157 0.278431 0.537255
0.105882 0.298039 0.556863
0.203922 0.305882 0.545098
0.325490 0.309804 0.549020
0.462745 0.313725 0.552941
0.607843 0.309804 0.552941
0.745098 0.309804 0.549020
0.866667 0.329412 0.549020
0.980392 0.345098 0.541176
0.996078 0.372549 0.552941
0.137255 0.450980 0.549020
0.215686 0.450980 0.560784
0.345098 0.450980 0.564706
0.474510 0.450980 0.552941
0.611765 0.454902 0.549020
0.749020 0.458824 0.556863
0.870588 0.470588 0.556863
0.980392 0.482353 0.560784
1.000000 0.490196 0.568627
0.168627 0.600000 0.549020
0.239216 0.592157 0.552941
0.352941 0.588235 0.549020
0.482353 0.588235 0.552941
0.623529 0.592157 0.552941
0.741176 0.592157 0.552941
0.866667 0.592157 0.560784
0.976471 0.588235 0.564706
1.000000 0.584314 0.560784
0.250980 0.705882 0.545098
0.294118 0.713725 0.549020
0.388235 0.709804 0.549020
0.494118 0.709804 0.545098
0.611765 0.709804 0.552941
0.741176 0.709804 0.556863
0.854902 0.705882 0.552941
0.968627 0.701961 0.556863
1.000000 0.690196 0.560784
0.345098 0.835294 0.568627
0.360784 0.827451 0.568627
0.431373 0.827451 0.560784
0.513725 0.831373 0.560784
0.611765 0.827451 0.560784
0.737255 0.827451 0.560784
0.858824 0.827451 0.572549
0.956863 0.819608 0.568627
1.000000 0.807843 0.576471
0.356863 0.929412 0.564706
0.376471 0.925490 0.568627
0.431373 0.929412 0.556863
0.525490 0.933333 0.560784
0.615686 0.933333 0.564706
0.733333 0.933333 0.568627
0.835294 0.933333 0.572549
0.952941 0.925490 0.572549
0.992157 0.925490 0.580392
0.411765 1.000000 0.592157
0.427451 1.000000 0.588235
0.466667 1.000000 0.576471
0.545098 0.996078 0.584314
0.635294 1.000000 0.584314
0.733333 1.000000 0.588235
0.850980 0.996078 0.592157
0.960784 1.000000 0.596078
0.996078 1.000000 0.600000
0.066667 0.011765 0.682353
0.168627 0.023529 0.682353
0.309804 0.023529 0.678431
0.450980 0.039216 0.686275
0.592157 0.050980 0.690196
0.745098 0.066667 0.690196
0.870588 0.105882 0.686275
0.984314 0.172549 0.666667
0.996078 0.219608 0.654902
0.090196 0.168627 0.682353
0.184314 0.172549 0.694118
0.329412 0.172549 0.694118
0.454902 0.168627 0.690196
0.603922 0.172549 0.694118
0.745098 0.188235 0.698039
0.870588 0.207843 0.674510
0.992157 0.243137 0.666667
1.000000 0.282353 0.658824
0.133333 0.305882 0.694118
0.211765 0.313725 0.678431
0.333333 0.313725 0.682353
0.466667 0.309804 0.686275
0.611765 0.317647 0.690196
0.745098 0.317647 0.686275
0.874510 0.333333 0.678431
0.976471 0.352941 0.674510
1.000000 0.376471 0.670588
0.184314 0.458824 0.690196
0.250980 0.454902 0.690196
0.368627 0.454902 0.686275
0.482353 0.462745 0.690196
0.611765 0.462745 0.686275
0.745098 0.466667 0.686275
0.862745 0.470588 0.674510
0.972549 0.494118 0.678431
0.992157 0.509804 0.690196
0.231373 0.588235 0.694118
0.274510 0.588235 0.678431
0.376471 0.588235 0.682353
0.498039 0.592157 0.686275
0.623529 0.592157 0.674510
0.737255 0.600000 0.686275
0.854902 0.600000 0.686275
0.964706 0.607843 0.678431
1.000000 0.615686 0.674510
0.270588 0.713725 0.674510
0.309804 0.713725 0.670588
0.396078 0.717647 0.670588
0.505882 0.713725 0.674510
0.623529 0.713725 0.674510
0.737255 0.709804 0.678431
0.850980 0.717647 0.682353
0.960784 0.713725 0.686275
0.996078 0.709804 0.686275
0.356863 0.835294 0.674510
0.388235 0.827451 0.662745
0.450980 0.827451 0.678431
0.537255 0.827451 0.682353
0.643137 0.827451 0.694118
0.737255 0.835294 0.682353
0.847059 0.831373 0.694118
0.960784 0.819608 0.686275
1.000000 0.807843 0.682353
0.423529 0.933333 0.690196
0.447059 0.933333 0.698039
0.494118 0.921569 0.690196
0.560784 0.929412 0.686275
0.631373 0.937255 0.694118
0.733333 0.929412 0.682353
0.835294 0.929412 0.686275
0.952941 0.929412 0.694118
1.000000 0.921569 0.686275
0.517647 1.000000 0.725490
0.525490 1.000000 0.721569
0.525490 1.000000 0.709804
0.576471 1.000000 0.705882
0.639216 1.000000 0.698039
0.749020 1.000000 0.701961
0.850980 1.000000 0.698039
0.956863 1.000000 0.701961
1.000000 1.000000 0.709804
0.086275 0.039216 0.807843
0.180392 0.050980 0.815686
0.317647 0.058824 0.796078
0.447059 0.070588 0.807843
0.588235 0.086275 0.803922
0.729412 0.105882 0.811765
0.866667 0.129412 0.811765
0.984314 0.172549 0.792157
1.000000 0.231373 0.772549
0.117647 0.168627 0.811765
0.207843 0.176471 0.807843
0.317647 0.180392 0.815686
0.462745 0.188235 0.819608
0.588235 0.192157 0.811765
0.733333 0.203922 0.807843
0.874510 0.211765 0.819608
0.976471 0.247059 0.784314
0.992157 0.294118 0.792157
0.160784 0.309804 0.800000
0.235294 0.317647 0.823529
0.341176 0.317647 0.811765
0.458824 0.317647 0.803922
0.600000 0.325490 0.811765
0.737255 0.321569 0.807843
0.866667 0.337255 0.811765
0.976471 0.356863 0.792157
0.992157 0.392157 0.768627
0.223529 0.454902 0.811765
0.262745 0.458824 0.800000
0.368627 0.462745 0.815686
0.482353 0.458824 0.803922
0.607843 0.466667 0.807843
0.737255 0.470588 0.803922
0.870588 0.482353 0.807843
0.972549 0.494118 0.796078
1.000000 0.513725 0.788235
0.270588 0.588235 0.796078
0.309804 0.588235 0.807843
0.400000 0.596078 0.796078
0.509804 0.600000 0.803922
0.623529 0.596078 0.800000
0.745098 0.600000 0.803922
0.854902 0.603922 0.800000
0.960784 0.611765 0.800000
0.996078 0.623529 0.796078
0.301961 0.713725 0.796078
0.345098 0.717647 0.796078
0.415686 0.713725 0.803922
0.517647 0.717647 0.800000
0.627451 0.713725 0.796078
0.737255 0.717647 0.796078
0.854902 0.717647 0.796078
0.952941 0.721569 0.792157
1.000000 0.721569 0.800000
0.364706 0.843137 0.800000
0.396078 0.831373 0.803922
0.450980 0.831373 0.796078
0.545098 0.831373 0.796078
0.639216 0.835294 0.792157
0.749020 0.831373 0.811765
0.850980 0.835294 0.800000
0.956863 0.827451 0.807843
1.000000 0.819608 0.819608
0.443137 0.929412 0.788235
0.454902 0.933333 0.788235
0.498039 0.929412 0.784314
0.576471 0.929412 0.792157
0.662745 0.933333 0.811765
0.749020 0.933333 0.807843
0.835294 0.929412 0.796078
0.949020 0.929412 0.803922
1.000000 0.921569 0.815686
0.517647 0.996078 0.803922
0.537255 1.000000 0.803922
0.572549 1.000000 0.807843
0.619608 0.996078 0.815686
0.705882 1.000000 0.823529
0.756863 1.000000 0.815686
0.850980 1.000000 0.815686
0.956863 1.000000 0.815686
0.996078 1.000000 0.827451
0.117647 0.074510 0.921569
0.196078 0.082353 0.921569
0.313725 0.094118 0.921569
0.447059 0.101961 0.925490
0.580392 0.121569 0.925490
0.717647 0.137255 0.929412
0.850980 0.164706 0.921569
0.984314 0.196078 0.925490
0.996078 0.247059 0.905882
0.152941 0.188235 0.929412
0.207843 0.188235 0.925490
0.325490 0.188235 0.925490
0.450980 0.200000 0.925490
0.580392 0.211765 0.925490
0.721569 0.223529 0.925490
0.850980 0.239216 0.921569
0.972549 0.262745 0.917647
1.000000 0.290196 0.905882
0.184314 0.321569 0.917647
0.247059 0.321569 0.917647
0.345098 0.325490 0.929412
0.458824 0.321569 0.925490
0.592157 0.333333 0.925490
0.725490 0.341176 0.917647
0.854902 0.356863 0.921569
0.980392 0.364706 0.925490
1.000000 0.392157 0.890196
0.258824 0.466667 0.921569
0.301961 0.462745 0.917647
0.380392 0.462745 0.913725
0.482353 0.462745 0.917647
0.607843 0.474510 0.917647
0.725490 0.474510 0.921569
0.854902 0.490196 0.917647
0.972549 0.498039 0.917647
1.000000 0.513725 0.901961
0.294118 0.584314 0.921569
0.337255 0.592157 0.913725
0.411765 0.592157 0.917647
0.509804 0.600000 0.913725
0.615686 0.603922 0.905882
0.725490 0.603922 0.917647
0.850980 0.603922 0.913725
0.972549 0.611765 0.913725
1.000000 0.623529 0.894118
0.345098 0.709804 0.913725
0.368627 0.709804 0.917647
0.431373 0.709804 0.913725
0.529412 0.717647 0.913725
0.631373 0.717647 0.909804
0.737255 0.721569 0.917647
0.850980 0.725490 0.909804
0.964706 0.721569 0.905882
1.000000 0.721569 0.905882
0.400000 0.835294 0.913725
0.411765 0.827451 0.909804
0.470588 0.831373 0.913725
0.549020 0.831373 0.909804
0.643137 0.831373 0.917647
0.745098 0.831373 0.913725
0.843137 0.839216 0.909804
0.949020 0.835294 0.905882
0.996078 0.835294 0.905882
0.431373 0.945098 0.913725
0.447059 0.937255 0.905882
0.490196 0.941176 0.909804
0.576471 0.941176 0.909804
0.650980 0.937255 0.901961
0.752941 0.929412 0.901961
0.850980 0.925490 0.901961
0.952941 0.921569 0.909804
1.000000 0.929412 0.905882
0.533333 1.000000 0.882353
0.545098 0.996078 0.905882
0.576471 1.000000 0.905882
0.627451 1.000000 0.905882
0.705882 1.000000 0.901961
0.788235 1.000000 0.913725
0.874510 1.000000 0.937255
0.952941 0.996078 0.929412
0.992157 1.000000 0.929412
0.145098 0.113725 0.996078
0.207843 0.121569 1.000000
0.317647 0.129412 1.000000
0.435294 0.137255 1.000000
0.568627 0.156863 1.000000
0.705882 0.180392 1.000000
0.839216 0.207843 1.000000
0.964706 0.239216 1.000000
1.000000 0.258824 1.000000
0.176471 0.211765 0.992157
0.235294 0.207843 1.000000
0.333333 0.211765 0.996078
0.447059 0.219608 0.996078
0.576471 0.239216 1.000000
0.701961 0.243137 0.996078
0.835294 0.270588 1.000000
0.960784 0.294118 0.996078
1.000000 0.317647 1.000000
0.219608 0.329412 1.000000
0.262745 0.333333 1.000000
0.345098 0.329412 1.000000
0.462745 0.337255 1.000000
0.588235 0.349020 1.000000
0.705882 0.360784 1.000000
0.827451 0.372549 0.996078
0.952941 0.392157 0.996078
1.000000 0.403922 1.000000
0.282353 0.470588 1.000000
0.317647 0.474510 0.992157
0.388235 0.474510 1.000000
0.490196 0.478431 1.000000
0.603922 0.478431 1.000000
0.713725 0.490196 1.000000
0.835294 0.501961 1.000000
0.960784 0.509804 1.000000
0.996078 0.521569 1.000000
0.329412 0.592157 1.000000
0.368627 0.592157 0.996078
0.431373 0.600000 1.000000
0.517647 0.603922 1.000000
0.623529 0.603922 0.996078
0.729412 0.611765 1.000000
0.839216 0.615686 0.996078
0.952941 0.623529 0.996078
0.992157 0.627451 0.992157
0.360784 0.705882 0.996078
0.384314 0.705882 1.000000
0.443137 0.709804 1.000000
0.529412 0.709804 0.996078
0.631373 0.717647 1.000000
0.737255 0.725490 1.000000
0.843137 0.725490 1.000000
0.949020 0.733333 1.000000
0.996078 0.733333 1.000000
0.419608 0.819608 1.000000
0.427451 0.823529 1.000000
0.482353 0.819608 1.000000
0.552941 0.819608 0.996078
0.643137 0.827451 1.000000
0.741176 0.831373 0.996078
0.847059 0.835294 1.000000
0.949020 0.839216 0.996078
1.000000 0.835294 1.000000
0.450980 0.933333 0.996078
0.470588 0.921569 0.992157
0.509804 0.929412 1.000000
0.580392 0.925490 1.000000
0.662745 0.933333 0.996078
0.752941 0.933333 0.996078
0.847059 0.929412 0.996078
0.945098 0.933333 1.000000
1.000000 0.945098 1.000000
0.509804 1.000000 1.000000
0.521569 0.996078 0.992157
0.552941 1.000000 1.000000
0.615686 1.000000 0.996078
0.701961 1.000000 1.000000
0.788235 1.000000 1.000000
0.890196 1.000000 0.996078
0.972549 0.996078 0.996078
1.000000 1.000000 1.000000
