lut_library_archive/removed_20260629/50个风景lut/50个风景lut01.cube
# 版权归凌孟成所有，侵权必究
TITLE "Jungle LUT #1"
#LUT size
LUT_3D_SIZE 25
#LUT data points
0.000000 0.003922 0.000000
0.007843 0.003922 0.000000
0.062745 0.000000 0.000000
0.105882 0.003922 0.000000
0.141176 0.000000 0.000000
0.192157 0.003922 0.003922
0.235294 0.000000 0.000000
0.278431 0.000000 0.000000
0.313725 0.000000 0.000000
0.360784 0.000000 0.003922
0.407843 0.000000 0.000000
0.454902 0.003922 0.000000
0.505882 0.003922 0.000000
0.541176 0.003922 0.000000
0.596078 0.003922 0.000000
0.631373 0.000000 0.000000
0.682353 0.000000 0.000000
0.729412 0.003922 0.003922
0.772549 0.000000 0.000000
0.815686 0.003922 0.000000
0.870588 0.003922 0.000000
0.909804 0.003922 0.000000
0.956863 0.003922 0.000000
0.996078 0.000000 0.000000
0.996078 0.000000 0.000000
0.000000 0.027451 0.000000
0.019608 0.023529 0.000000
0.062745 0.027451 0.000000
0.117647 0.023529 0.000000
0.145098 0.023529 0.003922
0.184314 0.027451 0.000000
0.231373 0.023529 0.000000
0.270588 0.015686 0.000000
0.325490 0.023529 0.000000
0.368627 0.019608 0.000000
0.407843 0.019608 0.000000
0.454902 0.019608 0.003922
0.498039 0.015686 0.000000
0.541176 0.011765 0.000000
0.584314 0.011765 0.000000
0.639216 0.007843 0.000000
0.682353 0.000000 0.003922
0.729412 0.003922 0.003922
0.772549 0.000000 0.000000
0.823529 0.000000 0.003922
0.870588 0.003922 0.003922
0.913725 0.000000 0.000000
0.952941 0.000000 0.000000
0.996078 0.000000 0.007843
0.996078 0.003922 0.000000
0.000000 0.062745 0.000000
0.023529 0.074510 0.000000
0.058824 0.062745 0.000000
0.109804 0.062745 0.000000
0.149020 0.066667 0.000000
0.196078 0.066667 0.000000
0.231373 0.070588 0.000000
0.278431 0.070588 0.000000
0.325490 0.070588 0.000000
0.364706 0.070588 0.000000
0.407843 0.066667 0.000000
0.450980 0.070588 0.003922
0.494118 0.066667 0.000000
0.541176 0.066667 0.000000
0.588235 0.062745 0.000000
0.639216 0.062745 0.003922
0.686275 0.050980 0.000000
0.729412 0.050980 0.000000
0.780392 0.043137 0.000000
0.827451 0.035294 0.003922
0.870588 0.031373 0.000000
0.909804 0.023529 0.000000
0.964706 0.011765 0.003922
0.996078 0.000000 0.000000
1.000000 0.007843 0.000000
0.007843 0.101961 0.007843
0.019608 0.109804 0.000000
0.062745 0.113725 0.003922
0.105882 0.105882 0.003922
0.152941 0.109804 0.000000
0.196078 0.113725 0.000000
0.235294 0.113725 0.000000
0.282353 0.113725 0.000000
0.321569 0.109804 0.000000
0.368627 0.113725 0.003922
0.411765 0.117647 0.003922
0.462745 0.113725 0.003922
0.501961 0.105882 0.000000
0.545098 0.109804 0.003922
0.592157 0.105882 0.003922
0.639216 0.109804 0.003922
0.682353 0.105882 0.003922
0.729412 0.101961 0.000000
0.776471 0.105882 0.003922
0.815686 0.098039 0.000000
0.862745 0.094118 0.000000
0.901961 0.098039 0.000000
0.956863 0.090196 0.000000
1.000000 0.078431 0.000000
0.996078 0.082353 0.000000
0.007843 0.149020 0.000000
0.031373 0.156863 0.003922
0.062745 0.149020 0.000000
0.105882 0.152941 0.000000
0.160784 0.152941 0.000000
0.196078 0.160784 0.007843
0.227451 0.152941 0.000000
0.278431 0.152941 0.000000
0.325490 0.156863 0.000000
0.364706 0.156863 0.000000
0.419608 0.152941 0.000000
0.458824 0.152941 0.000000
0.498039 0.156863 0.000000
0.545098 0.156863 0.003922
0.592157 0.152941 0.000000
0.635294 0.160784 0.000000
0.682353 0.152941 0.003922
0.725490 0.156863 0.003922
0.772549 0.156863 0.000000
0.815686 0.152941 0.000000
0.866667 0.149020 0.000000
0.909804 0.145098 0.000000
0.949020 0.145098 0.000000
0.996078 0.141176 0.000000
1.000000 0.141176 0.000000
0.003922 0.192157 0.003922
0.015686 0.196078 0.003922
0.066667 0.200000 0.003922
0.117647 0.192157 0.003922
0.156863 0.196078 0.000000
0.200000 0.192157 0.003922
0.239216 0.200000 0.000000
0.282353 0.196078 0.003922
0.325490 0.196078 0.000000
0.376471 0.196078 0.000000
0.415686 0.196078 0.000000
0.462745 0.200000 0.000000
0.513725 0.200000 0.000000
0.552941 0.200000 0.000000
0.600000 0.203922 0.000000
0.639216 0.203922 0.000000
0.694118 0.200000 0.003922
0.737255 0.200000 0.003922
0.780392 0.196078 0.000000
0.831373 0.196078 0.003922
0.874510 0.196078 0.000000
0.913725 0.196078 0.003922
0.960784 0.192157 0.003922
1.000000 0.192157 0.000000
1.000000 0.188235 0.007843
0.000000 0.235294 0.000000
0.015686 0.243137 0.003922
0.074510 0.235294 0.000000
0.101961 0.243137 0.000000
0.164706 0.235294 0.000000
0.207843 0.239216 0.003922
0.239216 0.239216 0.003922
0.278431 0.239216 0.000000
0.325490 0.239216 0.003922
0.372549 0.239216 0.000000
0.415686 0.243137 0.003922
0.458824 0.247059 0.003922
0.501961 0.243137 0.003922
0.552941 0.247059 0.003922
0.596078 0.250980 0.003922
0.647059 0.250980 0.000000
0.686275 0.250980 0.000000
0.737255 0.247059 0.000000
0.780392 0.243137 0.000000
0.831373 0.243137 0.003922
0.870588 0.247059 0.000000
0.913725 0.243137 0.000000
0.960784 0.239216 0.000000
0.996078 0.247059 0.000000
1.000000 0.231373 0.000000
0.003922 0.278431 0.000000
0.007843 0.282353 0.000000
0.062745 0.282353 0.003922
0.105882 0.286275 0.000000
0.160784 0.286275 0.000000
0.196078 0.282353 0.000000
0.243137 0.282353 0.003922
0.286275 0.286275 0.003922
0.333333 0.286275 0.000000
0.376471 0.290196 0.003922
0.419608 0.286275 0.003922
0.458824 0.286275 0.000000
0.509804 0.290196 0.000000
0.552941 0.290196 0.011765
0.596078 0.290196 0.000000
0.643137 0.294118 0.003922
0.690196 0.290196 0.000000
0.737255 0.290196 0.003922
0.784314 0.294118 0.003922
0.819608 0.290196 0.000000
0.874510 0.290196 0.000000
0.913725 0.290196 0.000000
0.960784 0.286275 0.003922
0.996078 0.294118 0.000000
1.000000 0.286275 0.000000
0.003922 0.325490 0.000000
0.000000 0.325490 0.003922
0.047059 0.329412 0.000000
0.101961 0.333333 0.003922
0.160784 0.333333 0.000000
0.203922 0.329412 0.003922
0.247059 0.333333 0.000000
0.286275 0.333333 0.000000
0.333333 0.329412 0.003922
0.384314 0.325490 0.000000
0.423529 0.325490 0.003922
0.458824 0.333333 0.007843
0.498039 0.341176 0.000000
0.556863 0.337255 0.000000
0.596078 0.337255 0.000000
0.643137 0.341176 0.000000
0.694118 0.341176 0.003922
0.733333 0.333333 0.000000
0.784314 0.337255 0.000000
0.827451 0.333333 0.000000
0.870588 0.333333 0.000000
0.921569 0.333333 0.000000
0.960784 0.333333 0.000000
1.000000 0.333333 0.007843
1.000000 0.325490 0.011765
0.000000 0.376471 0.000000
0.000000 0.372549 0.000000
0.043137 0.372549 0.000000
0.090196 0.368627 0.000000
0.149020 0.372549 0.000000
0.196078 0.372549 0.000000
0.243137 0.376471 0.000000
0.298039 0.376471 0.000000
0.337255 0.376471 0.000000
0.384314 0.372549 0.000000
0.423529 0.384314 0.003922
0.462745 0.372549 0.000000
0.509804 0.384314 0.000000
0.552941 0.380392 0.000000
0.596078 0.376471 0.000000
0.647059 0.380392 0.000000
0.690196 0.376471 0.003922
0.741176 0.380392 0.000000
0.788235 0.380392 0.000000
0.831373 0.384314 0.000000
0.870588 0.380392 0.000000
0.921569 0.380392 0.003922
0.960784 0.380392 0.003922
1.000000 0.376471 0.007843
1.000000 0.372549 0.003922
0.000000 0.419608 0.003922
0.000000 0.427451 0.000000
0.023529 0.427451 0.000000
0.101961 0.427451 0.003922
0.152941 0.423529 0.007843
0.200000 0.423529 0.003922
0.231373 0.423529 0.000000
0.305882 0.431373 0.003922
0.337255 0.431373 0.000000
0.380392 0.427451 0.003922
0.427451 0.423529 0.000000
0.466667 0.423529 0.000000
0.513725 0.427451 0.000000
0.556863 0.423529 0.000000
0.607843 0.427451 0.000000
0.647059 0.427451 0.000000
0.694118 0.427451 0.000000
0.737255 0.431373 0.000000
0.784314 0.431373 0.000000
0.827451 0.427451 0.000000
0.874510 0.431373 0.000000
0.921569 0.427451 0.003922
0.956863 0.423529 0.000000
1.000000 0.423529 0.007843
0.996078 0.423529 0.000000
0.007843 0.470588 0.000000
0.003922 0.462745 0.003922
0.000000 0.470588 0.003922
0.082353 0.462745 0.007843
0.133333 0.478431 0.000000
0.196078 0.470588 0.000000
0.250980 0.466667 0.007843
0.294118 0.470588 0.003922
0.337255 0.470588 0.000000
0.384314 0.466667 0.000000
0.431373 0.466667 0.000000
0.470588 0.470588 0.000000
0.513725 0.474510 0.000000
0.560784 0.474510 0.000000
0.607843 0.474510 0.000000
0.650980 0.470588 0.000000
0.701961 0.470588 0.000000
0.745098 0.470588 0.000000
0.788235 0.466667 0.003922
0.839216 0.466667 0.003922
0.878431 0.466667 0.000000
0.921569 0.466667 0.000000
0.960784 0.466667 0.000000
0.996078 0.470588 0.000000
0.996078 0.470588 0.000000
0.000000 0.513725 0.011765
0.007843 0.513725 0.007843
0.000000 0.513725 0.000000
0.074510 0.517647 0.000000
0.133333 0.513725 0.000000
0.200000 0.517647 0.011765
0.243137 0.517647 0.000000
0.294118 0.517647 0.003922
0.337255 0.513725 0.000000
0.388235 0.517647 0.003922
0.431373 0.513725 0.000000
0.470588 0.513725 0.000000
0.517647 0.517647 0.000000
0.564706 0.513725 0.000000
0.611765 0.517647 0.000000
0.658824 0.513725 0.000000
0.701961 0.517647 0.000000
0.745098 0.517647 0.000000
0.788235 0.517647 0.003922
0.831373 0.517647 0.003922
0.878431 0.513725 0.000000
0.917647 0.513725 0.000000
0.960784 0.513725 0.000000
0.996078 0.513725 0.000000
1.000000 0.509804 0.000000
0.000000 0.564706 0.003922
0.003922 0.564706 0.000000
0.000000 0.560784 0.003922
0.047059 0.560784 0.003922
0.133333 0.560784 0.000000
0.184314 0.564706 0.003922
0.243137 0.564706 0.000000
0.294118 0.556863 0.000000
0.333333 0.564706 0.000000
0.380392 0.568627 0.000000
0.427451 0.564706 0.000000
0.470588 0.560784 0.003922
0.513725 0.560784 0.000000
0.564706 0.560784 0.000000
0.603922 0.560784 0.000000
0.650980 0.564706 0.000000
0.701961 0.564706 0.000000
0.745098 0.560784 0.003922
0.784314 0.560784 0.000000
0.827451 0.560784 0.000000
0.878431 0.560784 0.000000
0.917647 0.556863 0.000000
0.960784 0.560784 0.000000
0.992157 0.556863 0.000000
1.000000 0.556863 0.000000
0.000000 0.603922 0.000000
0.000000 0.607843 0.003922
0.000000 0.607843 0.000000
0.027451 0.611765 0.000000
0.121569 0.611765 0.000000
0.172549 0.607843 0.000000
0.239216 0.603922 0.000000
0.274510 0.607843 0.000000
0.337255 0.607843 0.000000
0.380392 0.611765 0.000000
0.423529 0.607843 0.000000
0.474510 0.611765 0.000000
0.517647 0.611765 0.000000
0.556863 0.611765 0.003922
0.603922 0.607843 0.000000
0.650980 0.607843 0.003922
0.698039 0.607843 0.000000
0.745098 0.607843 0.003922
0.788235 0.607843 0.000000
0.835294 0.603922 0.000000
0.878431 0.607843 0.000000
0.921569 0.607843 0.000000
0.956863 0.600000 0.000000
1.000000 0.600000 0.000000
1.000000 0.600000 0.000000
0.000000 0.662745 0.000000
0.000000 0.662745 0.000000
0.000000 0.662745 0.000000
0.000000 0.662745 0.000000
0.105882 0.658824 0.003922
0.168627 0.658824 0.007843
0.235294 0.662745 0.000000
0.278431 0.662745 0.000000
0.333333 0.658824 0.000000
0.372549 0.658824 0.000000
0.431373 0.662745 0.003922
0.474510 0.658824 0.000000
0.517647 0.658824 0.000000
0.568627 0.658824 0.000000
0.619608 0.654902 0.000000
0.662745 0.658824 0.000000
0.705882 0.654902 0.000000
0.749020 0.658824 0.000000
0.792157 0.658824 0.000000
0.839216 0.654902 0.003922
0.882353 0.650980 0.000000
0.921569 0.654902 0.000000
0.964706 0.647059 0.000000
1.000000 0.647059 0.000000
1.000000 0.647059 0.000000
0.003922 0.694118 0.000000
0.003922 0.709804 0.000000
0.011765 0.701961 0.000000
0.003922 0.705882 0.000000
0.078431 0.701961 0.003922
0.164706 0.701961 0.003922
0.227451 0.698039 0.000000
0.278431 0.705882 0.003922
0.321569 0.701961 0.003922
0.376471 0.701961 0.003922
0.427451 0.701961 0.003922
0.470588 0.701961 0.003922
0.513725 0.698039 0.000000
0.568627 0.698039 0.000000
0.615686 0.698039 0.000000
0.658824 0.701961 0.003922
0.698039 0.701961 0.000000
0.745098 0.694118 0.000000
0.788235 0.698039 0.000000
0.835294 0.698039 0.003922
0.878431 0.694118 0.003922
0.925490 0.690196 0.000000
0.964706 0.694118 0.000000
1.000000 0.682353 0.007843
1.000000 0.682353 0.000000
0.000000 0.749020 0.000000
0.000000 0.745098 0.000000
0.000000 0.749020 0.000000
0.003922 0.752941 0.000000
0.070588 0.749020 0.000000
0.149020 0.745098 0.003922
0.215686 0.745098 0.000000
0.270588 0.741176 0.003922
0.317647 0.745098 0.000000
0.372549 0.745098 0.000000
0.423529 0.745098 0.000000
0.470588 0.749020 0.003922
0.513725 0.745098 0.000000
0.560784 0.745098 0.000000
0.615686 0.741176 0.000000
0.654902 0.741176 0.003922
0.701961 0.745098 0.000000
0.745098 0.741176 0.000000
0.792157 0.741176 0.000000
0.835294 0.745098 0.000000
0.878431 0.741176 0.000000
0.921569 0.733333 0.000000
0.968627 0.725490 0.007843
0.992157 0.737255 0.000000
0.992157 0.737255 0.000000
0.003922 0.788235 0.000000
0.000000 0.792157 0.007843
0.000000 0.792157 0.000000
0.007843 0.792157 0.000000
0.043137 0.788235 0.000000
0.133333 0.784314 0.007843
0.207843 0.788235 0.011765
0.274510 0.784314 0.007843
0.313725 0.788235 0.000000
0.364706 0.792157 0.000000
0.419608 0.788235 0.000000
0.466667 0.784314 0.000000
0.509804 0.788235 0.000000
0.564706 0.788235 0.000000
0.603922 0.788235 0.003922
0.654902 0.780392 0.000000
0.698039 0.784314 0.003922
0.741176 0.784314 0.000000
0.788235 0.780392 0.000000
0.835294 0.784314 0.000000
0.874510 0.784314 0.000000
0.921569 0.780392 0.011765
0.964706 0.772549 0.000000
1.000000 0.772549 0.000000
1.000000 0.768627 0.000000
0.003922 0.835294 0.000000
0.000000 0.831373 0.000000
0.000000 0.827451 0.007843
0.003922 0.827451 0.000000
0.000000 0.835294 0.000000
0.137255 0.823529 0.011765
0.200000 0.831373 0.007843
0.258824 0.831373 0.000000
0.309804 0.831373 0.000000
0.360784 0.831373 0.000000
0.415686 0.831373 0.000000
0.462745 0.827451 0.000000
0.513725 0.827451 0.000000
0.552941 0.827451 0.000000
0.596078 0.823529 0.003922
0.647059 0.827451 0.000000
0.690196 0.823529 0.000000
0.737255 0.827451 0.000000
0.784314 0.823529 0.000000
0.831373 0.827451 0.000000
0.878431 0.823529 0.000000
0.925490 0.823529 0.003922
0.964706 0.823529 0.000000
1.000000 0.815686 0.000000
1.000000 0.811765 0.000000
0.000000 0.874510 0.007843
0.003922 0.878431 0.011765
0.003922 0.870588 0.011765
0.007843 0.870588 0.000000
0.000000 0.878431 0.000000
0.109804 0.878431 0.000000
0.192157 0.870588 0.003922
0.247059 0.874510 0.000000
0.305882 0.870588 0.000000
0.352941 0.870588 0.000000
0.411765 0.870588 0.003922
0.454902 0.870588 0.000000
0.501961 0.870588 0.003922
0.552941 0.874510 0.003922
0.596078 0.870588 0.000000
0.647059 0.874510 0.003922
0.686275 0.866667 0.000000
0.733333 0.866667 0.000000
0.784314 0.870588 0.000000
0.823529 0.870588 0.000000
0.866667 0.866667 0.000000
0.917647 0.866667 0.003922
0.956863 0.870588 0.003922
0.996078 0.862745 0.000000
1.000000 0.858824 0.003922
0.003922 0.909804 0.007843
0.000000 0.913725 0.000000
0.000000 0.913725 0.000000
0.003922 0.909804 0.000000
0.015686 0.913725 0.003922
0.078431 0.905882 0.000000
0.168627 0.909804 0.000000
0.243137 0.917647 0.000000
0.294118 0.913725 0.000000
0.349020 0.913725 0.000000
0.396078 0.913725 0.000000
0.447059 0.905882 0.000000
0.494118 0.909804 0.000000
0.549020 0.909804 0.003922
0.596078 0.905882 0.000000
0.635294 0.905882 0.000000
0.682353 0.909804 0.000000
0.725490 0.905882 0.000000
0.776471 0.905882 0.000000
0.823529 0.909804 0.000000
0.858824 0.905882 0.000000
0.909804 0.905882 0.000000
0.952941 0.901961 0.003922
0.992157 0.905882 0.000000
0.996078 0.901961 0.000000
0.000000 0.949020 0.000000
0.003922 0.956863 0.000000
0.003922 0.945098 0.000000
0.000000 0.952941 0.003922
0.000000 0.945098 0.000000
0.066667 0.945098 0.007843
0.168627 0.949020 0.000000
0.223529 0.956863 0.000000
0.282353 0.952941 0.000000
0.333333 0.952941 0.000000
0.388235 0.949020 0.000000
0.443137 0.949020 0.000000
0.494118 0.945098 0.000000
0.549020 0.941176 0.000000
0.580392 0.945098 0.000000
0.627451 0.945098 0.000000
0.674510 0.945098 0.000000
0.717647 0.945098 0.000000
0.768627 0.945098 0.000000
0.811765 0.949020 0.007843
0.854902 0.945098 0.003922
0.898039 0.941176 0.000000
0.949020 0.937255 0.000000
0.988235 0.937255 0.000000
1.000000 0.933333 0.000000
0.007843 0.992157 0.000000
0.000000 0.992157 0.000000
0.015686 0.988235 0.000000
0.000000 0.988235 0.003922
0.000000 0.984314 0.000000
0.023529 0.992157 0.000000
0.125490 0.992157 0.000000
0.219608 0.980392 0.003922
0.286275 0.984314 0.003922
0.337255 0.988235 0.000000
0.380392 0.988235 0.000000
0.435294 0.988235 0.000000
0.478431 0.984314 0.000000
0.529412 0.984314 0.000000
0.572549 0.984314 0.000000
0.623529 0.984314 0.000000
0.666667 0.984314 0.000000
0.709804 0.980392 0.003922
0.760784 0.980392 0.003922
0.807843 0.984314 0.000000
0.847059 0.984314 0.003922
0.886275 0.984314 0.000000
0.933333 0.984314 0.000000
0.976471 0.980392 0.000000
0.996078 0.972549 0.007843
0.000000 1.000000 0.000000
0.007843 0.996078 0.003922
0.003922 0.992157 0.007843
0.000000 1.000000 0.003922
0.000000 1.000000 0.003922
0.000000 1.000000 0.000000
0.113725 0.996078 0.000000
0.203922 1.000000 0.000000
0.270588 0.996078 0.007843
0.329412 1.000000 0.003922
0.372549 0.996078 0.003922
0.427451 1.000000 0.015686
0.478431 1.000000 0.000000
0.517647 1.000000 0.000000
0.564706 1.000000 0.000000
0.611765 1.000000 0.000000
0.658824 1.000000 0.000000
0.705882 1.000000 0.007843
0.752941 1.000000 0.000000
0.796078 1.000000 0.000000
0.835294 1.000000 0.000000
0.878431 1.000000 0.000000
0.921569 1.000000 0.000000
0.972549 0.996078 0.000000
0.988235 1.000000 0.000000
0.003922 0.003922 0.011765
0.011765 0.003922 0.015686
0.074510 0.000000 0.015686
0.113725 0.000000 0.019608
0.156863 0.003922 0.015686
0.184314 0.003922 0.015686
0.239216 0.003922 0.011765
0.278431 0.000000 0.003922
0.321569 0.000000 0.007843
0.360784 0.000000 0.003922
0.411765 0.003922 0.007843
0.454902 0.000000 0.003922
0.501961 0.000000 0.003922
0.541176 0.003922 0.003922
0.588235 0.000000 0.003922
0.635294 0.003922 0.003922
0.690196 0.003922 0.000000
0.729412 0.003922 0.003922
0.772549 0.000000 0.000000
0.823529 0.003922 0.000000
0.870588 0.003922 0.000000
0.917647 0.000000 0.003922
0.956863 0.000000 0.000000
0.996078 0.000000 0.000000
0.992157 0.007843 0.003922
0.000000 0.027451 0.000000
0.027451 0.019608 0.023529
0.070588 0.031373 0.027451
0.101961 0.027451 0.011765
0.152941 0.019608 0.015686
0.207843 0.019608 0.011765
0.250980 0.015686 0.007843
0.274510 0.019608 0.003922
0.325490 0.019608 0.011765
0.368627 0.019608 0.003922
0.407843 0.011765 0.003922
0.454902 0.007843 0.003922
0.498039 0.007843 0.000000
0.549020 0.000000 0.000000
0.588235 0.003922 0.000000
0.643137 0.000000 0.000000
0.686275 0.003922 0.000000
0.729412 0.003922 0.000000
0.776471 0.003922 0.000000
0.823529 0.000000 0.003922
0.866667 0.000000 0.000000
0.917647 0.000000 0.003922
0.960784 0.000000 0.000000
0.996078 0.000000 0.000000
1.000000 0.007843 0.000000
0.000000 0.066667 0.011765
0.023529 0.066667 0.011765
0.070588 0.074510 0.019608
0.117647 0.062745 0.011765
0.156863 0.066667 0.007843
0.196078 0.070588 0.019608
0.235294 0.066667 0.003922
0.286275 0.066667 0.007843
0.329412 0.066667 0.003922
0.368627 0.066667 0.000000
0.411765 0.062745 0.000000
0.450980 0.062745 0.000000
0.498039 0.062745 0.000000
0.541176 0.058824 0.000000
0.592157 0.054902 0.000000
0.631373 0.047059 0.000000
0.686275 0.043137 0.000000
0.733333 0.035294 0.000000
0.784314 0.027451 0.000000
0.827451 0.019608 0.000000
0.870588 0.011765 0.000000
0.913725 0.007843 0.000000
0.952941 0.007843 0.000000
0.996078 0.000000 0.000000
1.000000 0.003922 0.011765
0.003922 0.105882 0.007843
0.019608 0.105882 0.007843
0.062745 0.113725 0.007843
0.109804 0.105882 0.019608
0.152941 0.113725 0.015686
0.200000 0.105882 0.011765
0.243137 0.109804 0.003922
0.282353 0.109804 0.003922
0.309804 0.109804 0.000000
0.360784 0.109804 0.000000
0.411765 0.109804 0.000000
0.458824 0.109804 0.000000
0.490196 0.109804 0.000000
0.549020 0.101961 0.000000
0.592157 0.105882 0.003922
0.639216 0.101961 0.000000
0.690196 0.101961 0.003922
0.729412 0.098039 0.000000
0.776471 0.098039 0.000000
0.823529 0.098039 0.000000
0.866667 0.094118 0.000000
0.917647 0.078431 0.000000
0.952941 0.074510 0.000000
0.992157 0.074510 0.000000
1.000000 0.074510 0.000000
0.007843 0.149020 0.007843
0.015686 0.149020 0.003922
0.070588 0.156863 0.007843
0.109804 0.152941 0.000000
0.149020 0.149020 0.000000
0.200000 0.152941 0.003922
0.231373 0.156863 0.000000
0.286275 0.156863 0.000000
0.321569 0.160784 0.000000
0.364706 0.156863 0.000000
0.423529 0.156863 0.003922
0.462745 0.152941 0.000000
0.501961 0.152941 0.003922
0.549020 0.149020 0.000000
0.596078 0.149020 0.003922
0.643137 0.152941 0.000000
0.690196 0.149020 0.007843
0.729412 0.149020 0.000000
0.772549 0.149020 0.000000
0.819608 0.149020 0.000000
0.874510 0.137255 0.000000
0.921569 0.137255 0.003922
0.960784 0.137255 0.000000
1.000000 0.133333 0.000000
0.996078 0.129412 0.000000
0.003922 0.192157 0.003922
0.019608 0.200000 0.007843
0.062745 0.196078 0.000000
0.113725 0.203922 0.000000
0.156863 0.196078 0.000000
0.200000 0.200000 0.000000
0.239216 0.200000 0.000000
0.278431 0.200000 0.000000
0.329412 0.200000 0.000000
0.368627 0.200000 0.003922
0.415686 0.196078 0.000000
0.458824 0.200000 0.000000
0.501961 0.200000 0.000000
0.545098 0.203922 0.000000
0.592157 0.200000 0.000000
0.639216 0.200000 0.003922
0.690196 0.196078 0.000000
0.733333 0.196078 0.000000
0.780392 0.196078 0.000000
0.819608 0.196078 0.000000
0.874510 0.196078 0.000000
0.913725 0.196078 0.003922
0.960784 0.192157 0.003922
1.000000 0.192157 0.000000
1.000000 0.188235 0.000000
0.000000 0.239216 0.003922
0.007843 0.243137 0.000000
0.066667 0.239216 0.000000
0.113725 0.247059 0.000000
0.149020 0.243137 0.000000
0.188235 0.243137 0.000000
0.243137 0.243137 0.000000
0.282353 0.243137 0.000000
0.329412 0.243137 0.007843
0.376471 0.243137 0.000000
0.415686 0.243137 0.000000
0.458824 0.239216 0.000000
0.501961 0.243137 0.003922
0.549020 0.243137 0.000000
0.596078 0.243137 0.000000
0.643137 0.247059 0.000000
0.694118 0.247059 0.003922
0.737255 0.247059 0.003922
0.780392 0.243137 0.000000
0.831373 0.243137 0.003922
0.866667 0.243137 0.000000
0.909804 0.239216 0.000000
0.960784 0.239216 0.003922
1.000000 0.239216 0.000000
1.000000 0.235294 0.000000
0.000000 0.278431 0.003922
0.000000 0.286275 0.000000
0.054902 0.278431 0.000000
0.109804 0.290196 0.003922
0.156863 0.286275 0.000000
0.200000 0.286275 0.000000
0.247059 0.286275 0.007843
0.294118 0.282353 0.003922
0.337255 0.282353 0.003922
0.380392 0.286275 0.003922
0.419608 0.286275 0.003922
0.462745 0.290196 0.003922
0.509804 0.290196 0.000000
0.549020 0.290196 0.000000
0.600000 0.286275 0.000000
0.639216 0.290196 0.000000
0.690196 0.290196 0.000000
0.733333 0.286275 0.000000
0.780392 0.290196 0.000000
0.819608 0.290196 0.000000
0.866667 0.286275 0.000000
0.909804 0.286275 0.000000
0.968627 0.286275 0.007843
1.000000 0.286275 0.000000
0.996078 0.274510 0.000000
0.007843 0.325490 0.007843
0.003922 0.333333 0.000000
0.054902 0.329412 0.000000
0.101961 0.329412 0.000000
0.152941 0.329412 0.003922
0.196078 0.337255 0.000000
0.239216 0.333333 0.000000
0.286275 0.333333 0.000000
0.333333 0.329412 0.003922
0.376471 0.329412 0.000000
0.423529 0.325490 0.000000
0.466667 0.329412 0.000000
0.509804 0.337255 0.000000
0.552941 0.333333 0.000000
0.596078 0.329412 0.000000
0.647059 0.333333 0.000000
0.690196 0.337255 0.000000
0.741176 0.333333 0.000000
0.784314 0.337255 0.000000
0.831373 0.333333 0.000000
0.874510 0.333333 0.007843
0.909804 0.333333 0.000000
0.964706 0.337255 0.000000
0.996078 0.329412 0.003922
1.000000 0.321569 0.003922
0.000000 0.376471 0.000000
0.003922 0.380392 0.000000
0.031373 0.372549 0.000000
0.090196 0.380392 0.000000
0.156863 0.380392 0.007843
0.203922 0.376471 0.003922
0.250980 0.372549 0.000000
0.286275 0.372549 0.000000
0.337255 0.376471 0.000000
0.376471 0.384314 0.003922
0.423529 0.372549 0.000000
0.470588 0.380392 0.003922
0.513725 0.380392 0.000000
0.552941 0.380392 0.003922
0.603922 0.376471 0.000000
0.647059 0.380392 0.000000
0.694118 0.380392 0.000000
0.741176 0.376471 0.003922
0.788235 0.380392 0.000000
0.831373 0.376471 0.003922
0.882353 0.380392 0.000000
0.925490 0.376471 0.000000
0.960784 0.380392 0.000000
1.000000 0.372549 0.000000
1.000000 0.372549 0.000000
0.000000 0.427451 0.007843
0.000000 0.423529 0.003922
0.023529 0.423529 0.000000
0.086275 0.423529 0.000000
0.152941 0.423529 0.003922
0.196078 0.419608 0.000000
0.239216 0.427451 0.000000
0.294118 0.427451 0.000000
0.333333 0.423529 0.000000
0.376471 0.423529 0.000000
