lut_library_archive/removed_20260629/50个风景lut/50个风景lut17.cube
# 版权归凌孟成所有，侵权必究
TITLE "Jungle LUT #17"
#LUT size
LUT_3D_SIZE 9
#LUT data points
0.003922 0.000000 0.000000
0.117647 0.000000 0.000000
0.266667 0.000000 0.000000
0.407843 0.000000 0.000000
0.541176 0.003922 0.000000
0.690196 0.000000 0.007843
0.839216 0.000000 0.000000
0.964706 0.003922 0.000000
1.000000 0.003922 0.011765
0.000000 0.109804 0.011765
0.113725 0.105882 0.007843
0.254902 0.109804 0.003922
0.396078 0.105882 0.000000
0.529412 0.098039 0.000000
0.682353 0.078431 0.000000
0.819608 0.035294 0.003922
0.941176 0.003922 0.000000
0.996078 0.000000 0.000000
0.000000 0.250980 0.000000
0.145098 0.247059 0.000000
0.258824 0.254902 0.000000
0.407843 0.247059 0.000000
0.560784 0.247059 0.000000
0.705882 0.243137 0.000000
0.839216 0.235294 0.003922
0.964706 0.207843 0.000000
1.000000 0.188235 0.000000
0.000000 0.388235 0.000000
0.129412 0.384314 0.007843
0.278431 0.388235 0.000000
0.407843 0.384314 0.000000
0.552941 0.380392 0.003922
0.686275 0.372549 0.000000
0.811765 0.360784 0.000000
0.945098 0.345098 0.000000
1.000000 0.333333 0.000000
0.000000 0.537255 0.000000
0.133333 0.552941 0.003922
0.286275 0.549020 0.003922
0.431373 0.533333 0.000000
0.568627 0.529412 0.003922
0.701961 0.517647 0.007843
0.831373 0.505882 0.003922
0.956863 0.486275 0.003922
0.996078 0.482353 0.000000
0.011765 0.701961 0.000000
0.152941 0.698039 0.000000
0.298039 0.690196 0.000000
0.439216 0.686275 0.000000
0.580392 0.670588 0.003922
0.705882 0.654902 0.000000
0.835294 0.643137 0.000000
0.956863 0.623529 0.000000
0.996078 0.607843 0.007843
0.003922 0.772549 0.003922
0.141176 0.776471 0.000000
0.282353 0.776471 0.000000
0.411765 0.772549 0.000000
0.541176 0.768627 0.000000
0.682353 0.760784 0.003922
0.803922 0.745098 0.000000
0.941176 0.741176 0.000000
1.000000 0.729412 0.007843
0.015686 0.882353 0.000000
0.168627 0.890196 0.003922
0.294118 0.890196 0.007843
0.423529 0.886275 0.000000
0.541176 0.878431 0.000000
0.674510 0.870588 0.000000
0.803922 0.866667 0.000000
0.937255 0.858824 0.000000
1.000000 0.858824 0.000000
0.000000 0.980392 0.000000
0.125490 0.972549 0.000000
0.258824 0.968627 0.000000
0.388235 0.968627 0.000000
0.529412 0.964706 0.003922
0.662745 0.956863 0.003922
0.807843 0.956863 0.003922
0.952941 0.945098 0.000000
0.992157 0.925490 0.000000
0.000000 0.000000 0.117647
0.117647 0.000000 0.109804
0.254902 0.003922 0.109804
0.392157 0.000000 0.101961
0.537255 0.000000 0.090196
0.686275 0.000000 0.082353
0.823529 0.000000 0.066667
0.945098 0.000000 0.035294
0.996078 0.000000 0.011765
0.003922 0.101961 0.090196
0.109804 0.105882 0.098039
0.243137 0.105882 0.098039
0.384314 0.094118 0.090196
0.517647 0.082353 0.078431
0.670588 0.050980 0.070588
0.811765 0.003922 0.054902
0.945098 0.000000 0.027451
0.996078 0.000000 0.007843
0.003922 0.239216 0.090196
0.113725 0.250980 0.094118
0.258824 0.247059 0.086275
0.403922 0.239216 0.082353
0.549020 0.239216 0.078431
0.682353 0.235294 0.062745
0.815686 0.219608 0.043137
0.949020 0.196078 0.011765
0.996078 0.172549 0.000000
0.000000 0.372549 0.050980
0.090196 0.376471 0.054902
0.250980 0.376471 0.050980
0.396078 0.368627 0.050980
0.541176 0.368627 0.031373
0.678431 0.364706 0.031373
0.819608 0.360784 0.015686
0.945098 0.345098 0.000000
1.000000 0.337255 0.003922
0.000000 0.525490 0.011765
0.105882 0.525490 0.000000
0.270588 0.529412 0.003922
0.419608 0.525490 0.003922
0.552941 0.513725 0.000000
0.686275 0.498039 0.003922
0.811765 0.494118 0.003922
0.941176 0.490196 0.003922
1.000000 0.474510 0.000000
0.007843 0.670588 0.000000
0.125490 0.670588 0.000000
0.282353 0.670588 0.000000
0.423529 0.666667 0.003922
0.556863 0.658824 0.000000
0.698039 0.647059 0.000000
0.823529 0.639216 0.000000
0.945098 0.615686 0.000000
1.000000 0.603922 0.007843
0.003922 0.760784 0.003922
0.105882 0.768627 0.000000
0.258824 0.768627 0.000000
0.403922 0.764706 0.000000
0.537255 0.752941 0.000000
0.670588 0.749020 0.000000
0.807843 0.749020 0.007843
0.949020 0.741176 0.000000
1.000000 0.729412 0.000000
0.015686 0.866667 0.000000
0.129412 0.882353 0.000000
0.274510 0.886275 0.003922
0.415686 0.878431 0.000000
0.537255 0.874510 0.000000
0.670588 0.866667 0.000000
0.800000 0.862745 0.000000
0.929412 0.854902 0.007843
1.000000 0.854902 0.000000
0.007843 0.968627 0.007843
0.058824 0.964706 0.000000
0.239216 0.968627 0.000000
0.376471 0.960784 0.003922
0.517647 0.964706 0.003922
0.662745 0.960784 0.000000
0.811765 0.949020 0.000000
0.949020 0.937255 0.000000
1.000000 0.921569 0.000000
0.000000 0.000000 0.247059
0.113725 0.000000 0.250980
0.254902 0.003922 0.243137
0.392157 0.000000 0.250980
0.549020 0.000000 0.247059
0.701961 0.000000 0.235294
0.819608 0.000000 0.223529
0.952941 0.003922 0.211765
0.996078 0.000000 0.211765
0.000000 0.109804 0.231373
0.101961 0.094118 0.239216
0.254902 0.098039 0.243137
0.400000 0.078431 0.239216
0.529412 0.054902 0.231373
0.674510 0.007843 0.223529
0.815686 0.000000 0.219608
0.956863 0.000000 0.211765
0.992157 0.000000 0.192157
0.000000 0.243137 0.247059
0.090196 0.247059 0.243137
0.250980 0.243137 0.247059
0.403922 0.239216 0.243137
0.549020 0.235294 0.239216
0.690196 0.227451 0.231373
0.819608 0.207843 0.219608
0.949020 0.184314 0.207843
1.000000 0.152941 0.203922
0.000000 0.376471 0.227451
0.043137 0.376471 0.215686
0.243137 0.380392 0.223529
0.392157 0.372549 0.223529
0.537255 0.364706 0.219608
0.674510 0.360784 0.215686
0.823529 0.356863 0.207843
0.952941 0.345098 0.203922
0.996078 0.325490 0.188235
0.000000 0.521569 0.211765
0.023529 0.521569 0.211765
0.250980 0.529412 0.215686
0.411765 0.525490 0.211765
0.556863 0.513725 0.203922
0.682353 0.505882 0.196078
0.811765 0.490196 0.192157
0.945098 0.482353 0.192157
0.992157 0.470588 0.176471
0.011765 0.674510 0.215686
0.070588 0.670588 0.207843
0.254902 0.666667 0.203922
0.411765 0.666667 0.203922
0.556863 0.654902 0.188235
0.694118 0.647059 0.184314
0.823529 0.631373 0.168627
0.949020 0.615686 0.160784
1.000000 0.603922 0.180392
0.007843 0.752941 0.149020
0.050980 0.764706 0.168627
0.250980 0.760784 0.172549
0.392157 0.756863 0.164706
0.533333 0.752941 0.160784
0.670588 0.752941 0.152941
0.803922 0.745098 0.137255
0.941176 0.745098 0.133333
1.000000 0.721569 0.105882
0.000000 0.874510 0.164706
0.113725 0.878431 0.164706
0.262745 0.878431 0.160784
0.403922 0.878431 0.160784
0.529412 0.874510 0.149020
0.658824 0.862745 0.117647
0.788235 0.854902 0.094118
0.925490 0.847059 0.082353
0.992157 0.847059 0.011765
0.000000 0.972549 0.062745
0.000000 0.972549 0.054902
0.219608 0.964706 0.035294
0.372549 0.960784 0.023529
0.513725 0.964706 0.003922
0.650980 0.956863 0.000000
0.807843 0.956863 0.000000
0.949020 0.941176 0.000000
1.000000 0.921569 0.000000
0.000000 0.000000 0.392157
0.117647 0.000000 0.384314
0.258824 0.003922 0.380392
0.400000 0.000000 0.388235
0.552941 0.003922 0.392157
0.705882 0.000000 0.392157
0.827451 0.000000 0.380392
0.952941 0.003922 0.364706
1.000000 0.000000 0.368627
0.000000 0.101961 0.388235
0.086275 0.094118 0.396078
0.250980 0.086275 0.384314
0.392157 0.058824 0.384314
0.541176 0.031373 0.384314
0.678431 0.003922 0.372549
0.807843 0.000000 0.364706
0.949020 0.000000 0.360784
0.988235 0.003922 0.345098
0.000000 0.243137 0.380392
0.062745 0.239216 0.392157
0.247059 0.239216 0.392157
0.411765 0.235294 0.396078
0.552941 0.231373 0.392157
0.698039 0.207843 0.372549
0.827451 0.196078 0.368627
0.945098 0.172549 0.352941
1.000000 0.145098 0.345098
0.011765 0.380392 0.380392
0.023529 0.384314 0.380392
0.247059 0.380392 0.384314
0.396078 0.372549 0.372549
0.529412 0.364706 0.368627
0.674510 0.360784 0.364706
0.819608 0.356863 0.360784
0.949020 0.337255 0.352941
0.992157 0.313725 0.349020
0.007843 0.521569 0.380392
0.003922 0.525490 0.380392
0.231373 0.529412 0.376471
0.400000 0.525490 0.364706
0.552941 0.517647 0.364706
0.682353 0.505882 0.352941
0.819608 0.490196 0.356863
0.945098 0.474510 0.349020
0.996078 0.462745 0.345098
0.000000 0.678431 0.376471
0.015686 0.674510 0.372549
0.247059 0.670588 0.372549
0.403922 0.662745 0.372549
0.556863 0.658824 0.364706
0.698039 0.647059 0.349020
0.823529 0.631373 0.333333
0.952941 0.615686 0.329412
0.992157 0.600000 0.333333
0.003922 0.760784 0.333333
0.007843 0.764706 0.337255
0.227451 0.764706 0.341176
0.384314 0.768627 0.341176
0.529412 0.752941 0.333333
0.670588 0.745098 0.321569
0.800000 0.745098 0.317647
0.949020 0.737255 0.313725
0.996078 0.729412 0.309804
0.011765 0.866667 0.317647
0.094118 0.874510 0.337255
0.262745 0.882353 0.337255
0.396078 0.874510 0.329412
0.529412 0.870588 0.321569
0.654902 0.858824 0.321569
0.788235 0.854902 0.298039
0.933333 0.850980 0.298039
1.000000 0.854902 0.298039
0.000000 0.972549 0.282353
0.000000 0.968627 0.278431
0.203922 0.968627 0.286275
0.360784 0.964706 0.282353
0.501961 0.964706 0.274510
0.650980 0.956863 0.274510
0.803922 0.949020 0.262745
0.952941 0.941176 0.254902
1.000000 0.921569 0.239216
0.000000 0.000000 0.537255
0.105882 0.003922 0.533333
0.262745 0.003922 0.537255
0.400000 0.000000 0.529412
0.552941 0.003922 0.533333
0.694118 0.000000 0.529412
0.819608 0.003922 0.521569
0.952941 0.003922 0.513725
1.000000 0.003922 0.501961
0.000000 0.086275 0.517647
0.090196 0.078431 0.529412
0.247059 0.074510 0.517647
0.400000 0.047059 0.529412
0.541176 0.003922 0.521569
0.678431 0.000000 0.521569
0.811765 0.003922 0.509804
0.937255 0.003922 0.509804
1.000000 0.000000 0.490196
0.000000 0.243137 0.537255
0.000000 0.235294 0.529412
0.235294 0.231373 0.529412
0.403922 0.231373 0.541176
0.552941 0.207843 0.537255
0.698039 0.192157 0.517647
0.819608 0.180392 0.505882
0.945098 0.160784 0.505882
1.000000 0.141176 0.486275
0.007843 0.376471 0.517647
0.000000 0.384314 0.529412
0.219608 0.376471 0.517647
0.384314 0.368627 0.513725
0.537255 0.349020 0.505882
0.678431 0.356863 0.505882
0.827451 0.349020 0.509804
0.941176 0.337255 0.501961
1.000000 0.329412 0.501961
0.000000 0.521569 0.517647
0.003922 0.525490 0.541176
0.223529 0.529412 0.537255
0.388235 0.521569 0.525490
0.552941 0.513725 0.517647
0.682353 0.501961 0.509804
0.811765 0.490196 0.498039
0.945098 0.478431 0.494118
0.996078 0.458824 0.490196
0.000000 0.678431 0.537255
0.003922 0.670588 0.533333
0.239216 0.670588 0.533333
0.400000 0.654902 0.521569
0.549020 0.650980 0.513725
0.698039 0.639216 0.509804
0.823529 0.627451 0.490196
0.949020 0.615686 0.494118
1.000000 0.596078 0.505882
0.000000 0.764706 0.490196
0.000000 0.772549 0.494118
0.231373 0.764706 0.505882
0.376471 0.764706 0.494118
0.521569 0.756863 0.482353
0.662745 0.745098 0.474510
0.803922 0.745098 0.474510
0.956863 0.733333 0.470588
1.000000 0.721569 0.462745
0.003922 0.870588 0.486275
0.129412 0.878431 0.501961
0.266667 0.874510 0.505882
0.400000 0.878431 0.490196
0.529412 0.870588 0.490196
0.662745 0.866667 0.474510
0.792157 0.854902 0.466667
0.933333 0.847059 0.458824
1.000000 0.847059 0.454902
0.000000 0.968627 0.450980
0.031373 0.964706 0.458824
0.223529 0.960784 0.450980
0.368627 0.960784 0.454902
0.501961 0.960784 0.443137
0.647059 0.960784 0.439216
0.807843 0.952941 0.439216
0.952941 0.941176 0.435294
0.996078 0.917647 0.427451
0.007843 0.000000 0.658824
0.090196 0.007843 0.662745
0.258824 0.000000 0.658824
0.400000 0.000000 0.670588
0.541176 0.000000 0.658824
0.682353 0.000000 0.654902
0.815686 0.007843 0.654902
0.945098 0.003922 0.643137
1.000000 0.003922 0.631373
0.003922 0.070588 0.654902
0.062745 0.066667 0.662745
0.250980 0.050980 0.654902
0.392157 0.019608 0.654902
0.537255 0.000000 0.666667
0.678431 0.000000 0.662745
0.819608 0.000000 0.662745
0.952941 0.003922 0.650980
0.996078 0.003922 0.635294
0.003922 0.219608 0.674510
0.000000 0.219608 0.654902
0.219608 0.219608 0.658824
0.384314 0.211765 0.662745
0.529412 0.196078 0.654902
0.682353 0.172549 0.650980
0.815686 0.160784 0.647059
0.945098 0.137255 0.643137
0.992157 0.109804 0.619608
0.007843 0.368627 0.654902
0.000000 0.368627 0.658824
0.192157 0.356863 0.647059
0.384314 0.356863 0.662745
0.537255 0.349020 0.654902
0.682353 0.341176 0.658824
0.819608 0.337255 0.650980
0.952941 0.333333 0.635294
1.000000 0.325490 0.643137
0.000000 0.501961 0.654902
0.000000 0.509804 0.650980
0.192157 0.501961 0.658824
0.368627 0.498039 0.658824
0.529412 0.494118 0.662745
0.678431 0.486275 0.662745
0.811765 0.490196 0.650980
0.937255 0.486275 0.647059
1.000000 0.462745 0.643137
0.003922 0.658824 0.662745
0.011765 0.650980 0.670588
0.215686 0.650980 0.658824
0.384314 0.650980 0.662745
0.529412 0.639216 0.650980
0.674510 0.627451 0.643137
0.811765 0.619608 0.635294
0.937255 0.611765 0.643137
1.000000 0.596078 0.631373
0.003922 0.756863 0.635294
0.000000 0.760784 0.635294
0.196078 0.752941 0.635294
0.364706 0.752941 0.631373
0.525490 0.756863 0.639216
0.674510 0.749020 0.635294
0.807843 0.749020 0.635294
0.949020 0.737255 0.627451
0.992157 0.729412 0.627451
0.003922 0.866667 0.623529
0.035294 0.874510 0.623529
0.243137 0.870588 0.627451
0.396078 0.866667 0.627451
0.529412 0.866667 0.627451
0.658824 0.858824 0.627451
0.796078 0.854902 0.623529
0.933333 0.854902 0.619608
0.996078 0.847059 0.603922
0.003922 0.968627 0.611765
0.109804 0.968627 0.607843
0.262745 0.960784 0.607843
0.407843 0.960784 0.619608
0.529412 0.960784 0.611765
0.670588 0.956863 0.607843
0.807843 0.949020 0.607843
0.960784 0.937255 0.607843
1.000000 0.917647 0.607843
0.003922 0.000000 0.784314
0.086275 0.000000 0.807843
0.258824 0.000000 0.784314
0.396078 0.000000 0.792157
0.537255 0.000000 0.792157
0.666667 0.003922 0.784314
0.807843 0.000000 0.780392
0.945098 0.007843 0.788235
0.996078 0.007843 0.764706
0.000000 0.062745 0.784314
0.050980 0.047059 0.788235
0.243137 0.039216 0.784314
0.392157 0.007843 0.788235
0.525490 0.000000 0.788235
0.666667 0.000000 0.792157
0.819608 0.003922 0.796078
0.949020 0.000000 0.784314
0.996078 0.003922 0.772549
0.000000 0.211765 0.792157
0.000000 0.207843 0.788235
0.211765 0.211765 0.784314
0.380392 0.200000 0.788235
0.521569 0.188235 0.788235
0.674510 0.164706 0.792157
0.811765 0.137255 0.780392
0.949020 0.105882 0.776471
1.000000 0.086275 0.764706
0.003922 0.356863 0.796078
0.003922 0.349020 0.780392
0.192157 0.349020 0.800000
0.368627 0.341176 0.788235
0.525490 0.341176 0.788235
0.678431 0.337255 0.796078
0.823529 0.321569 0.796078
0.952941 0.325490 0.780392
1.000000 0.317647 0.768627
0.003922 0.494118 0.792157
0.003922 0.490196 0.796078
0.168627 0.490196 0.780392
0.364706 0.490196 0.792157
0.525490 0.482353 0.792157
0.666667 0.482353 0.796078
0.815686 0.474510 0.784314
0.949020 0.470588 0.772549
0.996078 0.470588 0.780392
0.000000 0.627451 0.792157
0.007843 0.631373 0.796078
0.180392 0.623529 0.788235
0.356863 0.627451 0.796078
0.521569 0.615686 0.788235
0.678431 0.615686 0.792157
0.815686 0.615686 0.776471
0.937255 0.615686 0.776471
0.984314 0.603922 0.772549
0.000000 0.764706 0.780392
0.000000 0.760784 0.776471
0.160784 0.760784 0.780392
0.372549 0.760784 0.780392
0.529412 0.752941 0.780392
0.678431 0.752941 0.780392
0.807843 0.741176 0.780392
0.941176 0.733333 0.780392
1.000000 0.733333 0.784314
0.003922 0.854902 0.764706
0.003922 0.866667 0.764706
0.239216 0.858824 0.760784
0.392157 0.862745 0.756863
0.537255 0.858824 0.760784
0.682353 0.858824 0.776471
0.803922 0.850980 0.764706
0.937255 0.850980 0.768627
0.992157 0.843137 0.768627
0.047059 0.972549 0.752941
0.156863 0.956863 0.741176
0.270588 0.960784 0.737255
0.415686 0.956863 0.752941
0.556863 0.956863 0.768627
0.686275 0.952941 0.760784
0.823529 0.949020 0.764706
0.960784 0.933333 0.760784
1.000000 0.917647 0.764706
0.003922 0.000000 0.913725
0.066667 0.000000 0.913725
0.243137 0.000000 0.905882
0.388235 0.000000 0.913725
0.525490 0.003922 0.909804
0.658824 0.003922 0.913725
0.800000 0.003922 0.913725
0.937255 0.000000 0.913725
0.996078 0.003922 0.905882
0.000000 0.039216 0.909804
0.031373 0.027451 0.913725
0.235294 0.003922 0.913725
0.388235 0.000000 0.913725
0.525490 0.003922 0.917647
0.662745 0.000000 0.913725
0.803922 0.000000 0.913725
0.945098 0.000000 0.921569
1.000000 0.000000 0.905882
0.003922 0.203922 0.905882
0.000000 0.207843 0.913725
0.223529 0.203922 0.917647
0.380392 0.192157 0.913725
0.517647 0.180392 0.913725
0.666667 0.160784 0.909804
0.800000 0.137255 0.917647
0.945098 0.082353 0.913725
1.000000 0.015686 0.905882
0.000000 0.345098 0.909804
0.003922 0.341176 0.917647
0.211765 0.337255 0.913725
0.372549 0.341176 0.909804
0.529412 0.333333 0.925490
0.658824 0.329412 0.909804
0.807843 0.321569 0.909804
0.937255 0.305882 0.913725
1.000000 0.298039 0.909804
0.003922 0.470588 0.901961
0.011765 0.478431 0.917647
0.176471 0.474510 0.909804
0.368627 0.474510 0.917647
0.521569 0.474510 0.913725
0.658824 0.470588 0.909804
0.807843 0.466667 0.909804
0.945098 0.458824 0.913725
0.996078 0.454902 0.898039
0.003922 0.611765 0.909804
0.000000 0.607843 0.905882
0.168627 0.611765 0.909804
0.349020 0.607843 0.913725
0.517647 0.600000 0.909804
0.678431 0.611765 0.917647
0.807843 0.607843 0.909804
0.933333 0.603922 0.905882
0.996078 0.603922 0.898039
0.000000 0.741176 0.913725
0.003922 0.741176 0.909804
0.176471 0.741176 0.913725
0.368627 0.737255 0.909804
0.529412 0.737255 0.909804
0.678431 0.737255 0.905882
0.811765 0.737255 0.913725
0.941176 0.733333 0.913725
0.996078 0.733333 0.901961
0.000000 0.870588 0.890196
0.007843 0.866667 0.905882
0.188235 0.862745 0.901961
0.380392 0.866667 0.905882
0.525490 0.862745 0.905882
0.678431 0.862745 0.901961
0.815686 0.847059 0.898039
0.937255 0.843137 0.898039
1.000000 0.839216 0.905882
0.117647 0.956863 0.886275
0.184314 0.964706 0.874510
0.298039 0.960784 0.870588
0.423529 0.960784 0.882353
0.568627 0.956863 0.878431
0.705882 0.956863 0.890196
0.847059 0.937255 0.905882
0.964706 0.925490 0.917647
1.000000 0.913725 0.925490
0.000000 0.000000 0.996078
0.062745 0.000000 1.000000
0.235294 0.000000 0.996078
0.376471 0.003922 1.000000
0.513725 0.000000 0.996078
0.654902 0.000000 1.000000
0.788235 0.000000 1.000000
0.913725 0.003922 1.000000
0.992157 0.000000 1.000000
0.000000 0.015686 1.000000
0.050980 0.000000 1.000000
0.239216 0.000000 0.996078
0.376471 0.003922 1.000000
0.517647 0.000000 0.996078
0.647059 0.000000 1.000000
0.788235 0.000000 1.000000
0.917647 0.007843 1.000000
0.996078 0.000000 0.992157
0.000000 0.196078 1.000000
0.007843 0.196078 1.000000
0.223529 0.192157 1.000000
0.372549 0.184314 0.992157
0.509804 0.172549 1.000000
0.647059 0.156863 1.000000
0.784314 0.129412 1.000000
0.921569 0.086275 1.000000
0.992157 0.000000 1.000000
0.011765 0.333333 1.000000
0.007843 0.337255 0.996078
0.227451 0.337255 1.000000
0.368627 0.333333 0.996078
0.517647 0.329412 1.000000
0.650980 0.321569 1.000000
0.784314 0.317647 0.992157
0.929412 0.298039 1.000000
1.000000 0.286275 0.996078
0.007843 0.458824 0.996078
0.007843 0.454902 1.000000
0.227451 0.470588 1.000000
0.384314 0.470588 1.000000
0.521569 0.470588 0.996078
0.650980 0.462745 0.996078
0.792157 0.462745 1.000000
0.925490 0.450980 1.000000
1.000000 0.443137 1.000000
0.003922 0.592157 1.000000
0.000000 0.588235 1.000000
0.184314 0.588235 1.000000
0.364706 0.588235 1.000000
0.533333 0.600000 1.000000
0.670588 0.600000 1.000000
0.800000 0.596078 0.992157
0.929412 0.596078 1.000000
1.000000 0.588235 1.000000
0.003922 0.717647 1.000000
0.000000 0.717647 1.000000
0.192157 0.717647 1.000000
0.376471 0.713725 1.000000
0.529412 0.717647 1.000000
0.670588 0.717647 1.000000
0.811765 0.725490 1.000000
0.941176 0.721569 1.000000
1.000000 0.713725 1.000000
0.000000 0.850980 1.000000
0.003922 0.847059 1.000000
0.203922 0.831373 1.000000
0.376471 0.843137 1.000000
0.525490 0.847059 1.000000
0.674510 0.835294 1.000000
0.811765 0.839216 1.000000
0.945098 0.839216 1.000000
0.996078 0.847059 1.000000
0.000000 0.968627 0.996078
0.000000 0.972549 1.000000
0.219608 0.964706 1.000000
0.396078 0.968627 1.000000
0.564706 0.956863 0.996078
0.713725 0.945098 1.000000
0.870588 0.937255 1.000000
0.996078 0.921569 1.000000
1.000000 0.909804 0.996078
