lut_library_archive/removed_20260629/50个风景lut/50个风景lut45.cube
# 版权归凌孟成所有，侵权必究
TITLE "Jungle LUT #45"
#LUT size
LUT_3D_SIZE 5
#LUT data points
0.000000 0.000000 0.000000
0.239216 0.003922 0.000000
0.509804 0.000000 0.000000
0.807843 0.003922 0.000000
0.996078 0.000000 0.000000
0.000000 0.235294 0.000000
0.250980 0.227451 0.000000
0.521569 0.231373 0.000000
0.811765 0.219608 0.003922
1.000000 0.176471 0.000000
0.000000 0.509804 0.007843
0.258824 0.501961 0.000000
0.537255 0.501961 0.000000
0.815686 0.498039 0.000000
1.000000 0.478431 0.003922
0.007843 0.756863 0.003922
0.254902 0.764706 0.000000
0.533333 0.756863 0.000000
0.807843 0.749020 0.000000
1.000000 0.737255 0.003922
0.007843 0.972549 0.000000
0.231373 0.964706 0.000000
0.517647 0.964706 0.000000
0.803922 0.952941 0.000000
1.000000 0.925490 0.000000
0.000000 0.000000 0.223529
0.243137 0.003922 0.235294
0.517647 0.003922 0.231373
0.815686 0.000000 0.203922
0.992157 0.007843 0.188235
0.000000 0.227451 0.239216
0.247059 0.227451 0.215686
0.525490 0.219608 0.219608
0.811765 0.192157 0.207843
0.984314 0.141176 0.180392
0.000000 0.513725 0.192157
0.235294 0.505882 0.188235
0.533333 0.501961 0.176471
0.823529 0.490196 0.176471
0.992157 0.466667 0.156863
0.007843 0.764706 0.133333
0.227451 0.764706 0.137255
0.533333 0.752941 0.121569
0.807843 0.749020 0.101961
1.000000 0.733333 0.039216
0.007843 0.968627 0.003922
0.200000 0.972549 0.000000
0.501961 0.964706 0.000000
0.800000 0.945098 0.003922
1.000000 0.921569 0.000000
0.003922 0.000000 0.517647
0.243137 0.000000 0.513725
0.529412 0.000000 0.513725
0.815686 0.007843 0.513725
0.996078 0.000000 0.498039
0.000000 0.223529 0.513725
0.219608 0.215686 0.529412
0.537255 0.196078 0.513725
0.823529 0.156863 0.505882
1.000000 0.074510 0.478431
0.000000 0.505882 0.498039
0.176471 0.505882 0.505882
0.525490 0.501961 0.501961
0.819608 0.482353 0.501961
0.996078 0.454902 0.482353
0.000000 0.768627 0.478431
0.145098 0.760784 0.482353
0.517647 0.760784 0.474510
0.815686 0.749020 0.474510
1.000000 0.725490 0.454902
0.003922 0.972549 0.450980
0.200000 0.964706 0.447059
0.501961 0.960784 0.443137
0.803922 0.949020 0.431373
0.996078 0.925490 0.407843
0.000000 0.003922 0.784314
0.243137 0.003922 0.796078
0.529412 0.003922 0.788235
0.811765 0.003922 0.784314
0.996078 0.003922 0.772549
0.000000 0.196078 0.796078
0.200000 0.196078 0.803922
0.525490 0.168627 0.792157
0.811765 0.090196 0.780392
1.000000 0.000000 0.772549
0.003922 0.482353 0.800000
0.101961 0.482353 0.792157
0.505882 0.478431 0.792157
0.815686 0.454902 0.780392
1.000000 0.462745 0.768627
0.007843 0.764706 0.776471
0.054902 0.764706 0.776471
0.505882 0.760784 0.784314
0.807843 0.741176 0.780392
1.000000 0.725490 0.768627
0.003922 0.960784 0.741176
0.282353 0.956863 0.752941
0.564706 0.952941 0.760784
0.823529 0.945098 0.772549
1.000000 0.917647 0.756863
0.003922 0.003922 1.000000
0.231373 0.000000 0.992157
0.509804 0.003922 0.996078
0.776471 0.000000 1.000000
1.000000 0.000000 1.000000
0.000000 0.172549 1.000000
0.207843 0.172549 1.000000
0.513725 0.137255 1.000000
0.776471 0.031373 0.996078
1.000000 0.000000 0.996078
0.003922 0.450980 1.000000
0.176471 0.458824 1.000000
0.498039 0.447059 1.000000
0.776471 0.427451 1.000000
0.992157 0.423529 0.992157
0.007843 0.709804 1.000000
0.145098 0.705882 1.000000
0.521569 0.709804 1.000000
0.807843 0.721569 1.000000
1.000000 0.721569 1.000000
0.000000 0.968627 0.996078
0.223529 0.960784 1.000000
0.549020 0.956863 1.000000
0.862745 0.937255 1.000000
1.000000 0.913725 0.996078
