lut_library_archive/removed_20260629/50个风景lut/50个风景lut24.cube
# 版权归凌孟成所有，侵权必究
TITLE "Jungle LUT #24"
#LUT size
LUT_3D_SIZE 9
#LUT data points
0.000000 0.003922 0.000000
0.101961 0.000000 0.003922
0.235294 0.000000 0.000000
0.368627 0.000000 0.000000
0.513725 0.000000 0.000000
0.666667 0.000000 0.003922
0.811765 0.000000 0.000000
0.949020 0.003922 0.007843
1.000000 0.000000 0.062745
0.003922 0.098039 0.000000
0.109804 0.101961 0.003922
0.239216 0.098039 0.000000
0.376471 0.094118 0.000000
0.513725 0.094118 0.000000
0.662745 0.090196 0.000000
0.807843 0.078431 0.000000
0.945098 0.074510 0.000000
0.996078 0.090196 0.031373
0.058824 0.219608 0.000000
0.141176 0.215686 0.000000
0.258824 0.223529 0.007843
0.384314 0.219608 0.000000
0.525490 0.227451 0.003922
0.666667 0.227451 0.000000
0.811765 0.231373 0.003922
0.945098 0.235294 0.000000
0.996078 0.235294 0.003922
0.094118 0.352941 0.003922
0.156863 0.356863 0.000000
0.286275 0.349020 0.003922
0.403922 0.349020 0.000000
0.525490 0.352941 0.003922
0.666667 0.356863 0.003922
0.803922 0.360784 0.007843
0.929412 0.364706 0.000000
0.996078 0.360784 0.003922
0.117647 0.486275 0.000000
0.188235 0.498039 0.000000
0.298039 0.494118 0.003922
0.411765 0.494118 0.000000
0.545098 0.490196 0.000000
0.674510 0.498039 0.000000
0.811765 0.501961 0.000000
0.945098 0.494118 0.003922
1.000000 0.494118 0.015686
0.113725 0.650980 0.000000
0.192157 0.650980 0.000000
0.301961 0.650980 0.000000
0.427451 0.650980 0.003922
0.556863 0.643137 0.003922
0.682353 0.647059 0.000000
0.811765 0.643137 0.000000
0.941176 0.631373 0.000000
0.996078 0.631373 0.000000
0.090196 0.784314 0.000000
0.184314 0.772549 0.000000
0.294118 0.780392 0.003922
0.419608 0.780392 0.000000
0.552941 0.780392 0.003922
0.686275 0.780392 0.003922
0.807843 0.780392 0.000000
0.933333 0.768627 0.000000
1.000000 0.756863 0.000000
0.050980 0.901961 0.000000
0.160784 0.913725 0.000000
0.282353 0.905882 0.000000
0.415686 0.909804 0.000000
0.545098 0.909804 0.003922
0.678431 0.909804 0.000000
0.803922 0.905882 0.000000
0.945098 0.901961 0.000000
0.992157 0.898039 0.000000
0.000000 0.996078 0.000000
0.094118 1.000000 0.003922
0.243137 1.000000 0.000000
0.384314 1.000000 0.000000
0.529412 1.000000 0.000000
0.674510 1.000000 0.003922
0.815686 1.000000 0.003922
0.952941 1.000000 0.000000
1.000000 0.996078 0.003922
0.000000 0.000000 0.098039
0.109804 0.000000 0.098039
0.243137 0.000000 0.098039
0.372549 0.003922 0.105882
0.517647 0.000000 0.109804
0.670588 0.003922 0.117647
0.807843 0.000000 0.117647
0.945098 0.003922 0.125490
0.992157 0.000000 0.145098
0.011765 0.094118 0.098039
0.121569 0.101961 0.090196
0.247059 0.098039 0.098039
0.372549 0.094118 0.094118
0.509804 0.094118 0.101961
0.658824 0.086275 0.098039
0.796078 0.070588 0.101961
0.917647 0.066667 0.109804
0.996078 0.082353 0.125490
0.043137 0.223529 0.082353
0.145098 0.223529 0.086275
0.258824 0.219608 0.078431
0.388235 0.219608 0.062745
0.525490 0.219608 0.070588
0.666667 0.223529 0.066667
0.811765 0.227451 0.078431
0.941176 0.231373 0.086275
1.000000 0.231373 0.125490
0.082353 0.341176 0.043137
0.152941 0.352941 0.043137
0.274510 0.349020 0.031373
0.396078 0.345098 0.035294
0.525490 0.352941 0.011765
0.647059 0.345098 0.000000
0.784314 0.349020 0.000000
0.917647 0.349020 0.000000
1.000000 0.349020 0.019608
0.101961 0.490196 0.000000
0.180392 0.498039 0.000000
0.286275 0.490196 0.000000
0.411765 0.494118 0.000000
0.545098 0.490196 0.000000
0.678431 0.490196 0.000000
0.803922 0.494118 0.000000
0.937255 0.490196 0.003922
1.000000 0.494118 0.000000
0.101961 0.643137 0.000000
0.180392 0.643137 0.000000
0.301961 0.639216 0.000000
0.419608 0.639216 0.000000
0.552941 0.639216 0.003922
0.686275 0.639216 0.003922
0.807843 0.639216 0.000000
0.941176 0.631373 0.000000
1.000000 0.627451 0.000000
0.070588 0.772549 0.000000
0.172549 0.776471 0.000000
0.290196 0.776471 0.000000
0.415686 0.776471 0.000000
0.541176 0.780392 0.000000
0.682353 0.776471 0.000000
0.803922 0.764706 0.000000
0.933333 0.749020 0.000000
1.000000 0.756863 0.000000
0.000000 0.913725 0.000000
0.137255 0.909804 0.000000
0.270588 0.909804 0.003922
0.407843 0.909804 0.000000
0.541176 0.905882 0.000000
0.674510 0.905882 0.003922
0.807843 0.898039 0.003922
0.941176 0.898039 0.000000
0.996078 0.886275 0.007843
0.000000 0.996078 0.000000
0.047059 0.996078 0.000000
0.231373 1.000000 0.003922
0.384314 1.000000 0.000000
0.525490 1.000000 0.000000
0.662745 1.000000 0.000000
0.815686 1.000000 0.000000
0.952941 0.996078 0.007843
1.000000 0.992157 0.000000
0.000000 0.003922 0.223529
0.113725 0.000000 0.219608
0.243137 0.000000 0.211765
0.372549 0.003922 0.215686
0.521569 0.000000 0.223529
0.666667 0.003922 0.235294
0.815686 0.003922 0.247059
0.949020 0.003922 0.250980
0.996078 0.000000 0.262745
0.000000 0.090196 0.211765
0.113725 0.094118 0.211765
0.250980 0.078431 0.215686
0.384314 0.082353 0.223529
0.521569 0.090196 0.227451
0.670588 0.094118 0.239216
0.811765 0.082353 0.239216
0.933333 0.078431 0.243137
1.000000 0.105882 0.266667
0.015686 0.219608 0.211765
0.137255 0.215686 0.211765
0.258824 0.215686 0.207843
0.392157 0.219608 0.215686
0.525490 0.219608 0.211765
0.674510 0.227451 0.223529
0.811765 0.227451 0.219608
0.952941 0.231373 0.231373
1.000000 0.243137 0.254902
0.007843 0.352941 0.196078
0.133333 0.349020 0.188235
0.270588 0.352941 0.192157
0.400000 0.345098 0.192157
0.533333 0.345098 0.188235
0.658824 0.337255 0.180392
0.800000 0.349020 0.188235
0.925490 0.349020 0.188235
1.000000 0.352941 0.203922
0.047059 0.490196 0.176471
0.149020 0.498039 0.176471
0.278431 0.494118 0.168627
0.403922 0.490196 0.164706
0.537255 0.490196 0.160784
0.674510 0.486275 0.152941
0.807843 0.490196 0.141176
0.937255 0.482353 0.141176
0.992157 0.494118 0.160784
0.039216 0.647059 0.129412
0.152941 0.643137 0.125490
0.286275 0.639216 0.121569
0.415686 0.639216 0.125490
0.549020 0.643137 0.109804
0.682353 0.635294 0.094118
0.815686 0.631373 0.074510
0.941176 0.623529 0.062745
1.000000 0.619608 0.066667
0.000000 0.772549 0.015686
0.129412 0.776471 0.019608
0.270588 0.780392 0.011765
0.415686 0.776471 0.003922
0.549020 0.776471 0.000000
0.678431 0.772549 0.000000
0.803922 0.764706 0.000000
0.937255 0.752941 0.003922
1.000000 0.752941 0.000000
0.007843 0.905882 0.000000
0.070588 0.905882 0.003922
0.250980 0.909804 0.011765
0.392157 0.905882 0.003922
0.533333 0.909804 0.000000
0.662745 0.905882 0.000000
0.800000 0.901961 0.000000
0.941176 0.898039 0.000000
1.000000 0.882353 0.007843
0.000000 1.000000 0.000000
0.007843 1.000000 0.000000
0.207843 0.996078 0.000000
0.360784 1.000000 0.000000
0.517647 1.000000 0.003922
0.658824 1.000000 0.000000
0.803922 1.000000 0.000000
0.949020 1.000000 0.000000
1.000000 1.000000 0.000000
0.000000 0.003922 0.337255
0.121569 0.000000 0.329412
0.250980 0.000000 0.345098
0.376471 0.003922 0.341176
0.525490 0.000000 0.349020
0.666667 0.000000 0.349020
0.819608 0.003922 0.356863
0.964706 0.000000 0.384314
0.996078 0.149020 0.411765
0.000000 0.082353 0.329412
0.113725 0.086275 0.349020
0.254902 0.070588 0.345098
0.384314 0.047059 0.341176
0.521569 0.007843 0.329412
0.666667 0.000000 0.349020
0.811765 0.039216 0.360784
0.945098 0.113725 0.376471
0.992157 0.192157 0.400000
0.000000 0.211765 0.333333
0.121569 0.211765 0.345098
0.266667 0.211765 0.349020
0.396078 0.203922 0.329412
0.529412 0.211765 0.341176
0.682353 0.227451 0.349020
0.819608 0.243137 0.376471
0.952941 0.262745 0.384314
1.000000 0.270588 0.384314
0.000000 0.356863 0.337255
0.129412 0.345098 0.325490
0.262745 0.349020 0.329412
0.403922 0.345098 0.333333
0.525490 0.349020 0.329412
0.666667 0.349020 0.333333
0.815686 0.352941 0.345098
0.941176 0.356863 0.349020
0.996078 0.364706 0.352941
0.003922 0.494118 0.329412
0.086275 0.501961 0.313725
0.266667 0.498039 0.317647
0.407843 0.494118 0.309804
0.545098 0.490196 0.305882
0.678431 0.490196 0.309804
0.811765 0.490196 0.305882
0.941176 0.494118 0.321569
1.000000 0.486275 0.337255
0.011765 0.647059 0.290196
0.090196 0.643137 0.301961
0.258824 0.654902 0.294118
0.407843 0.643137 0.290196
0.549020 0.647059 0.286275
0.694118 0.643137 0.282353
0.815686 0.635294 0.270588
0.945098 0.627451 0.278431
1.000000 0.611765 0.274510
0.003922 0.776471 0.254902
0.003922 0.784314 0.258824
0.231373 0.780392 0.258824
0.396078 0.776471 0.254902
0.533333 0.784314 0.250980
0.670588 0.772549 0.243137
0.807843 0.772549 0.235294
0.941176 0.760784 0.223529
1.000000 0.749020 0.227451
0.000000 0.913725 0.219608
0.007843 0.905882 0.227451
0.207843 0.913725 0.227451
0.368627 0.909804 0.227451
0.513725 0.905882 0.215686
0.658824 0.905882 0.215686
0.803922 0.901961 0.200000
0.941176 0.901961 0.184314
0.992157 0.886275 0.184314
0.000000 1.000000 0.164706
0.011765 0.992157 0.184314
0.113725 0.996078 0.172549
0.333333 1.000000 0.168627
0.494118 1.000000 0.160784
0.643137 1.000000 0.141176
0.796078 1.000000 0.117647
0.949020 1.000000 0.070588
1.000000 0.992157 0.000000
0.000000 0.007843 0.474510
0.133333 0.000000 0.470588
0.254902 0.000000 0.470588
0.388235 0.000000 0.474510
0.513725 0.000000 0.470588
0.670588 0.000000 0.478431
0.803922 0.007843 0.478431
0.949020 0.003922 0.486275
0.992157 0.007843 0.494118
0.000000 0.078431 0.458824
0.113725 0.074510 0.462745
0.254902 0.054902 0.466667
0.380392 0.027451 0.474510
0.529412 0.000000 0.474510
0.666667 0.003922 0.470588
0.803922 0.000000 0.466667
0.941176 0.000000 0.486275
0.992157 0.133333 0.501961
0.000000 0.203922 0.462745
0.113725 0.211765 0.474510
0.262745 0.203922 0.474510
0.396078 0.196078 0.474510
0.529412 0.184314 0.474510
0.682353 0.164706 0.470588
0.819608 0.184314 0.478431
0.952941 0.239216 0.498039
0.992157 0.317647 0.521569
0.000000 0.345098 0.462745
0.109804 0.341176 0.466667
0.243137 0.341176 0.458824
0.400000 0.341176 0.470588
0.541176 0.329412 0.462745
0.670588 0.345098 0.462745
0.811765 0.368627 0.478431
0.929412 0.400000 0.498039
1.000000 0.411765 0.517647
0.000000 0.490196 0.474510
0.094118 0.494118 0.470588
0.250980 0.498039 0.462745
0.400000 0.490196 0.450980
0.552941 0.486275 0.454902
0.682353 0.490196 0.462745
0.823529 0.498039 0.474510
0.941176 0.505882 0.490196
1.000000 0.521569 0.501961
0.003922 0.643137 0.450980
0.003922 0.647059 0.447059
0.223529 0.647059 0.450980
0.384314 0.647059 0.439216
0.537255 0.643137 0.435294
0.686275 0.643137 0.431373
0.827451 0.631373 0.431373
0.945098 0.623529 0.439216
1.000000 0.623529 0.454902
0.003922 0.780392 0.431373
0.003922 0.788235 0.431373
0.164706 0.788235 0.427451
0.356863 0.784314 0.419608
0.525490 0.780392 0.419608
0.670588 0.776471 0.411765
0.811765 0.772549 0.400000
0.941176 0.760784 0.384314
1.000000 0.745098 0.407843
0.000000 0.909804 0.400000
0.000000 0.913725 0.400000
0.101961 0.909804 0.403922
0.337255 0.913725 0.403922
0.494118 0.913725 0.396078
0.650980 0.909804 0.384314
0.800000 0.905882 0.392157
0.937255 0.898039 0.376471
1.000000 0.886275 0.376471
0.000000 0.996078 0.368627
0.007843 0.996078 0.380392
0.011765 0.996078 0.372549
0.301961 0.996078 0.376471
0.470588 0.996078 0.364706
0.631373 1.000000 0.368627
0.792157 0.996078 0.356863
0.937255 1.000000 0.341176
1.000000 0.996078 0.321569
0.003922 0.000000 0.607843
0.133333 0.000000 0.615686
0.258824 0.000000 0.603922
0.396078 0.000000 0.611765
0.529412 0.000000 0.611765
0.670588 0.003922 0.603922
0.807843 0.007843 0.600000
0.937255 0.003922 0.592157
1.000000 0.000000 0.619608
0.000000 0.062745 0.607843
0.121569 0.054902 0.603922
0.258824 0.035294 0.596078
0.392157 0.000000 0.596078
0.525490 0.003922 0.596078
0.650980 0.000000 0.588235
0.784314 0.000000 0.588235
0.921569 0.007843 0.580392
0.996078 0.000000 0.596078
0.000000 0.196078 0.607843
0.094118 0.188235 0.603922
0.254902 0.188235 0.603922
0.400000 0.180392 0.607843
0.533333 0.164706 0.611765
0.678431 0.137255 0.611765
0.803922 0.105882 0.603922
0.945098 0.098039 0.588235
0.996078 0.203922 0.611765
0.000000 0.325490 0.600000
0.047059 0.333333 0.600000
0.227451 0.321569 0.596078
0.384314 0.321569 0.603922
0.537255 0.313725 0.592157
0.666667 0.301961 0.580392
0.788235 0.290196 0.576471
0.921569 0.305882 0.584314
1.000000 0.360784 0.607843
0.007843 0.478431 0.603922
0.011765 0.490196 0.611765
0.231373 0.490196 0.615686
0.388235 0.478431 0.603922
0.533333 0.474510 0.596078
0.682353 0.466667 0.592157
0.815686 0.490196 0.607843
0.933333 0.525490 0.623529
0.996078 0.572549 0.662745
0.000000 0.650980 0.603922
0.000000 0.650980 0.603922
0.207843 0.647059 0.600000
0.380392 0.643137 0.607843
0.521569 0.639216 0.592157
0.682353 0.631373 0.596078
0.807843 0.635294 0.600000
0.937255 0.643137 0.619608
1.000000 0.658824 0.631373
0.000000 0.768627 0.580392
0.003922 0.780392 0.580392
0.168627 0.776471 0.580392
0.352941 0.772549 0.568627
0.509804 0.776471 0.576471
0.658824 0.768627 0.568627
0.803922 0.764706 0.564706
0.933333 0.745098 0.556863
1.000000 0.741176 0.564706
0.000000 0.913725 0.584314
0.000000 0.913725 0.588235
0.192157 0.909804 0.580392
0.364706 0.909804 0.584314
0.494118 0.905882 0.572549
0.639216 0.909804 0.556863
0.788235 0.898039 0.556863
0.937255 0.898039 0.556863
0.996078 0.886275 0.556863
0.003922 1.000000 0.572549
0.011765 1.000000 0.576471
0.101961 0.992157 0.568627
0.278431 1.000000 0.552941
0.450980 1.000000 0.541176
0.615686 0.996078 0.541176
0.780392 0.996078 0.529412
0.929412 1.000000 0.521569
1.000000 0.988235 0.517647
0.000000 0.000000 0.741176
0.141176 0.000000 0.745098
0.270588 0.000000 0.749020
0.403922 0.003922 0.749020
0.537255 0.003922 0.741176
0.666667 0.000000 0.741176
0.807843 0.000000 0.737255
0.937255 0.000000 0.721569
0.996078 0.003922 0.713725
0.000000 0.023529 0.737255
0.117647 0.023529 0.745098
0.254902 0.000000 0.737255
0.403922 0.003922 0.745098
0.529412 0.000000 0.733333
0.666667 0.000000 0.733333
0.800000 0.000000 0.725490
0.921569 0.000000 0.725490
1.000000 0.000000 0.713725
0.000000 0.176471 0.745098
0.066667 0.184314 0.756863
0.247059 0.176471 0.749020
0.396078 0.168627 0.749020
0.537255 0.141176 0.745098
0.678431 0.113725 0.737255
0.815686 0.035294 0.737255
0.937255 0.000000 0.721569
0.996078 0.000000 0.717647
0.007843 0.313725 0.737255
0.000000 0.317647 0.737255
0.215686 0.309804 0.741176
0.380392 0.309804 0.733333
0.529412 0.301961 0.733333
0.662745 0.286275 0.725490
0.807843 0.262745 0.729412
0.921569 0.254902 0.705882
1.000000 0.247059 0.705882
0.003922 0.470588 0.760784
0.007843 0.474510 0.741176
0.172549 0.474510 0.741176
0.352941 0.462745 0.741176
0.521569 0.458824 0.745098
0.662745 0.454902 0.737255
0.819608 0.443137 0.733333
0.933333 0.454902 0.717647
1.000000 0.494118 0.717647
0.003922 0.643137 0.749020
0.011765 0.635294 0.752941
0.141176 0.631373 0.741176
0.356863 0.635294 0.745098
0.517647 0.623529 0.741176
0.670588 0.619608 0.737255
0.807843 0.615686 0.729412
0.925490 0.643137 0.737255
1.000000 0.682353 0.772549
0.000000 0.780392 0.721569
0.000000 0.772549 0.737255
0.086275 0.776471 0.725490
0.333333 0.780392 0.721569
0.498039 0.772549 0.729412
0.650980 0.768627 0.721569
0.792157 0.760784 0.721569
0.921569 0.764706 0.737255
1.000000 0.776471 0.756863
0.000000 0.909804 0.713725
0.000000 0.909804 0.725490
0.184314 0.901961 0.721569
0.364706 0.905882 0.713725
0.517647 0.901961 0.733333
0.654902 0.901961 0.729412
0.784314 0.898039 0.709804
0.929412 0.898039 0.717647
1.000000 0.878431 0.717647
0.000000 1.000000 0.717647
0.000000 1.000000 0.705882
0.243137 1.000000 0.721569
0.384314 1.000000 0.721569
0.529412 1.000000 0.741176
0.611765 0.996078 0.701961
0.772549 1.000000 0.698039
0.925490 1.000000 0.690196
1.000000 0.992157 0.690196
0.000000 0.003922 0.874510
0.129412 0.003922 0.878431
0.278431 0.000000 0.886275
0.400000 0.000000 0.878431
0.541176 0.000000 0.882353
0.670588 0.003922 0.878431
0.807843 0.000000 0.878431
0.949020 0.000000 0.878431
1.000000 0.003922 0.858824
0.000000 0.000000 0.866667
0.101961 0.000000 0.866667
0.254902 0.000000 0.878431
0.400000 0.000000 0.874510
0.537255 0.003922 0.882353
0.666667 0.000000 0.866667
0.796078 0.003922 0.858824
0.929412 0.000000 0.862745
0.996078 0.000000 0.843137
0.007843 0.176471 0.870588
0.031373 0.172549 0.886275
0.239216 0.160784 0.886275
0.392157 0.149020 0.874510
0.525490 0.121569 0.878431
0.666667 0.086275 0.878431
0.807843 0.000000 0.878431
0.952941 0.000000 0.862745
0.996078 0.000000 0.850980
0.015686 0.298039 0.878431
0.000000 0.305882 0.882353
0.184314 0.305882 0.870588
0.364706 0.294118 0.874510
0.513725 0.286275 0.870588
0.654902 0.266667 0.866667
0.800000 0.247059 0.858824
0.933333 0.211765 0.854902
1.000000 0.215686 0.843137
0.000000 0.458824 0.874510
0.003922 0.466667 0.890196
0.090196 0.458824 0.874510
0.329412 0.447059 0.878431
0.505882 0.443137 0.870588
0.654902 0.431373 0.874510
0.807843 0.431373 0.870588
0.945098 0.419608 0.870588
1.000000 0.431373 0.843137
0.011765 0.619608 0.878431
0.000000 0.623529 0.878431
0.035294 0.619608 0.870588
0.309804 0.611765 0.874510
0.494118 0.607843 0.874510
0.654902 0.603922 0.882353
0.796078 0.603922 0.870588
0.937255 0.596078 0.862745
1.000000 0.607843 0.850980
0.003922 0.760784 0.866667
0.000000 0.764706 0.866667
0.003922 0.772549 0.858824
0.301961 0.760784 0.870588
0.474510 0.760784 0.878431
0.635294 0.756863 0.866667
0.788235 0.752941 0.866667
0.929412 0.756863 0.862745
0.992157 0.776471 0.858824
0.003922 0.909804 0.870588
0.003922 0.917647 0.862745
0.039216 0.913725 0.878431
0.325490 0.909804 0.866667
0.494118 0.909804 0.862745
0.643137 0.898039 0.866667
0.788235 0.894118 0.858824
0.917647 0.890196 0.866667
0.996078 0.905882 0.882353
0.007843 0.996078 0.827451
0.003922 0.996078 0.850980
0.215686 1.000000 0.839216
0.380392 1.000000 0.843137
0.513725 1.000000 0.854902
0.666667 1.000000 0.866667
0.800000 1.000000 0.870588
0.909804 0.992157 0.870588
1.000000 0.996078 0.874510
0.000000 0.000000 0.996078
0.101961 0.003922 0.992157
0.258824 0.000000 1.000000
0.392157 0.003922 0.996078
0.529412 0.000000 0.992157
0.662745 0.000000 1.000000
0.788235 0.003922 0.988235
0.933333 0.000000 0.996078
1.000000 0.000000 0.996078
0.003922 0.000000 0.988235
0.062745 0.003922 0.980392
0.235294 0.003922 0.992157
0.388235 0.000000 1.000000
0.529412 0.000000 1.000000
0.650980 0.000000 0.988235
0.788235 0.003922 0.988235
0.925490 0.000000 0.980392
0.992157 0.003922 0.980392
0.000000 0.149020 1.000000
0.003922 0.156863 1.000000
0.223529 0.145098 1.000000
0.376471 0.121569 1.000000
0.521569 0.094118 1.000000
0.654902 0.007843 0.996078
0.788235 0.003922 0.988235
0.933333 0.000000 0.992157
0.988235 0.007843 0.988235
0.007843 0.286275 0.976471
0.003922 0.286275 0.992157
0.129412 0.290196 0.988235
0.333333 0.270588 0.992157
0.494118 0.266667 0.992157
0.639216 0.243137 0.988235
0.780392 0.219608 0.988235
0.925490 0.192157 0.988235
0.996078 0.176471 0.992157
0.000000 0.423529 0.992157
0.007843 0.427451 1.000000
0.000000 0.435294 0.988235
0.305882 0.431373 1.000000
0.482353 0.419608 1.000000
0.627451 0.415686 0.996078
0.776471 0.407843 0.996078
0.925490 0.403922 0.996078
0.992157 0.411765 1.000000
0.011765 0.588235 1.000000
0.000000 0.596078 1.000000
0.003922 0.592157 1.000000
0.250980 0.592157 1.000000
0.462745 0.584314 0.992157
0.619608 0.584314 0.996078
0.772549 0.588235 0.996078
0.929412 0.588235 1.000000
1.000000 0.596078 0.996078
0.000000 0.749020 0.992157
0.000000 0.749020 1.000000
0.003922 0.745098 1.000000
0.250980 0.749020 0.988235
0.462745 0.741176 1.000000
0.607843 0.741176 0.992157
0.764706 0.741176 0.992157
0.905882 0.741176 0.988235
1.000000 0.741176 0.984314
0.011765 0.898039 0.992157
0.003922 0.894118 1.000000
0.000000 0.898039 0.988235
0.270588 0.898039 0.992157
0.462745 0.894118 0.992157
0.627451 0.890196 0.992157
0.764706 0.890196 0.988235
0.905882 0.890196 0.988235
1.000000 0.898039 0.996078
0.000000 0.992157 0.984314
0.003922 1.000000 0.992157
0.000000 1.000000 0.988235
0.266667 1.000000 0.996078
0.470588 1.000000 0.972549
0.639216 1.000000 0.980392
0.796078 1.000000 0.984314
0.921569 1.000000 0.984314
1.000000 1.000000 1.000000
