lut_library_archive/removed_20260629/50个风景lut/50个风景lut21.cube
# 版权归凌孟成所有，侵权必究
TITLE "Jungle LUT #21"
#LUT size
LUT_3D_SIZE 9
#LUT data points
0.000000 0.003922 0.000000
0.113725 0.003922 0.000000
0.243137 0.003922 0.000000
0.384314 0.000000 0.000000
0.549020 0.000000 0.000000
0.721569 0.000000 0.000000
0.886275 0.003922 0.003922
0.996078 0.003922 0.000000
0.996078 0.000000 0.000000
0.007843 0.109804 0.003922
0.105882 0.117647 0.000000
0.247059 0.117647 0.000000
0.388235 0.117647 0.000000
0.537255 0.121569 0.000000
0.709804 0.117647 0.003922
0.870588 0.105882 0.000000
1.000000 0.074510 0.000000
0.988235 0.015686 0.000000
0.000000 0.247059 0.000000
0.105882 0.247059 0.000000
0.243137 0.243137 0.000000
0.384314 0.250980 0.000000
0.552941 0.258824 0.000000
0.725490 0.278431 0.003922
0.882353 0.270588 0.000000
1.000000 0.258824 0.000000
1.000000 0.231373 0.003922
0.007843 0.384314 0.000000
0.074510 0.396078 0.003922
0.254902 0.396078 0.003922
0.392157 0.396078 0.000000
0.549020 0.403922 0.000000
0.717647 0.415686 0.000000
0.858824 0.411765 0.000000
0.992157 0.403922 0.000000
1.000000 0.384314 0.003922
0.000000 0.572549 0.000000
0.007843 0.576471 0.000000
0.250980 0.572549 0.000000
0.407843 0.572549 0.000000
0.572549 0.564706 0.000000
0.717647 0.568627 0.000000
0.870588 0.564706 0.000000
0.996078 0.545098 0.007843
0.996078 0.529412 0.000000
0.000000 0.752941 0.003922
0.003922 0.752941 0.000000
0.211765 0.745098 0.000000
0.403922 0.745098 0.000000
0.576471 0.729412 0.000000
0.725490 0.725490 0.000000
0.866667 0.713725 0.003922
0.988235 0.690196 0.007843
0.996078 0.666667 0.000000
0.003922 0.850980 0.000000
0.000000 0.854902 0.007843
0.129412 0.854902 0.003922
0.364706 0.854902 0.000000
0.521569 0.850980 0.000000
0.686275 0.839216 0.000000
0.835294 0.835294 0.003922
0.968627 0.823529 0.000000
1.000000 0.788235 0.000000
0.003922 0.956863 0.000000
0.000000 0.952941 0.000000
0.000000 0.956863 0.000000
0.305882 0.960784 0.000000
0.482353 0.949020 0.000000
0.639216 0.949020 0.000000
0.792157 0.937255 0.000000
0.945098 0.933333 0.003922
1.000000 0.921569 0.003922
0.000000 1.000000 0.000000
0.007843 1.000000 0.000000
0.007843 0.996078 0.003922
0.172549 1.000000 0.000000
0.411765 0.996078 0.000000
0.580392 1.000000 0.000000
0.737255 1.000000 0.000000
0.878431 0.996078 0.000000
0.992157 0.996078 0.000000
0.000000 0.007843 0.121569
0.133333 0.000000 0.121569
0.247059 0.000000 0.113725
0.388235 0.000000 0.113725
0.541176 0.000000 0.090196
0.721569 0.003922 0.082353
0.874510 0.003922 0.031373
1.000000 0.003922 0.003922
0.996078 0.000000 0.000000
0.007843 0.109804 0.105882
0.109804 0.109804 0.101961
0.243137 0.109804 0.105882
0.376471 0.098039 0.098039
0.533333 0.086275 0.086275
0.705882 0.058824 0.054902
0.862745 0.011765 0.007843
1.000000 0.003922 0.003922
0.996078 0.000000 0.007843
0.000000 0.243137 0.090196
0.090196 0.250980 0.086275
0.239216 0.243137 0.086275
0.380392 0.243137 0.078431
0.552941 0.247059 0.058824
0.721569 0.254902 0.003922
0.874510 0.250980 0.000000
0.996078 0.235294 0.003922
1.000000 0.203922 0.003922
0.000000 0.388235 0.031373
0.023529 0.388235 0.031373
0.243137 0.388235 0.023529
0.392157 0.380392 0.007843
0.545098 0.396078 0.000000
0.713725 0.403922 0.007843
0.866667 0.407843 0.000000
1.000000 0.400000 0.003922
0.996078 0.376471 0.000000
0.003922 0.556863 0.003922
0.000000 0.564706 0.000000
0.223529 0.564706 0.003922
0.403922 0.568627 0.003922
0.564706 0.560784 0.003922
0.713725 0.552941 0.000000
0.862745 0.556863 0.000000
0.984314 0.541176 0.000000
0.996078 0.517647 0.000000
0.011765 0.733333 0.000000
0.007843 0.729412 0.000000
0.180392 0.729412 0.000000
0.396078 0.733333 0.007843
0.564706 0.721569 0.000000
0.713725 0.713725 0.000000
0.858824 0.705882 0.000000
0.984314 0.682353 0.000000
1.000000 0.662745 0.000000
0.003922 0.847059 0.000000
0.011765 0.843137 0.003922
0.058824 0.854902 0.000000
0.349020 0.843137 0.000000
0.525490 0.839216 0.003922
0.678431 0.831373 0.000000
0.831373 0.831373 0.000000
0.972549 0.815686 0.000000
1.000000 0.784314 0.000000
0.003922 0.949020 0.000000
0.000000 0.964706 0.000000
0.003922 0.956863 0.007843
0.298039 0.949020 0.007843
0.470588 0.956863 0.000000
0.650980 0.945098 0.000000
0.784314 0.937255 0.000000
0.937255 0.925490 0.003922
0.996078 0.917647 0.000000
0.000000 1.000000 0.003922
0.003922 1.000000 0.000000
0.007843 0.996078 0.003922
0.152941 0.996078 0.003922
0.403922 0.996078 0.000000
0.572549 1.000000 0.003922
0.725490 1.000000 0.000000
0.870588 1.000000 0.000000
0.996078 1.000000 0.003922
0.000000 0.000000 0.258824
0.137255 0.000000 0.254902
0.243137 0.000000 0.247059
0.392157 0.000000 0.254902
0.545098 0.000000 0.262745
0.729412 0.000000 0.254902
0.882353 0.003922 0.211765
1.000000 0.000000 0.188235
0.996078 0.000000 0.172549
0.000000 0.113725 0.247059
0.101961 0.101961 0.243137
0.243137 0.101961 0.258824
0.384314 0.078431 0.243137
0.545098 0.003922 0.239216
0.709804 0.003922 0.223529
0.874510 0.003922 0.203922
0.996078 0.000000 0.184314
0.992157 0.000000 0.152941
0.000000 0.231373 0.247059
0.066667 0.247059 0.239216
0.235294 0.243137 0.239216
0.392157 0.235294 0.235294
0.560784 0.223529 0.235294
0.725490 0.215686 0.215686
0.874510 0.192157 0.188235
1.000000 0.172549 0.176471
1.000000 0.152941 0.141176
0.000000 0.384314 0.223529
0.000000 0.384314 0.223529
0.207843 0.396078 0.200000
0.376471 0.380392 0.207843
0.552941 0.388235 0.207843
0.713725 0.388235 0.184314
0.878431 0.388235 0.176471
0.988235 0.372549 0.141176
1.000000 0.349020 0.113725
0.000000 0.568627 0.172549
0.000000 0.564706 0.160784
0.168627 0.564706 0.156863
0.388235 0.552941 0.152941
0.560784 0.556863 0.141176
0.713725 0.549020 0.125490
0.866667 0.545098 0.113725
0.992157 0.533333 0.082353
0.996078 0.505882 0.011765
0.000000 0.737255 0.090196
0.000000 0.733333 0.070588
0.074510 0.729412 0.070588
0.368627 0.729412 0.058824
0.560784 0.721569 0.015686
0.717647 0.709804 0.000000
0.858824 0.698039 0.000000
0.984314 0.678431 0.003922
1.000000 0.654902 0.000000
0.000000 0.843137 0.000000
0.000000 0.843137 0.015686
0.007843 0.850980 0.000000
0.313725 0.843137 0.000000
0.505882 0.835294 0.003922
0.678431 0.835294 0.003922
0.831373 0.831373 0.007843
0.976471 0.819608 0.007843
0.996078 0.788235 0.007843
0.000000 0.960784 0.000000
0.000000 0.956863 0.000000
0.000000 0.956863 0.000000
0.262745 0.949020 0.003922
0.470588 0.945098 0.000000
0.631373 0.941176 0.003922
0.780392 0.933333 0.000000
0.941176 0.929412 0.000000
0.996078 0.909804 0.000000
0.007843 1.000000 0.000000
0.007843 1.000000 0.000000
0.000000 1.000000 0.003922
0.054902 1.000000 0.000000
0.376471 1.000000 0.000000
0.560784 0.996078 0.000000
0.725490 1.000000 0.000000
0.874510 0.996078 0.000000
1.000000 1.000000 0.003922
0.003922 0.000000 0.407843
0.129412 0.003922 0.407843
0.262745 0.000000 0.411765
0.407843 0.000000 0.400000
0.552941 0.000000 0.407843
0.737255 0.000000 0.419608
0.890196 0.003922 0.411765
1.000000 0.003922 0.388235
0.992157 0.007843 0.356863
0.000000 0.101961 0.403922
0.094118 0.090196 0.403922
0.250980 0.082353 0.392157
0.403922 0.039216 0.396078
0.552941 0.000000 0.407843
0.721569 0.000000 0.407843
0.878431 0.003922 0.392157
1.000000 0.003922 0.372549
0.992157 0.007843 0.341176
0.003922 0.247059 0.407843
0.000000 0.239216 0.392157
0.223529 0.227451 0.400000
0.392157 0.223529 0.400000
0.564706 0.203922 0.396078
0.741176 0.168627 0.392157
0.886275 0.117647 0.384314
0.996078 0.058824 0.352941
1.000000 0.035294 0.329412
0.003922 0.396078 0.388235
0.000000 0.392157 0.392157
0.184314 0.384314 0.396078
0.380392 0.380392 0.380392
0.541176 0.376471 0.380392
0.721569 0.368627 0.368627
0.878431 0.352941 0.356863
1.000000 0.345098 0.345098
1.000000 0.321569 0.325490
0.007843 0.560784 0.384314
0.003922 0.564706 0.376471
0.003922 0.568627 0.360784
0.352941 0.556863 0.364706
0.556863 0.560784 0.337255
0.729412 0.549020 0.345098
0.870588 0.533333 0.341176
1.000000 0.517647 0.325490
1.000000 0.490196 0.301961
0.000000 0.737255 0.345098
0.000000 0.737255 0.337255
0.000000 0.737255 0.325490
0.329412 0.729412 0.329412
0.541176 0.733333 0.321569
0.713725 0.717647 0.309804
0.866667 0.698039 0.290196
0.984314 0.670588 0.290196
1.000000 0.639216 0.266667
0.000000 0.850980 0.282353
0.000000 0.854902 0.282353
0.000000 0.847059 0.286275
0.270588 0.850980 0.270588
0.501961 0.835294 0.258824
0.670588 0.835294 0.254902
0.831373 0.835294 0.235294
0.968627 0.811765 0.223529
1.000000 0.776471 0.192157
0.000000 0.960784 0.227451
0.000000 0.956863 0.235294
0.000000 0.960784 0.227451
0.227451 0.952941 0.231373
0.450980 0.949020 0.200000
0.615686 0.941176 0.172549
0.776471 0.937255 0.152941
0.937255 0.933333 0.101961
1.000000 0.909804 0.000000
0.000000 1.000000 0.003922
0.000000 1.000000 0.000000
0.003922 0.996078 0.000000
0.000000 1.000000 0.000000
0.356863 0.996078 0.000000
0.541176 1.000000 0.000000
0.713725 1.000000 0.000000
0.870588 0.992157 0.000000
0.996078 1.000000 0.003922
0.000000 0.003922 0.580392
0.133333 0.000000 0.580392
0.286275 0.003922 0.584314
0.431373 0.003922 0.580392
0.572549 0.000000 0.588235
0.733333 0.000000 0.572549
0.890196 0.000000 0.560784
0.996078 0.000000 0.556863
1.000000 0.000000 0.509804
0.003922 0.070588 0.576471
0.070588 0.074510 0.568627
0.254902 0.043137 0.580392
0.415686 0.003922 0.576471
0.568627 0.003922 0.588235
0.721569 0.003922 0.568627
0.874510 0.000000 0.560784
0.992157 0.003922 0.541176
1.000000 0.003922 0.521569
0.000000 0.223529 0.580392
0.000000 0.223529 0.580392
0.215686 0.219608 0.584314
0.407843 0.196078 0.572549
0.572549 0.180392 0.572549
0.737255 0.141176 0.568627
0.886275 0.082353 0.556863
1.000000 0.003922 0.529412
1.000000 0.003922 0.513725
0.003922 0.388235 0.580392
0.003922 0.388235 0.580392
0.117647 0.384314 0.576471
0.368627 0.368627 0.564706
0.560784 0.356863 0.556863
0.721569 0.352941 0.549020
0.878431 0.341176 0.545098
0.996078 0.333333 0.525490
0.992157 0.329412 0.505882
0.000000 0.560784 0.564706
0.003922 0.568627 0.560784
0.011765 0.564706 0.568627
0.333333 0.560784 0.564706
0.549020 0.549020 0.541176
0.713725 0.541176 0.545098
0.866667 0.533333 0.525490
0.992157 0.517647 0.521569
0.996078 0.505882 0.498039
0.000000 0.741176 0.552941
0.000000 0.733333 0.549020
0.003922 0.729412 0.537255
0.301961 0.721569 0.541176
0.525490 0.717647 0.529412
0.717647 0.709804 0.521569
0.858824 0.694118 0.505882
0.980392 0.670588 0.501961
1.000000 0.650980 0.494118
0.000000 0.854902 0.494118
0.000000 0.850980 0.501961
0.000000 0.854902 0.494118
0.266667 0.850980 0.490196
0.490196 0.843137 0.490196
0.666667 0.835294 0.474510
0.831373 0.835294 0.470588
0.968627 0.811765 0.466667
0.996078 0.784314 0.447059
0.000000 0.956863 0.470588
0.000000 0.952941 0.474510
0.003922 0.949020 0.474510
0.243137 0.956863 0.462745
0.454902 0.949020 0.458824
0.631373 0.949020 0.443137
0.776471 0.929412 0.431373
0.929412 0.929412 0.411765
1.000000 0.905882 0.400000
0.000000 1.000000 0.380392
0.000000 0.996078 0.384314
0.007843 0.996078 0.380392
0.011765 0.996078 0.372549
0.360784 0.996078 0.349020
0.549020 1.000000 0.341176
0.713725 1.000000 0.305882
0.858824 1.000000 0.270588
1.000000 0.996078 0.188235
0.000000 0.000000 0.737255
0.117647 0.000000 0.745098
0.278431 0.003922 0.737255
0.431373 0.000000 0.733333
0.580392 0.000000 0.729412
0.725490 0.003922 0.733333
0.878431 0.000000 0.721569
0.996078 0.007843 0.701961
1.000000 0.000000 0.670588
0.000000 0.043137 0.709804
0.023529 0.019608 0.729412
0.250980 0.000000 0.725490
0.411765 0.003922 0.737255
0.556863 0.007843 0.709804
0.733333 0.000000 0.733333
0.878431 0.000000 0.721569
0.992157 0.000000 0.701961
0.996078 0.003922 0.682353
0.015686 0.211765 0.725490
0.000000 0.200000 0.737255
0.200000 0.196078 0.733333
0.392157 0.180392 0.729412
0.560784 0.152941 0.729412
0.721569 0.105882 0.729412
0.882353 0.007843 0.717647
0.996078 0.007843 0.694118
1.000000 0.007843 0.678431
0.000000 0.376471 0.725490
0.000000 0.376471 0.725490
0.000000 0.356863 0.729412
0.352941 0.356863 0.721569
0.556863 0.345098 0.729412
0.725490 0.333333 0.725490
0.874510 0.317647 0.709804
0.988235 0.317647 0.686275
1.000000 0.321569 0.670588
0.003922 0.552941 0.721569
0.003922 0.545098 0.725490
0.000000 0.541176 0.725490
0.309804 0.529412 0.717647
0.533333 0.525490 0.709804
0.709804 0.521569 0.717647
0.870588 0.521569 0.701961
0.984314 0.521569 0.686275
1.000000 0.517647 0.662745
0.003922 0.713725 0.725490
0.007843 0.717647 0.721569
0.000000 0.721569 0.721569
0.278431 0.717647 0.709804
0.517647 0.705882 0.705882
0.698039 0.698039 0.698039
0.843137 0.694118 0.694118
0.968627 0.690196 0.690196
0.996078 0.678431 0.666667
0.000000 0.847059 0.682353
0.000000 0.847059 0.678431
0.011765 0.843137 0.674510
0.258824 0.839216 0.674510
0.501961 0.843137 0.678431
0.682353 0.831373 0.678431
0.823529 0.827451 0.670588
0.949020 0.815686 0.666667
1.000000 0.788235 0.654902
0.000000 0.949020 0.639216
0.000000 0.949020 0.639216
0.000000 0.949020 0.647059
0.325490 0.945098 0.647059
0.509804 0.941176 0.662745
0.654902 0.937255 0.647059
0.788235 0.937255 0.650980
0.937255 0.929412 0.639216
0.992157 0.905882 0.611765
0.007843 0.996078 0.600000
0.007843 0.996078 0.600000
0.000000 0.996078 0.611765
0.309804 1.000000 0.619608
0.466667 1.000000 0.615686
0.607843 1.000000 0.603922
0.737255 1.000000 0.584314
0.874510 1.000000 0.572549
0.996078 1.000000 0.541176
0.003922 0.000000 0.854902
0.082353 0.000000 0.866667
0.254902 0.003922 0.866667
0.407843 0.000000 0.858824
0.556863 0.003922 0.866667
0.709804 0.000000 0.858824
0.858824 0.000000 0.854902
0.992157 0.003922 0.854902
0.996078 0.000000 0.823529
0.000000 0.000000 0.858824
0.000000 0.000000 0.862745
0.247059 0.000000 0.862745
0.411765 0.003922 0.862745
0.560784 0.000000 0.854902
0.705882 0.003922 0.858824
0.850980 0.000000 0.858824
1.000000 0.000000 0.854902
1.000000 0.000000 0.823529
0.003922 0.188235 0.870588
0.007843 0.196078 0.862745
0.180392 0.180392 0.858824
0.376471 0.164706 0.854902
0.533333 0.141176 0.862745
0.694118 0.094118 0.862745
0.847059 0.007843 0.847059
0.992157 0.003922 0.847059
1.000000 0.000000 0.823529
0.011765 0.345098 0.850980
0.000000 0.349020 0.858824
0.000000 0.349020 0.858824
0.325490 0.345098 0.843137
0.533333 0.329412 0.862745
0.690196 0.325490 0.854902
0.858824 0.309804 0.847059
1.000000 0.298039 0.850980
1.000000 0.305882 0.807843
0.000000 0.521569 0.854902
0.000000 0.521569 0.854902
0.007843 0.517647 0.850980
0.313725 0.517647 0.847059
0.513725 0.513725 0.850980
0.682353 0.509804 0.850980
0.843137 0.505882 0.847059
0.988235 0.501961 0.839216
1.000000 0.509804 0.800000
0.000000 0.682353 0.850980
0.015686 0.674510 0.850980
0.000000 0.678431 0.843137
0.294118 0.678431 0.854902
0.505882 0.682353 0.835294
0.686275 0.682353 0.839216
0.843137 0.686275 0.831373
0.960784 0.690196 0.819608
1.000000 0.686275 0.811765
0.007843 0.827451 0.843137
0.003922 0.827451 0.823529
0.003922 0.831373 0.843137
0.290196 0.827451 0.835294
0.509804 0.827451 0.831373
0.686275 0.827451 0.827451
0.823529 0.823529 0.831373
0.937255 0.819608 0.819608
0.996078 0.815686 0.815686
0.000000 0.945098 0.796078
0.000000 0.945098 0.788235
0.000000 0.941176 0.796078
0.333333 0.945098 0.800000
0.541176 0.937255 0.803922
0.682353 0.929412 0.807843
0.815686 0.929412 0.803922
0.929412 0.925490 0.803922
0.996078 0.913725 0.807843
0.000000 0.996078 0.760784
0.000000 1.000000 0.749020
0.141176 1.000000 0.764706
0.372549 1.000000 0.780392
0.541176 1.000000 0.776471
0.674510 1.000000 0.788235
0.784314 0.996078 0.792157
0.886275 1.000000 0.772549
0.996078 0.996078 0.760784
0.000000 0.000000 0.964706
0.047059 0.000000 0.968627
0.235294 0.000000 0.956863
0.388235 0.000000 0.960784
0.529412 0.007843 0.960784
0.666667 0.000000 0.964706
0.811765 0.000000 0.956863
0.956863 0.003922 0.960784
1.000000 0.003922 0.960784
0.000000 0.000000 0.949020
0.007843 0.000000 0.952941
0.219608 0.003922 0.956863
0.372549 0.007843 0.952941
0.533333 0.003922 0.960784
0.666667 0.000000 0.952941
0.811765 0.000000 0.956863
0.960784 0.000000 0.960784
0.996078 0.003922 0.949020
0.003922 0.172549 0.956863
0.003922 0.184314 0.972549
0.180392 0.168627 0.964706
0.360784 0.160784 0.956863
0.517647 0.133333 0.960784
0.666667 0.098039 0.956863
0.811765 0.027451 0.960784
0.952941 0.000000 0.956863
1.000000 0.007843 0.960784
0.000000 0.341176 0.952941
0.000000 0.337255 0.960784
0.066667 0.333333 0.956863
0.337255 0.329412 0.960784
0.501961 0.329412 0.952941
0.650980 0.321569 0.949020
0.807843 0.305882 0.952941
0.952941 0.298039 0.952941
0.996078 0.286275 0.949020
0.003922 0.498039 0.960784
0.003922 0.498039 0.960784
0.019608 0.498039 0.956863
0.321569 0.501961 0.945098
0.498039 0.501961 0.956863
0.654902 0.501961 0.952941
0.800000 0.498039 0.952941
0.952941 0.494118 0.952941
1.000000 0.498039 0.941176
0.007843 0.647059 0.956863
0.007843 0.647059 0.949020
0.000000 0.650980 0.949020
0.329412 0.658824 0.945098
0.521569 0.670588 0.949020
0.674510 0.674510 0.949020
0.803922 0.678431 0.941176
0.937255 0.678431 0.937255
1.000000 0.678431 0.929412
0.000000 0.788235 0.937255
0.000000 0.796078 0.945098
0.007843 0.788235 0.933333
0.356863 0.796078 0.945098
0.533333 0.800000 0.937255
0.690196 0.811765 0.933333
0.815686 0.811765 0.933333
0.933333 0.811765 0.933333
1.000000 0.815686 0.921569
0.003922 0.933333 0.925490
0.000000 0.929412 0.937255
0.117647 0.929412 0.937255
0.364706 0.929412 0.929412
0.549020 0.921569 0.929412
0.690196 0.925490 0.925490
0.811765 0.921569 0.925490
0.921569 0.921569 0.921569
0.996078 0.921569 0.929412
0.003922 1.000000 0.898039
0.000000 1.000000 0.905882
0.231373 0.996078 0.894118
0.403922 0.996078 0.898039
0.552941 1.000000 0.898039
0.694118 1.000000 0.905882
0.807843 1.000000 0.905882
0.905882 1.000000 0.905882
1.000000 0.996078 0.909804
0.000000 0.003922 0.996078
0.007843 0.003922 1.000000
0.211765 0.007843 0.992157
0.356863 0.000000 1.000000
0.498039 0.000000 1.000000
0.635294 0.003922 1.000000
0.772549 0.000000 1.000000
0.898039 0.003922 1.000000
1.000000 0.003922 1.000000
0.007843 0.000000 0.996078
0.003922 0.000000 0.984314
0.203922 0.003922 1.000000
0.352941 0.000000 1.000000
0.498039 0.000000 1.000000
0.631373 0.000000 0.996078
0.768627 0.003922 1.000000
0.894118 0.003922 1.000000
1.000000 0.000000 0.996078
0.000000 0.180392 1.000000
0.011765 0.172549 1.000000
0.164706 0.164706 0.996078
0.341176 0.149020 0.996078
0.490196 0.129412 1.000000
0.635294 0.101961 1.000000
0.764706 0.047059 0.996078
0.898039 0.003922 0.996078
1.000000 0.000000 1.000000
0.003922 0.329412 1.000000
0.000000 0.325490 1.000000
0.113725 0.321569 0.996078
0.329412 0.313725 1.000000
0.486275 0.321569 1.000000
0.619608 0.313725 0.996078
0.764706 0.305882 1.000000
0.901961 0.294118 1.000000
1.000000 0.278431 1.000000
0.000000 0.490196 0.992157
0.003922 0.490196 1.000000
0.156863 0.478431 1.000000
0.337255 0.490196 1.000000
0.490196 0.486275 0.992157
0.615686 0.486275 1.000000
0.764706 0.486275 1.000000
0.898039 0.486275 1.000000
1.000000 0.486275 1.000000
0.003922 0.623529 1.000000
0.000000 0.627451 0.996078
0.215686 0.631373 1.000000
0.392157 0.647059 1.000000
0.545098 0.662745 1.000000
0.666667 0.654902 0.996078
0.780392 0.662745 1.000000
0.898039 0.662745 1.000000
1.000000 0.666667 1.000000
0.000000 0.756863 1.000000
0.000000 0.756863 1.000000
0.223529 0.760784 0.996078
0.411765 0.772549 1.000000
0.560784 0.784314 1.000000
0.698039 0.800000 1.000000
0.803922 0.803922 1.000000
0.905882 0.803922 0.992157
1.000000 0.807843 1.000000
0.000000 0.890196 0.996078
0.000000 0.894118 1.000000
0.254902 0.894118 1.000000
0.423529 0.890196 1.000000
0.568627 0.898039 1.000000
0.694118 0.905882 1.000000
0.823529 0.909804 1.000000
0.913725 0.917647 0.996078
1.000000 0.913725 1.000000
0.003922 1.000000 0.996078
0.000000 1.000000 1.000000
0.262745 0.996078 1.000000
0.427451 0.992157 0.992157
0.568627 1.000000 0.996078
0.701961 1.000000 0.992157
0.811765 1.000000 0.992157
0.925490 1.000000 1.000000
1.000000 1.000000 1.000000
