lut_library_archive/removed_20260629/50个风景lut/50个风景lut26.cube
# 版权归凌孟成所有，侵权必究
TITLE "Jungle LUT #26"
#LUT size
LUT_3D_SIZE 5
#LUT data points
0.000000 0.000000 0.000000
0.196078 0.000000 0.003922
0.525490 0.000000 0.003922
0.878431 0.000000 0.000000
0.996078 0.003922 0.000000
0.000000 0.227451 0.000000
0.196078 0.227451 0.000000
0.537255 0.266667 0.000000
0.886275 0.274510 0.003922
1.000000 0.243137 0.011765
0.003922 0.572549 0.000000
0.254902 0.576471 0.000000
0.580392 0.572549 0.000000
0.882353 0.568627 0.000000
1.000000 0.529412 0.000000
0.000000 0.854902 0.007843
0.219608 0.858824 0.000000
0.568627 0.847059 0.000000
0.858824 0.839216 0.003922
0.988235 0.800000 0.000000
0.000000 1.000000 0.000000
0.152941 0.996078 0.000000
0.494118 1.000000 0.000000
0.815686 1.000000 0.003922
1.000000 1.000000 0.003922
0.000000 0.000000 0.203922
0.207843 0.003922 0.196078
0.541176 0.003922 0.223529
0.890196 0.003922 0.168627
0.988235 0.003922 0.141176
0.000000 0.219608 0.196078
0.203922 0.227451 0.180392
0.556863 0.231373 0.176471
0.886275 0.207843 0.145098
1.000000 0.180392 0.121569
0.000000 0.584314 0.101961
0.207843 0.576471 0.086275
0.584314 0.572549 0.058824
0.890196 0.556863 0.050980
1.000000 0.517647 0.019608
0.000000 0.854902 0.000000
0.180392 0.850980 0.003922
0.552941 0.847059 0.003922
0.866667 0.839216 0.000000
1.000000 0.788235 0.000000
0.003922 0.996078 0.000000
0.164706 0.996078 0.003922
0.505882 1.000000 0.000000
0.811765 0.996078 0.000000
1.000000 1.000000 0.003922
0.000000 0.000000 0.533333
0.262745 0.000000 0.533333
0.564706 0.003922 0.529412
0.894118 0.000000 0.537255
0.996078 0.000000 0.490196
0.000000 0.215686 0.541176
0.180392 0.203922 0.549020
0.580392 0.168627 0.541176
0.890196 0.133333 0.529412
1.000000 0.203922 0.494118
0.000000 0.576471 0.537255
0.039216 0.584314 0.541176
0.584314 0.576471 0.529412
0.874510 0.560784 0.525490
1.000000 0.541176 0.513725
0.000000 0.854902 0.513725
0.250980 0.854902 0.517647
0.560784 0.850980 0.509804
0.858824 0.843137 0.501961
1.000000 0.800000 0.513725
0.145098 0.996078 0.513725
0.301961 1.000000 0.501961
0.545098 1.000000 0.501961
0.819608 1.000000 0.501961
1.000000 0.996078 0.501961
0.000000 0.000000 0.831373
0.258824 0.000000 0.839216
0.568627 0.003922 0.831373
0.878431 0.000000 0.831373
0.996078 0.000000 0.784314
0.007843 0.192157 0.839216
0.176471 0.180392 0.831373
0.556863 0.156863 0.839216
0.874510 0.098039 0.839216
1.000000 0.192157 0.788235
0.000000 0.541176 0.815686
0.152941 0.545098 0.827451
0.560784 0.556863 0.831373
0.870588 0.560784 0.827451
0.992157 0.580392 0.800000
0.015686 0.847059 0.827451
0.278431 0.847059 0.819608
0.592157 0.847059 0.815686
0.843137 0.839216 0.823529
0.992157 0.839216 0.811765
0.400000 0.996078 0.796078
0.478431 0.996078 0.792157
0.662745 0.996078 0.823529
0.843137 1.000000 0.803922
1.000000 1.000000 0.811765
0.000000 0.000000 0.996078
0.219608 0.000000 1.000000
0.513725 0.000000 0.996078
0.803922 0.000000 1.000000
1.000000 0.003922 1.000000
0.003922 0.188235 1.000000
0.172549 0.180392 1.000000
0.513725 0.176471 1.000000
0.800000 0.180392 0.996078
0.996078 0.215686 0.996078
0.003922 0.529412 1.000000
0.274510 0.537255 0.996078
0.549020 0.549020 0.996078
0.811765 0.560784 1.000000
0.996078 0.572549 1.000000
0.250980 0.803922 1.000000
0.388235 0.803922 1.000000
0.615686 0.811765 1.000000
0.835294 0.831373 0.996078
1.000000 0.839216 0.996078
0.447059 1.000000 1.000000
0.509804 1.000000 1.000000
0.686275 1.000000 1.000000
0.890196 1.000000 1.000000
1.000000 1.000000 1.000000
