lut_library_archive/removed_20260629/50个风景lut/50个风景lut08.cube
# 版权归凌孟成所有，侵权必究
TITLE "Jungle LUT #8"
#LUT size
LUT_3D_SIZE 25
#LUT data points
0.039216 0.043137 0.050980
0.047059 0.047059 0.039216
0.062745 0.039216 0.039216
0.129412 0.027451 0.039216
0.200000 0.000000 0.043137
0.250980 0.000000 0.054902
0.305882 0.000000 0.027451
0.341176 0.000000 0.035294
0.396078 0.000000 0.023529
0.439216 0.000000 0.015686
0.490196 0.003922 0.003922
0.533333 0.000000 0.007843
0.588235 0.000000 0.000000
0.643137 0.000000 0.003922
0.686275 0.000000 0.000000
0.745098 0.003922 0.000000
0.788235 0.000000 0.000000
0.815686 0.003922 0.000000
0.874510 0.000000 0.000000
0.925490 0.003922 0.007843
0.956863 0.000000 0.000000
0.996078 0.000000 0.000000
1.000000 0.003922 0.003922
0.996078 0.000000 0.000000
0.996078 0.000000 0.000000
0.039216 0.047059 0.035294
0.043137 0.035294 0.054902
0.094118 0.039216 0.039216
0.145098 0.031373 0.039216
0.196078 0.031373 0.039216
0.250980 0.019608 0.027451
0.309804 0.007843 0.031373
0.341176 0.003922 0.015686
0.392157 0.000000 0.011765
0.443137 0.003922 0.027451
0.490196 0.003922 0.003922
0.537255 0.000000 0.000000
0.592157 0.000000 0.000000
0.635294 0.007843 0.007843
0.686275 0.003922 0.000000
0.737255 0.003922 0.000000
0.784314 0.003922 0.000000
0.815686 0.003922 0.003922
0.886275 0.000000 0.011765
0.917647 0.003922 0.000000
0.960784 0.003922 0.003922
1.000000 0.007843 0.000000
1.000000 0.003922 0.011765
0.996078 0.000000 0.000000
0.996078 0.000000 0.000000
0.000000 0.098039 0.054902
0.007843 0.098039 0.058824
0.066667 0.101961 0.035294
0.141176 0.098039 0.023529
0.200000 0.086275 0.031373
0.247059 0.082353 0.027451
0.298039 0.070588 0.023529
0.345098 0.078431 0.003922
0.396078 0.070588 0.015686
0.443137 0.070588 0.000000
0.490196 0.070588 0.007843
0.529412 0.070588 0.000000
0.580392 0.078431 0.000000
0.643137 0.066667 0.000000
0.678431 0.074510 0.003922
0.733333 0.074510 0.003922
0.780392 0.062745 0.000000
0.831373 0.058824 0.000000
0.866667 0.050980 0.003922
0.921569 0.050980 0.007843
0.956863 0.047059 0.000000
0.996078 0.035294 0.000000
0.988235 0.023529 0.003922
1.000000 0.011765 0.000000
0.996078 0.000000 0.007843
0.000000 0.145098 0.078431
0.000000 0.152941 0.066667
0.003922 0.152941 0.007843
0.113725 0.152941 0.007843
0.192157 0.141176 0.007843
0.243137 0.141176 0.011765
0.309804 0.137255 0.000000
0.337255 0.141176 0.000000
0.388235 0.133333 0.007843
0.427451 0.137255 0.007843
0.486275 0.133333 0.000000
0.537255 0.133333 0.003922
0.588235 0.133333 0.003922
0.639216 0.129412 0.003922
0.682353 0.137255 0.000000
0.733333 0.129412 0.000000
0.776471 0.125490 0.007843
0.823529 0.121569 0.000000
0.870588 0.121569 0.007843
0.909804 0.117647 0.000000
0.952941 0.109804 0.000000
0.988235 0.105882 0.003922
1.000000 0.098039 0.003922
0.996078 0.090196 0.000000
0.996078 0.086275 0.000000
0.000000 0.200000 0.082353
0.000000 0.196078 0.082353
0.000000 0.203922 0.054902
0.007843 0.200000 0.011765
0.160784 0.200000 0.000000
0.247059 0.192157 0.007843
0.294118 0.192157 0.000000
0.337255 0.188235 0.003922
0.388235 0.188235 0.003922
0.443137 0.184314 0.000000
0.486275 0.188235 0.000000
0.537255 0.180392 0.003922
0.580392 0.184314 0.003922
0.639216 0.176471 0.000000
0.682353 0.180392 0.003922
0.733333 0.188235 0.003922
0.768627 0.180392 0.003922
0.827451 0.172549 0.007843
0.874510 0.176471 0.000000
0.905882 0.164706 0.007843
0.956863 0.160784 0.000000
0.984314 0.160784 0.000000
0.996078 0.160784 0.003922
1.000000 0.149020 0.003922
1.000000 0.145098 0.000000
0.007843 0.250980 0.098039
0.000000 0.247059 0.109804
0.007843 0.254902 0.082353
0.003922 0.258824 0.000000
0.015686 0.250980 0.007843
0.192157 0.247059 0.003922
0.294118 0.250980 0.000000
0.352941 0.239216 0.011765
0.400000 0.235294 0.000000
0.443137 0.239216 0.003922
0.490196 0.235294 0.007843
0.533333 0.243137 0.000000
0.596078 0.239216 0.000000
0.647059 0.239216 0.007843
0.701961 0.239216 0.000000
0.737255 0.239216 0.000000
0.784314 0.235294 0.000000
0.827451 0.231373 0.000000
0.878431 0.227451 0.000000
0.917647 0.219608 0.000000
0.956863 0.223529 0.000000
1.000000 0.215686 0.003922
1.000000 0.211765 0.000000
0.988235 0.211765 0.000000
1.000000 0.203922 0.003922
0.000000 0.298039 0.117647
0.003922 0.298039 0.129412
0.000000 0.305882 0.113725
0.003922 0.298039 0.043137
0.000000 0.298039 0.003922
0.086275 0.298039 0.003922
0.243137 0.290196 0.000000
0.345098 0.290196 0.011765
0.400000 0.290196 0.000000
0.435294 0.278431 0.000000
0.494118 0.290196 0.003922
0.541176 0.290196 0.000000
0.592157 0.290196 0.015686
0.639216 0.290196 0.000000
0.698039 0.290196 0.003922
0.752941 0.282353 0.003922
0.784314 0.282353 0.000000
0.831373 0.290196 0.007843
0.866667 0.278431 0.000000
0.917647 0.282353 0.000000
0.956863 0.266667 0.000000
1.000000 0.266667 0.000000
1.000000 0.262745 0.003922
1.000000 0.258824 0.007843
1.000000 0.247059 0.007843
0.007843 0.345098 0.152941
0.000000 0.345098 0.149020
0.000000 0.349020 0.137255
0.003922 0.349020 0.113725
0.000000 0.352941 0.007843
0.011765 0.349020 0.000000
0.133333 0.349020 0.000000
0.282353 0.345098 0.000000
0.400000 0.345098 0.000000
0.447059 0.341176 0.000000
0.501961 0.329412 0.000000
0.537255 0.341176 0.007843
0.580392 0.341176 0.000000
0.650980 0.337255 0.003922
0.694118 0.341176 0.003922
0.745098 0.337255 0.003922
0.792157 0.329412 0.000000
0.823529 0.329412 0.000000
0.866667 0.329412 0.000000
0.917647 0.321569 0.000000
0.952941 0.325490 0.000000
1.000000 0.313725 0.019608
1.000000 0.309804 0.007843
1.000000 0.305882 0.000000
1.000000 0.298039 0.000000
0.007843 0.388235 0.172549
0.000000 0.384314 0.176471
0.007843 0.396078 0.164706
0.000000 0.396078 0.149020
0.000000 0.400000 0.101961
0.003922 0.403922 0.007843
0.000000 0.400000 0.003922
0.188235 0.392157 0.007843
0.325490 0.396078 0.003922
0.443137 0.388235 0.000000
0.486275 0.384314 0.003922
0.545098 0.380392 0.000000
0.592157 0.388235 0.000000
0.643137 0.384314 0.007843
0.682353 0.384314 0.007843
0.741176 0.380392 0.000000
0.784314 0.376471 0.003922
0.819608 0.380392 0.000000
0.862745 0.368627 0.000000
0.909804 0.360784 0.000000
0.945098 0.372549 0.007843
0.988235 0.360784 0.000000
1.000000 0.356863 0.000000
1.000000 0.352941 0.000000
1.000000 0.341176 0.000000
0.000000 0.447059 0.196078
0.007843 0.439216 0.192157
0.000000 0.443137 0.192157
0.000000 0.447059 0.176471
0.003922 0.443137 0.145098
0.000000 0.458824 0.011765
0.003922 0.450980 0.003922
0.003922 0.443137 0.000000
0.231373 0.443137 0.000000
0.372549 0.435294 0.007843
0.482353 0.439216 0.000000
0.541176 0.431373 0.000000
0.596078 0.431373 0.000000
0.635294 0.431373 0.000000
0.678431 0.439216 0.000000
0.733333 0.427451 0.000000
0.780392 0.423529 0.003922
0.815686 0.423529 0.000000
0.858824 0.411765 0.000000
0.905882 0.419608 0.003922
0.941176 0.415686 0.000000
0.984314 0.407843 0.000000
0.996078 0.407843 0.000000
0.996078 0.407843 0.000000
0.996078 0.396078 0.000000
0.000000 0.509804 0.235294
0.000000 0.505882 0.223529
0.000000 0.505882 0.215686
0.003922 0.501961 0.215686
0.000000 0.509804 0.196078
0.007843 0.517647 0.133333
0.003922 0.521569 0.000000
0.003922 0.513725 0.000000
0.003922 0.513725 0.000000
0.282353 0.501961 0.003922
0.419608 0.494118 0.003922
0.517647 0.498039 0.003922
0.603922 0.490196 0.000000
0.643137 0.486275 0.003922
0.698039 0.486275 0.000000
0.749020 0.478431 0.011765
0.784314 0.478431 0.000000
0.831373 0.470588 0.000000
0.866667 0.474510 0.000000
0.905882 0.466667 0.000000
0.952941 0.462745 0.007843
0.996078 0.458824 0.003922
0.996078 0.454902 0.000000
0.996078 0.454902 0.000000
0.988235 0.450980 0.003922
0.003922 0.552941 0.243137
0.000000 0.556863 0.235294
0.003922 0.552941 0.235294
0.011765 0.556863 0.231373
0.000000 0.560784 0.231373
0.000000 0.556863 0.196078
0.000000 0.560784 0.090196
0.000000 0.564706 0.000000
0.007843 0.560784 0.000000
0.031373 0.556863 0.003922
0.321569 0.552941 0.000000
0.458824 0.549020 0.000000
0.568627 0.541176 0.000000
0.639216 0.537255 0.000000
0.698039 0.533333 0.000000
0.737255 0.525490 0.007843
0.784314 0.521569 0.003922
0.819608 0.509804 0.003922
0.874510 0.521569 0.000000
0.913725 0.509804 0.000000
0.949020 0.517647 0.011765
0.988235 0.505882 0.007843
1.000000 0.498039 0.000000
1.000000 0.494118 0.000000
0.996078 0.490196 0.000000
0.000000 0.607843 0.258824
0.000000 0.603922 0.274510
0.000000 0.603922 0.274510
0.011765 0.603922 0.278431
0.003922 0.607843 0.262745
0.000000 0.611765 0.250980
0.007843 0.611765 0.172549
0.003922 0.611765 0.007843
0.003922 0.611765 0.007843
0.000000 0.603922 0.000000
0.137255 0.603922 0.000000
0.360784 0.588235 0.003922
0.490196 0.592157 0.000000
0.603922 0.580392 0.000000
0.694118 0.576471 0.000000
0.733333 0.576471 0.000000
0.784314 0.568627 0.003922
0.811765 0.568627 0.007843
0.862745 0.560784 0.003922
0.905882 0.560784 0.000000
0.952941 0.556863 0.007843
0.992157 0.549020 0.000000
0.992157 0.541176 0.003922
1.000000 0.537255 0.003922
1.000000 0.529412 0.007843
0.000000 0.650980 0.298039
0.000000 0.654902 0.282353
0.000000 0.647059 0.294118
0.000000 0.650980 0.290196
0.003922 0.650980 0.282353
0.000000 0.658824 0.262745
0.007843 0.650980 0.239216
0.007843 0.658824 0.133333
0.000000 0.650980 0.000000
0.003922 0.654902 0.011765
0.000000 0.650980 0.000000
0.207843 0.639216 0.015686
0.400000 0.635294 0.000000
0.533333 0.635294 0.003922
0.631373 0.623529 0.000000
0.729412 0.615686 0.003922
0.784314 0.615686 0.000000
0.819608 0.611765 0.000000
0.866667 0.607843 0.000000
0.909804 0.600000 0.000000
0.933333 0.592157 0.000000
0.980392 0.588235 0.007843
0.992157 0.596078 0.000000
1.000000 0.576471 0.007843
1.000000 0.576471 0.007843
0.007843 0.682353 0.321569
0.003922 0.690196 0.317647
0.003922 0.690196 0.317647
0.000000 0.698039 0.309804
0.000000 0.698039 0.309804
0.007843 0.686275 0.301961
0.000000 0.701961 0.290196
0.000000 0.694118 0.207843
0.000000 0.701961 0.039216
0.000000 0.705882 0.019608
0.000000 0.705882 0.000000
0.000000 0.690196 0.000000
0.258824 0.690196 0.000000
0.450980 0.678431 0.003922
0.568627 0.670588 0.000000
0.666667 0.674510 0.003922
0.772549 0.662745 0.000000
0.815686 0.654902 0.000000
0.858824 0.650980 0.000000
0.890196 0.650980 0.000000
0.933333 0.647059 0.000000
0.988235 0.639216 0.003922
1.000000 0.635294 0.000000
0.996078 0.627451 0.007843
1.000000 0.615686 0.007843
0.000000 0.749020 0.352941
0.003922 0.749020 0.349020
0.000000 0.752941 0.345098
0.000000 0.756863 0.337255
0.000000 0.749020 0.341176
0.003922 0.745098 0.321569
0.007843 0.749020 0.317647
0.000000 0.760784 0.282353
0.000000 0.756863 0.188235
0.003922 0.752941 0.003922
0.007843 0.756863 0.003922
0.000000 0.749020 0.000000
0.003922 0.741176 0.000000
0.309804 0.745098 0.000000
0.478431 0.729412 0.003922
0.607843 0.725490 0.000000
0.717647 0.725490 0.000000
0.815686 0.713725 0.000000
0.862745 0.705882 0.000000
0.905882 0.698039 0.007843
0.941176 0.694118 0.007843
0.980392 0.686275 0.000000
1.000000 0.686275 0.000000
0.996078 0.674510 0.011765
1.000000 0.670588 0.003922
0.000000 0.776471 0.372549
0.000000 0.784314 0.364706
0.000000 0.792157 0.372549
0.011765 0.780392 0.380392
0.000000 0.780392 0.345098
0.000000 0.792157 0.352941
0.003922 0.788235 0.341176
0.000000 0.796078 0.337255
0.000000 0.792157 0.258824
0.000000 0.788235 0.125490
0.007843 0.792157 0.000000
0.003922 0.788235 0.000000
0.003922 0.784314 0.003922
0.000000 0.788235 0.000000
0.356863 0.772549 0.000000
0.521569 0.764706 0.000000
0.647059 0.772549 0.000000
0.752941 0.752941 0.000000
0.850980 0.764706 0.000000
0.901961 0.741176 0.003922
0.941176 0.741176 0.007843
0.988235 0.737255 0.007843
1.000000 0.729412 0.000000
1.000000 0.713725 0.000000
0.996078 0.713725 0.000000
0.007843 0.819608 0.396078
0.003922 0.823529 0.396078
0.000000 0.831373 0.376471
0.003922 0.823529 0.384314
0.003922 0.831373 0.360784
0.000000 0.823529 0.372549
0.003922 0.831373 0.356863
0.000000 0.831373 0.352941
0.003922 0.831373 0.309804
0.000000 0.835294 0.223529
0.000000 0.835294 0.003922
0.011765 0.843137 0.000000
0.003922 0.831373 0.011765
0.003922 0.827451 0.000000
0.000000 0.819608 0.003922
0.388235 0.819608 0.000000
0.545098 0.811765 0.000000
0.682353 0.807843 0.000000
0.788235 0.800000 0.011765
0.882353 0.800000 0.003922
0.933333 0.780392 0.007843
0.980392 0.776471 0.003922
0.996078 0.768627 0.000000
0.992157 0.756863 0.000000
0.996078 0.760784 0.007843
0.003922 0.862745 0.392157
0.000000 0.866667 0.419608
0.003922 0.866667 0.411765
0.003922 0.870588 0.396078
0.000000 0.866667 0.392157
0.000000 0.866667 0.392157
0.003922 0.870588 0.388235
0.000000 0.866667 0.360784
0.000000 0.878431 0.360784
0.007843 0.874510 0.298039
0.000000 0.870588 0.180392
0.003922 0.874510 0.000000
0.007843 0.870588 0.000000
0.000000 0.870588 0.000000
0.000000 0.866667 0.000000
0.164706 0.858824 0.000000
0.423529 0.854902 0.000000
0.596078 0.850980 0.011765
0.698039 0.839216 0.007843
0.815686 0.827451 0.000000
0.917647 0.835294 0.007843
0.976471 0.819608 0.000000
0.992157 0.803922 0.000000
1.000000 0.800000 0.000000
1.000000 0.800000 0.000000
0.000000 0.901961 0.431373
0.000000 0.901961 0.415686
0.000000 0.905882 0.427451
0.000000 0.898039 0.423529
0.000000 0.909804 0.411765
0.000000 0.909804 0.411765
0.007843 0.898039 0.407843
0.003922 0.913725 0.403922
0.007843 0.905882 0.380392
0.000000 0.913725 0.352941
0.000000 0.913725 0.278431
0.011765 0.913725 0.113725
0.000000 0.917647 0.000000
0.000000 0.909804 0.000000
0.011765 0.901961 0.003922
0.007843 0.901961 0.003922
0.219608 0.890196 0.000000
0.478431 0.890196 0.000000
0.615686 0.882353 0.007843
0.752941 0.882353 0.000000
0.843137 0.874510 0.000000
0.952941 0.862745 0.007843
0.996078 0.854902 0.000000
1.000000 0.847059 0.000000
1.000000 0.835294 0.007843
0.003922 0.952941 0.450980
0.003922 0.945098 0.439216
0.000000 0.949020 0.439216
0.007843 0.949020 0.450980
0.003922 0.952941 0.450980
0.003922 0.945098 0.439216
0.007843 0.952941 0.431373
0.003922 0.949020 0.419608
0.000000 0.952941 0.403922
0.000000 0.956863 0.407843
0.000000 0.952941 0.333333
0.007843 0.952941 0.235294
0.000000 0.952941 0.011765
0.003922 0.956863 0.000000
0.003922 0.949020 0.000000
0.003922 0.949020 0.000000
0.003922 0.941176 0.000000
0.278431 0.937255 0.003922
0.509804 0.929412 0.000000
0.658824 0.921569 0.000000
0.768627 0.917647 0.003922
0.886275 0.909804 0.000000
0.976471 0.909804 0.007843
0.992157 0.898039 0.003922
0.992157 0.882353 0.003922
0.011765 0.972549 0.454902
0.000000 0.980392 0.466667
0.000000 0.976471 0.450980
0.000000 0.984314 0.458824
0.000000 0.984314 0.458824
0.007843 0.984314 0.458824
0.003922 0.984314 0.431373
0.000000 0.984314 0.431373
0.000000 0.988235 0.435294
0.000000 0.992157 0.423529
0.000000 0.988235 0.400000
0.007843 0.984314 0.317647
0.007843 0.988235 0.180392
0.003922 0.996078 0.000000
0.000000 0.988235 0.003922
0.000000 0.992157 0.000000
0.003922 0.972549 0.000000
0.000000 0.980392 0.000000
0.345098 0.972549 0.007843
0.545098 0.960784 0.000000
0.690196 0.960784 0.007843
0.807843 0.945098 0.000000
0.905882 0.949020 0.000000
1.000000 0.937255 0.003922
1.000000 0.937255 0.007843
0.007843 0.992157 0.470588
0.000000 1.000000 0.470588
0.000000 1.000000 0.482353
0.000000 0.996078 0.470588
0.000000 1.000000 0.474510
0.000000 1.000000 0.478431
0.007843 1.000000 0.470588
0.003922 0.996078 0.458824
0.003922 1.000000 0.450980
0.003922 0.992157 0.447059
0.000000 1.000000 0.431373
0.003922 0.996078 0.368627
0.011765 0.996078 0.270588
0.003922 1.000000 0.098039
0.000000 1.000000 0.000000
0.007843 1.000000 0.000000
0.000000 1.000000 0.003922
0.011765 1.000000 0.000000
0.000000 1.000000 0.000000
0.411765 0.996078 0.000000
0.603922 0.996078 0.000000
0.725490 0.988235 0.000000
0.843137 0.980392 0.000000
0.933333 0.980392 0.000000
0.992157 0.972549 0.000000
0.011765 1.000000 0.494118
0.007843 0.996078 0.490196
0.007843 0.996078 0.490196
0.011765 1.000000 0.494118
0.000000 1.000000 0.490196
0.007843 0.996078 0.482353
0.000000 1.000000 0.474510
0.007843 0.996078 0.490196
0.003922 0.996078 0.470588
0.000000 0.996078 0.470588
0.003922 1.000000 0.450980
0.000000 0.996078 0.435294
0.000000 1.000000 0.341176
0.007843 1.000000 0.231373
0.003922 1.000000 0.000000
0.003922 0.992157 0.007843
0.015686 1.000000 0.007843
0.003922 0.992157 0.000000
0.000000 1.000000 0.011765
0.192157 1.000000 0.000000
0.482353 0.996078 0.000000
0.662745 1.000000 0.000000
0.768627 1.000000 0.011765
0.882353 1.000000 0.003922
0.968627 0.996078 0.000000
0.000000 1.000000 0.501961
0.003922 1.000000 0.513725
0.000000 0.996078 0.505882
0.003922 1.000000 0.501961
0.000000 0.992157 0.501961
0.003922 1.000000 0.494118
0.003922 0.992157 0.486275
0.000000 1.000000 0.505882
0.007843 1.000000 0.474510
0.000000 1.000000 0.474510
0.000000 1.000000 0.466667
0.000000 0.992157 0.454902
0.007843 0.996078 0.396078
0.000000 1.000000 0.286275
0.000000 0.992157 0.086275
0.000000 0.996078 0.000000
0.000000 1.000000 0.003922
0.000000 1.000000 0.003922
0.011765 0.996078 0.003922
0.003922 0.992157 0.000000
0.447059 1.000000 0.000000
0.623529 1.000000 0.011765
0.764706 1.000000 0.000000
0.878431 1.000000 0.000000
0.952941 0.996078 0.000000
0.043137 0.047059 0.027451
0.043137 0.043137 0.043137
0.078431 0.035294 0.050980
0.141176 0.015686 0.027451
0.196078 0.000000 0.054902
0.250980 0.007843 0.027451
0.298039 0.000000 0.043137
0.337255 0.003922 0.027451
0.392157 0.003922 0.031373
0.439216 0.000000 0.023529
0.498039 0.000000 0.027451
0.529412 0.003922 0.015686
0.592157 0.000000 0.007843
0.643137 0.000000 0.000000
0.686275 0.003922 0.011765
0.741176 0.000000 0.000000
0.788235 0.000000 0.000000
0.835294 0.000000 0.000000
0.866667 0.000000 0.000000
0.917647 0.003922 0.000000
0.964706 0.003922 0.000000
0.988235 0.007843 0.000000
0.996078 0.003922 0.000000
0.996078 0.000000 0.000000
1.000000 0.007843 0.000000
0.043137 0.043137 0.035294
0.039216 0.043137 0.050980
0.101961 0.039216 0.043137
0.149020 0.039216 0.035294
0.192157 0.035294 0.035294
0.250980 0.039216 0.039216
0.301961 0.035294 0.031373
0.349020 0.027451 0.035294
0.396078 0.019608 0.023529
0.447059 0.019608 0.039216
0.482353 0.019608 0.011765
0.533333 0.019608 0.011765
0.584314 0.015686 0.003922
0.639216 0.011765 0.019608
0.686275 0.007843 0.000000
0.725490 0.007843 0.000000
0.796078 0.000000 0.000000
0.831373 0.003922 0.007843
0.874510 0.000000 0.000000
0.917647 0.000000 0.003922
0.960784 0.000000 0.000000
1.000000 0.003922 0.003922
0.996078 0.000000 0.007843
1.000000 0.003922 0.003922
0.984314 0.000000 0.000000
0.000000 0.094118 0.070588
0.007843 0.090196 0.054902
0.086275 0.094118 0.039216
0.152941 0.090196 0.023529
0.203922 0.090196 0.027451
0.243137 0.098039 0.027451
0.305882 0.086275 0.027451
0.345098 0.098039 0.027451
0.396078 0.074510 0.019608
0.443137 0.086275 0.015686
0.494118 0.082353 0.000000
0.533333 0.082353 0.007843
0.580392 0.082353 0.015686
0.631373 0.078431 0.003922
0.686275 0.070588 0.003922
0.729412 0.070588 0.000000
0.788235 0.066667 0.003922
0.831373 0.058824 0.000000
0.870588 0.054902 0.007843
0.909804 0.050980 0.011765
0.956863 0.035294 0.000000
1.000000 0.027451 0.000000
0.996078 0.015686 0.000000
1.000000 0.003922 0.003922
1.000000 0.007843 0.000000
0.000000 0.141176 0.074510
0.000000 0.145098 0.078431
0.007843 0.152941 0.015686
0.113725 0.149020 0.027451
0.203922 0.145098 0.031373
0.250980 0.149020 0.019608
0.301961 0.141176 0.023529
0.341176 0.145098 0.015686
0.388235 0.141176 0.019608
0.431373 0.129412 0.011765
0.494118 0.129412 0.000000
0.541176 0.129412 0.007843
0.580392 0.133333 0.000000
0.639216 0.133333 0.007843
0.682353 0.133333 0.000000
0.737255 0.133333 0.000000
0.776471 0.125490 0.000000
0.823529 0.121569 0.000000
0.862745 0.113725 0.003922
0.913725 0.113725 0.000000
0.960784 0.113725 0.000000
0.980392 0.105882 0.003922
1.000000 0.094118 0.000000
0.996078 0.094118 0.011765
0.996078 0.082353 0.000000
0.000000 0.196078 0.105882
0.000000 0.188235 0.086275
0.000000 0.203922 0.070588
0.000000 0.203922 0.011765
0.164706 0.200000 0.023529
0.243137 0.188235 0.011765
0.298039 0.192157 0.015686
0.349020 0.188235 0.015686
0.392157 0.188235 0.000000
0.439216 0.188235 0.011765
0.486275 0.188235 0.003922
0.529412 0.192157 0.000000
0.588235 0.188235 0.000000
0.627451 0.180392 0.000000
0.678431 0.184314 0.000000
0.733333 0.188235 0.000000
0.784314 0.180392 0.007843
0.811765 0.172549 0.003922
0.866667 0.176471 0.000000
0.905882 0.172549 0.003922
0.945098 0.160784 0.000000
1.000000 0.156863 0.003922
0.996078 0.156863 0.000000
0.988235 0.152941 0.000000
1.000000 0.145098 0.000000
0.011765 0.243137 0.133333
0.000000 0.250980 0.109804
0.000000 0.258824 0.105882
0.000000 0.258824 0.015686
0.023529 0.254902 0.003922
0.203922 0.243137 0.003922
0.301961 0.247059 0.003922
0.341176 0.239216 0.011765
0.403922 0.239216 0.011765
0.431373 0.243137 0.000000
0.494118 0.235294 0.000000
0.533333 0.235294 0.000000
0.592157 0.247059 0.000000
0.639216 0.243137 0.000000
0.690196 0.243137 0.000000
0.737255 0.235294 0.007843
0.780392 0.231373 0.000000
0.819608 0.231373 0.003922
0.866667 0.231373 0.007843
0.909804 0.227451 0.000000
0.952941 0.215686 0.000000
1.000000 0.215686 0.003922
1.000000 0.207843 0.007843
1.000000 0.203922 0.007843
1.000000 0.203922 0.003922
0.000000 0.294118 0.145098
0.000000 0.290196 0.145098
0.000000 0.298039 0.125490
0.000000 0.294118 0.101961
0.000000 0.301961 0.000000
0.101961 0.290196 0.000000
0.243137 0.298039 0.000000
0.337255 0.290196 0.000000
0.396078 0.286275 0.000000
0.450980 0.286275 0.003922
0.498039 0.286275 0.003922
0.533333 0.290196 0.000000
0.596078 0.290196 0.007843
0.635294 0.290196 0.000000
0.694118 0.290196 0.000000
0.745098 0.286275 0.007843
0.776471 0.286275 0.000000
0.831373 0.282353 0.003922
0.866667 0.278431 0.007843
0.909804 0.270588 0.000000
0.952941 0.270588 0.000000
0.992157 0.266667 0.000000
0.996078 0.266667 0.003922
0.996078 0.254902 0.003922
1.000000 0.254902 0.000000
0.003922 0.341176 0.156863
0.000000 0.341176 0.172549
0.003922 0.349020 0.145098
0.003922 0.345098 0.129412
0.000000 0.349020 0.039216
0.003922 0.349020 0.007843
0.137255 0.349020 0.003922
0.282353 0.337255 0.000000
0.400000 0.345098 0.000000
0.435294 0.333333 0.003922
0.482353 0.333333 0.000000
0.537255 0.333333 0.003922
0.596078 0.337255 0.000000
0.643137 0.337255 0.007843
0.690196 0.329412 0.003922
0.741176 0.329412 0.003922
0.780392 0.325490 0.000000
0.831373 0.329412 0.011765
0.858824 0.317647 0.000000
0.905882 0.325490 0.000000
0.952941 0.309804 0.000000
0.988235 0.317647 0.007843
1.000000 0.309804 0.003922
0.996078 0.294118 0.003922
1.000000 0.298039 0.000000
0.003922 0.392157 0.172549
0.000000 0.384314 0.176471
0.007843 0.392157 0.184314
0.000000 0.400000 0.160784
0.000000 0.403922 0.117647
0.003922 0.403922 0.003922
0.000000 0.396078 0.000000
0.192157 0.396078 0.000000
0.321569 0.392157 0.003922
0.443137 0.388235 0.000000
0.494118 0.376471 0.000000
0.545098 0.376471 0.000000
0.588235 0.380392 0.011765
0.639216 0.388235 0.003922
0.690196 0.376471 0.003922
0.741176 0.380392 0.000000
0.776471 0.376471 0.000000
0.819608 0.364706 0.000000
0.862745 0.368627 0.000000
0.901961 0.376471 0.000000
0.949020 0.364706 0.011765
0.988235 0.356863 0.003922
1.000000 0.356863 0.007843
1.000000 0.352941 0.000000
0.996078 0.349020 0.000000
0.003922 0.439216 0.200000
0.007843 0.443137 0.207843
0.007843 0.443137 0.203922
0.007843 0.447059 0.196078
0.000000 0.458824 0.168627
0.000000 0.450980 0.070588
0.000000 0.447059 0.000000
0.000000 0.443137 0.019608
0.227451 0.450980 0.000000
0.368627 0.443137 0.000000
0.478431 0.431373 0.000000
0.537255 0.431373 0.000000
0.588235 0.431373 0.000000
0.631373 0.427451 0.000000
0.690196 0.431373 0.000000
0.733333 0.415686 0.000000
0.776471 0.419608 0.000000
0.823529 0.423529 0.000000
0.862745 0.415686 0.000000
0.901961 0.415686 0.000000
0.949020 0.415686 0.000000
0.992157 0.411765 0.000000
1.000000 0.403922 0.000000
1.000000 0.400000 0.000000
1.000000 0.392157 0.000000
0.000000 0.509804 0.227451
0.007843 0.505882 0.227451
0.000000 0.505882 0.223529
0.007843 0.505882 0.219608
0.007843 0.509804 0.215686
0.000000 0.517647 0.152941
0.000000 0.513725 0.003922
0.003922 0.513725 0.000000
0.011765 0.501961 0.000000
0.274510 0.505882 0.000000
