lut_library_archive/removed_20260629/50个风景lut/50个风景lut03.cube
# 版权归凌孟成所有，侵权必究
TITLE "Jungle LUT #3"
#LUT size
LUT_3D_SIZE 9
#LUT data points
0.000000 0.000000 0.000000
0.117647 0.000000 0.000000
0.250980 0.000000 0.000000
0.376471 0.000000 0.003922
0.517647 0.000000 0.011765
0.650980 0.003922 0.027451
0.788235 0.011765 0.047059
0.913725 0.043137 0.070588
0.996078 0.094118 0.101961
0.000000 0.113725 0.000000
0.121569 0.117647 0.007843
0.243137 0.121569 0.011765
0.376471 0.125490 0.027451
0.509804 0.129412 0.023529
0.654902 0.137255 0.047059
0.784314 0.149020 0.070588
0.909804 0.152941 0.086275
0.992157 0.180392 0.117647
0.000000 0.254902 0.000000
0.113725 0.247059 0.000000
0.247059 0.247059 0.000000
0.380392 0.254902 0.023529
0.513725 0.266667 0.090196
0.654902 0.274510 0.098039
0.792157 0.282353 0.109804
0.917647 0.290196 0.117647
1.000000 0.301961 0.160784
0.003922 0.384314 0.000000
0.090196 0.388235 0.000000
0.250980 0.388235 0.000000
0.388235 0.388235 0.003922
0.513725 0.400000 0.003922
0.654902 0.411765 0.129412
0.788235 0.423529 0.168627
0.913725 0.427451 0.184314
1.000000 0.431373 0.192157
0.000000 0.529412 0.003922
0.050980 0.537255 0.000000
0.239216 0.525490 0.000000
0.388235 0.529412 0.000000
0.521569 0.529412 0.000000
0.658824 0.525490 0.003922
0.788235 0.541176 0.129412
0.913725 0.556863 0.239216
0.996078 0.568627 0.266667
0.003922 0.666667 0.000000
0.003922 0.666667 0.000000
0.227451 0.666667 0.000000
0.368627 0.666667 0.000000
0.513725 0.658824 0.000000
0.643137 0.666667 0.007843
0.784314 0.658824 0.000000
0.913725 0.670588 0.133333
1.000000 0.682353 0.282353
0.000000 0.788235 0.000000
0.011765 0.788235 0.000000
0.196078 0.788235 0.000000
0.356863 0.792157 0.003922
0.494118 0.784314 0.003922
0.639216 0.784314 0.000000
0.768627 0.776471 0.000000
0.905882 0.780392 0.007843
1.000000 0.776471 0.141176
0.007843 0.905882 0.000000
0.000000 0.905882 0.000000
0.188235 0.905882 0.003922
0.352941 0.913725 0.011765
0.490196 0.913725 0.000000
0.635294 0.905882 0.000000
0.760784 0.909804 0.000000
0.894118 0.905882 0.000000
1.000000 0.905882 0.000000
0.000000 1.000000 0.011765
0.000000 1.000000 0.000000
0.176471 0.992157 0.003922
0.345098 1.000000 0.000000
0.482353 0.996078 0.000000
0.611765 1.000000 0.000000
0.741176 0.996078 0.000000
0.870588 1.000000 0.000000
0.996078 1.000000 0.003922
0.003922 0.000000 0.133333
0.105882 0.000000 0.125490
0.250980 0.000000 0.121569
0.380392 0.000000 0.129412
0.521569 0.000000 0.125490
0.650980 0.003922 0.133333
0.788235 0.000000 0.141176
0.905882 0.023529 0.164706
1.000000 0.074510 0.176471
0.003922 0.117647 0.133333
0.117647 0.121569 0.129412
0.250980 0.113725 0.129412
0.380392 0.121569 0.137255
0.517647 0.125490 0.137255
0.647059 0.129412 0.149020
0.784314 0.137255 0.160784
0.917647 0.152941 0.176471
1.000000 0.172549 0.192157
0.000000 0.254902 0.121569
0.101961 0.258824 0.125490
0.254902 0.254902 0.121569
0.376471 0.250980 0.152941
0.509804 0.270588 0.160784
0.647059 0.278431 0.168627
0.788235 0.278431 0.176471
0.913725 0.286275 0.192157
0.992157 0.301961 0.211765
0.000000 0.388235 0.125490
0.070588 0.388235 0.109804
0.231373 0.388235 0.101961
0.380392 0.388235 0.101961
0.513725 0.392157 0.141176
0.650980 0.411765 0.196078
0.788235 0.423529 0.219608
0.921569 0.431373 0.219608
1.000000 0.435294 0.258824
0.007843 0.521569 0.105882
0.019608 0.525490 0.094118
0.227451 0.525490 0.090196
0.380392 0.529412 0.094118
0.517647 0.529412 0.086275
0.647059 0.525490 0.109804
0.784314 0.545098 0.200000
0.921569 0.560784 0.274510
1.000000 0.572549 0.301961
0.003922 0.666667 0.066667
0.000000 0.662745 0.070588
0.211765 0.662745 0.054902
0.368627 0.662745 0.062745
0.505882 0.658824 0.058824
0.650980 0.650980 0.062745
0.776471 0.654902 0.066667
0.909804 0.666667 0.200000
1.000000 0.678431 0.309804
0.007843 0.780392 0.011765
0.000000 0.792157 0.023529
0.184314 0.788235 0.000000
0.349020 0.784314 0.000000
0.501961 0.788235 0.000000
0.631373 0.780392 0.000000
0.772549 0.780392 0.000000
0.901961 0.776471 0.000000
1.000000 0.788235 0.211765
0.003922 0.909804 0.000000
0.003922 0.909804 0.000000
0.188235 0.905882 0.003922
0.345098 0.905882 0.000000
0.486275 0.909804 0.000000
0.631373 0.901961 0.000000
0.760784 0.905882 0.003922
0.890196 0.901961 0.003922
0.996078 0.901961 0.007843
0.007843 0.996078 0.003922
0.007843 0.996078 0.011765
0.164706 1.000000 0.000000
0.341176 0.996078 0.000000
0.478431 1.000000 0.000000
0.619608 1.000000 0.000000
0.752941 1.000000 0.000000
0.870588 1.000000 0.000000
0.992157 1.000000 0.000000
0.000000 0.000000 0.258824
0.121569 0.000000 0.262745
0.247059 0.003922 0.258824
0.380392 0.003922 0.254902
0.513725 0.003922 0.262745
0.654902 0.000000 0.266667
0.776471 0.003922 0.254902
0.905882 0.003922 0.254902
0.996078 0.007843 0.278431
0.000000 0.117647 0.239216
0.113725 0.113725 0.254902
0.254902 0.105882 0.258824
0.384314 0.109804 0.262745
0.513725 0.098039 0.254902
0.654902 0.090196 0.250980
0.780392 0.090196 0.250980
0.913725 0.117647 0.266667
0.996078 0.149020 0.270588
0.000000 0.250980 0.258824
0.098039 0.254902 0.254902
0.243137 0.247059 0.262745
0.376471 0.250980 0.254902
0.509804 0.258824 0.262745
0.654902 0.262745 0.270588
0.780392 0.266667 0.266667
0.909804 0.278431 0.278431
0.988235 0.294118 0.286275
0.007843 0.388235 0.250980
0.039216 0.392157 0.254902
0.231373 0.388235 0.243137
0.384314 0.384314 0.243137
0.517647 0.396078 0.282353
0.650980 0.411765 0.298039
0.788235 0.415686 0.298039
0.913725 0.423529 0.305882
0.996078 0.439216 0.321569
0.000000 0.529412 0.239216
0.003922 0.529412 0.231373
0.215686 0.529412 0.235294
0.376471 0.525490 0.231373
0.513725 0.521569 0.227451
0.650980 0.525490 0.239216
0.788235 0.545098 0.313725
0.909804 0.568627 0.356863
1.000000 0.572549 0.360784
0.000000 0.662745 0.227451
0.007843 0.654902 0.223529
0.203922 0.662745 0.215686
0.364706 0.666667 0.219608
0.509804 0.658824 0.215686
0.654902 0.654902 0.219608
0.788235 0.654902 0.231373
0.917647 0.670588 0.313725
0.996078 0.701961 0.384314
0.000000 0.784314 0.203922
0.000000 0.784314 0.196078
0.180392 0.784314 0.203922
0.352941 0.784314 0.200000
0.490196 0.780392 0.188235
0.631373 0.784314 0.192157
0.768627 0.784314 0.200000
0.905882 0.784314 0.196078
1.000000 0.784314 0.301961
0.000000 0.909804 0.176471
0.003922 0.909804 0.188235
0.180392 0.909804 0.176471
0.345098 0.909804 0.180392
0.486275 0.913725 0.180392
0.627451 0.901961 0.168627
0.752941 0.905882 0.164706
0.894118 0.901961 0.160784
0.996078 0.898039 0.152941
0.000000 1.000000 0.156863
0.000000 1.000000 0.145098
0.176471 0.996078 0.149020
0.337255 1.000000 0.149020
0.478431 1.000000 0.149020
0.611765 1.000000 0.141176
0.749020 1.000000 0.137255
0.870588 1.000000 0.145098
0.996078 1.000000 0.156863
0.003922 0.000000 0.376471
0.141176 0.000000 0.376471
0.254902 0.000000 0.376471
0.396078 0.000000 0.384314
0.517647 0.003922 0.380392
0.658824 0.003922 0.388235
0.784314 0.000000 0.372549
0.913725 0.003922 0.372549
1.000000 0.003922 0.360784
0.000000 0.109804 0.376471
0.121569 0.098039 0.372549
0.258824 0.101961 0.380392
0.396078 0.090196 0.384314
0.517647 0.086275 0.380392
0.658824 0.078431 0.384314
0.784314 0.062745 0.376471
0.913725 0.050980 0.372549
1.000000 0.035294 0.380392
0.000000 0.250980 0.392157
0.098039 0.239216 0.380392
0.254902 0.250980 0.384314
0.400000 0.243137 0.388235
0.521569 0.239216 0.384314
0.650980 0.239216 0.368627
0.780392 0.243137 0.376471
0.913725 0.239216 0.364706
1.000000 0.254902 0.384314
0.000000 0.380392 0.384314
0.054902 0.384314 0.384314
0.247059 0.384314 0.368627
0.384314 0.384314 0.376471
0.513725 0.384314 0.364706
0.650980 0.396078 0.388235
0.784314 0.400000 0.388235
0.913725 0.407843 0.396078
0.996078 0.423529 0.403922
0.007843 0.525490 0.360784
0.003922 0.525490 0.372549
0.215686 0.533333 0.364706
0.376471 0.525490 0.364706
0.521569 0.525490 0.368627
0.650980 0.533333 0.384314
0.788235 0.556863 0.431373
0.901961 0.564706 0.427451
1.000000 0.572549 0.450980
0.007843 0.666667 0.356863
0.000000 0.666667 0.360784
0.188235 0.670588 0.356863
0.360784 0.662745 0.356863
0.513725 0.662745 0.360784
0.647059 0.658824 0.349020
0.788235 0.654902 0.364706
0.901961 0.682353 0.443137
1.000000 0.713725 0.505882
0.007843 0.784314 0.349020
0.000000 0.792157 0.333333
0.176471 0.788235 0.337255
0.352941 0.784314 0.333333
0.501961 0.788235 0.337255
0.631373 0.784314 0.333333
0.768627 0.780392 0.329412
0.909804 0.780392 0.329412
1.000000 0.796078 0.427451
0.011765 0.913725 0.325490
0.007843 0.913725 0.341176
0.184314 0.905882 0.317647
0.345098 0.909804 0.325490
0.490196 0.901961 0.325490
0.631373 0.905882 0.317647
0.752941 0.901961 0.317647
0.898039 0.909804 0.325490
1.000000 0.898039 0.313725
0.003922 0.996078 0.317647
0.007843 0.996078 0.301961
0.192157 0.996078 0.309804
0.352941 1.000000 0.313725
0.490196 1.000000 0.309804
0.619608 1.000000 0.305882
0.749020 1.000000 0.309804
0.874510 1.000000 0.317647
0.992157 1.000000 0.317647
0.074510 0.000000 0.494118
0.145098 0.000000 0.505882
0.266667 0.000000 0.494118
0.396078 0.000000 0.501961
0.537255 0.000000 0.509804
0.658824 0.000000 0.505882
0.788235 0.003922 0.501961
0.917647 0.000000 0.498039
1.000000 0.003922 0.494118
0.015686 0.098039 0.509804
0.141176 0.094118 0.517647
0.274510 0.090196 0.505882
0.400000 0.082353 0.501961
0.529412 0.066667 0.505882
0.658824 0.047059 0.498039
0.788235 0.043137 0.498039
0.917647 0.035294 0.482353
1.000000 0.019608 0.494118
0.007843 0.239216 0.505882
0.101961 0.235294 0.513725
0.254902 0.243137 0.513725
0.396078 0.235294 0.509804
0.533333 0.231373 0.513725
0.662745 0.227451 0.505882
0.792157 0.235294 0.501961
0.905882 0.231373 0.490196
1.000000 0.239216 0.498039
0.000000 0.384314 0.498039
0.066667 0.380392 0.509804
0.243137 0.380392 0.505882
0.380392 0.376471 0.501961
0.525490 0.372549 0.494118
0.662745 0.372549 0.509804
0.788235 0.384314 0.498039
0.909804 0.384314 0.490196
1.000000 0.380392 0.486275
0.011765 0.521569 0.505882
0.000000 0.533333 0.501961
0.219608 0.529412 0.513725
0.372549 0.525490 0.505882
0.517647 0.521569 0.501961
0.650980 0.521569 0.501961
0.776471 0.529412 0.501961
0.905882 0.541176 0.513725
1.000000 0.556863 0.525490
0.003922 0.662745 0.494118
0.011765 0.662745 0.505882
0.200000 0.666667 0.490196
0.364706 0.666667 0.501961
0.513725 0.658824 0.490196
0.650980 0.654902 0.482353
0.784314 0.666667 0.517647
0.909804 0.701961 0.576471
1.000000 0.709804 0.588235
0.003922 0.784314 0.490196
0.007843 0.788235 0.470588
0.172549 0.788235 0.478431
0.352941 0.788235 0.478431
0.501961 0.788235 0.470588
0.647059 0.780392 0.474510
0.772549 0.784314 0.474510
0.909804 0.784314 0.498039
0.992157 0.811765 0.576471
0.003922 0.901961 0.466667
0.000000 0.909804 0.470588
0.207843 0.913725 0.470588
0.360784 0.905882 0.470588
0.501961 0.909804 0.466667
0.635294 0.909804 0.462745
0.760784 0.905882 0.462745
0.901961 0.901961 0.462745
1.000000 0.898039 0.462745
0.003922 1.000000 0.450980
0.000000 0.992157 0.454902
0.215686 1.000000 0.450980
0.364706 1.000000 0.458824
0.486275 1.000000 0.450980
0.627451 0.996078 0.447059
0.760784 1.000000 0.450980
0.878431 1.000000 0.450980
0.996078 1.000000 0.458824
0.094118 0.000000 0.627451
0.172549 0.000000 0.627451
0.278431 0.003922 0.631373
0.396078 0.000000 0.627451
0.533333 0.000000 0.627451
0.658824 0.003922 0.631373
0.792157 0.003922 0.631373
0.913725 0.000000 0.631373
1.000000 0.000000 0.631373
0.062745 0.086275 0.627451
0.152941 0.086275 0.627451
0.274510 0.086275 0.619608
0.392157 0.074510 0.627451
0.525490 0.062745 0.635294
0.662745 0.035294 0.631373
0.792157 0.003922 0.631373
0.917647 0.003922 0.627451
1.000000 0.003922 0.615686
0.000000 0.231373 0.639216
0.121569 0.231373 0.627451
0.254902 0.231373 0.623529
0.392157 0.227451 0.627451
0.529412 0.227451 0.635294
0.658824 0.219608 0.627451
0.792157 0.219608 0.623529
0.913725 0.215686 0.623529
0.996078 0.219608 0.623529
0.000000 0.372549 0.623529
0.074510 0.368627 0.631373
0.231373 0.368627 0.627451
0.380392 0.372549 0.635294
0.521569 0.368627 0.631373
0.650980 0.364706 0.635294
0.796078 0.368627 0.631373
0.925490 0.376471 0.631373
1.000000 0.376471 0.619608
0.000000 0.513725 0.631373
0.000000 0.513725 0.631373
0.223529 0.517647 0.639216
0.372549 0.509804 0.627451
0.513725 0.513725 0.623529
0.654902 0.513725 0.631373
0.788235 0.513725 0.627451
0.909804 0.517647 0.627451
1.000000 0.513725 0.607843
0.003922 0.650980 0.627451
0.003922 0.650980 0.623529
0.219608 0.662745 0.631373
0.364706 0.658824 0.631373
0.513725 0.650980 0.627451
0.654902 0.643137 0.623529
0.780392 0.650980 0.623529
0.901961 0.666667 0.627451
0.992157 0.682353 0.631373
0.000000 0.784314 0.611765
0.011765 0.780392 0.615686
0.184314 0.788235 0.615686
0.345098 0.788235 0.615686
0.501961 0.780392 0.607843
0.647059 0.784314 0.615686
0.776471 0.780392 0.615686
0.905882 0.796078 0.650980
1.000000 0.819608 0.701961
0.003922 0.901961 0.607843
0.000000 0.913725 0.596078
0.184314 0.905882 0.600000
0.356863 0.905882 0.600000
0.501961 0.905882 0.596078
0.639216 0.898039 0.600000
0.772549 0.898039 0.596078
0.901961 0.905882 0.607843
1.000000 0.901961 0.611765
0.003922 1.000000 0.576471
0.003922 0.992157 0.588235
0.188235 1.000000 0.584314
0.388235 1.000000 0.600000
0.509804 1.000000 0.592157
0.643137 1.000000 0.596078
0.772549 1.000000 0.596078
0.886275 0.996078 0.596078
0.992157 1.000000 0.600000
0.101961 0.000000 0.752941
0.176471 0.000000 0.745098
0.278431 0.000000 0.745098
0.400000 0.003922 0.764706
0.529412 0.000000 0.756863
0.654902 0.000000 0.756863
0.780392 0.003922 0.752941
0.909804 0.000000 0.752941
1.000000 0.003922 0.745098
0.090196 0.074510 0.749020
0.184314 0.082353 0.756863
0.282353 0.078431 0.752941
0.400000 0.070588 0.752941
0.525490 0.054902 0.752941
0.654902 0.027451 0.756863
0.780392 0.003922 0.745098
0.921569 0.000000 0.756863
1.000000 0.003922 0.764706
0.031373 0.227451 0.749020
0.137255 0.231373 0.756863
0.266667 0.227451 0.756863
0.396078 0.227451 0.752941
0.517647 0.219608 0.752941
0.654902 0.215686 0.756863
0.784314 0.211765 0.749020
0.913725 0.207843 0.752941
1.000000 0.207843 0.749020
0.000000 0.364706 0.745098
0.082353 0.372549 0.752941
0.250980 0.360784 0.749020
0.388235 0.364706 0.756863
0.513725 0.364706 0.752941
0.654902 0.364706 0.752941
0.784314 0.368627 0.760784
0.929412 0.364706 0.756863
1.000000 0.368627 0.749020
0.000000 0.505882 0.741176
0.058824 0.513725 0.752941
0.231373 0.505882 0.749020
0.372549 0.505882 0.752941
0.513725 0.505882 0.752941
0.643137 0.501961 0.752941
0.784314 0.501961 0.752941
0.917647 0.501961 0.752941
1.000000 0.513725 0.749020
0.003922 0.635294 0.745098
0.000000 0.650980 0.745098
0.223529 0.635294 0.741176
0.368627 0.639216 0.752941
0.505882 0.639216 0.745098
0.650980 0.639216 0.745098
0.784314 0.643137 0.752941
0.909804 0.643137 0.741176
1.000000 0.639216 0.737255
0.007843 0.776471 0.752941
0.003922 0.776471 0.741176
0.207843 0.776471 0.749020
0.364706 0.776471 0.749020
0.509804 0.780392 0.752941
0.650980 0.780392 0.745098
0.780392 0.780392 0.741176
0.909804 0.780392 0.752941
1.000000 0.803922 0.760784
0.000000 0.909804 0.741176
0.011765 0.905882 0.737255
0.184314 0.905882 0.733333
0.352941 0.905882 0.737255
0.505882 0.909804 0.741176
0.643137 0.905882 0.737255
0.776471 0.905882 0.737255
0.909804 0.905882 0.733333
0.988235 0.917647 0.760784
0.000000 1.000000 0.733333
0.000000 1.000000 0.725490
0.219608 1.000000 0.717647
0.368627 1.000000 0.725490
0.513725 0.996078 0.721569
0.658824 1.000000 0.729412
0.784314 1.000000 0.733333
0.901961 1.000000 0.741176
0.996078 1.000000 0.737255
0.121569 0.003922 0.866667
0.180392 0.000000 0.874510
0.286275 0.003922 0.878431
0.400000 0.000000 0.874510
0.525490 0.000000 0.874510
0.647059 0.003922 0.878431
0.772549 0.000000 0.870588
0.901961 0.000000 0.874510
0.992157 0.000000 0.870588
0.109804 0.074510 0.878431
0.180392 0.070588 0.878431
0.278431 0.070588 0.870588
0.403922 0.058824 0.874510
0.521569 0.050980 0.878431
0.647059 0.031373 0.882353
0.780392 0.011765 0.882353
0.909804 0.000000 0.878431
1.000000 0.000000 0.878431
0.074510 0.219608 0.870588
0.160784 0.227451 0.874510
0.266667 0.223529 0.874510
0.392157 0.223529 0.878431
0.517647 0.223529 0.878431
0.643137 0.219608 0.870588
0.776471 0.215686 0.874510
0.898039 0.215686 0.870588
1.000000 0.207843 0.874510
0.011765 0.360784 0.870588
0.129412 0.360784 0.870588
0.262745 0.356863 0.874510
0.388235 0.360784 0.878431
0.521569 0.360784 0.878431
0.647059 0.360784 0.874510
0.776471 0.364706 0.878431
0.905882 0.360784 0.870588
0.996078 0.356863 0.870588
0.007843 0.494118 0.870588
0.121569 0.498039 0.874510
0.250980 0.498039 0.870588
0.380392 0.490196 0.870588
0.517647 0.494118 0.870588
0.643137 0.498039 0.874510
0.780392 0.501961 0.878431
0.905882 0.498039 0.870588
1.000000 0.501961 0.882353
0.000000 0.627451 0.870588
0.082353 0.631373 0.870588
0.243137 0.627451 0.866667
0.372549 0.631373 0.870588
0.513725 0.631373 0.874510
0.650980 0.635294 0.874510
0.772549 0.635294 0.870588
0.901961 0.635294 0.874510
1.000000 0.635294 0.862745
0.000000 0.764706 0.858824
0.090196 0.760784 0.870588
0.231373 0.760784 0.866667
0.384314 0.764706 0.862745
0.517647 0.768627 0.866667
0.650980 0.768627 0.870588
0.780392 0.772549 0.866667
0.909804 0.776471 0.870588
0.996078 0.776471 0.874510
0.007843 0.894118 0.878431
0.066667 0.890196 0.874510
0.235294 0.894118 0.866667
0.376471 0.898039 0.862745
0.517647 0.898039 0.862745
0.650980 0.898039 0.862745
0.776471 0.898039 0.866667
0.909804 0.898039 0.862745
1.000000 0.905882 0.874510
0.003922 0.992157 0.862745
0.078431 1.000000 0.862745
0.243137 0.996078 0.866667
0.384314 1.000000 0.870588
0.521569 0.996078 0.866667
0.658824 1.000000 0.866667
0.788235 1.000000 0.858824
0.921569 0.996078 0.878431
0.996078 1.000000 0.874510
0.137255 0.000000 0.988235
0.192157 0.000000 0.980392
0.282353 0.003922 0.984314
0.396078 0.000000 0.988235
0.517647 0.000000 0.988235
0.643137 0.000000 0.984314
0.764706 0.000000 0.988235
0.890196 0.003922 0.992157
1.000000 0.000000 1.000000
0.133333 0.066667 0.992157
0.184314 0.066667 0.988235
0.290196 0.066667 0.992157
0.407843 0.066667 0.996078
0.525490 0.062745 0.996078
0.639216 0.050980 0.988235
0.764706 0.039216 0.992157
0.890196 0.027451 0.996078
1.000000 0.019608 0.980392
0.105882 0.215686 0.988235
0.176471 0.223529 1.000000
0.290196 0.219608 0.996078
0.400000 0.219608 0.988235
0.517647 0.219608 0.988235
0.639216 0.215686 0.988235
0.768627 0.219608 0.992157
0.890196 0.219608 0.984314
0.996078 0.223529 0.988235
0.094118 0.360784 0.980392
0.164706 0.356863 0.992157
0.278431 0.356863 0.980392
0.392157 0.364706 0.984314
0.509804 0.360784 0.992157
0.639216 0.356863 0.992157
0.768627 0.360784 0.992157
0.890196 0.364706 0.988235
0.996078 0.364706 0.984314
0.121569 0.494118 0.996078
0.156863 0.494118 0.976471
0.274510 0.490196 0.988235
0.392157 0.490196 0.984314
0.509804 0.490196 0.984314
0.635294 0.494118 0.988235
0.764706 0.494118 0.984314
0.886275 0.498039 0.992157
1.000000 0.498039 0.980392
0.109804 0.623529 0.984314
0.180392 0.619608 0.980392
0.278431 0.627451 0.980392
0.396078 0.627451 0.984314
0.521569 0.627451 0.976471
0.647059 0.627451 0.980392
0.772549 0.631373 0.984314
0.894118 0.635294 0.984314
1.000000 0.639216 0.980392
0.129412 0.756863 0.984314
0.184314 0.756863 0.980392
0.294118 0.756863 0.984314
0.407843 0.756863 0.984314
0.537255 0.756863 0.980392
0.662745 0.760784 0.980392
0.776471 0.764706 0.972549
0.901961 0.768627 0.976471
0.992157 0.768627 0.968627
0.050980 0.901961 0.968627
0.137255 0.898039 0.968627
0.262745 0.898039 0.976471
0.392157 0.898039 0.960784
0.529412 0.901961 0.972549
0.658824 0.901961 0.960784
0.788235 0.901961 0.956863
0.917647 0.909804 0.960784
0.984314 0.917647 0.956863
0.141176 1.000000 0.952941
0.184314 1.000000 0.949020
0.301961 0.996078 0.952941
0.419608 0.996078 0.952941
0.556863 1.000000 0.952941
0.686275 1.000000 0.949020
0.835294 1.000000 0.952941
0.968627 1.000000 0.949020
1.000000 1.000000 0.941176
