lut_library_archive/removed_20260629/50个风景lut/50个风景lut13.cube
# 版权归凌孟成所有，侵权必究
TITLE "Jungle LUT #13"
#LUT size
LUT_3D_SIZE 25
#LUT data points
0.050980 0.035294 0.031373
0.054902 0.031373 0.031373
0.090196 0.035294 0.035294
0.145098 0.019608 0.031373
0.180392 0.015686 0.023529
0.219608 0.015686 0.023529
0.254902 0.011765 0.023529
0.298039 0.003922 0.031373
0.329412 0.000000 0.015686
0.372549 0.000000 0.023529
0.400000 0.000000 0.011765
0.443137 0.003922 0.011765
0.474510 0.003922 0.011765
0.509804 0.015686 0.031373
0.552941 0.015686 0.023529
0.592157 0.015686 0.015686
0.635294 0.015686 0.031373
0.678431 0.023529 0.023529
0.733333 0.031373 0.023529
0.776471 0.027451 0.019608
0.815686 0.035294 0.015686
0.862745 0.043137 0.027451
0.921569 0.047059 0.027451
0.960784 0.058824 0.027451
0.992157 0.070588 0.027451
0.035294 0.054902 0.039216
0.070588 0.050980 0.035294
0.094118 0.050980 0.043137
0.133333 0.054902 0.027451
0.180392 0.050980 0.023529
0.215686 0.047059 0.015686
0.262745 0.047059 0.027451
0.294118 0.043137 0.007843
0.333333 0.043137 0.007843
0.372549 0.039216 0.019608
0.403922 0.039216 0.011765
0.427451 0.047059 0.023529
0.474510 0.039216 0.023529
0.513725 0.047059 0.023529
0.552941 0.050980 0.007843
0.600000 0.050980 0.023529
0.623529 0.058824 0.023529
0.682353 0.062745 0.027451
0.733333 0.066667 0.031373
0.768627 0.070588 0.023529
0.815686 0.070588 0.031373
0.866667 0.074510 0.035294
0.917647 0.082353 0.035294
0.960784 0.078431 0.023529
1.000000 0.086275 0.039216
0.015686 0.086275 0.031373
0.023529 0.090196 0.019608
0.098039 0.086275 0.019608
0.145098 0.082353 0.023529
0.172549 0.086275 0.003922
0.211765 0.090196 0.019608
0.258824 0.078431 0.019608
0.298039 0.078431 0.027451
0.337255 0.078431 0.023529
0.368627 0.082353 0.023529
0.403922 0.078431 0.023529
0.439216 0.078431 0.027451
0.478431 0.078431 0.023529
0.513725 0.086275 0.035294
0.552941 0.086275 0.023529
0.588235 0.090196 0.023529
0.635294 0.090196 0.031373
0.678431 0.094118 0.031373
0.733333 0.094118 0.035294
0.776471 0.101961 0.031373
0.823529 0.101961 0.031373
0.866667 0.105882 0.035294
0.917647 0.105882 0.035294
0.964706 0.117647 0.035294
0.992157 0.125490 0.031373
0.000000 0.133333 0.039216
0.000000 0.129412 0.015686
0.043137 0.125490 0.003922
0.133333 0.121569 0.000000
0.184314 0.117647 0.015686
0.219608 0.117647 0.027451
0.247059 0.121569 0.039216
0.286275 0.121569 0.027451
0.321569 0.121569 0.015686
0.372549 0.117647 0.039216
0.407843 0.113725 0.031373
0.439216 0.117647 0.023529
0.474510 0.121569 0.027451
0.513725 0.121569 0.019608
0.556863 0.125490 0.035294
0.596078 0.125490 0.039216
0.639216 0.129412 0.035294
0.686275 0.129412 0.035294
0.729412 0.137255 0.039216
0.784314 0.129412 0.027451
0.811765 0.141176 0.031373
0.874510 0.141176 0.043137
0.921569 0.149020 0.043137
0.960784 0.149020 0.039216
1.000000 0.160784 0.035294
0.007843 0.168627 0.043137
0.000000 0.172549 0.027451
0.011765 0.160784 0.000000
0.082353 0.164706 0.000000
0.164706 0.156863 0.003922
0.231373 0.156863 0.000000
0.262745 0.149020 0.015686
0.294118 0.149020 0.043137
0.329412 0.152941 0.031373
0.364706 0.156863 0.031373
0.396078 0.156863 0.043137
0.447059 0.152941 0.039216
0.482353 0.156863 0.039216
0.521569 0.152941 0.043137
0.556863 0.160784 0.043137
0.592157 0.164706 0.043137
0.643137 0.160784 0.039216
0.690196 0.160784 0.043137
0.725490 0.176471 0.039216
0.772549 0.180392 0.043137
0.827451 0.184314 0.047059
0.866667 0.188235 0.039216
0.925490 0.188235 0.043137
0.976471 0.188235 0.047059
1.000000 0.196078 0.050980
0.000000 0.207843 0.027451
0.007843 0.211765 0.023529
0.003922 0.207843 0.015686
0.000000 0.215686 0.000000
0.129412 0.200000 0.003922
0.203922 0.196078 0.003922
0.266667 0.188235 0.000000
0.301961 0.192157 0.007843
0.333333 0.188235 0.023529
0.368627 0.192157 0.039216
0.403922 0.200000 0.054902
0.443137 0.196078 0.058824
0.470588 0.203922 0.066667
0.525490 0.196078 0.054902
0.556863 0.207843 0.058824
0.592157 0.207843 0.054902
0.643137 0.219608 0.047059
0.682353 0.215686 0.050980
0.733333 0.211765 0.050980
0.784314 0.215686 0.054902
0.827451 0.223529 0.050980
0.870588 0.227451 0.058824
0.925490 0.223529 0.062745
0.972549 0.231373 0.047059
1.000000 0.231373 0.070588
0.003922 0.247059 0.054902
0.000000 0.247059 0.027451
0.003922 0.254902 0.015686
0.000000 0.254902 0.011765
0.000000 0.243137 0.000000
0.160784 0.247059 0.000000
0.239216 0.231373 0.000000
0.298039 0.231373 0.011765
0.333333 0.227451 0.011765
0.368627 0.227451 0.023529
0.407843 0.223529 0.050980
0.447059 0.235294 0.062745
0.482353 0.235294 0.058824
0.513725 0.235294 0.066667
0.556863 0.247059 0.078431
0.596078 0.250980 0.062745
0.647059 0.247059 0.066667
0.690196 0.250980 0.070588
0.737255 0.262745 0.054902
0.780392 0.258824 0.066667
0.839216 0.258824 0.070588
0.878431 0.270588 0.058824
0.925490 0.270588 0.058824
0.960784 0.274510 0.070588
0.988235 0.274510 0.082353
0.000000 0.290196 0.043137
0.000000 0.298039 0.047059
0.000000 0.286275 0.015686
0.003922 0.294118 0.000000
0.003922 0.290196 0.003922
0.058824 0.278431 0.000000
0.192157 0.278431 0.000000
0.274510 0.270588 0.007843
0.337255 0.270588 0.000000
0.360784 0.262745 0.000000
0.403922 0.262745 0.019608
0.447059 0.270588 0.047059
0.478431 0.278431 0.062745
0.521569 0.278431 0.078431
0.564706 0.290196 0.090196
0.607843 0.286275 0.090196
0.647059 0.290196 0.082353
0.690196 0.301961 0.086275
0.737255 0.298039 0.078431
0.784314 0.305882 0.082353
0.839216 0.305882 0.070588
0.886275 0.305882 0.086275
0.925490 0.313725 0.082353
0.972549 0.317647 0.082353
0.992157 0.325490 0.094118
0.007843 0.325490 0.054902
0.007843 0.337255 0.043137
0.007843 0.329412 0.031373
0.003922 0.333333 0.000000
0.000000 0.337255 0.000000
0.003922 0.325490 0.000000
0.109804 0.325490 0.000000
0.227451 0.313725 0.000000
0.305882 0.309804 0.003922
0.372549 0.305882 0.000000
0.396078 0.305882 0.000000
0.439216 0.294118 0.015686
0.478431 0.309804 0.043137
0.517647 0.313725 0.078431
0.564706 0.321569 0.090196
0.611765 0.337255 0.101961
0.647059 0.333333 0.101961
0.698039 0.341176 0.098039
0.733333 0.341176 0.098039
0.792157 0.345098 0.098039
0.839216 0.349020 0.098039
0.878431 0.356863 0.094118
0.925490 0.352941 0.090196
0.980392 0.356863 0.098039
1.000000 0.356863 0.105882
0.000000 0.372549 0.050980
0.000000 0.372549 0.050980
0.000000 0.376471 0.027451
0.000000 0.372549 0.000000
0.000000 0.376471 0.000000
0.000000 0.372549 0.000000
0.000000 0.364706 0.000000
0.149020 0.364706 0.000000
0.262745 0.360784 0.000000
0.333333 0.345098 0.000000
0.407843 0.345098 0.011765
0.427451 0.341176 0.003922
0.478431 0.341176 0.011765
0.521569 0.345098 0.027451
0.564706 0.352941 0.062745
0.603922 0.368627 0.086275
0.654902 0.368627 0.101961
0.690196 0.380392 0.121569
0.741176 0.388235 0.121569
0.792157 0.392157 0.101961
0.847059 0.388235 0.109804
0.890196 0.396078 0.125490
0.925490 0.400000 0.121569
0.972549 0.400000 0.125490
1.000000 0.403922 0.125490
0.003922 0.419608 0.074510
0.003922 0.411765 0.062745
0.007843 0.419608 0.047059
0.000000 0.427451 0.015686
0.000000 0.427451 0.000000
0.000000 0.423529 0.000000
0.000000 0.419608 0.003922
0.000000 0.415686 0.000000
0.200000 0.407843 0.000000
0.298039 0.396078 0.000000
0.368627 0.392157 0.007843
0.435294 0.380392 0.000000
0.478431 0.380392 0.000000
0.525490 0.384314 0.000000
0.568627 0.388235 0.023529
0.619608 0.400000 0.074510
0.662745 0.407843 0.094118
0.705882 0.419608 0.117647
0.752941 0.423529 0.137255
0.796078 0.435294 0.141176
0.850980 0.439216 0.129412
0.894118 0.443137 0.129412
0.933333 0.447059 0.133333
0.976471 0.450980 0.133333
0.992157 0.450980 0.137255
0.000000 0.470588 0.066667
0.003922 0.466667 0.058824
0.003922 0.466667 0.035294
0.003922 0.474510 0.031373
0.007843 0.466667 0.015686
0.000000 0.474510 0.000000
0.000000 0.466667 0.000000
0.000000 0.466667 0.000000
0.000000 0.454902 0.003922
0.223529 0.447059 0.000000
0.329412 0.439216 0.003922
0.411765 0.427451 0.000000
0.474510 0.419608 0.000000
0.513725 0.419608 0.000000
0.568627 0.423529 0.003922
0.600000 0.427451 0.000000
0.650980 0.443137 0.043137
0.705882 0.450980 0.058824
0.756863 0.462745 0.113725
0.800000 0.470588 0.133333
0.847059 0.486275 0.160784
0.898039 0.478431 0.164706
0.937255 0.486275 0.160784
0.988235 0.486275 0.160784
1.000000 0.494118 0.164706
0.000000 0.513725 0.074510
0.000000 0.509804 0.062745
0.000000 0.517647 0.066667
0.007843 0.525490 0.035294
0.000000 0.513725 0.003922
0.003922 0.525490 0.003922
0.000000 0.521569 0.000000
0.000000 0.517647 0.003922
0.000000 0.509804 0.000000
0.090196 0.501961 0.000000
0.262745 0.490196 0.007843
0.372549 0.482353 0.000000
0.435294 0.474510 0.000000
0.501961 0.466667 0.000000
0.560784 0.454902 0.000000
0.603922 0.466667 0.000000
0.650980 0.478431 0.000000
0.709804 0.478431 0.019608
0.752941 0.494118 0.062745
0.800000 0.505882 0.109804
0.843137 0.513725 0.129412
0.898039 0.529412 0.156863
0.937255 0.533333 0.168627
0.984314 0.533333 0.184314
1.000000 0.529412 0.192157
0.000000 0.560784 0.098039
0.003922 0.556863 0.086275
0.000000 0.564706 0.078431
0.000000 0.564706 0.058824
0.003922 0.572549 0.011765
0.000000 0.568627 0.000000
0.007843 0.568627 0.003922
0.000000 0.576471 0.003922
0.003922 0.556863 0.003922
0.000000 0.556863 0.000000
0.149020 0.545098 0.000000
0.301961 0.541176 0.000000
0.403922 0.529412 0.007843
0.478431 0.517647 0.000000
0.541176 0.505882 0.000000
0.607843 0.490196 0.003922
0.658824 0.505882 0.000000
0.701961 0.517647 0.000000
0.752941 0.533333 0.000000
0.792157 0.537255 0.043137
0.843137 0.549020 0.090196
0.894118 0.552941 0.133333
0.941176 0.568627 0.176471
0.980392 0.572549 0.200000
0.992157 0.576471 0.215686
0.011765 0.611765 0.094118
0.003922 0.619608 0.098039
0.000000 0.615686 0.078431
0.000000 0.619608 0.074510
0.007843 0.619608 0.027451
0.003922 0.619608 0.003922
0.000000 0.627451 0.007843
0.000000 0.631373 0.000000
0.003922 0.611765 0.000000
0.003922 0.611765 0.000000
0.003922 0.600000 0.003922
0.207843 0.596078 0.000000
0.345098 0.592157 0.000000
0.447059 0.580392 0.000000
0.509804 0.564706 0.000000
0.588235 0.552941 0.000000
0.658824 0.545098 0.003922
0.705882 0.552941 0.000000
0.745098 0.564706 0.000000
0.796078 0.572549 0.011765
0.839216 0.584314 0.027451
0.901961 0.592157 0.086275
0.941176 0.603922 0.137255
0.972549 0.611765 0.176471
1.000000 0.611765 0.207843
0.003922 0.670588 0.117647
0.003922 0.670588 0.109804
0.003922 0.674510 0.101961
0.000000 0.670588 0.082353
0.003922 0.670588 0.047059
0.000000 0.670588 0.007843
0.003922 0.678431 0.000000
0.000000 0.678431 0.003922
0.011765 0.674510 0.003922
0.007843 0.670588 0.000000
0.000000 0.658824 0.000000
0.000000 0.662745 0.000000
0.250980 0.643137 0.011765
0.380392 0.643137 0.000000
0.482353 0.631373 0.000000
0.564706 0.619608 0.000000
0.635294 0.607843 0.007843
0.705882 0.600000 0.000000
0.752941 0.600000 0.000000
0.796078 0.615686 0.007843
0.850980 0.623529 0.000000
0.894118 0.627451 0.007843
0.937255 0.635294 0.078431
0.976471 0.643137 0.145098
0.992157 0.654902 0.180392
0.003922 0.713725 0.129412
0.003922 0.705882 0.133333
0.000000 0.725490 0.117647
0.003922 0.713725 0.105882
0.007843 0.721569 0.082353
0.000000 0.729412 0.027451
0.000000 0.729412 0.000000
0.015686 0.725490 0.000000
0.000000 0.725490 0.003922
0.000000 0.725490 0.003922
0.003922 0.713725 0.000000
0.007843 0.709804 0.003922
0.000000 0.713725 0.000000
0.294118 0.698039 0.000000
0.423529 0.686275 0.000000
0.529412 0.670588 0.003922
0.615686 0.670588 0.000000
0.674510 0.654902 0.019608
0.741176 0.650980 0.000000
0.796078 0.643137 0.000000
0.839216 0.654902 0.000000
0.894118 0.666667 0.000000
0.945098 0.670588 0.000000
0.976471 0.674510 0.078431
0.988235 0.678431 0.141176
0.011765 0.768627 0.149020
0.000000 0.776471 0.137255
0.003922 0.772549 0.145098
0.000000 0.772549 0.117647
0.000000 0.776471 0.098039
0.000000 0.780392 0.050980
0.000000 0.776471 0.000000
0.007843 0.776471 0.000000
0.000000 0.780392 0.000000
0.000000 0.776471 0.000000
0.011765 0.768627 0.003922
0.000000 0.764706 0.000000
0.007843 0.756863 0.000000
0.062745 0.749020 0.007843
0.333333 0.745098 0.000000
0.462745 0.733333 0.000000
0.572549 0.721569 0.011765
0.643137 0.721569 0.003922
0.721569 0.701961 0.000000
0.800000 0.701961 0.000000
0.839216 0.694118 0.011765
0.882353 0.701961 0.000000
0.929412 0.709804 0.000000
0.984314 0.709804 0.000000
1.000000 0.713725 0.074510
0.000000 0.823529 0.156863
0.000000 0.815686 0.164706
0.003922 0.823529 0.149020
0.000000 0.823529 0.137255
0.003922 0.823529 0.113725
0.000000 0.819608 0.086275
0.003922 0.827451 0.031373
0.007843 0.823529 0.000000
0.003922 0.831373 0.003922
0.000000 0.827451 0.000000
0.000000 0.827451 0.000000
0.003922 0.815686 0.007843
0.000000 0.811765 0.000000
0.003922 0.803922 0.007843
0.160784 0.800000 0.003922
0.388235 0.796078 0.000000
0.501961 0.784314 0.007843
0.607843 0.764706 0.000000
0.682353 0.760784 0.000000
0.772549 0.756863 0.000000
0.835294 0.741176 0.003922
0.890196 0.737255 0.000000
0.949020 0.737255 0.007843
0.984314 0.749020 0.000000
1.000000 0.752941 0.000000
0.000000 0.862745 0.176471
0.007843 0.858824 0.188235
0.000000 0.862745 0.164706
0.000000 0.858824 0.152941
0.003922 0.862745 0.156863
0.000000 0.878431 0.117647
0.000000 0.870588 0.066667
0.003922 0.870588 0.007843
0.003922 0.874510 0.000000
0.007843 0.878431 0.003922
0.000000 0.878431 0.007843
0.003922 0.866667 0.003922
0.003922 0.866667 0.000000
0.007843 0.854902 0.011765
0.007843 0.850980 0.000000
0.231373 0.843137 0.007843
0.419608 0.839216 0.000000
0.537255 0.831373 0.000000
0.647059 0.823529 0.011765
0.737255 0.807843 0.000000
0.803922 0.803922 0.000000
0.894118 0.792157 0.011765
0.937255 0.784314 0.000000
0.972549 0.788235 0.000000
1.000000 0.792157 0.000000
0.011765 0.909804 0.207843
0.000000 0.909804 0.196078
0.000000 0.913725 0.180392
0.003922 0.913725 0.172549
0.015686 0.905882 0.172549
0.003922 0.909804 0.149020
0.000000 0.917647 0.098039
0.000000 0.921569 0.043137
0.000000 0.925490 0.000000
0.003922 0.917647 0.003922
0.000000 0.921569 0.003922
0.003922 0.913725 0.000000
0.003922 0.901961 0.000000
0.007843 0.901961 0.003922
0.003922 0.898039 0.007843
0.000000 0.898039 0.003922
0.301961 0.882353 0.000000
0.450980 0.886275 0.000000
0.592157 0.874510 0.000000
0.686275 0.866667 0.003922
0.772549 0.854902 0.000000
0.850980 0.850980 0.000000
0.933333 0.843137 0.000000
0.984314 0.827451 0.000000
1.000000 0.831373 0.003922
0.007843 0.949020 0.215686
0.000000 0.956863 0.200000
0.003922 0.945098 0.211765
0.000000 0.956863 0.196078
0.000000 0.952941 0.180392
0.000000 0.945098 0.156863
0.007843 0.952941 0.137255
0.003922 0.956863 0.094118
0.000000 0.956863 0.000000
0.007843 0.964706 0.000000
0.003922 0.960784 0.000000
0.003922 0.964706 0.003922
0.000000 0.956863 0.003922
0.003922 0.960784 0.000000
0.003922 0.945098 0.007843
0.003922 0.945098 0.007843
0.000000 0.937255 0.000000
0.333333 0.929412 0.007843
0.501961 0.925490 0.003922
0.631373 0.921569 0.000000
0.721569 0.909804 0.000000
0.815686 0.901961 0.000000
0.898039 0.890196 0.007843
0.964706 0.894118 0.000000
0.996078 0.890196 0.000000
0.000000 0.980392 0.235294
0.011765 0.984314 0.223529
0.000000 0.984314 0.215686
0.007843 0.996078 0.215686
0.000000 0.992157 0.200000
0.007843 0.988235 0.180392
0.007843 0.992157 0.164706
0.003922 0.992157 0.117647
0.000000 0.992157 0.050980
0.000000 1.000000 0.011765
0.007843 1.000000 0.000000
0.000000 1.000000 0.000000
0.000000 1.000000 0.003922
0.000000 1.000000 0.003922
0.003922 0.984314 0.003922
0.000000 0.980392 0.000000
0.000000 0.980392 0.000000
0.039216 0.968627 0.000000
0.396078 0.968627 0.000000
0.552941 0.960784 0.000000
0.686275 0.952941 0.000000
0.764706 0.952941 0.003922
0.858824 0.937255 0.000000
0.937255 0.933333 0.000000
1.000000 0.933333 0.000000
0.007843 0.996078 0.239216
0.003922 0.992157 0.235294
0.003922 0.992157 0.235294
0.000000 1.000000 0.223529
0.000000 1.000000 0.219608
0.003922 1.000000 0.200000
0.003922 0.996078 0.184314
0.000000 1.000000 0.160784
0.000000 1.000000 0.098039
0.003922 1.000000 0.023529
0.003922 0.996078 0.000000
0.000000 0.996078 0.000000
0.003922 0.996078 0.000000
0.000000 1.000000 0.003922
0.000000 1.000000 0.000000
0.000000 0.996078 0.000000
0.007843 0.996078 0.003922
0.000000 1.000000 0.000000
0.247059 1.000000 0.003922
0.474510 0.992157 0.003922
0.607843 1.000000 0.000000
0.733333 0.996078 0.000000
0.819608 0.988235 0.000000
0.913725 0.976471 0.003922
0.972549 0.976471 0.000000
0.000000 1.000000 0.258824
0.000000 0.996078 0.243137
0.000000 0.996078 0.250980
0.011765 1.000000 0.235294
0.007843 1.000000 0.227451
0.000000 0.992157 0.219608
0.000000 0.996078 0.203922
0.000000 0.996078 0.164706
0.003922 0.996078 0.133333
0.000000 1.000000 0.066667
0.007843 0.996078 0.003922
0.000000 1.000000 0.000000
0.000000 1.000000 0.011765
0.000000 1.000000 0.000000
0.000000 1.000000 0.003922
0.019608 0.988235 0.011765
0.000000 0.996078 0.000000
0.000000 1.000000 0.011765
0.101961 0.996078 0.003922
0.443137 0.996078 0.000000
0.603922 1.000000 0.000000
0.725490 0.996078 0.003922
0.831373 1.000000 0.000000
0.921569 1.000000 0.000000
0.988235 1.000000 0.000000
0.050980 0.031373 0.047059
0.058824 0.035294 0.035294
0.094118 0.031373 0.035294
0.133333 0.015686 0.047059
0.184314 0.003922 0.047059
0.215686 0.007843 0.039216
0.266667 0.011765 0.043137
0.301961 0.003922 0.050980
0.333333 0.007843 0.039216
0.364706 0.011765 0.050980
0.411765 0.015686 0.054902
0.439216 0.007843 0.043137
0.486275 0.019608 0.050980
0.509804 0.011765 0.047059
0.549020 0.019608 0.047059
0.596078 0.019608 0.050980
0.635294 0.031373 0.043137
0.682353 0.031373 0.054902
0.721569 0.031373 0.050980
0.768627 0.039216 0.058824
0.827451 0.043137 0.047059
0.866667 0.043137 0.047059
0.913725 0.050980 0.058824
0.956863 0.058824 0.054902
1.000000 0.058824 0.062745
0.035294 0.054902 0.039216
0.070588 0.047059 0.054902
0.101961 0.047059 0.035294
0.137255 0.054902 0.043137
0.188235 0.039216 0.039216
0.223529 0.050980 0.054902
0.258824 0.047059 0.039216
0.286275 0.050980 0.050980
0.325490 0.047059 0.039216
0.376471 0.047059 0.047059
0.400000 0.050980 0.043137
0.431373 0.047059 0.043137
0.482353 0.058824 0.050980
0.517647 0.054902 0.058824
0.556863 0.054902 0.043137
0.592157 0.054902 0.047059
0.639216 0.062745 0.054902
0.662745 0.070588 0.058824
0.725490 0.062745 0.043137
0.772549 0.062745 0.050980
0.831373 0.074510 0.062745
0.874510 0.070588 0.050980
0.917647 0.078431 0.054902
0.960784 0.082353 0.054902
0.996078 0.094118 0.070588
0.023529 0.086275 0.047059
0.039216 0.094118 0.043137
0.113725 0.090196 0.043137
0.149020 0.082353 0.054902
0.180392 0.086275 0.054902
0.219608 0.086275 0.050980
0.262745 0.090196 0.054902
0.294118 0.082353 0.050980
0.333333 0.082353 0.047059
0.372549 0.078431 0.054902
0.403922 0.078431 0.047059
0.439216 0.086275 0.054902
0.482353 0.090196 0.058824
0.513725 0.086275 0.058824
0.537255 0.090196 0.058824
0.596078 0.094118 0.050980
0.635294 0.094118 0.050980
0.666667 0.098039 0.047059
0.713725 0.101961 0.066667
0.768627 0.105882 0.054902
0.823529 0.105882 0.054902
0.870588 0.105882 0.058824
0.913725 0.105882 0.074510
0.968627 0.117647 0.058824
0.996078 0.113725 0.058824
0.000000 0.129412 0.062745
0.000000 0.125490 0.050980
0.054902 0.129412 0.043137
0.145098 0.121569 0.035294
0.192157 0.121569 0.043137
0.223529 0.117647 0.043137
0.247059 0.117647 0.050980
0.298039 0.117647 0.058824
0.325490 0.117647 0.054902
0.372549 0.113725 0.058824
0.388235 0.117647 0.054902
0.443137 0.125490 0.058824
0.470588 0.121569 0.066667
0.521569 0.125490 0.062745
0.545098 0.125490 0.054902
0.592157 0.137255 0.054902
0.635294 0.129412 0.066667
0.666667 0.133333 0.050980
0.729412 0.129412 0.066667
0.776471 0.141176 0.062745
0.823529 0.141176 0.066667
0.858824 0.145098 0.058824
0.929412 0.141176 0.078431
0.964706 0.149020 0.062745
1.000000 0.160784 0.078431
0.000000 0.160784 0.050980
0.000000 0.168627 0.058824
0.007843 0.172549 0.023529
0.082353 0.160784 0.023529
0.168627 0.152941 0.007843
0.223529 0.164706 0.050980
0.254902 0.156863 0.047059
0.290196 0.156863 0.058824
0.337255 0.164706 0.066667
0.360784 0.160784 0.054902
0.415686 0.156863 0.070588
0.435294 0.160784 0.062745
0.462745 0.160784 0.058824
0.509804 0.168627 0.062745
0.556863 0.164706 0.070588
0.588235 0.168627 0.074510
0.635294 0.164706 0.070588
0.690196 0.176471 0.074510
0.729412 0.176471 0.070588
0.772549 0.176471 0.062745
0.811765 0.180392 0.066667
0.878431 0.188235 0.066667
0.925490 0.184314 0.066667
0.968627 0.188235 0.074510
0.996078 0.192157 0.078431
0.000000 0.203922 0.054902
0.003922 0.207843 0.050980
0.000000 0.207843 0.035294
0.000000 0.211765 0.007843
0.125490 0.200000 0.011765
0.203922 0.200000 0.027451
0.262745 0.188235 0.031373
0.301961 0.192157 0.039216
0.329412 0.196078 0.058824
0.372549 0.188235 0.070588
0.403922 0.196078 0.070588
0.447059 0.200000 0.078431
0.470588 0.200000 0.070588
0.517647 0.207843 0.086275
0.556863 0.203922 0.070588
0.600000 0.207843 0.078431
0.639216 0.207843 0.062745
0.682353 0.211765 0.078431
0.733333 0.215686 0.086275
0.780392 0.215686 0.078431
0.823529 0.223529 0.070588
0.870588 0.223529 0.078431
0.921569 0.223529 0.082353
0.972549 0.231373 0.074510
0.992157 0.235294 0.074510
0.000000 0.239216 0.070588
0.003922 0.254902 0.058824
0.000000 0.254902 0.035294
0.000000 0.250980 0.000000
0.007843 0.243137 0.000000
0.160784 0.243137 0.000000
0.243137 0.231373 0.015686
0.301961 0.223529 0.015686
0.337255 0.227451 0.039216
0.360784 0.235294 0.050980
0.403922 0.235294 0.070588
0.435294 0.239216 0.094118
0.490196 0.231373 0.094118
0.498039 0.243137 0.078431
0.560784 0.247059 0.101961
0.600000 0.250980 0.086275
0.650980 0.247059 0.090196
0.698039 0.254902 0.090196
0.737255 0.254902 0.094118
0.772549 0.270588 0.086275
0.831373 0.254902 0.082353
0.874510 0.278431 0.094118
0.925490 0.266667 0.082353
0.964706 0.274510 0.082353
1.000000 0.274510 0.082353
0.000000 0.290196 0.058824
0.000000 0.286275 0.047059
0.003922 0.282353 0.047059
0.000000 0.298039 0.003922
0.000000 0.290196 0.000000
0.062745 0.282353 0.000000
0.192157 0.278431 0.000000
0.274510 0.270588 0.007843
0.337255 0.266667 0.015686
0.364706 0.262745 0.023529
0.403922 0.258824 0.047059
0.447059 0.266667 0.074510
0.486275 0.274510 0.086275
0.521569 0.286275 0.098039
0.568627 0.278431 0.109804
0.607843 0.290196 0.105882
0.650980 0.290196 0.105882
0.694118 0.294118 0.101961
0.737255 0.290196 0.105882
0.780392 0.305882 0.098039
0.823529 0.305882 0.086275
0.882353 0.313725 0.098039
0.921569 0.317647 0.086275
0.968627 0.317647 0.098039
0.996078 0.321569 0.109804
0.003922 0.321569 0.058824
0.000000 0.333333 0.054902
0.000000 0.325490 0.050980
0.003922 0.329412 0.007843
0.000000 0.337255 0.007843
0.000000 0.329412 0.000000
0.109804 0.325490 0.000000
0.227451 0.313725 0.000000
0.309804 0.305882 0.000000
0.376471 0.301961 0.003922
0.400000 0.305882 0.023529
0.439216 0.301961 0.050980
0.482353 0.309804 0.062745
0.521569 0.317647 0.090196
0.576471 0.321569 0.101961
0.607843 0.321569 0.113725
0.647059 0.337255 0.117647
0.698039 0.337255 0.121569
0.737255 0.345098 0.109804
0.788235 0.341176 0.105882
0.835294 0.349020 0.113725
0.886275 0.349020 0.113725
0.929412 0.352941 0.109804
0.972549 0.356863 0.117647
0.992157 0.360784 0.105882
0.007843 0.368627 0.082353
0.000000 0.372549 0.054902
0.000000 0.368627 0.047059
0.000000 0.376471 0.015686
0.000000 0.380392 0.000000
0.000000 0.372549 0.000000
0.003922 0.368627 0.011765
0.156863 0.352941 0.003922
0.274510 0.352941 0.003922
0.329412 0.352941 0.000000
0.407843 0.337255 0.000000
0.454902 0.333333 0.011765
0.482353 0.345098 0.027451
0.517647 0.345098 0.066667
0.560784 0.352941 0.086275
0.603922 0.372549 0.105882
0.654902 0.376471 0.133333
0.698039 0.380392 0.133333
0.749020 0.384314 0.121569
0.784314 0.392157 0.125490
0.847059 0.388235 0.125490
0.890196 0.396078 0.129412
0.929412 0.403922 0.133333
0.972549 0.400000 0.129412
1.000000 0.403922 0.137255
0.000000 0.411765 0.078431
0.000000 0.415686 0.070588
0.003922 0.419608 0.058824
0.003922 0.419608 0.027451
0.000000 0.427451 0.007843
0.000000 0.427451 0.000000
0.000000 0.419608 0.000000
0.000000 0.411765 0.007843
0.188235 0.403922 0.000000
0.286275 0.396078 0.000000
