lut_library_archive/removed_20260629/50个风景lut/50个风景lut10.cube
# 版权归凌孟成所有，侵权必究
TITLE "Jungle LUT #10"
#LUT size
LUT_3D_SIZE 25
#LUT data points
0.000000 0.000000 0.007843
0.003922 0.000000 0.000000
0.062745 0.000000 0.003922
0.101961 0.000000 0.003922
0.152941 0.003922 0.003922
0.200000 0.000000 0.003922
0.247059 0.007843 0.000000
0.294118 0.000000 0.003922
0.329412 0.000000 0.000000
0.372549 0.000000 0.000000
0.415686 0.000000 0.007843
0.454902 0.000000 0.003922
0.501961 0.000000 0.003922
0.541176 0.003922 0.003922
0.588235 0.000000 0.003922
0.635294 0.000000 0.011765
0.674510 0.000000 0.015686
0.725490 0.000000 0.023529
0.772549 0.003922 0.027451
0.815686 0.000000 0.031373
0.866667 0.000000 0.039216
0.913725 0.000000 0.047059
0.956863 0.003922 0.058824
1.000000 0.000000 0.070588
0.996078 0.000000 0.070588
0.000000 0.015686 0.000000
0.023529 0.007843 0.000000
0.066667 0.011765 0.000000
0.117647 0.007843 0.000000
0.145098 0.007843 0.000000
0.203922 0.000000 0.007843
0.250980 0.000000 0.000000
0.282353 0.003922 0.000000
0.329412 0.000000 0.000000
0.368627 0.000000 0.000000
0.415686 0.003922 0.000000
0.454902 0.000000 0.003922
0.494118 0.000000 0.003922
0.541176 0.003922 0.003922
0.588235 0.000000 0.007843
0.631373 0.003922 0.019608
0.674510 0.000000 0.023529
0.725490 0.000000 0.023529
0.772549 0.000000 0.035294
0.819608 0.000000 0.043137
0.866667 0.000000 0.039216
0.913725 0.000000 0.047059
0.956863 0.003922 0.058824
0.996078 0.000000 0.070588
0.996078 0.000000 0.070588
0.007843 0.054902 0.007843
0.035294 0.050980 0.000000
0.062745 0.054902 0.003922
0.121569 0.050980 0.003922
0.160784 0.043137 0.003922
0.203922 0.035294 0.000000
0.247059 0.035294 0.000000
0.294118 0.031373 0.000000
0.337255 0.027451 0.000000
0.372549 0.023529 0.000000
0.415686 0.019608 0.003922
0.458824 0.015686 0.000000
0.501961 0.011765 0.003922
0.541176 0.003922 0.003922
0.584314 0.007843 0.011765
0.631373 0.003922 0.019608
0.674510 0.000000 0.015686
0.717647 0.003922 0.023529
0.772549 0.000000 0.035294
0.819608 0.000000 0.043137
0.866667 0.000000 0.047059
0.909804 0.000000 0.054902
0.952941 0.000000 0.047059
0.992157 0.000000 0.074510
0.996078 0.000000 0.074510
0.003922 0.090196 0.007843
0.039216 0.098039 0.000000
0.074510 0.090196 0.000000
0.133333 0.086275 0.000000
0.152941 0.090196 0.000000
0.207843 0.090196 0.000000
0.250980 0.086275 0.000000
0.298039 0.082353 0.000000
0.337255 0.074510 0.000000
0.376471 0.074510 0.003922
0.415686 0.074510 0.000000
0.462745 0.078431 0.003922
0.498039 0.070588 0.003922
0.537255 0.070588 0.007843
0.580392 0.074510 0.019608
0.631373 0.074510 0.027451
0.670588 0.066667 0.027451
0.721569 0.062745 0.031373
0.768627 0.062745 0.039216
0.815686 0.058824 0.047059
0.854902 0.050980 0.047059
0.901961 0.050980 0.054902
0.956863 0.047059 0.062745
0.988235 0.047059 0.066667
1.000000 0.043137 0.074510
0.023529 0.129412 0.000000
0.066667 0.133333 0.007843
0.086275 0.129412 0.000000
0.137255 0.125490 0.003922
0.168627 0.129412 0.000000
0.211765 0.133333 0.003922
0.247059 0.125490 0.003922
0.294118 0.125490 0.000000
0.337255 0.125490 0.015686
0.376471 0.125490 0.015686
0.419608 0.125490 0.011765
0.466667 0.125490 0.015686
0.498039 0.125490 0.015686
0.541176 0.129412 0.023529
0.584314 0.125490 0.019608
0.627451 0.129412 0.031373
0.674510 0.125490 0.035294
0.717647 0.129412 0.043137
0.764706 0.129412 0.047059
0.807843 0.125490 0.050980
0.858824 0.121569 0.054902
0.909804 0.121569 0.062745
0.945098 0.125490 0.066667
0.996078 0.117647 0.078431
0.996078 0.117647 0.078431
0.047059 0.176471 0.007843
0.070588 0.176471 0.007843
0.117647 0.176471 0.015686
0.145098 0.172549 0.007843
0.172549 0.176471 0.011765
0.219608 0.176471 0.007843
0.262745 0.180392 0.011765
0.301961 0.172549 0.011765
0.341176 0.172549 0.015686
0.380392 0.168627 0.019608
0.423529 0.172549 0.023529
0.466667 0.180392 0.023529
0.505882 0.176471 0.027451
0.545098 0.176471 0.035294
0.588235 0.180392 0.035294
0.635294 0.180392 0.043137
0.682353 0.180392 0.043137
0.729412 0.180392 0.050980
0.776471 0.180392 0.054902
0.815686 0.180392 0.058824
0.866667 0.180392 0.058824
0.913725 0.184314 0.066667
0.952941 0.180392 0.074510
1.000000 0.180392 0.082353
1.000000 0.180392 0.082353
0.066667 0.207843 0.027451
0.086275 0.219608 0.023529
0.113725 0.215686 0.027451
0.152941 0.215686 0.023529
0.200000 0.215686 0.019608
0.223529 0.215686 0.027451
0.254902 0.211765 0.031373
0.301961 0.215686 0.023529
0.345098 0.211765 0.031373
0.384314 0.211765 0.027451
0.423529 0.219608 0.035294
0.462745 0.219608 0.035294
0.501961 0.219608 0.039216
0.549020 0.227451 0.043137
0.592157 0.231373 0.054902
0.635294 0.227451 0.050980
0.686275 0.227451 0.058824
0.729412 0.223529 0.058824
0.776471 0.235294 0.062745
0.819608 0.231373 0.066667
0.870588 0.231373 0.078431
0.909804 0.231373 0.074510
0.956863 0.231373 0.082353
0.996078 0.231373 0.090196
1.000000 0.235294 0.094118
0.070588 0.254902 0.039216
0.090196 0.262745 0.031373
0.129412 0.258824 0.043137
0.160784 0.258824 0.035294
0.188235 0.254902 0.039216
0.231373 0.258824 0.047059
0.266667 0.254902 0.039216
0.309804 0.258824 0.043137
0.349020 0.262745 0.039216
0.388235 0.258824 0.043137
0.423529 0.262745 0.050980
0.466667 0.266667 0.050980
0.509804 0.270588 0.058824
0.549020 0.270588 0.066667
0.592157 0.274510 0.066667
0.635294 0.270588 0.070588
0.686275 0.270588 0.074510
0.729412 0.274510 0.074510
0.776471 0.278431 0.078431
0.819608 0.274510 0.074510
0.870588 0.274510 0.082353
0.913725 0.278431 0.086275
0.956863 0.278431 0.090196
1.000000 0.274510 0.113725
0.992157 0.274510 0.109804
0.082353 0.301961 0.054902
0.105882 0.298039 0.043137
0.137255 0.301961 0.054902
0.160784 0.301961 0.058824
0.215686 0.301961 0.050980
0.243137 0.305882 0.058824
0.274510 0.309804 0.062745
0.305882 0.305882 0.054902
0.345098 0.305882 0.058824
0.384314 0.305882 0.066667
0.423529 0.305882 0.062745
0.466667 0.309804 0.070588
0.505882 0.309804 0.078431
0.552941 0.317647 0.074510
0.592157 0.317647 0.082353
0.639216 0.317647 0.082353
0.678431 0.321569 0.078431
0.729412 0.321569 0.082353
0.772549 0.325490 0.082353
0.819608 0.325490 0.094118
0.858824 0.321569 0.086275
0.909804 0.321569 0.094118
0.956863 0.329412 0.101961
0.996078 0.329412 0.105882
0.996078 0.325490 0.113725
0.086275 0.352941 0.066667
0.105882 0.349020 0.062745
0.129412 0.349020 0.062745
0.168627 0.356863 0.066667
0.200000 0.349020 0.062745
0.235294 0.352941 0.062745
0.270588 0.349020 0.062745
0.313725 0.352941 0.066667
0.352941 0.352941 0.070588
0.388235 0.356863 0.074510
0.423529 0.356863 0.074510
0.454902 0.360784 0.078431
0.509804 0.360784 0.082353
0.549020 0.356863 0.086275
0.592157 0.356863 0.082353
0.635294 0.360784 0.086275
0.686275 0.360784 0.094118
0.729412 0.364706 0.094118
0.772549 0.364706 0.094118
0.827451 0.368627 0.105882
0.874510 0.368627 0.105882
0.913725 0.368627 0.105882
0.956863 0.372549 0.113725
0.996078 0.372549 0.117647
1.000000 0.368627 0.117647
0.082353 0.407843 0.086275
0.105882 0.407843 0.086275
0.137255 0.407843 0.090196
0.168627 0.407843 0.094118
0.196078 0.403922 0.090196
0.235294 0.403922 0.086275
0.278431 0.400000 0.086275
0.313725 0.411765 0.094118
0.352941 0.411765 0.094118
0.392157 0.403922 0.094118
0.431373 0.403922 0.090196
0.470588 0.403922 0.090196
0.513725 0.407843 0.098039
0.552941 0.407843 0.094118
0.600000 0.407843 0.105882
0.643137 0.411765 0.105882
0.694118 0.415686 0.109804
0.737255 0.415686 0.117647
0.784314 0.419608 0.117647
0.823529 0.419608 0.117647
0.874510 0.419608 0.125490
0.909804 0.419608 0.121569
0.952941 0.423529 0.133333
1.000000 0.419608 0.137255
1.000000 0.419608 0.145098
0.078431 0.447059 0.098039
0.098039 0.450980 0.098039
0.117647 0.447059 0.101961
0.156863 0.454902 0.101961
0.200000 0.450980 0.101961
0.235294 0.447059 0.101961
0.274510 0.454902 0.109804
0.309804 0.450980 0.098039
0.352941 0.454902 0.105882
0.396078 0.450980 0.105882
0.435294 0.450980 0.109804
0.478431 0.454902 0.109804
0.509804 0.454902 0.109804
0.556863 0.454902 0.113725
0.596078 0.454902 0.117647
0.643137 0.458824 0.113725
0.686275 0.462745 0.121569
0.737255 0.462745 0.121569
0.784314 0.462745 0.125490
0.831373 0.462745 0.121569
0.874510 0.466667 0.133333
0.913725 0.466667 0.129412
0.960784 0.466667 0.137255
1.000000 0.462745 0.145098
0.984314 0.470588 0.149020
0.062745 0.494118 0.105882
0.086275 0.494118 0.105882
0.125490 0.494118 0.109804
0.149020 0.501961 0.109804
0.188235 0.501961 0.105882
0.227451 0.505882 0.105882
0.258824 0.501961 0.113725
0.305882 0.501961 0.121569
0.352941 0.498039 0.121569
0.388235 0.494118 0.113725
0.431373 0.501961 0.113725
0.470588 0.498039 0.121569
0.517647 0.501961 0.121569
0.556863 0.501961 0.125490
0.596078 0.501961 0.117647
0.639216 0.505882 0.117647
0.686275 0.509804 0.121569
0.733333 0.505882 0.125490
0.780392 0.505882 0.129412
0.823529 0.509804 0.137255
0.874510 0.509804 0.137255
0.913725 0.509804 0.145098
0.956863 0.505882 0.141176
0.988235 0.509804 0.145098
1.000000 0.513725 0.141176
0.031373 0.537255 0.105882
0.058824 0.549020 0.133333
0.105882 0.541176 0.121569
0.137255 0.541176 0.121569
0.172549 0.549020 0.125490
0.223529 0.545098 0.121569
0.266667 0.545098 0.129412
0.305882 0.545098 0.129412
0.345098 0.549020 0.125490
0.392157 0.545098 0.129412
0.431373 0.545098 0.129412
0.470588 0.545098 0.125490
0.505882 0.549020 0.137255
0.556863 0.545098 0.125490
0.600000 0.545098 0.129412
0.650980 0.545098 0.133333
0.694118 0.549020 0.133333
0.733333 0.549020 0.141176
0.780392 0.549020 0.141176
0.819608 0.549020 0.141176
0.866667 0.549020 0.145098
0.913725 0.556863 0.141176
0.952941 0.556863 0.149020
0.996078 0.545098 0.149020
1.000000 0.564706 0.160784
0.000000 0.580392 0.141176
0.027451 0.592157 0.137255
0.078431 0.592157 0.125490
0.125490 0.592157 0.137255
0.160784 0.592157 0.141176
0.207843 0.596078 0.141176
0.250980 0.592157 0.133333
0.294118 0.596078 0.133333
0.337255 0.592157 0.137255
0.384314 0.592157 0.137255
0.435294 0.592157 0.141176
0.466667 0.596078 0.145098
0.513725 0.592157 0.141176
0.556863 0.592157 0.141176
0.596078 0.592157 0.137255
0.643137 0.592157 0.141176
0.690196 0.588235 0.145098
0.733333 0.596078 0.141176
0.776471 0.592157 0.137255
0.823529 0.600000 0.149020
0.862745 0.600000 0.149020
0.909804 0.596078 0.152941
0.952941 0.600000 0.152941
0.996078 0.596078 0.164706
1.000000 0.592157 0.164706
0.000000 0.654902 0.141176
0.000000 0.658824 0.137255
0.031373 0.650980 0.137255
0.098039 0.654902 0.145098
0.152941 0.647059 0.145098
0.200000 0.650980 0.145098
0.247059 0.647059 0.145098
0.294118 0.647059 0.152941
0.341176 0.650980 0.149020
0.388235 0.647059 0.152941
0.435294 0.650980 0.152941
0.470588 0.647059 0.149020
0.521569 0.647059 0.149020
0.564706 0.647059 0.149020
0.611765 0.647059 0.149020
0.650980 0.647059 0.152941
0.701961 0.647059 0.156863
0.741176 0.647059 0.160784
0.784314 0.643137 0.156863
0.831373 0.643137 0.156863
0.870588 0.643137 0.152941
0.913725 0.639216 0.152941
0.956863 0.643137 0.160784
0.996078 0.643137 0.164706
1.000000 0.639216 0.172549
0.000000 0.701961 0.141176
0.000000 0.690196 0.152941
0.000000 0.690196 0.145098
0.058824 0.694118 0.152941
0.129412 0.690196 0.156863
0.184314 0.698039 0.156863
0.239216 0.698039 0.145098
0.294118 0.701961 0.164706
0.337255 0.698039 0.160784
0.380392 0.698039 0.156863
0.427451 0.694118 0.156863
0.470588 0.690196 0.152941
0.517647 0.690196 0.152941
0.564706 0.690196 0.152941
0.611765 0.694118 0.156863
0.650980 0.694118 0.152941
0.698039 0.690196 0.156863
0.745098 0.690196 0.160784
0.784314 0.690196 0.156863
0.831373 0.686275 0.164706
0.870588 0.690196 0.160784
0.913725 0.686275 0.156863
0.956863 0.690196 0.168627
0.996078 0.686275 0.180392
1.000000 0.682353 0.192157
0.003922 0.741176 0.164706
0.000000 0.737255 0.160784
0.000000 0.733333 0.164706
0.015686 0.745098 0.152941
0.105882 0.737255 0.160784
0.172549 0.741176 0.172549
0.231373 0.741176 0.160784
0.278431 0.741176 0.160784
0.333333 0.741176 0.164706
0.376471 0.737255 0.160784
0.423529 0.737255 0.160784
0.470588 0.737255 0.160784
0.521569 0.737255 0.164706
0.560784 0.741176 0.160784
0.603922 0.737255 0.156863
0.647059 0.733333 0.164706
0.690196 0.737255 0.164706
0.737255 0.737255 0.164706
0.780392 0.733333 0.160784
0.823529 0.737255 0.160784
0.874510 0.741176 0.164706
0.909804 0.733333 0.164706
0.949020 0.733333 0.176471
0.988235 0.733333 0.180392
1.000000 0.721569 0.180392
0.011765 0.784314 0.156863
0.000000 0.784314 0.164706
0.007843 0.780392 0.156863
0.000000 0.784314 0.156863
0.086275 0.780392 0.160784
0.152941 0.788235 0.156863
0.211765 0.788235 0.168627
0.270588 0.784314 0.172549
0.321569 0.780392 0.160784
0.376471 0.784314 0.168627
0.415686 0.784314 0.164706
0.462745 0.784314 0.156863
0.505882 0.780392 0.160784
0.556863 0.780392 0.168627
0.600000 0.776471 0.168627
0.647059 0.780392 0.168627
0.686275 0.780392 0.168627
0.737255 0.780392 0.168627
0.780392 0.780392 0.168627
0.819608 0.780392 0.164706
0.866667 0.776471 0.168627
0.909804 0.772549 0.176471
0.945098 0.776471 0.172549
1.000000 0.764706 0.184314
1.000000 0.768627 0.180392
0.007843 0.827451 0.164706
0.003922 0.823529 0.152941
0.000000 0.823529 0.168627
0.000000 0.827451 0.172549
0.054902 0.827451 0.168627
0.145098 0.827451 0.180392
0.219608 0.823529 0.172549
0.274510 0.827451 0.176471
0.321569 0.827451 0.168627
0.364706 0.823529 0.168627
0.415686 0.827451 0.172549
0.450980 0.823529 0.172549
0.513725 0.819608 0.176471
0.552941 0.819608 0.172549
0.596078 0.819608 0.172549
0.639216 0.823529 0.172549
0.682353 0.819608 0.168627
0.721569 0.819608 0.168627
0.772549 0.823529 0.168627
0.815686 0.827451 0.180392
0.858824 0.823529 0.184314
0.905882 0.819608 0.180392
0.945098 0.819608 0.184314
0.992157 0.811765 0.192157
0.996078 0.815686 0.196078
0.011765 0.870588 0.188235
0.003922 0.874510 0.188235
0.000000 0.870588 0.184314
0.000000 0.882353 0.188235
0.039216 0.870588 0.184314
0.141176 0.878431 0.192157
0.203922 0.882353 0.184314
0.250980 0.874510 0.168627
0.317647 0.866667 0.180392
0.364706 0.866667 0.180392
0.411765 0.870588 0.180392
0.450980 0.870588 0.180392
0.505882 0.870588 0.180392
0.549020 0.870588 0.192157
0.600000 0.866667 0.180392
0.639216 0.866667 0.184314
0.686275 0.870588 0.188235
0.725490 0.870588 0.184314
0.772549 0.866667 0.192157
0.815686 0.862745 0.188235
0.866667 0.866667 0.188235
0.905882 0.862745 0.196078
0.949020 0.862745 0.192157
0.988235 0.862745 0.196078
0.996078 0.862745 0.200000
0.000000 0.909804 0.168627
0.003922 0.909804 0.188235
0.015686 0.905882 0.188235
0.000000 0.905882 0.184314
0.015686 0.917647 0.188235
0.133333 0.901961 0.196078
0.200000 0.909804 0.192157
0.258824 0.913725 0.184314
0.301961 0.909804 0.188235
0.360784 0.913725 0.192157
0.407843 0.917647 0.196078
0.450980 0.913725 0.192157
0.498039 0.909804 0.192157
0.541176 0.909804 0.180392
0.588235 0.905882 0.188235
0.631373 0.909804 0.188235
0.678431 0.913725 0.192157
0.721569 0.909804 0.188235
0.768627 0.905882 0.192157
0.811765 0.905882 0.192157
0.854902 0.909804 0.200000
0.901961 0.905882 0.196078
0.949020 0.905882 0.207843
0.988235 0.898039 0.200000
0.992157 0.901961 0.219608
0.000000 0.949020 0.180392
0.000000 0.952941 0.184314
0.003922 0.952941 0.200000
0.003922 0.949020 0.192157
0.007843 0.952941 0.188235
0.121569 0.945098 0.203922
0.196078 0.949020 0.200000
0.243137 0.952941 0.203922
0.294118 0.949020 0.192157
0.349020 0.945098 0.196078
0.396078 0.949020 0.196078
0.443137 0.952941 0.192157
0.494118 0.945098 0.188235
0.537255 0.949020 0.200000
0.584314 0.949020 0.196078
0.627451 0.945098 0.196078
0.674510 0.945098 0.196078
0.713725 0.945098 0.200000
0.764706 0.941176 0.200000
0.807843 0.945098 0.200000
0.858824 0.945098 0.207843
0.894118 0.941176 0.203922
0.933333 0.933333 0.203922
0.976471 0.945098 0.203922
1.000000 0.949020 0.227451
0.003922 0.984314 0.188235
0.007843 0.984314 0.207843
0.000000 0.984314 0.203922
0.003922 0.992157 0.203922
0.000000 0.988235 0.207843
0.113725 0.988235 0.192157
0.172549 0.988235 0.203922
0.243137 0.988235 0.200000
0.294118 0.984314 0.203922
0.352941 0.988235 0.207843
0.400000 0.988235 0.211765
0.447059 0.988235 0.207843
0.494118 0.988235 0.215686
0.541176 0.988235 0.207843
0.580392 0.980392 0.203922
0.627451 0.980392 0.211765
0.666667 0.980392 0.207843
0.713725 0.980392 0.207843
0.756863 0.984314 0.207843
0.800000 0.980392 0.211765
0.839216 0.980392 0.219608
0.878431 0.980392 0.215686
0.925490 0.976471 0.215686
0.972549 0.972549 0.203922
1.000000 0.968627 0.227451
0.000000 1.000000 0.215686
0.003922 0.996078 0.223529
0.003922 1.000000 0.215686
0.007843 0.996078 0.215686
0.011765 1.000000 0.203922
0.101961 1.000000 0.211765
0.184314 1.000000 0.215686
0.243137 1.000000 0.219608
0.294118 0.996078 0.219608
0.345098 0.996078 0.219608
0.400000 0.996078 0.223529
0.439216 0.996078 0.219608
0.486275 1.000000 0.215686
0.529412 1.000000 0.223529
0.576471 1.000000 0.219608
0.619608 1.000000 0.223529
0.662745 1.000000 0.227451
0.701961 1.000000 0.223529
0.752941 1.000000 0.227451
0.792157 1.000000 0.231373
0.831373 1.000000 0.223529
0.882353 1.000000 0.231373
0.921569 1.000000 0.231373
0.972549 0.996078 0.235294
0.992157 1.000000 0.247059
0.003922 0.000000 0.031373
0.011765 0.003922 0.023529
0.070588 0.000000 0.027451
0.117647 0.000000 0.031373
0.160784 0.000000 0.031373
0.203922 0.000000 0.035294
0.239216 0.000000 0.031373
0.294118 0.000000 0.043137
0.329412 0.003922 0.043137
0.368627 0.003922 0.039216
0.415686 0.000000 0.047059
0.454902 0.000000 0.043137
0.501961 0.000000 0.050980
0.541176 0.003922 0.050980
0.584314 0.000000 0.054902
0.627451 0.003922 0.058824
0.678431 0.000000 0.074510
0.717647 0.003922 0.070588
0.764706 0.003922 0.078431
0.811765 0.000000 0.078431
0.858824 0.003922 0.078431
0.905882 0.003922 0.086275
0.956863 0.003922 0.098039
0.996078 0.000000 0.101961
1.000000 0.000000 0.109804
0.000000 0.019608 0.031373
0.019608 0.011765 0.031373
0.078431 0.011765 0.043137
0.117647 0.011765 0.039216
0.156863 0.003922 0.031373
0.200000 0.007843 0.031373
0.247059 0.000000 0.035294
0.290196 0.003922 0.047059
0.329412 0.003922 0.043137
0.376471 0.000000 0.047059
0.415686 0.000000 0.047059
0.462745 0.000000 0.054902
0.501961 0.000000 0.050980
0.541176 0.003922 0.050980
0.588235 0.003922 0.058824
0.627451 0.000000 0.062745
0.678431 0.000000 0.074510
0.725490 0.003922 0.082353
0.772549 0.000000 0.078431
0.819608 0.000000 0.082353
0.866667 0.000000 0.090196
0.913725 0.000000 0.086275
0.956863 0.003922 0.098039
1.000000 0.000000 0.101961
0.996078 0.000000 0.101961
0.007843 0.047059 0.043137
0.027451 0.050980 0.035294
0.070588 0.054902 0.043137
0.121569 0.050980 0.043137
0.152941 0.043137 0.039216
0.207843 0.043137 0.047059
0.250980 0.039216 0.047059
0.294118 0.035294 0.050980
0.337255 0.027451 0.043137
0.376471 0.019608 0.047059
0.415686 0.011765 0.054902
0.458824 0.003922 0.054902
0.498039 0.003922 0.058824
0.545098 0.003922 0.066667
0.580392 0.000000 0.054902
0.627451 0.000000 0.062745
0.678431 0.003922 0.066667
0.721569 0.007843 0.074510
0.772549 0.000000 0.078431
0.815686 0.003922 0.086275
0.862745 0.003922 0.090196
0.905882 0.000000 0.094118
0.960784 0.000000 0.101961
0.996078 0.000000 0.101961
1.000000 0.000000 0.101961
0.000000 0.090196 0.050980
0.035294 0.090196 0.039216
0.082353 0.086275 0.054902
0.121569 0.090196 0.047059
0.164706 0.086275 0.043137
0.211765 0.082353 0.047059
0.254902 0.086275 0.054902
0.290196 0.082353 0.050980
0.333333 0.078431 0.054902
0.380392 0.074510 0.058824
0.415686 0.074510 0.054902
0.458824 0.070588 0.050980
0.498039 0.070588 0.058824
0.537255 0.074510 0.066667
0.580392 0.070588 0.070588
0.623529 0.066667 0.074510
0.674510 0.062745 0.074510
0.725490 0.058824 0.078431
0.768627 0.054902 0.082353
0.819608 0.047059 0.086275
0.858824 0.047059 0.094118
0.909804 0.031373 0.094118
0.960784 0.035294 0.094118
0.992157 0.035294 0.098039
0.992157 0.035294 0.105882
0.023529 0.129412 0.062745
0.054902 0.129412 0.054902
0.086275 0.133333 0.054902
0.137255 0.129412 0.043137
0.164706 0.133333 0.054902
0.215686 0.133333 0.066667
0.258824 0.129412 0.054902
0.290196 0.129412 0.050980
0.333333 0.125490 0.054902
0.384314 0.125490 0.062745
0.419608 0.121569 0.058824
0.462745 0.125490 0.066667
0.505882 0.121569 0.070588
0.545098 0.121569 0.074510
0.588235 0.121569 0.074510
0.631373 0.121569 0.082353
0.678431 0.121569 0.082353
0.721569 0.125490 0.090196
0.764706 0.121569 0.086275
0.811765 0.121569 0.090196
0.862745 0.113725 0.101961
0.913725 0.117647 0.101961
0.945098 0.117647 0.105882
0.992157 0.113725 0.113725
1.000000 0.117647 0.109804
0.031373 0.172549 0.062745
0.058824 0.180392 0.058824
0.113725 0.176471 0.062745
0.137255 0.172549 0.058824
0.180392 0.176471 0.058824
0.219608 0.176471 0.066667
0.254902 0.176471 0.070588
0.305882 0.172549 0.074510
0.345098 0.172549 0.074510
0.384314 0.172549 0.078431
0.423529 0.172549 0.074510
0.462745 0.172549 0.074510
0.509804 0.172549 0.082353
0.552941 0.176471 0.090196
0.592157 0.176471 0.090196
0.639216 0.176471 0.098039
0.686275 0.176471 0.086275
0.725490 0.176471 0.094118
0.772549 0.176471 0.094118
0.819608 0.176471 0.098039
0.870588 0.176471 0.105882
0.913725 0.176471 0.101961
0.956863 0.180392 0.113725
1.000000 0.176471 0.117647
1.000000 0.180392 0.133333
0.054902 0.211765 0.070588
0.086275 0.207843 0.074510
0.113725 0.215686 0.070588
0.145098 0.215686 0.066667
0.188235 0.211765 0.062745
0.219608 0.219608 0.070588
0.266667 0.215686 0.082353
0.305882 0.211765 0.070588
0.345098 0.211765 0.074510
0.388235 0.215686 0.078431
0.427451 0.215686 0.082353
0.470588 0.215686 0.090196
0.505882 0.219608 0.090196
0.549020 0.215686 0.094118
0.592157 0.219608 0.094118
0.639216 0.223529 0.090196
0.682353 0.227451 0.098039
0.733333 0.227451 0.101961
0.776471 0.227451 0.098039
0.823529 0.227451 0.105882
0.862745 0.227451 0.105882
0.913725 0.227451 0.113725
0.956863 0.231373 0.121569
1.000000 0.227451 0.125490
0.988235 0.231373 0.133333
0.058824 0.258824 0.082353
0.101961 0.254902 0.078431
0.117647 0.258824 0.078431
0.152941 0.258824 0.082353
0.196078 0.254902 0.086275
0.223529 0.258824 0.082353
0.266667 0.262745 0.082353
0.309804 0.258824 0.086275
0.349020 0.258824 0.086275
0.384314 0.262745 0.082353
0.423529 0.262745 0.090196
0.462745 0.262745 0.086275
0.505882 0.266667 0.086275
0.549020 0.270588 0.098039
0.592157 0.266667 0.109804
0.635294 0.270588 0.109804
0.682353 0.270588 0.113725
0.725490 0.274510 0.113725
0.776471 0.278431 0.117647
0.819608 0.274510 0.113725
0.866667 0.274510 0.121569
0.905882 0.274510 0.121569
0.945098 0.274510 0.125490
1.000000 0.274510 0.125490
0.992157 0.282353 0.129412
0.074510 0.298039 0.090196
0.105882 0.301961 0.094118
0.117647 0.301961 0.086275
0.160784 0.305882 0.094118
0.196078 0.301961 0.094118
0.235294 0.301961 0.090196
0.270588 0.305882 0.098039
0.309804 0.305882 0.094118
0.345098 0.305882 0.098039
0.388235 0.305882 0.098039
0.427451 0.301961 0.101961
0.470588 0.309804 0.101961
0.513725 0.309804 0.113725
0.552941 0.309804 0.109804
0.592157 0.309804 0.113725
0.639216 0.313725 0.117647
0.678431 0.313725 0.113725
0.729412 0.313725 0.117647
0.772549 0.317647 0.117647
0.819608 0.321569 0.121569
0.858824 0.321569 0.125490
0.905882 0.321569 0.121569
0.945098 0.321569 0.125490
0.988235 0.325490 0.133333
1.000000 0.325490 0.145098
0.074510 0.345098 0.090196
0.109804 0.352941 0.105882
0.129412 0.349020 0.101961
0.156863 0.345098 0.101961
0.196078 0.352941 0.105882
0.235294 0.352941 0.109804
0.274510 0.352941 0.105882
0.309804 0.349020 0.101961
0.349020 0.349020 0.105882
0.392157 0.352941 0.113725
0.427451 0.349020 0.109804
0.466667 0.356863 0.109804
0.498039 0.360784 0.109804
0.549020 0.360784 0.117647
0.588235 0.360784 0.113725
0.631373 0.364706 0.117647
0.678431 0.364706 0.125490
0.721569 0.364706 0.121569
0.772549 0.364706 0.125490
0.815686 0.368627 0.125490
0.866667 0.364706 0.137255
0.917647 0.368627 0.137255
0.952941 0.372549 0.145098
1.000000 0.368627 0.149020
1.000000 0.368627 0.149020
0.074510 0.403922 0.109804
0.098039 0.403922 0.109804
0.129412 0.403922 0.117647
0.160784 0.403922 0.117647
0.200000 0.407843 0.125490
0.235294 0.403922 0.121569
0.274510 0.407843 0.109804
0.309804 0.411765 0.117647
0.352941 0.403922 0.121569
0.392157 0.403922 0.125490
