lut_library_archive/removed_20260629/50个风景lut/50个风景lut02.cube
# 版权归凌孟成所有，侵权必究
TITLE "Jungle LUT #2"
#LUT size
LUT_3D_SIZE 5
#LUT data points
0.000000 0.000000 0.007843
0.250980 0.019608 0.003922
0.525490 0.035294 0.019608
0.780392 0.094118 0.082353
0.996078 0.188235 0.164706
0.000000 0.274510 0.023529
0.262745 0.282353 0.023529
0.529412 0.282353 0.070588
0.776471 0.298039 0.113725
1.000000 0.333333 0.196078
0.066667 0.549020 0.133333
0.282353 0.549020 0.121569
0.541176 0.549020 0.152941
0.784314 0.552941 0.196078
1.000000 0.556863 0.270588
0.235294 0.792157 0.258824
0.349020 0.784314 0.262745
0.552941 0.784314 0.274510
0.780392 0.780392 0.301961
1.000000 0.788235 0.372549
0.443137 1.000000 0.478431
0.505882 0.996078 0.478431
0.627451 1.000000 0.490196
0.807843 1.000000 0.537255
1.000000 0.996078 0.592157
0.000000 0.000000 0.250980
0.254902 0.011765 0.274510
0.521569 0.062745 0.278431
0.772549 0.137255 0.301961
1.000000 0.207843 0.333333
0.003922 0.270588 0.274510
0.266667 0.270588 0.278431
0.525490 0.290196 0.290196
0.772549 0.309804 0.309804
0.996078 0.341176 0.341176
0.066667 0.541176 0.301961
0.282353 0.549020 0.309804
0.545098 0.549020 0.321569
0.776471 0.552941 0.345098
1.000000 0.564706 0.384314
0.243137 0.788235 0.368627
0.360784 0.780392 0.372549
0.556863 0.784314 0.384314
0.780392 0.788235 0.400000
1.000000 0.780392 0.447059
0.458824 0.988235 0.517647
0.509804 0.992157 0.533333
0.631373 0.992157 0.549020
0.811765 0.996078 0.580392
0.996078 1.000000 0.631373
0.003922 0.003922 0.529412
0.231373 0.015686 0.525490
0.513725 0.050980 0.533333
0.776471 0.133333 0.545098
1.000000 0.223529 0.549020
0.000000 0.270588 0.533333
0.243137 0.278431 0.549020
0.525490 0.278431 0.552941
0.764706 0.313725 0.552941
1.000000 0.349020 0.564706
0.050980 0.545098 0.541176
0.290196 0.545098 0.552941
0.529412 0.549020 0.560784
0.768627 0.556863 0.564706
1.000000 0.572549 0.592157
0.247059 0.780392 0.576471
0.360784 0.784314 0.580392
0.556863 0.784314 0.584314
0.780392 0.788235 0.592157
0.984314 0.796078 0.615686
0.454902 1.000000 0.654902
0.509804 0.996078 0.650980
0.631373 1.000000 0.662745
0.815686 1.000000 0.686275
0.996078 1.000000 0.725490
0.015686 0.015686 0.784314
0.231373 0.031373 0.780392
0.505882 0.058824 0.776471
0.768627 0.129412 0.792157
0.992157 0.231373 0.784314
0.000000 0.266667 0.788235
0.250980 0.270588 0.780392
0.517647 0.278431 0.784314
0.764706 0.301961 0.784314
0.996078 0.356863 0.776471
0.078431 0.529412 0.784314
0.278431 0.529412 0.780392
0.521569 0.537255 0.792157
0.768627 0.549020 0.796078
0.996078 0.576471 0.788235
0.258824 0.780392 0.796078
0.356863 0.776471 0.800000
0.556863 0.780392 0.800000
0.772549 0.788235 0.800000
0.996078 0.803922 0.819608
0.470588 1.000000 0.803922
0.517647 0.992157 0.815686
0.635294 1.000000 0.823529
0.811765 1.000000 0.835294
1.000000 1.000000 0.850980
0.078431 0.066667 0.996078
0.274510 0.086275 1.000000
0.521569 0.129412 1.000000
0.760784 0.192157 1.000000
0.988235 0.274510 1.000000
0.105882 0.278431 1.000000
0.286275 0.278431 1.000000
0.525490 0.301961 0.996078
0.760784 0.333333 0.996078
1.000000 0.380392 1.000000
0.152941 0.529412 1.000000
0.294118 0.525490 0.996078
0.525490 0.533333 1.000000
0.760784 0.552941 1.000000
0.996078 0.572549 1.000000
0.341176 0.780392 1.000000
0.403922 0.776471 1.000000
0.568627 0.772549 1.000000
0.776471 0.780392 1.000000
0.984314 0.788235 0.996078
0.505882 0.996078 1.000000
0.549020 0.996078 0.996078
0.650980 1.000000 1.000000
0.819608 1.000000 0.992157
1.000000 0.996078 1.000000
