lut_library_archive/removed_20260629/50个风景lut/50个风景lut18.cube
# 版权归凌孟成所有，侵权必究
TITLE "Jungle LUT #18"
#LUT size
LUT_3D_SIZE 25
#LUT data points
0.050980 0.035294 0.023529
0.070588 0.031373 0.027451
0.105882 0.027451 0.031373
0.145098 0.019608 0.031373
0.192157 0.015686 0.027451
0.231373 0.019608 0.027451
0.270588 0.011765 0.027451
0.301961 0.007843 0.019608
0.345098 0.011765 0.031373
0.368627 0.007843 0.027451
0.407843 0.015686 0.027451
0.443137 0.015686 0.027451
0.482353 0.015686 0.031373
0.517647 0.023529 0.039216
0.556863 0.031373 0.043137
0.584314 0.035294 0.039216
0.631373 0.039216 0.043137
0.670588 0.047059 0.035294
0.713725 0.050980 0.047059
0.756863 0.054902 0.047059
0.800000 0.058824 0.047059
0.847059 0.066667 0.054902
0.894118 0.066667 0.054902
0.937255 0.082353 0.054902
0.992157 0.078431 0.070588
0.050980 0.054902 0.031373
0.074510 0.058824 0.023529
0.113725 0.062745 0.039216
0.141176 0.062745 0.027451
0.196078 0.047059 0.035294
0.223529 0.054902 0.019608
0.258824 0.050980 0.031373
0.309804 0.047059 0.023529
0.341176 0.047059 0.023529
0.376471 0.050980 0.027451
0.407843 0.050980 0.031373
0.447059 0.050980 0.035294
0.478431 0.050980 0.039216
0.517647 0.058824 0.031373
0.552941 0.066667 0.035294
0.596078 0.062745 0.047059
0.635294 0.066667 0.047059
0.674510 0.074510 0.050980
0.709804 0.082353 0.050980
0.756863 0.078431 0.047059
0.807843 0.086275 0.054902
0.847059 0.094118 0.050980
0.882353 0.101961 0.058824
0.941176 0.101961 0.070588
0.996078 0.101961 0.066667
0.078431 0.090196 0.015686
0.109804 0.090196 0.015686
0.125490 0.094118 0.015686
0.152941 0.086275 0.019608
0.184314 0.094118 0.035294
0.227451 0.086275 0.031373
0.266667 0.086275 0.027451
0.298039 0.090196 0.035294
0.337255 0.090196 0.031373
0.372549 0.090196 0.035294
0.411765 0.082353 0.039216
0.443137 0.082353 0.039216
0.478431 0.090196 0.039216
0.513725 0.090196 0.039216
0.552941 0.098039 0.047059
0.592157 0.098039 0.043137
0.631373 0.101961 0.047059
0.666667 0.098039 0.039216
0.713725 0.105882 0.050980
0.756863 0.109804 0.054902
0.796078 0.109804 0.050980
0.843137 0.121569 0.058824
0.898039 0.125490 0.062745
0.929412 0.133333 0.074510
0.992157 0.137255 0.070588
0.105882 0.125490 0.000000
0.121569 0.121569 0.019608
0.141176 0.117647 0.015686
0.168627 0.129412 0.000000
0.188235 0.121569 0.011765
0.231373 0.121569 0.035294
0.262745 0.125490 0.039216
0.301961 0.125490 0.035294
0.337255 0.125490 0.031373
0.380392 0.125490 0.039216
0.419608 0.125490 0.043137
0.447059 0.125490 0.043137
0.474510 0.129412 0.050980
0.521569 0.125490 0.047059
0.549020 0.133333 0.050980
0.588235 0.133333 0.043137
0.631373 0.137255 0.043137
0.670588 0.137255 0.050980
0.713725 0.141176 0.058824
0.756863 0.145098 0.058824
0.803922 0.145098 0.062745
0.843137 0.145098 0.066667
0.890196 0.160784 0.078431
0.937255 0.164706 0.058824
0.988235 0.164706 0.078431
0.133333 0.149020 0.003922
0.149020 0.145098 0.023529
0.168627 0.145098 0.011765
0.184314 0.152941 0.011765
0.203922 0.156863 0.007843
0.235294 0.164706 0.015686
0.262745 0.160784 0.023529
0.294118 0.156863 0.039216
0.337255 0.156863 0.054902
0.372549 0.160784 0.050980
0.400000 0.160784 0.047059
0.435294 0.160784 0.058824
0.478431 0.168627 0.047059
0.513725 0.160784 0.058824
0.549020 0.168627 0.070588
0.592157 0.172549 0.062745
0.639216 0.172549 0.062745
0.670588 0.172549 0.058824
0.713725 0.176471 0.066667
0.756863 0.180392 0.070588
0.807843 0.184314 0.066667
0.850980 0.188235 0.066667
0.898039 0.188235 0.074510
0.945098 0.196078 0.082353
0.988235 0.200000 0.090196
0.164706 0.176471 0.007843
0.168627 0.172549 0.007843
0.184314 0.176471 0.015686
0.200000 0.180392 0.015686
0.219608 0.184314 0.015686
0.247059 0.192157 0.015686
0.274510 0.192157 0.015686
0.301961 0.196078 0.019608
0.337255 0.200000 0.043137
0.372549 0.200000 0.054902
0.407843 0.200000 0.066667
0.443137 0.207843 0.066667
0.478431 0.203922 0.070588
0.521569 0.207843 0.078431
0.552941 0.207843 0.062745
0.588235 0.215686 0.066667
0.639216 0.215686 0.074510
0.678431 0.215686 0.074510
0.721569 0.219608 0.082353
0.764706 0.223529 0.082353
0.811765 0.227451 0.078431
0.854902 0.223529 0.074510
0.898039 0.227451 0.086275
0.941176 0.231373 0.086275
0.984314 0.243137 0.086275
0.168627 0.207843 0.000000
0.188235 0.203922 0.003922
0.203922 0.196078 0.000000
0.211765 0.203922 0.003922
0.231373 0.211765 0.000000
0.258824 0.215686 0.003922
0.282353 0.223529 0.000000
0.309804 0.227451 0.011765
0.337255 0.231373 0.023529
0.372549 0.231373 0.035294
0.403922 0.239216 0.058824
0.443137 0.239216 0.082353
0.482353 0.239216 0.086275
0.513725 0.243137 0.082353
0.556863 0.247059 0.086275
0.592157 0.250980 0.074510
0.635294 0.254902 0.086275
0.678431 0.254902 0.082353
0.721569 0.258824 0.086275
0.764706 0.262745 0.086275
0.811765 0.262745 0.086275
0.862745 0.266667 0.090196
0.909804 0.266667 0.090196
0.949020 0.274510 0.086275
0.980392 0.274510 0.098039
0.192157 0.235294 0.000000
0.215686 0.239216 0.003922
0.211765 0.227451 0.000000
0.235294 0.235294 0.000000
0.243137 0.235294 0.003922
0.262745 0.239216 0.000000
0.286275 0.247059 0.000000
0.313725 0.254902 0.000000
0.345098 0.262745 0.000000
0.376471 0.266667 0.011765
0.407843 0.266667 0.031373
0.439216 0.270588 0.062745
0.482353 0.278431 0.082353
0.509804 0.282353 0.098039
0.564706 0.290196 0.098039
0.603922 0.290196 0.098039
0.643137 0.290196 0.094118
0.686275 0.294118 0.098039
0.729412 0.298039 0.105882
0.772549 0.301961 0.098039
0.815686 0.301961 0.098039
0.858824 0.305882 0.105882
0.901961 0.309804 0.094118
0.952941 0.321569 0.109804
1.000000 0.317647 0.113725
0.227451 0.254902 0.000000
0.227451 0.254902 0.000000
0.235294 0.254902 0.003922
0.250980 0.250980 0.000000
0.258824 0.262745 0.000000
0.274510 0.262745 0.000000
0.298039 0.270588 0.003922
0.317647 0.278431 0.000000
0.349020 0.282353 0.007843
0.372549 0.294118 0.007843
0.403922 0.301961 0.011765
0.439216 0.301961 0.035294
0.470588 0.317647 0.062745
0.521569 0.317647 0.082353
0.560784 0.325490 0.098039
0.603922 0.333333 0.117647
0.643137 0.333333 0.113725
0.690196 0.333333 0.117647
0.729412 0.341176 0.117647
0.768627 0.345098 0.109804
0.815686 0.345098 0.109804
0.862745 0.352941 0.125490
0.905882 0.349020 0.121569
0.945098 0.352941 0.113725
1.000000 0.360784 0.129412
0.227451 0.270588 0.000000
0.235294 0.278431 0.003922
0.247059 0.274510 0.000000
0.254902 0.278431 0.000000
0.258824 0.282353 0.000000
0.282353 0.282353 0.000000
0.301961 0.286275 0.000000
0.325490 0.298039 0.000000
0.352941 0.309804 0.000000
0.384314 0.317647 0.003922
0.407843 0.329412 0.000000
0.439216 0.337255 0.003922
0.482353 0.345098 0.027451
0.517647 0.349020 0.050980
0.556863 0.349020 0.074510
0.596078 0.356863 0.101961
0.647059 0.368627 0.125490
0.690196 0.376471 0.129412
0.729412 0.380392 0.121569
0.776471 0.388235 0.133333
0.811765 0.392157 0.133333
0.858824 0.392157 0.133333
0.909804 0.396078 0.137255
0.949020 0.400000 0.137255
0.996078 0.407843 0.141176
0.247059 0.301961 0.000000
0.250980 0.298039 0.000000
0.266667 0.298039 0.000000
0.282353 0.298039 0.000000
0.286275 0.298039 0.000000
0.298039 0.301961 0.003922
0.313725 0.309804 0.000000
0.341176 0.317647 0.011765
0.352941 0.329412 0.000000
0.380392 0.333333 0.003922
0.411765 0.349020 0.003922
0.439216 0.360784 0.000000
0.482353 0.380392 0.000000
0.521569 0.384314 0.015686
0.560784 0.388235 0.047059
0.600000 0.392157 0.086275
0.639216 0.407843 0.117647
0.690196 0.415686 0.133333
0.737255 0.423529 0.145098
0.780392 0.427451 0.152941
0.831373 0.431373 0.149020
0.874510 0.435294 0.149020
0.913725 0.431373 0.160784
0.949020 0.439216 0.164706
1.000000 0.439216 0.164706
0.266667 0.317647 0.000000
0.274510 0.321569 0.000000
0.286275 0.321569 0.011765
0.286275 0.313725 0.000000
0.294118 0.309804 0.007843
0.301961 0.321569 0.000000
0.325490 0.321569 0.000000
0.333333 0.333333 0.000000
0.364706 0.341176 0.000000
0.392157 0.356863 0.000000
0.411765 0.372549 0.000000
0.443137 0.384314 0.000000
0.478431 0.392157 0.000000
0.517647 0.411765 0.000000
0.560784 0.427451 0.003922
0.596078 0.431373 0.047059
0.647059 0.439216 0.070588
0.694118 0.443137 0.094118
0.733333 0.458824 0.125490
0.784314 0.466667 0.156863
0.819608 0.470588 0.164706
0.870588 0.474510 0.168627
0.917647 0.482353 0.180392
0.949020 0.482353 0.176471
1.000000 0.486275 0.196078
0.278431 0.341176 0.000000
0.294118 0.333333 0.000000
0.290196 0.337255 0.000000
0.298039 0.337255 0.000000
0.298039 0.329412 0.000000
0.317647 0.333333 0.000000
0.325490 0.341176 0.007843
0.349020 0.349020 0.003922
0.364706 0.360784 0.000000
0.384314 0.372549 0.000000
0.415686 0.384314 0.000000
0.443137 0.396078 0.003922
0.470588 0.415686 0.000000
0.513725 0.423529 0.007843
0.556863 0.450980 0.000000
0.596078 0.458824 0.003922
0.639216 0.470588 0.027451
0.686275 0.478431 0.070588
0.733333 0.482353 0.098039
0.780392 0.494118 0.121569
0.835294 0.505882 0.152941
0.874510 0.513725 0.180392
0.917647 0.517647 0.184314
0.952941 0.521569 0.188235
1.000000 0.525490 0.215686
0.294118 0.356863 0.011765
0.286275 0.360784 0.000000
0.313725 0.352941 0.003922
0.313725 0.356863 0.000000
0.313725 0.356863 0.000000
0.317647 0.352941 0.000000
0.333333 0.360784 0.000000
0.349020 0.364706 0.000000
0.368627 0.376471 0.000000
0.396078 0.384314 0.003922
0.415686 0.396078 0.003922
0.443137 0.407843 0.000000
0.478431 0.423529 0.003922
0.501961 0.450980 0.003922
0.545098 0.462745 0.003922
0.592157 0.494118 0.000000
0.639216 0.505882 0.000000
0.686275 0.513725 0.000000
0.729412 0.525490 0.047059
0.776471 0.529412 0.086275
0.827451 0.537255 0.125490
0.870588 0.541176 0.152941
0.921569 0.556863 0.192157
0.964706 0.568627 0.223529
0.996078 0.564706 0.231373
0.313725 0.372549 0.000000
0.309804 0.380392 0.000000
0.313725 0.376471 0.000000
0.309804 0.380392 0.000000
0.337255 0.376471 0.000000
0.345098 0.364706 0.000000
0.345098 0.364706 0.000000
0.360784 0.376471 0.000000
0.380392 0.388235 0.000000
0.392157 0.400000 0.003922
0.411765 0.419608 0.000000
0.443137 0.427451 0.000000
0.470588 0.447059 0.000000
0.513725 0.466667 0.000000
0.545098 0.486275 0.000000
0.584314 0.505882 0.000000
0.639216 0.529412 0.000000
0.682353 0.541176 0.000000
0.729412 0.552941 0.000000
0.772549 0.564706 0.023529
0.839216 0.568627 0.094118
0.874510 0.580392 0.113725
0.913725 0.584314 0.156863
0.960784 0.603922 0.188235
0.992157 0.600000 0.223529
0.321569 0.403922 0.000000
0.321569 0.403922 0.000000
0.329412 0.400000 0.000000
0.333333 0.400000 0.000000
0.337255 0.396078 0.000000
0.345098 0.392157 0.000000
0.360784 0.392157 0.000000
0.372549 0.392157 0.000000
0.384314 0.411765 0.003922
0.403922 0.415686 0.003922
0.427451 0.423529 0.000000
0.454902 0.447059 0.003922
0.482353 0.462745 0.000000
0.521569 0.490196 0.003922
0.545098 0.505882 0.000000
0.596078 0.525490 0.000000
0.635294 0.545098 0.000000
0.690196 0.572549 0.000000
0.733333 0.588235 0.000000
0.772549 0.596078 0.000000
0.819608 0.603922 0.000000
0.870588 0.615686 0.058824
0.917647 0.623529 0.117647
0.968627 0.631373 0.156863
1.000000 0.643137 0.196078
0.333333 0.423529 0.007843
0.337255 0.411765 0.000000
0.341176 0.427451 0.000000
0.345098 0.419608 0.000000
0.356863 0.419608 0.000000
0.368627 0.411765 0.003922
0.368627 0.419608 0.003922
0.372549 0.415686 0.003922
0.396078 0.419608 0.000000
0.419608 0.435294 0.003922
0.435294 0.450980 0.007843
0.462745 0.466667 0.007843
0.482353 0.482353 0.000000
0.521569 0.501961 0.000000
0.556863 0.517647 0.000000
0.592157 0.545098 0.003922
0.635294 0.564706 0.007843
0.678431 0.584314 0.003922
0.725490 0.607843 0.000000
0.784314 0.627451 0.003922
0.827451 0.639216 0.003922
0.866667 0.650980 0.011765
0.913725 0.666667 0.027451
0.968627 0.666667 0.109804
0.996078 0.674510 0.152941
0.345098 0.450980 0.000000
0.352941 0.447059 0.007843
0.349020 0.443137 0.003922
0.356863 0.447059 0.000000
0.372549 0.450980 0.007843
0.368627 0.439216 0.007843
0.376471 0.443137 0.003922
0.388235 0.435294 0.000000
0.403922 0.443137 0.000000
0.419608 0.454902 0.000000
0.447059 0.466667 0.000000
0.470588 0.486275 0.003922
0.498039 0.509804 0.003922
0.533333 0.521569 0.007843
0.552941 0.545098 0.007843
0.596078 0.564706 0.003922
0.643137 0.588235 0.000000
0.682353 0.607843 0.000000
0.721569 0.627451 0.000000
0.772549 0.650980 0.000000
0.823529 0.678431 0.000000
0.866667 0.686275 0.003922
0.925490 0.690196 0.000000
0.949020 0.705882 0.003922
1.000000 0.705882 0.098039
0.368627 0.478431 0.003922
0.376471 0.474510 0.003922
0.364706 0.482353 0.000000
0.384314 0.478431 0.000000
0.392157 0.466667 0.007843
0.396078 0.470588 0.007843
0.400000 0.470588 0.007843
0.411765 0.462745 0.007843
0.431373 0.466667 0.000000
0.443137 0.482353 0.000000
0.462745 0.498039 0.000000
0.486275 0.509804 0.000000
0.513725 0.525490 0.003922
0.537255 0.549020 0.000000
0.572549 0.564706 0.000000
0.611765 0.588235 0.000000
0.650980 0.611765 0.000000
0.690196 0.631373 0.000000
0.729412 0.654902 0.003922
0.768627 0.674510 0.000000
0.811765 0.690196 0.000000
0.874510 0.725490 0.003922
0.921569 0.725490 0.007843
0.952941 0.737255 0.000000
0.996078 0.741176 0.000000
0.396078 0.513725 0.000000
0.403922 0.509804 0.000000
0.396078 0.513725 0.000000
0.407843 0.513725 0.000000
0.400000 0.513725 0.007843
0.419608 0.505882 0.007843
0.427451 0.509804 0.003922
0.435294 0.513725 0.000000
0.443137 0.509804 0.000000
0.462745 0.513725 0.000000
0.482353 0.529412 0.003922
0.513725 0.537255 0.011765
0.529412 0.564706 0.003922
0.564706 0.580392 0.003922
0.592157 0.596078 0.000000
0.627451 0.615686 0.000000
0.662745 0.643137 0.007843
0.701961 0.658824 0.000000
0.749020 0.682353 0.000000
0.800000 0.698039 0.011765
0.803922 0.729412 0.000000
0.854902 0.741176 0.000000
0.921569 0.764706 0.003922
0.964706 0.768627 0.003922
1.000000 0.784314 0.000000
0.431373 0.568627 0.000000
0.435294 0.568627 0.000000
0.435294 0.564706 0.003922
0.439216 0.564706 0.003922
0.439216 0.564706 0.003922
0.443137 0.568627 0.007843
0.454902 0.560784 0.000000
0.470588 0.560784 0.003922
0.482353 0.556863 0.000000
0.494118 0.552941 0.000000
0.525490 0.572549 0.007843
0.533333 0.580392 0.000000
0.568627 0.603922 0.003922
0.592157 0.619608 0.000000
0.615686 0.643137 0.000000
0.650980 0.654902 0.003922
0.686275 0.678431 0.000000
0.733333 0.694118 0.000000
0.772549 0.713725 0.003922
0.811765 0.741176 0.011765
0.847059 0.756863 0.003922
0.878431 0.776471 0.000000
0.913725 0.792157 0.000000
0.960784 0.811765 0.000000
1.000000 0.819608 0.019608
0.458824 0.623529 0.000000
0.470588 0.627451 0.000000
0.474510 0.619608 0.003922
0.478431 0.623529 0.003922
0.482353 0.627451 0.011765
0.486275 0.623529 0.000000
0.501961 0.627451 0.000000
0.517647 0.623529 0.000000
0.533333 0.619608 0.000000
0.549020 0.615686 0.000000
0.560784 0.623529 0.000000
0.580392 0.639216 0.000000
0.603922 0.654902 0.000000
0.635294 0.670588 0.000000
0.662745 0.690196 0.003922
0.690196 0.713725 0.000000
0.725490 0.725490 0.000000
0.756863 0.745098 0.003922
0.788235 0.760784 0.000000
0.831373 0.776471 0.003922
0.866667 0.800000 0.007843
0.909804 0.811765 0.003922
0.945098 0.827451 0.003922
0.956863 0.839216 0.000000
1.000000 0.858824 0.003922
0.521569 0.698039 0.000000
0.513725 0.701961 0.000000
0.529412 0.701961 0.000000
0.529412 0.698039 0.000000
0.529412 0.705882 0.003922
0.545098 0.705882 0.000000
0.552941 0.705882 0.011765
0.568627 0.698039 0.003922
0.584314 0.698039 0.000000
0.600000 0.698039 0.000000
0.619608 0.701961 0.000000
0.635294 0.713725 0.000000
0.650980 0.725490 0.000000
0.686275 0.733333 0.000000
0.694118 0.756863 0.000000
0.737255 0.764706 0.003922
0.772549 0.780392 0.000000
0.792157 0.800000 0.000000
0.831373 0.815686 0.000000
0.866667 0.827451 0.000000
0.905882 0.847059 0.003922
0.945098 0.854902 0.000000
0.964706 0.870588 0.000000
0.992157 0.874510 0.003922
1.000000 0.886275 0.000000
0.572549 0.784314 0.000000
0.592157 0.792157 0.003922
0.592157 0.792157 0.003922
0.592157 0.792157 0.000000
0.596078 0.796078 0.007843
0.603922 0.796078 0.000000
0.619608 0.792157 0.003922
0.635294 0.784314 0.000000
0.650980 0.784314 0.000000
0.658824 0.788235 0.000000
0.678431 0.792157 0.000000
0.698039 0.796078 0.000000
0.717647 0.807843 0.007843
0.745098 0.819608 0.000000
0.772549 0.831373 0.000000
0.800000 0.843137 0.000000
0.827451 0.854902 0.000000
0.850980 0.866667 0.007843
0.874510 0.874510 0.003922
0.909804 0.898039 0.000000
0.945098 0.905882 0.000000
0.980392 0.909804 0.000000
1.000000 0.925490 0.000000
1.000000 0.941176 0.003922
1.000000 0.929412 0.003922
0.647059 0.894118 0.000000
0.654902 0.894118 0.011765
0.666667 0.894118 0.007843
0.662745 0.894118 0.000000
0.670588 0.901961 0.007843
0.686275 0.894118 0.000000
0.690196 0.890196 0.000000
0.705882 0.890196 0.000000
0.725490 0.894118 0.000000
0.745098 0.898039 0.000000
0.760784 0.901961 0.000000
0.788235 0.901961 0.000000
0.803922 0.913725 0.003922
0.827451 0.913725 0.003922
0.850980 0.921569 0.003922
0.870588 0.937255 0.003922
0.901961 0.945098 0.003922
0.913725 0.952941 0.000000
0.945098 0.960784 0.000000
0.980392 0.964706 0.000000
0.996078 0.976471 0.000000
1.000000 0.976471 0.000000
0.996078 0.976471 0.000000
1.000000 0.988235 0.000000
1.000000 0.988235 0.003922
0.054902 0.035294 0.050980
0.074510 0.031373 0.047059
0.105882 0.023529 0.043137
0.145098 0.015686 0.043137
0.188235 0.011765 0.039216
0.231373 0.015686 0.047059
0.274510 0.019608 0.050980
0.301961 0.015686 0.050980
0.345098 0.019608 0.058824
0.376471 0.015686 0.058824
0.411765 0.019608 0.058824
0.447059 0.027451 0.058824
0.474510 0.023529 0.054902
0.513725 0.031373 0.070588
0.549020 0.035294 0.058824
0.580392 0.050980 0.047059
0.627451 0.054902 0.074510
0.666667 0.054902 0.066667
0.709804 0.058824 0.066667
0.756863 0.062745 0.070588
0.807843 0.062745 0.070588
0.850980 0.066667 0.078431
0.890196 0.066667 0.078431
0.941176 0.082353 0.078431
0.980392 0.082353 0.078431
0.054902 0.054902 0.047059
0.082353 0.050980 0.043137
0.117647 0.062745 0.050980
0.149020 0.054902 0.047059
0.172549 0.054902 0.047059
0.235294 0.054902 0.054902
0.270588 0.050980 0.070588
0.305882 0.054902 0.050980
0.337255 0.058824 0.058824
0.372549 0.058824 0.062745
0.411765 0.058824 0.058824
0.447059 0.062745 0.058824
0.478431 0.066667 0.062745
0.513725 0.066667 0.062745
0.549020 0.074510 0.070588
0.588235 0.074510 0.074510
0.631373 0.078431 0.074510
0.670588 0.078431 0.066667
0.713725 0.082353 0.070588
0.756863 0.090196 0.070588
0.800000 0.094118 0.070588
0.850980 0.094118 0.074510
0.894118 0.098039 0.074510
0.941176 0.098039 0.086275
0.988235 0.109804 0.082353
0.070588 0.082353 0.039216
0.094118 0.094118 0.047059
0.117647 0.094118 0.039216
0.149020 0.098039 0.062745
0.196078 0.090196 0.062745
0.227451 0.094118 0.058824
0.262745 0.090196 0.054902
0.298039 0.090196 0.058824
0.329412 0.094118 0.054902
0.368627 0.094118 0.066667
0.411765 0.086275 0.070588
0.443137 0.086275 0.066667
0.482353 0.094118 0.070588
0.509804 0.101961 0.066667
0.556863 0.098039 0.070588
0.596078 0.098039 0.074510
0.627451 0.101961 0.074510
0.670588 0.105882 0.070588
0.717647 0.113725 0.082353
0.752941 0.117647 0.078431
0.800000 0.117647 0.082353
0.843137 0.121569 0.082353
0.894118 0.129412 0.082353
0.941176 0.121569 0.074510
0.980392 0.137255 0.098039
0.094118 0.125490 0.043137
0.117647 0.113725 0.027451
0.145098 0.125490 0.043137
0.168627 0.125490 0.047059
0.200000 0.129412 0.050980
0.235294 0.121569 0.066667
0.262745 0.121569 0.058824
0.298039 0.129412 0.062745
0.333333 0.133333 0.066667
0.368627 0.125490 0.066667
0.407843 0.125490 0.070588
0.447059 0.125490 0.070588
0.478431 0.129412 0.074510
0.509804 0.129412 0.066667
0.549020 0.133333 0.082353
0.588235 0.133333 0.082353
0.631373 0.137255 0.078431
0.674510 0.137255 0.066667
0.705882 0.141176 0.070588
0.764706 0.149020 0.082353
0.800000 0.145098 0.082353
0.850980 0.149020 0.090196
0.890196 0.152941 0.074510
0.941176 0.152941 0.082353
0.996078 0.164706 0.090196
0.129412 0.156863 0.035294
0.133333 0.152941 0.027451
0.168627 0.145098 0.043137
0.184314 0.156863 0.043137
0.200000 0.156863 0.039216
0.239216 0.164706 0.047059
0.266667 0.168627 0.058824
0.301961 0.164706 0.078431
0.341176 0.164706 0.082353
0.376471 0.160784 0.078431
0.407843 0.164706 0.074510
0.443137 0.168627 0.078431
0.482353 0.168627 0.070588
0.517647 0.164706 0.078431
0.549020 0.164706 0.074510
0.592157 0.172549 0.078431
0.631373 0.172549 0.074510
0.674510 0.172549 0.082353
0.717647 0.176471 0.094118
0.756863 0.184314 0.094118
0.803922 0.188235 0.090196
0.843137 0.188235 0.094118
0.898039 0.196078 0.086275
0.945098 0.196078 0.094118
0.984314 0.203922 0.098039
0.156863 0.172549 0.027451
0.160784 0.176471 0.031373
0.180392 0.180392 0.031373
0.200000 0.184314 0.039216
0.215686 0.184314 0.039216
0.243137 0.188235 0.043137
0.270588 0.192157 0.047059
0.298039 0.200000 0.050980
0.341176 0.200000 0.066667
0.372549 0.196078 0.074510
0.411765 0.200000 0.090196
0.435294 0.196078 0.082353
0.482353 0.203922 0.086275
0.521569 0.203922 0.086275
0.556863 0.207843 0.090196
0.596078 0.207843 0.086275
0.639216 0.211765 0.090196
0.682353 0.215686 0.090196
0.717647 0.223529 0.094118
0.756863 0.223529 0.098039
0.807843 0.227451 0.094118
0.854902 0.231373 0.105882
0.898039 0.231373 0.101961
0.937255 0.231373 0.101961
0.992157 0.243137 0.098039
0.180392 0.200000 0.039216
0.192157 0.203922 0.027451
0.207843 0.203922 0.023529
0.215686 0.215686 0.019608
0.235294 0.203922 0.019608
0.254902 0.215686 0.015686
0.282353 0.227451 0.035294
0.301961 0.231373 0.035294
0.337255 0.231373 0.054902
0.368627 0.231373 0.066667
0.403922 0.235294 0.078431
0.443137 0.239216 0.086275
0.486275 0.243137 0.098039
0.517647 0.247059 0.094118
0.552941 0.247059 0.098039
0.596078 0.250980 0.101961
0.635294 0.250980 0.105882
0.678431 0.258824 0.101961
0.717647 0.258824 0.098039
0.760784 0.262745 0.101961
0.807843 0.262745 0.109804
0.854902 0.262745 0.109804
0.898039 0.266667 0.117647
0.949020 0.270588 0.121569
0.984314 0.278431 0.109804
0.200000 0.235294 0.019608
0.207843 0.227451 0.000000
0.223529 0.235294 0.011765
0.231373 0.227451 0.007843
0.239216 0.235294 0.011765
0.266667 0.243137 0.007843
0.278431 0.254902 0.019608
0.313725 0.254902 0.023529
0.341176 0.262745 0.027451
0.372549 0.270588 0.043137
0.411765 0.266667 0.062745
0.443137 0.270588 0.086275
0.482353 0.282353 0.105882
0.513725 0.282353 0.117647
0.556863 0.290196 0.113725
0.596078 0.290196 0.109804
0.639216 0.294118 0.113725
0.678431 0.294118 0.109804
0.729412 0.294118 0.117647
0.772549 0.301961 0.113725
0.815686 0.298039 0.109804
0.862745 0.305882 0.117647
0.909804 0.309804 0.117647
0.945098 0.309804 0.125490
0.992157 0.313725 0.117647
0.231373 0.254902 0.011765
0.223529 0.258824 0.011765
0.235294 0.250980 0.011765
0.247059 0.258824 0.000000
0.258824 0.258824 0.007843
0.278431 0.266667 0.003922
0.290196 0.270588 0.003922
0.317647 0.278431 0.007843
0.345098 0.290196 0.011765
0.372549 0.294118 0.015686
0.411765 0.305882 0.043137
0.447059 0.305882 0.062745
0.474510 0.309804 0.082353
0.517647 0.317647 0.101961
0.556863 0.321569 0.117647
0.600000 0.337255 0.133333
0.647059 0.333333 0.133333
0.686275 0.337255 0.125490
0.725490 0.337255 0.121569
0.776471 0.341176 0.125490
0.815686 0.341176 0.125490
0.850980 0.345098 0.141176
0.901961 0.352941 0.129412
0.949020 0.352941 0.129412
0.988235 0.356863 0.137255
0.239216 0.286275 0.000000
0.239216 0.286275 0.003922
0.250980 0.278431 0.007843
0.250980 0.274510 0.000000
0.274510 0.278431 0.003922
0.294118 0.286275 0.000000
0.309804 0.286275 0.000000
0.325490 0.294118 0.000000
0.352941 0.309804 0.000000
0.380392 0.317647 0.011765
0.403922 0.333333 0.011765
0.435294 0.349020 0.023529
0.482353 0.341176 0.050980
0.513725 0.345098 0.078431
0.552941 0.352941 0.105882
0.600000 0.364706 0.129412
0.647059 0.372549 0.137255
0.690196 0.376471 0.137255
0.733333 0.380392 0.137255
0.776471 0.384314 0.149020
0.823529 0.388235 0.137255
0.862745 0.396078 0.145098
0.905882 0.392157 0.149020
0.952941 0.400000 0.149020
0.992157 0.400000 0.160784
0.254902 0.301961 0.003922
0.250980 0.298039 0.000000
0.266667 0.298039 0.000000
0.274510 0.301961 0.000000
0.282353 0.298039 0.000000
0.294118 0.305882 0.000000
0.313725 0.309804 0.000000
0.337255 0.317647 0.000000
0.352941 0.329412 0.000000
0.384314 0.337255 0.000000
