lut_library_archive/removed_20260629/50个风景lut/50个风景lut40.cube
# 版权归凌孟成所有，侵权必究
TITLE "Jungle LUT #40"
#LUT size
LUT_3D_SIZE 5
#LUT data points
0.047059 0.050980 0.058824
0.243137 0.047059 0.050980
0.470588 0.058824 0.043137
0.760784 0.074510 0.015686
0.996078 0.090196 0.000000
0.054902 0.243137 0.039216
0.227451 0.243137 0.043137
0.474510 0.254902 0.031373
0.760784 0.274510 0.000000
1.000000 0.282353 0.000000
0.054902 0.505882 0.007843
0.262745 0.505882 0.000000
0.509804 0.513725 0.003922
0.784314 0.521569 0.003922
0.988235 0.525490 0.000000
0.031373 0.784314 0.003922
0.274510 0.788235 0.000000
0.533333 0.784314 0.000000
0.796078 0.784314 0.003922
1.000000 0.772549 0.000000
0.168627 0.996078 0.000000
0.321569 1.000000 0.000000
0.560784 1.000000 0.003922
0.827451 0.996078 0.054902
1.000000 1.000000 0.168627
0.035294 0.039216 0.211765
0.235294 0.050980 0.223529
0.478431 0.043137 0.219608
0.756863 0.003922 0.207843
0.996078 0.000000 0.211765
0.035294 0.239216 0.219608
0.243137 0.243137 0.211765
0.486275 0.250980 0.219608
0.768627 0.250980 0.211765
0.992157 0.250980 0.203922
0.000000 0.501961 0.200000
0.239216 0.509804 0.196078
0.513725 0.509804 0.188235
0.780392 0.513725 0.188235
0.996078 0.513725 0.180392
0.007843 0.776471 0.133333
0.243137 0.784314 0.137255
0.525490 0.780392 0.129412
0.800000 0.788235 0.141176
0.996078 0.776471 0.160784
0.133333 0.996078 0.203922
0.301961 0.996078 0.196078
0.552941 1.000000 0.219608
0.823529 1.000000 0.250980
1.000000 1.000000 0.294118
0.050980 0.047059 0.454902
0.243137 0.043137 0.454902
0.490196 0.007843 0.462745
0.772549 0.000000 0.474510
1.000000 0.003922 0.462745
0.007843 0.227451 0.458824
0.231373 0.227451 0.450980
0.498039 0.223529 0.466667
0.780392 0.207843 0.470588
1.000000 0.188235 0.462745
0.007843 0.505882 0.462745
0.192157 0.505882 0.454902
0.517647 0.509804 0.462745
0.788235 0.505882 0.458824
0.992157 0.494118 0.458824
0.000000 0.788235 0.450980
0.133333 0.792157 0.450980
0.513725 0.788235 0.443137
0.803922 0.788235 0.447059
1.000000 0.776471 0.458824
0.003922 0.992157 0.478431
0.243137 1.000000 0.470588
0.525490 1.000000 0.478431
0.815686 1.000000 0.490196
1.000000 1.000000 0.521569
0.015686 0.007843 0.741176
0.258824 0.000000 0.729412
0.517647 0.000000 0.741176
0.792157 0.000000 0.745098
1.000000 0.000000 0.745098
0.000000 0.219608 0.752941
0.223529 0.215686 0.752941
0.513725 0.196078 0.741176
0.792157 0.160784 0.741176
0.996078 0.172549 0.733333
0.003922 0.494118 0.745098
0.078431 0.490196 0.745098
0.486275 0.490196 0.752941
0.796078 0.478431 0.741176
0.996078 0.505882 0.741176
0.003922 0.800000 0.752941
0.054902 0.792157 0.737255
0.498039 0.796078 0.749020
0.792157 0.780392 0.745098
1.000000 0.784314 0.764706
0.156863 1.000000 0.760784
0.313725 0.996078 0.749020
0.560784 0.996078 0.768627
0.803922 1.000000 0.760784
1.000000 1.000000 0.764706
0.003922 0.000000 0.996078
0.247059 0.000000 1.000000
0.517647 0.003922 0.992157
0.788235 0.000000 0.996078
0.992157 0.000000 1.000000
0.011765 0.200000 1.000000
0.196078 0.200000 1.000000
0.513725 0.180392 1.000000
0.788235 0.149020 1.000000
1.000000 0.113725 0.992157
0.007843 0.470588 1.000000
0.011765 0.462745 1.000000
0.462745 0.474510 0.996078
0.772549 0.466667 1.000000
0.996078 0.474510 1.000000
0.000000 0.772549 0.996078
0.000000 0.768627 1.000000
0.458824 0.768627 0.992157
0.764706 0.764706 1.000000
1.000000 0.768627 1.000000
0.129412 0.996078 0.996078
0.305882 1.000000 1.000000
0.564706 1.000000 1.000000
0.839216 1.000000 1.000000
1.000000 1.000000 0.992157
