lut_library_archive/removed_20260629/50个风景lut/50个风景lut33.cube
# 版权归凌孟成所有，侵权必究
TITLE "Jungle LUT #33"
#LUT size
LUT_3D_SIZE 9
#LUT data points
0.023529 0.023529 0.015686
0.141176 0.023529 0.023529
0.270588 0.019608 0.015686
0.392157 0.015686 0.019608
0.541176 0.019608 0.003922
0.686275 0.015686 0.007843
0.835294 0.007843 0.000000
0.964706 0.003922 0.000000
1.000000 0.003922 0.003922
0.027451 0.141176 0.015686
0.137255 0.141176 0.007843
0.270588 0.141176 0.019608
0.400000 0.141176 0.015686
0.533333 0.141176 0.000000
0.686275 0.145098 0.000000
0.831373 0.145098 0.000000
0.960784 0.129412 0.003922
0.992157 0.121569 0.000000
0.062745 0.250980 0.015686
0.160784 0.254902 0.019608
0.274510 0.258824 0.011765
0.403922 0.266667 0.000000
0.549020 0.274510 0.000000
0.705882 0.274510 0.003922
0.835294 0.278431 0.000000
0.968627 0.266667 0.003922
1.000000 0.266667 0.000000
0.094118 0.384314 0.000000
0.176471 0.400000 0.000000
0.290196 0.400000 0.000000
0.411765 0.400000 0.000000
0.560784 0.407843 0.000000
0.698039 0.407843 0.000000
0.831373 0.407843 0.000000
0.968627 0.400000 0.003922
1.000000 0.392157 0.000000
0.109804 0.545098 0.000000
0.196078 0.552941 0.000000
0.309804 0.549020 0.000000
0.439216 0.549020 0.003922
0.576471 0.549020 0.000000
0.705882 0.541176 0.000000
0.843137 0.541176 0.000000
0.972549 0.533333 0.000000
1.000000 0.533333 0.000000
0.160784 0.698039 0.007843
0.211765 0.694118 0.000000
0.325490 0.690196 0.000000
0.454902 0.690196 0.000000
0.580392 0.682353 0.007843
0.721569 0.682353 0.003922
0.847059 0.678431 0.000000
0.972549 0.666667 0.000000
1.000000 0.654902 0.003922
0.192157 0.811765 0.000000
0.250980 0.807843 0.000000
0.337255 0.803922 0.000000
0.462745 0.811765 0.003922
0.584314 0.800000 0.000000
0.713725 0.796078 0.000000
0.839216 0.796078 0.000000
0.956863 0.788235 0.000000
0.996078 0.776471 0.000000
0.219608 0.921569 0.007843
0.270588 0.929412 0.000000
0.356863 0.917647 0.007843
0.470588 0.929412 0.000000
0.580392 0.925490 0.000000
0.698039 0.925490 0.000000
0.835294 0.925490 0.000000
0.964706 0.917647 0.000000
1.000000 0.905882 0.000000
0.258824 0.996078 0.007843
0.298039 1.000000 0.000000
0.368627 0.992157 0.000000
0.462745 1.000000 0.003922
0.580392 1.000000 0.000000
0.713725 1.000000 0.000000
0.843137 1.000000 0.000000
0.972549 1.000000 0.003922
1.000000 0.996078 0.003922
0.031373 0.019608 0.125490
0.137255 0.019608 0.129412
0.266667 0.023529 0.121569
0.396078 0.023529 0.117647
0.541176 0.023529 0.125490
0.694118 0.003922 0.117647
0.827451 0.000000 0.105882
0.960784 0.000000 0.098039
0.988235 0.007843 0.078431
0.047059 0.133333 0.125490
0.137255 0.141176 0.121569
0.258824 0.137255 0.125490
0.392157 0.137255 0.121569
0.537255 0.145098 0.121569
0.686275 0.137255 0.109804
0.823529 0.133333 0.101961
0.964706 0.125490 0.094118
0.992157 0.121569 0.086275
0.070588 0.254902 0.113725
0.164706 0.258824 0.125490
0.270588 0.262745 0.113725
0.400000 0.258824 0.117647
0.549020 0.266667 0.109804
0.694118 0.270588 0.098039
0.831373 0.266667 0.090196
0.956863 0.258824 0.078431
0.996078 0.250980 0.078431
0.090196 0.388235 0.105882
0.172549 0.392157 0.105882
0.282353 0.392157 0.101961
0.411765 0.396078 0.105882
0.552941 0.400000 0.090196
0.698039 0.403922 0.078431
0.839216 0.407843 0.074510
0.964706 0.403922 0.066667
0.996078 0.396078 0.062745
0.113725 0.541176 0.070588
0.192157 0.541176 0.078431
0.305882 0.541176 0.062745
0.431373 0.541176 0.066667
0.564706 0.541176 0.054902
0.701961 0.541176 0.039216
0.839216 0.537255 0.031373
0.964706 0.529412 0.035294
1.000000 0.513725 0.027451
0.149020 0.682353 0.015686
0.215686 0.682353 0.007843
0.321569 0.682353 0.003922
0.447059 0.682353 0.003922
0.576471 0.678431 0.003922
0.713725 0.674510 0.000000
0.839216 0.666667 0.000000
0.968627 0.662745 0.003922
0.992157 0.650980 0.003922
0.184314 0.807843 0.000000
0.243137 0.803922 0.000000
0.329412 0.803922 0.003922
0.454902 0.803922 0.003922
0.588235 0.800000 0.007843
0.709804 0.800000 0.000000
0.843137 0.800000 0.000000
0.956863 0.796078 0.000000
1.000000 0.780392 0.003922
0.215686 0.917647 0.003922
0.266667 0.933333 0.000000
0.352941 0.929412 0.000000
0.462745 0.925490 0.000000
0.580392 0.925490 0.000000
0.709804 0.921569 0.000000
0.831373 0.921569 0.000000
0.956863 0.917647 0.003922
0.996078 0.917647 0.000000
0.243137 1.000000 0.035294
0.286275 0.996078 0.027451
0.364706 0.996078 0.031373
0.458824 1.000000 0.035294
0.580392 1.000000 0.039216
0.713725 1.000000 0.054902
0.843137 1.000000 0.074510
0.976471 1.000000 0.098039
1.000000 0.996078 0.117647
0.031373 0.019608 0.227451
0.137255 0.023529 0.235294
0.262745 0.027451 0.239216
0.400000 0.015686 0.247059
0.541176 0.000000 0.235294
0.694118 0.000000 0.235294
0.831373 0.007843 0.231373
0.960784 0.003922 0.223529
0.996078 0.003922 0.219608
0.054902 0.133333 0.231373
0.149020 0.133333 0.239216
0.262745 0.133333 0.239216
0.403922 0.133333 0.247059
0.537255 0.121569 0.239216
0.690196 0.105882 0.223529
0.835294 0.101961 0.231373
0.960784 0.101961 0.235294
1.000000 0.090196 0.223529
0.082353 0.250980 0.223529
0.160784 0.258824 0.243137
0.274510 0.262745 0.243137
0.407843 0.262745 0.231373
0.552941 0.258824 0.235294
0.701961 0.262745 0.219608
0.831373 0.262745 0.219608
0.968627 0.254902 0.219608
1.000000 0.250980 0.211765
0.066667 0.388235 0.227451
0.164706 0.392157 0.235294
0.290196 0.396078 0.235294
0.411765 0.392157 0.227451
0.560784 0.400000 0.227451
0.698039 0.400000 0.215686
0.839216 0.400000 0.219608
0.968627 0.396078 0.211765
1.000000 0.388235 0.219608
0.098039 0.541176 0.227451
0.172549 0.545098 0.215686
0.301961 0.545098 0.219608
0.427451 0.541176 0.211765
0.564706 0.541176 0.203922
0.705882 0.541176 0.211765
0.839216 0.533333 0.211765
0.964706 0.521569 0.207843
1.000000 0.521569 0.203922
0.137255 0.682353 0.215686
0.215686 0.682353 0.211765
0.317647 0.686275 0.207843
0.447059 0.686275 0.211765
0.580392 0.678431 0.207843
0.713725 0.674510 0.200000
0.843137 0.670588 0.192157
0.968627 0.658824 0.196078
0.992157 0.654902 0.211765
0.176471 0.807843 0.200000
0.239216 0.800000 0.203922
0.333333 0.800000 0.196078
0.450980 0.800000 0.196078
0.580392 0.803922 0.192157
0.705882 0.800000 0.188235
0.839216 0.803922 0.196078
0.968627 0.788235 0.207843
1.000000 0.780392 0.203922
0.215686 0.925490 0.207843
0.270588 0.917647 0.203922
0.352941 0.921569 0.203922
0.466667 0.917647 0.200000
0.580392 0.925490 0.203922
0.701961 0.921569 0.196078
0.831373 0.913725 0.196078
0.960784 0.913725 0.192157
0.992157 0.901961 0.211765
0.258824 1.000000 0.231373
0.301961 1.000000 0.223529
0.372549 0.996078 0.219608
0.466667 1.000000 0.223529
0.580392 1.000000 0.231373
0.713725 1.000000 0.227451
0.843137 1.000000 0.235294
0.972549 1.000000 0.247059
1.000000 0.996078 0.258824
0.039216 0.023529 0.356863
0.149020 0.023529 0.360784
0.274510 0.023529 0.360784
0.396078 0.023529 0.360784
0.549020 0.003922 0.376471
0.701961 0.000000 0.368627
0.831373 0.000000 0.360784
0.968627 0.003922 0.360784
0.996078 0.000000 0.345098
0.058824 0.133333 0.360784
0.156863 0.137255 0.364706
0.278431 0.129412 0.360784
0.403922 0.129412 0.364706
0.549020 0.117647 0.364706
0.698039 0.090196 0.364706
0.839216 0.054902 0.360784
0.972549 0.043137 0.356863
1.000000 0.070588 0.360784
0.062745 0.258824 0.356863
0.156863 0.258824 0.356863
0.282353 0.258824 0.360784
0.415686 0.258824 0.360784
0.564706 0.254902 0.368627
0.701961 0.247059 0.352941
0.839216 0.247059 0.352941
0.964706 0.243137 0.352941
1.000000 0.247059 0.352941
0.062745 0.400000 0.356863
0.160784 0.396078 0.364706
0.290196 0.396078 0.360784
0.423529 0.396078 0.364706
0.568627 0.396078 0.352941
0.705882 0.400000 0.360784
0.835294 0.392157 0.360784
0.972549 0.392157 0.360784
1.000000 0.388235 0.360784
0.027451 0.541176 0.360784
0.156863 0.545098 0.352941
0.298039 0.549020 0.352941
0.435294 0.545098 0.356863
0.572549 0.541176 0.349020
0.705882 0.541176 0.352941
0.839216 0.533333 0.345098
0.968627 0.525490 0.352941
0.996078 0.513725 0.349020
0.133333 0.686275 0.356863
0.207843 0.686275 0.352941
0.321569 0.690196 0.352941
0.447059 0.678431 0.349020
0.584314 0.682353 0.356863
0.709804 0.678431 0.352941
0.843137 0.666667 0.341176
0.960784 0.658824 0.345098
1.000000 0.650980 0.352941
0.176471 0.803922 0.349020
0.243137 0.807843 0.356863
0.333333 0.803922 0.349020
0.450980 0.803922 0.349020
0.584314 0.796078 0.349020
0.717647 0.796078 0.345098
0.843137 0.800000 0.349020
0.960784 0.792157 0.349020
1.000000 0.780392 0.352941
0.227451 0.921569 0.364706
0.282353 0.929412 0.364706
0.368627 0.921569 0.360784
0.470588 0.921569 0.352941
0.576471 0.921569 0.349020
0.705882 0.921569 0.352941
0.831373 0.917647 0.349020
0.960784 0.917647 0.352941
0.996078 0.901961 0.368627
0.270588 0.996078 0.376471
0.305882 0.996078 0.364706
0.384314 1.000000 0.368627
0.470588 1.000000 0.368627
0.584314 1.000000 0.372549
0.709804 1.000000 0.376471
0.839216 1.000000 0.376471
0.976471 0.996078 0.384314
1.000000 1.000000 0.388235
0.066667 0.023529 0.494118
0.168627 0.019608 0.501961
0.282353 0.015686 0.498039
0.411765 0.003922 0.494118
0.552941 0.000000 0.498039
0.694118 0.003922 0.509804
0.839216 0.000000 0.501961
0.964706 0.000000 0.490196
1.000000 0.000000 0.490196
0.066667 0.133333 0.486275
0.164706 0.137255 0.501961
0.286275 0.133333 0.490196
0.415686 0.125490 0.498039
0.549020 0.117647 0.498039
0.690196 0.086275 0.494118
0.839216 0.058824 0.486275
0.964706 0.054902 0.494118
0.996078 0.094118 0.490196
0.050980 0.250980 0.498039
0.160784 0.262745 0.501961
0.290196 0.258824 0.494118
0.419608 0.258824 0.494118
0.564706 0.250980 0.505882
0.709804 0.243137 0.501961
0.839216 0.243137 0.498039
0.968627 0.247059 0.490196
1.000000 0.258824 0.490196
0.047059 0.407843 0.498039
0.156863 0.400000 0.498039
0.290196 0.396078 0.501961
0.427451 0.396078 0.494118
0.564706 0.392157 0.490196
0.705882 0.392157 0.490196
0.843137 0.396078 0.494118
0.968627 0.400000 0.498039
1.000000 0.400000 0.494118
0.047059 0.541176 0.498039
0.164706 0.545098 0.505882
0.298039 0.541176 0.498039
0.435294 0.545098 0.498039
0.576471 0.537255 0.498039
0.705882 0.541176 0.494118
0.839216 0.533333 0.486275
0.964706 0.533333 0.490196
1.000000 0.525490 0.490196
0.149020 0.690196 0.498039
0.219608 0.686275 0.498039
0.333333 0.682353 0.494118
0.454902 0.682353 0.494118
0.576471 0.678431 0.494118
0.709804 0.678431 0.494118
0.839216 0.674510 0.494118
0.964706 0.662745 0.498039
1.000000 0.654902 0.498039
0.235294 0.800000 0.498039
0.282353 0.803922 0.494118
0.360784 0.800000 0.498039
0.462745 0.803922 0.494118
0.588235 0.800000 0.494118
0.709804 0.800000 0.486275
0.831373 0.796078 0.486275
0.972549 0.784314 0.494118
1.000000 0.780392 0.490196
0.243137 0.921569 0.498039
0.290196 0.921569 0.498039
0.364706 0.925490 0.501961
0.470588 0.925490 0.498039
0.588235 0.925490 0.505882
0.701961 0.921569 0.494118
0.827451 0.921569 0.490196
0.960784 0.913725 0.490196
0.996078 0.913725 0.501961
0.290196 1.000000 0.501961
0.325490 1.000000 0.505882
0.392157 0.996078 0.501961
0.482353 1.000000 0.501961
0.588235 1.000000 0.498039
0.705882 1.000000 0.501961
0.843137 1.000000 0.509804
0.964706 1.000000 0.501961
0.996078 1.000000 0.505882
0.094118 0.019608 0.623529
0.176471 0.015686 0.627451
0.298039 0.007843 0.631373
0.431373 0.000000 0.631373
0.556863 0.000000 0.635294
0.690196 0.000000 0.631373
0.835294 0.000000 0.619608
0.964706 0.003922 0.619608
1.000000 0.000000 0.619608
0.094118 0.129412 0.635294
0.168627 0.137255 0.615686
0.290196 0.133333 0.623529
0.431373 0.121569 0.631373
0.560784 0.105882 0.627451
0.701961 0.090196 0.623529
0.839216 0.058824 0.627451
0.976471 0.062745 0.631373
1.000000 0.105882 0.619608
0.062745 0.258824 0.639216
0.160784 0.258824 0.619608
0.294118 0.254902 0.631373
0.423529 0.250980 0.623529
0.568627 0.250980 0.623529
0.709804 0.239216 0.631373
0.835294 0.243137 0.623529
0.964706 0.250980 0.615686
1.000000 0.262745 0.603922
0.050980 0.400000 0.627451
0.156863 0.400000 0.631373
0.301961 0.384314 0.631373
0.419608 0.400000 0.627451
0.576471 0.400000 0.623529
0.705882 0.396078 0.619608
0.843137 0.400000 0.619608
0.968627 0.407843 0.619608
0.992157 0.423529 0.623529
0.082353 0.537255 0.619608
0.176471 0.537255 0.619608
0.301961 0.541176 0.623529
0.443137 0.541176 0.627451
0.580392 0.545098 0.627451
0.709804 0.537255 0.627451
0.835294 0.541176 0.623529
0.956863 0.545098 0.631373
0.996078 0.549020 0.619608
0.156863 0.682353 0.623529
0.223529 0.678431 0.619608
0.337255 0.682353 0.627451
0.458824 0.678431 0.627451
0.584314 0.678431 0.623529
0.705882 0.666667 0.619608
0.843137 0.670588 0.627451
0.956863 0.666667 0.623529
1.000000 0.658824 0.623529
0.243137 0.803922 0.623529
0.290196 0.792157 0.623529
0.372549 0.800000 0.623529
0.482353 0.800000 0.623529
0.600000 0.800000 0.623529
0.713725 0.800000 0.619608
0.839216 0.796078 0.619608
0.956863 0.796078 0.623529
1.000000 0.784314 0.623529
0.329412 0.913725 0.623529
0.360784 0.921569 0.631373
0.423529 0.917647 0.627451
0.509804 0.917647 0.623529
0.592157 0.921569 0.619608
0.713725 0.917647 0.623529
0.835294 0.917647 0.623529
0.949020 0.913725 0.619608
1.000000 0.913725 0.627451
0.415686 1.000000 0.650980
0.435294 1.000000 0.654902
0.443137 1.000000 0.631373
0.509804 0.992157 0.627451
0.603922 1.000000 0.623529
0.721569 1.000000 0.631373
0.843137 0.996078 0.631373
0.964706 1.000000 0.635294
1.000000 1.000000 0.639216
0.117647 0.011765 0.756863
0.196078 0.011765 0.756863
0.313725 0.003922 0.749020
0.431373 0.003922 0.752941
0.572549 0.003922 0.760784
0.698039 0.000000 0.752941
0.843137 0.000000 0.749020
0.968627 0.003922 0.745098
0.988235 0.003922 0.729412
0.113725 0.121569 0.749020
0.200000 0.129412 0.760784
0.305882 0.125490 0.756863
0.435294 0.117647 0.760784
0.560784 0.101961 0.752941
0.701961 0.086275 0.756863
0.847059 0.050980 0.752941
0.968627 0.078431 0.733333
1.000000 0.117647 0.737255
0.094118 0.254902 0.749020
0.184314 0.258824 0.760784
0.301961 0.254902 0.749020
0.431373 0.250980 0.749020
0.568627 0.250980 0.752941
0.701961 0.243137 0.752941
0.850980 0.235294 0.749020
0.968627 0.247059 0.733333
1.000000 0.266667 0.729412
0.098039 0.400000 0.752941
0.188235 0.396078 0.760784
0.301961 0.400000 0.760784
0.439216 0.400000 0.749020
0.572549 0.396078 0.752941
0.709804 0.400000 0.756863
0.854902 0.400000 0.756863
0.972549 0.407843 0.749020
0.992157 0.427451 0.737255
0.133333 0.533333 0.760784
0.203922 0.537255 0.752941
0.321569 0.537255 0.756863
0.443137 0.541176 0.752941
0.580392 0.541176 0.749020
0.717647 0.545098 0.752941
0.843137 0.541176 0.752941
0.960784 0.545098 0.737255
0.992157 0.556863 0.733333
0.188235 0.674510 0.745098
0.247059 0.682353 0.749020
0.341176 0.674510 0.745098
0.458824 0.674510 0.752941
0.588235 0.670588 0.745098
0.717647 0.670588 0.749020
0.839216 0.678431 0.749020
0.952941 0.674510 0.745098
1.000000 0.682353 0.741176
0.247059 0.803922 0.741176
0.290196 0.807843 0.745098
0.376471 0.800000 0.745098
0.486275 0.803922 0.745098
0.603922 0.803922 0.737255
0.721569 0.803922 0.745098
0.835294 0.796078 0.749020
0.964706 0.792157 0.741176
1.000000 0.792157 0.745098
0.345098 0.921569 0.737255
0.360784 0.917647 0.729412
0.431373 0.913725 0.733333
0.529412 0.917647 0.737255
0.623529 0.921569 0.741176
0.733333 0.917647 0.745098
0.839216 0.909804 0.745098
0.952941 0.917647 0.749020
0.992157 0.917647 0.749020
0.431373 1.000000 0.741176
0.454902 0.992157 0.749020
0.498039 1.000000 0.752941
0.568627 1.000000 0.760784
0.662745 0.996078 0.764706
0.725490 1.000000 0.756863
0.839216 0.996078 0.752941
0.960784 1.000000 0.760784
0.996078 1.000000 0.764706
0.141176 0.007843 0.874510
0.211765 0.007843 0.886275
0.309804 0.003922 0.878431
0.435294 0.000000 0.886275
0.572549 0.003922 0.886275
0.698039 0.000000 0.878431
0.839216 0.003922 0.882353
0.972549 0.003922 0.878431
0.992157 0.000000 0.862745
0.133333 0.129412 0.870588
0.207843 0.121569 0.890196
0.313725 0.117647 0.882353
0.439216 0.113725 0.882353
0.568627 0.105882 0.882353
0.705882 0.090196 0.886275
0.839216 0.074510 0.882353
0.976471 0.074510 0.882353
1.000000 0.121569 0.866667
0.117647 0.254902 0.886275
0.196078 0.258824 0.874510
0.313725 0.258824 0.874510
0.435294 0.254902 0.882353
0.564706 0.250980 0.874510
0.705882 0.250980 0.874510
0.843137 0.254902 0.886275
0.980392 0.250980 0.882353
1.000000 0.274510 0.854902
0.125490 0.400000 0.878431
0.203922 0.400000 0.882353
0.313725 0.400000 0.878431
0.439216 0.400000 0.882353
0.572549 0.400000 0.882353
0.705882 0.400000 0.878431
0.843137 0.407843 0.878431
0.976471 0.407843 0.882353
1.000000 0.427451 0.862745
0.156863 0.541176 0.866667
0.223529 0.541176 0.890196
0.325490 0.537255 0.874510
0.447059 0.545098 0.874510
0.580392 0.545098 0.870588
0.709804 0.545098 0.882353
0.850980 0.545098 0.882353
0.968627 0.545098 0.878431
0.996078 0.556863 0.847059
0.207843 0.674510 0.878431
0.254902 0.666667 0.874510
0.349020 0.674510 0.878431
0.466667 0.674510 0.878431
0.588235 0.674510 0.870588
0.713725 0.674510 0.878431
0.847059 0.674510 0.874510
0.964706 0.674510 0.866667
0.988235 0.686275 0.866667
0.258824 0.800000 0.870588
0.305882 0.811765 0.874510
0.384314 0.803922 0.874510
0.494118 0.800000 0.878431
0.603922 0.803922 0.886275
0.721569 0.803922 0.870588
0.839216 0.803922 0.878431
0.956863 0.807843 0.874510
1.000000 0.807843 0.874510
0.329412 0.933333 0.878431
0.352941 0.933333 0.878431
0.427451 0.929412 0.870588
0.517647 0.921569 0.874510
0.615686 0.921569 0.866667
0.725490 0.925490 0.866667
0.847059 0.917647 0.870588
0.956863 0.917647 0.882353
1.000000 0.917647 0.886275
0.431373 1.000000 0.862745
0.450980 0.996078 0.866667
0.509804 1.000000 0.866667
0.572549 1.000000 0.874510
0.662745 1.000000 0.870588
0.764706 1.000000 0.882353
0.866667 1.000000 0.901961
0.949020 1.000000 0.894118
1.000000 0.996078 0.909804
0.117647 0.000000 0.996078
0.184314 0.000000 0.996078
0.301961 0.000000 0.996078
0.431373 0.000000 1.000000
0.560784 0.000000 1.000000
0.694118 0.000000 1.000000
0.831373 0.000000 0.992157
0.964706 0.000000 1.000000
1.000000 0.000000 0.988235
0.121569 0.129412 1.000000
0.180392 0.133333 1.000000
0.301961 0.125490 1.000000
0.427451 0.121569 1.000000
0.556863 0.117647 1.000000
0.690196 0.109804 1.000000
0.827451 0.113725 1.000000
0.956863 0.121569 1.000000
1.000000 0.141176 1.000000
0.109804 0.262745 1.000000
0.176471 0.254902 1.000000
0.294118 0.258824 1.000000
0.423529 0.258824 0.996078
0.556863 0.258824 0.996078
0.694118 0.258824 1.000000
0.827451 0.258824 1.000000
0.960784 0.262745 1.000000
1.000000 0.278431 1.000000
0.121569 0.400000 0.996078
0.192157 0.400000 1.000000
0.305882 0.403922 1.000000
0.431373 0.407843 1.000000
0.576471 0.407843 1.000000
0.698039 0.407843 1.000000
0.835294 0.411765 1.000000
0.960784 0.419608 1.000000
0.996078 0.427451 0.996078
0.129412 0.529412 0.992157
0.207843 0.541176 1.000000
0.329412 0.545098 1.000000
0.447059 0.545098 1.000000
0.572549 0.545098 0.992157
0.701961 0.545098 0.996078
0.831373 0.545098 0.996078
0.956863 0.556863 0.996078
1.000000 0.556863 1.000000
0.172549 0.666667 1.000000
0.227451 0.666667 0.996078
0.337255 0.666667 1.000000
0.450980 0.670588 1.000000
0.584314 0.670588 1.000000
0.709804 0.678431 1.000000
0.831373 0.678431 0.996078
0.952941 0.682353 1.000000
1.000000 0.682353 1.000000
0.254902 0.800000 1.000000
0.290196 0.796078 1.000000
0.376471 0.796078 1.000000
0.474510 0.796078 0.992157
0.600000 0.803922 1.000000
0.717647 0.803922 1.000000
0.831373 0.803922 1.000000
0.952941 0.803922 0.996078
1.000000 0.803922 0.996078
0.317647 0.917647 1.000000
0.341176 0.921569 1.000000
0.407843 0.921569 1.000000
0.505882 0.917647 1.000000
0.615686 0.921569 1.000000
0.717647 0.917647 1.000000
0.831373 0.917647 1.000000
0.933333 0.921569 0.996078
1.000000 0.933333 0.996078
0.392157 1.000000 1.000000
0.411765 1.000000 0.996078
0.466667 0.996078 1.000000
0.549020 1.000000 1.000000
0.647059 1.000000 1.000000
0.756863 1.000000 0.996078
0.878431 1.000000 1.000000
0.968627 1.000000 1.000000
1.000000 1.000000 1.000000
