lut_library_archive/removed_20260629/50个风景lut/50个风景lut26.cube
# 版权归凌孟成所有，侵权必究
TITLE "Jungle LUT #26"
#LUT size
LUT_3D_SIZE 25
#LUT data points
0.000000 0.000000 0.000000
0.007843 0.003922 0.000000
0.050980 0.000000 0.000000
0.086275 0.003922 0.000000
0.113725 0.000000 0.000000
0.168627 0.000000 0.000000
0.196078 0.000000 0.003922
0.239216 0.000000 0.000000
0.286275 0.000000 0.000000
0.337255 0.003922 0.000000
0.396078 0.000000 0.000000
0.462745 0.000000 0.000000
0.525490 0.000000 0.003922
0.584314 0.000000 0.000000
0.654902 0.000000 0.000000
0.713725 0.003922 0.007843
0.772549 0.000000 0.000000
0.823529 0.000000 0.003922
0.878431 0.000000 0.000000
0.917647 0.003922 0.000000
0.964706 0.003922 0.000000
0.996078 0.000000 0.000000
0.996078 0.000000 0.000000
1.000000 0.003922 0.011765
0.996078 0.003922 0.000000
0.000000 0.019608 0.000000
0.015686 0.019608 0.000000
0.050980 0.023529 0.000000
0.090196 0.019608 0.003922
0.109804 0.019608 0.000000
0.156863 0.019608 0.003922
0.200000 0.023529 0.003922
0.235294 0.027451 0.000000
0.282353 0.031373 0.000000
0.341176 0.035294 0.000000
0.400000 0.035294 0.003922
0.458824 0.031373 0.003922
0.517647 0.031373 0.000000
0.588235 0.027451 0.000000
0.643137 0.031373 0.000000
0.713725 0.023529 0.003922
0.768627 0.011765 0.000000
0.823529 0.003922 0.000000
0.878431 0.000000 0.000000
0.925490 0.003922 0.000000
0.964706 0.003922 0.000000
0.996078 0.000000 0.000000
1.000000 0.003922 0.003922
1.000000 0.003922 0.003922
0.996078 0.000000 0.000000
0.007843 0.054902 0.000000
0.007843 0.054902 0.000000
0.047059 0.062745 0.000000
0.078431 0.054902 0.000000
0.117647 0.054902 0.003922
0.152941 0.062745 0.000000
0.192157 0.070588 0.000000
0.235294 0.066667 0.000000
0.290196 0.074510 0.000000
0.341176 0.078431 0.003922
0.396078 0.078431 0.000000
0.458824 0.082353 0.000000
0.525490 0.086275 0.000000
0.580392 0.086275 0.000000
0.654902 0.082353 0.000000
0.709804 0.078431 0.000000
0.768627 0.078431 0.000000
0.823529 0.066667 0.000000
0.878431 0.058824 0.007843
0.929412 0.047059 0.000000
0.968627 0.035294 0.000000
1.000000 0.019608 0.000000
0.996078 0.000000 0.000000
0.996078 0.000000 0.000000
0.988235 0.003922 0.000000
0.000000 0.098039 0.011765
0.007843 0.094118 0.003922
0.043137 0.098039 0.000000
0.078431 0.094118 0.000000
0.117647 0.094118 0.007843
0.149020 0.101961 0.000000
0.200000 0.105882 0.000000
0.243137 0.109804 0.000000
0.286275 0.109804 0.000000
0.349020 0.117647 0.000000
0.407843 0.121569 0.000000
0.462745 0.125490 0.003922
0.521569 0.129412 0.000000
0.584314 0.129412 0.000000
0.647059 0.137255 0.003922
0.709804 0.137255 0.003922
0.764706 0.129412 0.000000
0.827451 0.125490 0.000000
0.874510 0.121569 0.007843
0.921569 0.109804 0.000000
0.964706 0.105882 0.000000
0.996078 0.098039 0.000000
1.000000 0.094118 0.000000
0.996078 0.078431 0.003922
1.000000 0.062745 0.003922
0.000000 0.129412 0.000000
0.011765 0.133333 0.000000
0.031373 0.133333 0.000000
0.078431 0.133333 0.003922
0.117647 0.133333 0.003922
0.152941 0.145098 0.000000
0.200000 0.137255 0.000000
0.239216 0.145098 0.000000
0.294118 0.156863 0.000000
0.349020 0.156863 0.000000
0.403922 0.160784 0.000000
0.470588 0.168627 0.000000
0.533333 0.176471 0.000000
0.588235 0.180392 0.003922
0.654902 0.180392 0.003922
0.709804 0.184314 0.000000
0.768627 0.184314 0.000000
0.823529 0.180392 0.000000
0.878431 0.172549 0.000000
0.929412 0.176471 0.000000
0.968627 0.168627 0.000000
0.996078 0.160784 0.000000
0.996078 0.156863 0.000000
1.000000 0.145098 0.000000
1.000000 0.137255 0.003922
0.003922 0.172549 0.003922
0.007843 0.176471 0.000000
0.031373 0.184314 0.000000
0.074510 0.180392 0.003922
0.113725 0.184314 0.000000
0.149020 0.180392 0.000000
0.192157 0.184314 0.000000
0.247059 0.192157 0.015686
0.298039 0.196078 0.000000
0.349020 0.203922 0.000000
0.407843 0.207843 0.000000
0.462745 0.219608 0.000000
0.533333 0.223529 0.000000
0.600000 0.231373 0.000000
0.666667 0.235294 0.000000
0.725490 0.231373 0.000000
0.784314 0.235294 0.003922
0.827451 0.231373 0.000000
0.886275 0.227451 0.003922
0.929412 0.223529 0.000000
0.972549 0.219608 0.003922
1.000000 0.211765 0.000000
1.000000 0.207843 0.000000
0.996078 0.200000 0.000000
1.000000 0.192157 0.007843
0.000000 0.227451 0.000000
0.007843 0.215686 0.003922
0.023529 0.223529 0.000000
0.066667 0.219608 0.003922
0.125490 0.223529 0.000000
0.164706 0.215686 0.000000
0.196078 0.227451 0.000000
0.250980 0.227451 0.000000
0.298039 0.235294 0.000000
0.360784 0.243137 0.000000
0.415686 0.254902 0.003922
0.474510 0.258824 0.003922
0.537255 0.266667 0.000000
0.603922 0.274510 0.000000
0.662745 0.278431 0.000000
0.721569 0.282353 0.000000
0.780392 0.278431 0.000000
0.835294 0.278431 0.000000
0.886275 0.274510 0.003922
0.933333 0.274510 0.000000
0.972549 0.274510 0.000000
1.000000 0.266667 0.000000
1.000000 0.262745 0.000000
1.000000 0.247059 0.007843
1.000000 0.243137 0.011765
0.000000 0.274510 0.000000
0.000000 0.270588 0.007843
0.007843 0.262745 0.000000
0.074510 0.266667 0.000000
0.117647 0.274510 0.000000
0.168627 0.274510 0.000000
0.223529 0.274510 0.003922
0.262745 0.274510 0.003922
0.313725 0.282353 0.000000
0.360784 0.290196 0.000000
0.423529 0.298039 0.000000
0.478431 0.309804 0.000000
0.552941 0.313725 0.000000
0.611765 0.317647 0.000000
0.670588 0.325490 0.003922
0.729412 0.329412 0.007843
0.784314 0.329412 0.003922
0.831373 0.329412 0.003922
0.878431 0.329412 0.003922
0.925490 0.321569 0.000000
0.964706 0.321569 0.003922
0.996078 0.313725 0.007843
0.992157 0.309804 0.000000
0.992157 0.309804 0.003922
0.996078 0.294118 0.000000
0.003922 0.325490 0.000000
0.000000 0.321569 0.000000
0.000000 0.329412 0.000000
0.058824 0.333333 0.000000
0.129412 0.321569 0.000000
0.184314 0.321569 0.000000
0.231373 0.329412 0.000000
0.278431 0.333333 0.000000
0.317647 0.333333 0.000000
0.368627 0.341176 0.000000
0.427451 0.341176 0.003922
0.490196 0.349020 0.003922
0.556863 0.364706 0.003922
0.619608 0.368627 0.000000
0.682353 0.372549 0.007843
0.737255 0.372549 0.000000
0.784314 0.376471 0.003922
0.831373 0.376471 0.003922
0.878431 0.376471 0.003922
0.921569 0.372549 0.000000
0.960784 0.364706 0.000000
1.000000 0.364706 0.007843
1.000000 0.356863 0.000000
1.000000 0.352941 0.000000
1.000000 0.337255 0.000000
0.000000 0.388235 0.011765
0.000000 0.380392 0.000000
0.003922 0.384314 0.003922
0.043137 0.388235 0.000000
0.117647 0.400000 0.007843
0.184314 0.388235 0.000000
0.231373 0.388235 0.000000
0.278431 0.396078 0.011765
0.341176 0.388235 0.003922
0.392157 0.392157 0.007843
0.447059 0.400000 0.007843
0.494118 0.403922 0.000000
0.560784 0.415686 0.000000
0.619608 0.419608 0.000000
0.674510 0.423529 0.000000
0.725490 0.427451 0.000000
0.780392 0.423529 0.003922
0.827451 0.427451 0.003922
0.878431 0.419608 0.003922
0.921569 0.419608 0.007843
0.968627 0.419608 0.007843
1.000000 0.411765 0.003922
0.996078 0.407843 0.000000
0.992157 0.400000 0.003922
0.996078 0.396078 0.000000
0.000000 0.454902 0.003922
0.000000 0.450980 0.000000
0.007843 0.454902 0.007843
0.043137 0.454902 0.000000
0.141176 0.454902 0.011765
0.200000 0.454902 0.000000
0.254902 0.450980 0.000000
0.301961 0.458824 0.007843
0.360784 0.454902 0.007843
0.403922 0.454902 0.003922
0.462745 0.458824 0.003922
0.509804 0.462745 0.000000
0.568627 0.466667 0.000000
0.627451 0.474510 0.000000
0.690196 0.478431 0.000000
0.745098 0.474510 0.000000
0.788235 0.482353 0.000000
0.835294 0.474510 0.000000
0.882353 0.474510 0.000000
0.925490 0.470588 0.003922
0.964706 0.462745 0.003922
0.992157 0.454902 0.000000
0.996078 0.454902 0.000000
0.992157 0.447059 0.003922
1.000000 0.439216 0.000000
0.003922 0.509804 0.003922
0.000000 0.517647 0.000000
0.003922 0.513725 0.000000
0.019608 0.517647 0.000000
0.133333 0.513725 0.000000
0.196078 0.513725 0.000000
0.262745 0.521569 0.000000
0.313725 0.513725 0.000000
0.360784 0.517647 0.000000
0.419608 0.521569 0.000000
0.474510 0.517647 0.003922
0.521569 0.521569 0.000000
0.572549 0.525490 0.000000
0.631373 0.529412 0.000000
0.686275 0.529412 0.003922
0.745098 0.525490 0.000000
0.796078 0.521569 0.003922
0.835294 0.521569 0.000000
0.882353 0.521569 0.000000
0.917647 0.513725 0.000000
0.960784 0.513725 0.003922
1.000000 0.505882 0.003922
1.000000 0.498039 0.000000
1.000000 0.494118 0.003922
1.000000 0.490196 0.003922
0.003922 0.572549 0.000000
0.000000 0.572549 0.000000
0.000000 0.576471 0.000000
0.011765 0.576471 0.000000
0.129412 0.576471 0.000000
0.203922 0.568627 0.007843
0.254902 0.576471 0.000000
0.309804 0.576471 0.000000
0.372549 0.576471 0.000000
0.427451 0.576471 0.000000
0.482353 0.576471 0.003922
0.525490 0.572549 0.000000
0.580392 0.572549 0.000000
0.631373 0.576471 0.000000
0.694118 0.576471 0.000000
0.741176 0.576471 0.000000
0.792157 0.572549 0.000000
0.835294 0.572549 0.000000
0.882353 0.568627 0.000000
0.925490 0.564706 0.000000
0.960784 0.560784 0.000000
0.996078 0.556863 0.000000
0.992157 0.545098 0.000000
0.992157 0.529412 0.000000
1.000000 0.529412 0.000000
0.000000 0.627451 0.000000
0.003922 0.631373 0.003922
0.000000 0.619608 0.000000
0.007843 0.635294 0.007843
0.113725 0.631373 0.000000
0.196078 0.635294 0.000000
0.258824 0.635294 0.000000
0.325490 0.631373 0.000000
0.376471 0.627451 0.003922
0.435294 0.631373 0.007843
0.482353 0.631373 0.000000
0.529412 0.623529 0.000000
0.584314 0.627451 0.000000
0.639216 0.623529 0.000000
0.690196 0.631373 0.000000
0.745098 0.627451 0.000000
0.788235 0.623529 0.000000
0.835294 0.623529 0.003922
0.874510 0.615686 0.003922
0.921569 0.611765 0.003922
0.960784 0.603922 0.003922
1.000000 0.588235 0.007843
0.992157 0.592157 0.015686
1.000000 0.584314 0.003922
1.000000 0.580392 0.000000
0.003922 0.678431 0.000000
0.000000 0.682353 0.000000
0.000000 0.674510 0.000000
0.000000 0.686275 0.015686
0.105882 0.678431 0.000000
0.192157 0.678431 0.000000
0.258824 0.682353 0.000000
0.317647 0.678431 0.000000
0.376471 0.678431 0.000000
0.419608 0.682353 0.000000
0.482353 0.678431 0.000000
0.537255 0.678431 0.003922
0.588235 0.674510 0.000000
0.639216 0.678431 0.000000
0.686275 0.674510 0.000000
0.737255 0.674510 0.000000
0.792157 0.674510 0.000000
0.835294 0.670588 0.003922
0.874510 0.662745 0.000000
0.917647 0.654902 0.000000
0.968627 0.647059 0.011765
1.000000 0.639216 0.007843
1.000000 0.631373 0.003922
1.000000 0.627451 0.000000
0.996078 0.619608 0.003922
0.003922 0.733333 0.000000
0.000000 0.733333 0.000000
0.007843 0.737255 0.003922
0.000000 0.745098 0.003922
0.109804 0.725490 0.000000
0.188235 0.729412 0.007843
0.254902 0.733333 0.000000
0.321569 0.729412 0.003922
0.372549 0.733333 0.000000
0.423529 0.733333 0.000000
0.486275 0.729412 0.000000
0.537255 0.729412 0.000000
0.592157 0.725490 0.000000
0.643137 0.729412 0.000000
0.694118 0.725490 0.003922
0.741176 0.725490 0.007843
0.800000 0.721569 0.003922
0.843137 0.717647 0.007843
0.878431 0.713725 0.000000
0.921569 0.705882 0.000000
0.960784 0.701961 0.000000
0.992157 0.690196 0.000000
1.000000 0.682353 0.000000
1.000000 0.670588 0.000000
1.000000 0.670588 0.000000
0.000000 0.776471 0.011765
0.000000 0.780392 0.000000
0.000000 0.776471 0.000000
0.007843 0.776471 0.007843
0.086275 0.776471 0.007843
0.184314 0.772549 0.007843
0.250980 0.772549 0.000000
0.305882 0.776471 0.007843
0.364706 0.780392 0.011765
0.423529 0.776471 0.007843
0.482353 0.768627 0.003922
0.525490 0.768627 0.003922
0.572549 0.768627 0.000000
0.631373 0.772549 0.003922
0.678431 0.768627 0.000000
0.725490 0.772549 0.000000
0.780392 0.772549 0.003922
0.831373 0.764706 0.003922
0.874510 0.764706 0.000000
0.921569 0.752941 0.000000
0.956863 0.741176 0.000000
1.000000 0.733333 0.000000
1.000000 0.725490 0.003922
0.996078 0.713725 0.000000
1.000000 0.709804 0.000000
0.007843 0.811765 0.003922
0.000000 0.815686 0.000000
0.003922 0.819608 0.003922
0.003922 0.819608 0.003922
0.058824 0.819608 0.000000
0.176471 0.819608 0.000000
0.243137 0.811765 0.000000
0.298039 0.815686 0.003922
0.356863 0.819608 0.003922
0.415686 0.815686 0.003922
0.466667 0.807843 0.003922
0.521569 0.815686 0.007843
0.576471 0.807843 0.000000
0.619608 0.807843 0.000000
0.670588 0.807843 0.007843
0.721569 0.807843 0.000000
0.772549 0.800000 0.000000
0.823529 0.803922 0.000000
0.874510 0.803922 0.003922
0.917647 0.796078 0.000000
0.956863 0.788235 0.000000
0.988235 0.780392 0.000000
0.992157 0.772549 0.000000
1.000000 0.760784 0.003922
1.000000 0.756863 0.000000
0.000000 0.854902 0.007843
0.000000 0.854902 0.000000
0.007843 0.854902 0.003922
0.003922 0.847059 0.000000
0.031373 0.850980 0.000000
0.149020 0.850980 0.003922
0.219608 0.858824 0.000000
0.290196 0.850980 0.003922
0.352941 0.850980 0.000000
0.403922 0.854902 0.000000
0.458824 0.854902 0.000000
0.509804 0.847059 0.003922
0.568627 0.847059 0.000000
0.611765 0.843137 0.003922
0.662745 0.843137 0.003922
0.713725 0.843137 0.000000
0.764706 0.839216 0.000000
0.811765 0.835294 0.000000
0.858824 0.839216 0.003922
0.909804 0.831373 0.003922
0.952941 0.831373 0.000000
0.988235 0.823529 0.000000
1.000000 0.807843 0.000000
0.996078 0.807843 0.007843
0.988235 0.800000 0.000000
0.000000 0.894118 0.000000
0.007843 0.886275 0.000000
0.003922 0.890196 0.003922
0.000000 0.886275 0.000000
0.011765 0.890196 0.003922
0.129412 0.882353 0.000000
0.215686 0.886275 0.000000
0.278431 0.894118 0.003922
0.345098 0.886275 0.000000
0.396078 0.894118 0.003922
0.447059 0.886275 0.000000
0.505882 0.890196 0.007843
0.560784 0.882353 0.000000
0.603922 0.878431 0.003922
0.654902 0.878431 0.000000
0.701961 0.878431 0.000000
0.752941 0.878431 0.000000
0.800000 0.878431 0.003922
0.847059 0.878431 0.003922
0.890196 0.874510 0.000000
0.945098 0.874510 0.000000
0.984314 0.866667 0.000000
1.000000 0.858824 0.000000
1.000000 0.850980 0.000000
1.000000 0.835294 0.000000
0.003922 0.925490 0.007843
0.000000 0.929412 0.003922
0.000000 0.929412 0.003922
0.007843 0.925490 0.000000
0.007843 0.933333 0.000000
0.125490 0.925490 0.000000
0.203922 0.921569 0.003922
0.270588 0.929412 0.007843
0.337255 0.925490 0.000000
0.388235 0.921569 0.000000
0.443137 0.921569 0.000000
0.498039 0.921569 0.000000
0.545098 0.921569 0.003922
0.592157 0.921569 0.000000
0.635294 0.917647 0.000000
0.686275 0.921569 0.000000
0.729412 0.917647 0.000000
0.784314 0.917647 0.000000
0.827451 0.913725 0.000000
0.878431 0.917647 0.000000
0.933333 0.909804 0.000000
0.976471 0.905882 0.003922
0.996078 0.901961 0.007843
1.000000 0.890196 0.003922
0.996078 0.882353 0.000000
0.000000 0.952941 0.003922
0.011765 0.952941 0.007843
0.003922 0.956863 0.000000
0.000000 0.960784 0.000000
0.003922 0.960784 0.000000
0.117647 0.952941 0.003922
0.196078 0.952941 0.000000
0.270588 0.956863 0.003922
0.325490 0.956863 0.003922
0.376471 0.956863 0.000000
0.431373 0.956863 0.000000
0.482353 0.949020 0.000000
0.537255 0.949020 0.000000
0.592157 0.949020 0.000000
0.639216 0.949020 0.000000
0.686275 0.949020 0.007843
0.733333 0.949020 0.003922
0.772549 0.949020 0.000000
0.815686 0.949020 0.000000
0.870588 0.945098 0.000000
0.921569 0.941176 0.000000
0.976471 0.941176 0.000000
0.992157 0.941176 0.003922
0.996078 0.937255 0.000000
1.000000 0.925490 0.000000
0.011765 0.984314 0.000000
0.003922 0.984314 0.003922
0.000000 0.988235 0.000000
0.000000 0.992157 0.003922
0.000000 0.988235 0.003922
0.098039 0.992157 0.007843
0.188235 0.992157 0.000000
0.254902 0.992157 0.003922
0.313725 0.988235 0.000000
0.372549 0.988235 0.000000
0.423529 0.980392 0.000000
0.474510 0.988235 0.000000
0.525490 0.984314 0.000000
0.572549 0.984314 0.000000
0.619608 0.980392 0.000000
0.666667 0.984314 0.000000
0.717647 0.976471 0.000000
0.760784 0.976471 0.000000
0.811765 0.976471 0.003922
0.858824 0.972549 0.000000
0.909804 0.972549 0.000000
0.945098 0.968627 0.003922
0.996078 0.964706 0.000000
0.996078 0.964706 0.000000
1.000000 0.960784 0.000000
0.000000 1.000000 0.000000
0.007843 0.992157 0.000000
0.000000 0.996078 0.000000
0.000000 1.000000 0.000000
0.007843 1.000000 0.000000
0.090196 0.996078 0.000000
0.168627 1.000000 0.007843
0.243137 1.000000 0.000000
0.305882 1.000000 0.003922
0.360784 1.000000 0.000000
0.411765 0.996078 0.000000
0.466667 0.996078 0.003922
0.521569 0.996078 0.000000
0.556863 1.000000 0.000000
0.607843 0.996078 0.003922
0.662745 1.000000 0.003922
0.713725 1.000000 0.000000
0.760784 1.000000 0.003922
0.803922 1.000000 0.000000
0.854902 1.000000 0.000000
0.898039 1.000000 0.000000
0.949020 0.992157 0.000000
0.988235 1.000000 0.000000
1.000000 0.988235 0.000000
1.000000 0.980392 0.007843
0.000000 1.000000 0.000000
0.000000 0.996078 0.000000
0.000000 0.996078 0.007843
0.007843 1.000000 0.000000
0.000000 0.996078 0.000000
0.054902 1.000000 0.000000
0.152941 0.996078 0.000000
0.231373 0.996078 0.000000
0.282353 1.000000 0.000000
0.341176 1.000000 0.000000
0.403922 1.000000 0.000000
0.458824 0.996078 0.000000
0.494118 1.000000 0.000000
0.549020 1.000000 0.000000
0.603922 1.000000 0.003922
0.658824 1.000000 0.000000
0.705882 1.000000 0.000000
0.760784 1.000000 0.003922
0.815686 1.000000 0.003922
0.858824 0.996078 0.000000
0.909804 1.000000 0.000000
0.956863 1.000000 0.000000
0.988235 1.000000 0.000000
0.996078 1.000000 0.011765
1.000000 1.000000 0.003922
0.003922 0.000000 0.019608
0.019608 0.000000 0.011765
0.054902 0.000000 0.000000
0.098039 0.000000 0.015686
0.117647 0.000000 0.007843
0.160784 0.000000 0.023529
0.196078 0.000000 0.003922
0.243137 0.000000 0.011765
0.290196 0.000000 0.007843
0.345098 0.000000 0.003922
0.400000 0.003922 0.003922
0.462745 0.000000 0.000000
0.525490 0.000000 0.003922
0.588235 0.000000 0.003922
0.650980 0.003922 0.000000
0.709804 0.007843 0.000000
0.772549 0.000000 0.000000
0.827451 0.000000 0.000000
0.878431 0.000000 0.000000
0.925490 0.003922 0.000000
0.972549 0.003922 0.003922
1.000000 0.003922 0.003922
1.000000 0.003922 0.003922
0.996078 0.000000 0.000000
0.996078 0.000000 0.007843
0.003922 0.023529 0.000000
0.015686 0.023529 0.019608
0.054902 0.023529 0.015686
0.094118 0.023529 0.023529
0.109804 0.027451 0.015686
0.156863 0.023529 0.019608
0.188235 0.027451 0.011765
0.239216 0.031373 0.007843
0.286275 0.031373 0.007843
0.341176 0.031373 0.003922
0.396078 0.031373 0.000000
0.454902 0.027451 0.000000
0.521569 0.023529 0.000000
0.584314 0.015686 0.000000
0.643137 0.011765 0.000000
0.713725 0.003922 0.000000
0.772549 0.000000 0.000000
0.827451 0.000000 0.003922
0.882353 0.000000 0.003922
0.925490 0.003922 0.000000
0.964706 0.003922 0.000000
0.996078 0.000000 0.000000
0.996078 0.000000 0.000000
0.988235 0.003922 0.007843
1.000000 0.003922 0.003922
0.007843 0.054902 0.007843
0.011765 0.058824 0.019608
0.050980 0.058824 0.007843
0.086275 0.062745 0.007843
0.121569 0.050980 0.011765
0.156863 0.062745 0.015686
0.196078 0.066667 0.007843
0.247059 0.066667 0.007843
0.294118 0.070588 0.003922
0.341176 0.074510 0.000000
0.400000 0.074510 0.003922
0.458824 0.074510 0.000000
0.525490 0.074510 0.000000
0.588235 0.074510 0.003922
0.662745 0.062745 0.000000
0.717647 0.062745 0.000000
0.776471 0.058824 0.003922
0.823529 0.047059 0.003922
0.874510 0.035294 0.003922
0.921569 0.019608 0.000000
0.968627 0.007843 0.000000
0.996078 0.000000 0.000000
0.996078 0.000000 0.007843
0.996078 0.000000 0.000000
0.992157 0.007843 0.003922
0.000000 0.101961 0.003922
0.007843 0.094118 0.011765
0.050980 0.098039 0.011765
0.078431 0.090196 0.015686
0.117647 0.101961 0.003922
0.149020 0.101961 0.007843
0.200000 0.105882 0.003922
0.250980 0.105882 0.003922
0.290196 0.105882 0.003922
0.337255 0.117647 0.000000
0.396078 0.117647 0.000000
0.462745 0.125490 0.003922
0.525490 0.121569 0.000000
0.596078 0.125490 0.000000
0.650980 0.125490 0.000000
0.713725 0.125490 0.000000
0.768627 0.125490 0.000000
0.823529 0.113725 0.000000
0.874510 0.109804 0.000000
0.925490 0.105882 0.000000
0.968627 0.094118 0.000000
0.996078 0.086275 0.000000
1.000000 0.074510 0.000000
0.996078 0.062745 0.000000
1.000000 0.039216 0.000000
0.000000 0.133333 0.000000
0.000000 0.129412 0.007843
0.031373 0.137255 0.000000
0.078431 0.133333 0.003922
0.113725 0.137255 0.003922
0.152941 0.137255 0.000000
0.200000 0.137255 0.000000
0.239216 0.152941 0.007843
0.290196 0.152941 0.003922
0.356863 0.152941 0.000000
0.403922 0.160784 0.000000
0.466667 0.164706 0.000000
0.537255 0.164706 0.000000
0.592157 0.172549 0.000000
0.654902 0.176471 0.000000
0.717647 0.176471 0.003922
0.772549 0.176471 0.000000
0.827451 0.172549 0.000000
0.874510 0.168627 0.000000
0.925490 0.164706 0.000000
0.968627 0.156863 0.000000
1.000000 0.149020 0.003922
1.000000 0.145098 0.000000
1.000000 0.133333 0.000000
0.996078 0.129412 0.000000
0.000000 0.172549 0.003922
0.000000 0.176471 0.000000
0.019608 0.184314 0.003922
0.070588 0.184314 0.000000
0.117647 0.180392 0.003922
0.156863 0.180392 0.000000
0.196078 0.180392 0.000000
0.243137 0.188235 0.003922
0.298039 0.196078 0.000000
0.349020 0.203922 0.000000
0.407843 0.207843 0.000000
0.470588 0.215686 0.003922
0.537255 0.219608 0.003922
0.600000 0.223529 0.000000
0.666667 0.227451 0.000000
0.725490 0.223529 0.000000
0.780392 0.223529 0.003922
0.827451 0.219608 0.000000
0.878431 0.219608 0.003922
0.929412 0.215686 0.000000
0.976471 0.211765 0.003922
1.000000 0.207843 0.000000
0.996078 0.203922 0.000000
0.996078 0.200000 0.000000
1.000000 0.188235 0.000000
0.003922 0.219608 0.000000
0.003922 0.219608 0.003922
0.015686 0.227451 0.000000
0.074510 0.223529 0.000000
0.117647 0.227451 0.000000
0.168627 0.219608 0.000000
0.207843 0.227451 0.000000
0.254902 0.231373 0.003922
0.309804 0.235294 0.000000
0.360784 0.243137 0.000000
0.411765 0.250980 0.000000
0.474510 0.258824 0.003922
0.537255 0.266667 0.003922
0.603922 0.270588 0.007843
0.666667 0.274510 0.007843
0.721569 0.282353 0.000000
0.772549 0.282353 0.000000
0.835294 0.278431 0.000000
0.882353 0.270588 0.000000
0.929412 0.270588 0.000000
0.964706 0.262745 0.000000
1.000000 0.258824 0.000000
1.000000 0.258824 0.000000
0.996078 0.247059 0.000000
1.000000 0.243137 0.011765
0.000000 0.270588 0.000000
0.000000 0.274510 0.015686
0.000000 0.270588 0.000000
0.070588 0.270588 0.007843
0.113725 0.274510 0.000000
0.172549 0.274510 0.000000
0.215686 0.274510 0.003922
0.266667 0.278431 0.007843
0.313725 0.282353 0.000000
0.364706 0.290196 0.000000
0.423529 0.298039 0.003922
0.486275 0.309804 0.000000
0.541176 0.313725 0.000000
0.607843 0.325490 0.003922
0.666667 0.329412 0.000000
0.721569 0.329412 0.000000
0.776471 0.325490 0.000000
0.823529 0.321569 0.000000
0.878431 0.321569 0.000000
0.921569 0.317647 0.000000
0.968627 0.313725 0.000000
1.000000 0.305882 0.000000
1.000000 0.301961 0.003922
0.996078 0.294118 0.000000
1.000000 0.290196 0.000000
0.000000 0.321569 0.000000
0.000000 0.325490 0.003922
0.000000 0.325490 0.000000
0.058824 0.333333 0.000000
0.117647 0.333333 0.000000
0.164706 0.329412 0.000000
0.215686 0.333333 0.000000
0.274510 0.333333 0.000000
0.321569 0.337255 0.003922
0.376471 0.337255 0.000000
0.431373 0.349020 0.000000
0.498039 0.352941 0.007843
0.552941 0.360784 0.000000
0.619608 0.372549 0.007843
0.670588 0.372549 0.007843
0.729412 0.376471 0.007843
0.784314 0.376471 0.003922
0.835294 0.368627 0.000000
0.878431 0.368627 0.000000
0.921569 0.364706 0.000000
0.968627 0.360784 0.000000
1.000000 0.356863 0.003922
1.000000 0.352941 0.000000
0.988235 0.349020 0.000000
1.000000 0.345098 0.000000
0.000000 0.380392 0.000000
0.000000 0.392157 0.000000
0.003922 0.380392 0.000000
0.039216 0.380392 0.000000
0.125490 0.384314 0.000000
0.176471 0.392157 0.000000
0.231373 0.388235 0.000000
0.286275 0.388235 0.000000
0.345098 0.392157 0.007843
0.388235 0.392157 0.000000
0.439216 0.392157 0.000000
0.498039 0.407843 0.003922
0.564706 0.415686 0.000000
0.615686 0.415686 0.000000
0.670588 0.419608 0.000000
0.729412 0.423529 0.000000
0.780392 0.423529 0.003922
0.827451 0.419608 0.000000
0.874510 0.415686 0.000000
0.921569 0.419608 0.000000
0.972549 0.411765 0.003922
0.996078 0.407843 0.000000
1.000000 0.400000 0.000000
0.996078 0.396078 0.000000
0.996078 0.388235 0.003922
0.000000 0.450980 0.000000
0.000000 0.450980 0.000000
0.003922 0.443137 0.000000
0.035294 0.454902 0.000000
0.117647 0.458824 0.007843
0.188235 0.450980 0.000000
0.243137 0.458824 0.000000
0.305882 0.450980 0.003922
0.356863 0.454902 0.000000
0.403922 0.454902 0.000000
