lut_library_archive/removed_20260629/50个风景lut/50个风景lut46.cube
# 版权归凌孟成所有，侵权必究
TITLE "Jungle LUT #46"
#LUT size
LUT_3D_SIZE 9
#LUT data points
0.003922 0.000000 0.000000
0.101961 0.000000 0.003922
0.231373 0.000000 0.000000
0.368627 0.000000 0.003922
0.509804 0.000000 0.000000
0.650980 0.003922 0.000000
0.792157 0.003922 0.000000
0.941176 0.003922 0.000000
0.996078 0.000000 0.000000
0.003922 0.098039 0.003922
0.113725 0.094118 0.007843
0.235294 0.101961 0.000000
0.372549 0.098039 0.000000
0.505882 0.090196 0.000000
0.654902 0.082353 0.000000
0.788235 0.066667 0.000000
0.925490 0.043137 0.000000
1.000000 0.027451 0.000000
0.000000 0.235294 0.000000
0.117647 0.227451 0.000000
0.247059 0.239216 0.007843
0.376471 0.235294 0.000000
0.513725 0.239216 0.003922
0.662745 0.239216 0.000000
0.803922 0.239216 0.000000
0.945098 0.239216 0.000000
0.996078 0.235294 0.000000
0.000000 0.372549 0.000000
0.086275 0.376471 0.000000
0.239216 0.388235 0.000000
0.388235 0.376471 0.003922
0.529412 0.376471 0.003922
0.658824 0.384314 0.007843
0.796078 0.380392 0.003922
0.941176 0.388235 0.003922
0.996078 0.388235 0.000000
0.000000 0.517647 0.000000
0.054902 0.525490 0.000000
0.243137 0.529412 0.000000
0.392157 0.521569 0.000000
0.525490 0.525490 0.000000
0.666667 0.521569 0.000000
0.811765 0.529412 0.003922
0.949020 0.525490 0.000000
0.988235 0.545098 0.003922
0.000000 0.682353 0.000000
0.027451 0.686275 0.000000
0.239216 0.678431 0.000000
0.396078 0.678431 0.003922
0.541176 0.674510 0.000000
0.678431 0.678431 0.000000
0.815686 0.674510 0.000000
0.952941 0.670588 0.000000
0.996078 0.666667 0.007843
0.007843 0.803922 0.000000
0.000000 0.815686 0.000000
0.219608 0.815686 0.003922
0.388235 0.819608 0.000000
0.525490 0.815686 0.003922
0.674510 0.811765 0.000000
0.811765 0.811765 0.000000
0.945098 0.807843 0.000000
1.000000 0.800000 0.000000
0.000000 0.945098 0.000000
0.007843 0.952941 0.000000
0.215686 0.949020 0.000000
0.372549 0.949020 0.003922
0.521569 0.949020 0.000000
0.662745 0.952941 0.000000
0.803922 0.952941 0.000000
0.949020 0.945098 0.000000
1.000000 0.952941 0.000000
0.000000 1.000000 0.000000
0.003922 0.996078 0.000000
0.203922 0.996078 0.007843
0.360784 1.000000 0.000000
0.517647 1.000000 0.000000
0.643137 1.000000 0.000000
0.768627 1.000000 0.000000
0.898039 1.000000 0.000000
0.992157 1.000000 0.003922
0.000000 0.003922 0.090196
0.098039 0.000000 0.086275
0.243137 0.000000 0.098039
0.368627 0.003922 0.086275
0.513725 0.000000 0.078431
0.654902 0.003922 0.066667
0.792157 0.000000 0.054902
0.933333 0.000000 0.019608
0.996078 0.000000 0.000000
0.003922 0.101961 0.086275
0.101961 0.098039 0.082353
0.235294 0.098039 0.090196
0.368627 0.090196 0.082353
0.505882 0.074510 0.078431
0.658824 0.054902 0.062745
0.796078 0.027451 0.043137
0.949020 0.000000 0.015686
1.000000 0.003922 0.011765
0.003922 0.231373 0.074510
0.098039 0.235294 0.070588
0.247059 0.235294 0.066667
0.380392 0.235294 0.062745
0.517647 0.235294 0.054902
0.662745 0.231373 0.039216
0.800000 0.231373 0.015686
0.941176 0.227451 0.000000
0.996078 0.227451 0.000000
0.000000 0.372549 0.023529
0.078431 0.376471 0.031373
0.239216 0.376471 0.015686
0.388235 0.368627 0.007843
0.517647 0.376471 0.007843
0.662745 0.376471 0.003922
0.807843 0.384314 0.000000
0.949020 0.388235 0.000000
0.996078 0.388235 0.003922
0.000000 0.521569 0.007843
0.027451 0.525490 0.003922
0.235294 0.521569 0.000000
0.384314 0.525490 0.000000
0.533333 0.525490 0.000000
0.662745 0.517647 0.000000
0.807843 0.525490 0.000000
0.949020 0.525490 0.000000
1.000000 0.525490 0.000000
0.000000 0.670588 0.000000
0.000000 0.678431 0.000000
0.231373 0.678431 0.000000
0.388235 0.674510 0.007843
0.529412 0.670588 0.003922
0.670588 0.666667 0.000000
0.803922 0.674510 0.000000
0.949020 0.666667 0.000000
0.996078 0.670588 0.000000
0.011765 0.807843 0.000000
0.000000 0.811765 0.003922
0.211765 0.803922 0.000000
0.372549 0.811765 0.000000
0.525490 0.807843 0.000000
0.674510 0.803922 0.000000
0.811765 0.807843 0.000000
0.949020 0.807843 0.000000
1.000000 0.796078 0.003922
0.003922 0.949020 0.000000
0.011765 0.956863 0.000000
0.192157 0.952941 0.000000
0.364706 0.949020 0.000000
0.521569 0.949020 0.003922
0.670588 0.949020 0.000000
0.807843 0.945098 0.000000
0.945098 0.941176 0.000000
1.000000 0.937255 0.000000
0.000000 1.000000 0.011765
0.003922 0.992157 0.000000
0.180392 0.996078 0.000000
0.360784 1.000000 0.000000
0.505882 0.996078 0.000000
0.643137 1.000000 0.000000
0.776471 1.000000 0.007843
0.898039 0.996078 0.007843
0.988235 1.000000 0.000000
0.000000 0.000000 0.219608
0.117647 0.000000 0.219608
0.239216 0.003922 0.215686
0.372549 0.000000 0.219608
0.521569 0.000000 0.215686
0.658824 0.000000 0.211765
0.800000 0.000000 0.207843
0.949020 0.000000 0.200000
1.000000 0.000000 0.196078
0.000000 0.094118 0.203922
0.098039 0.094118 0.215686
0.243137 0.090196 0.211765
0.380392 0.078431 0.211765
0.521569 0.062745 0.207843
0.658824 0.019608 0.211765
0.796078 0.000000 0.203922
0.945098 0.007843 0.203922
0.992157 0.007843 0.188235
0.000000 0.227451 0.211765
0.101961 0.239216 0.223529
0.243137 0.231373 0.211765
0.384314 0.231373 0.211765
0.521569 0.227451 0.207843
0.662745 0.231373 0.203922
0.803922 0.219608 0.196078
0.945098 0.215686 0.196078
1.000000 0.207843 0.184314
0.011765 0.372549 0.211765
0.043137 0.376471 0.203922
0.250980 0.380392 0.203922
0.384314 0.380392 0.200000
0.521569 0.376471 0.200000
0.662745 0.380392 0.200000
0.803922 0.380392 0.196078
0.952941 0.372549 0.184314
1.000000 0.376471 0.188235
0.000000 0.529412 0.184314
0.007843 0.525490 0.188235
0.227451 0.525490 0.180392
0.384314 0.525490 0.184314
0.525490 0.517647 0.176471
0.662745 0.517647 0.172549
0.811765 0.521569 0.180392
0.949020 0.517647 0.176471
0.996078 0.521569 0.172549
0.003922 0.670588 0.180392
0.003922 0.674510 0.164706
0.223529 0.674510 0.168627
0.388235 0.670588 0.168627
0.529412 0.674510 0.160784
0.662745 0.666667 0.156863
0.811765 0.666667 0.149020
0.949020 0.662745 0.149020
0.996078 0.662745 0.156863
0.011765 0.807843 0.133333
0.000000 0.803922 0.133333
0.203922 0.803922 0.133333
0.368627 0.807843 0.125490
0.517647 0.807843 0.129412
0.674510 0.807843 0.125490
0.811765 0.811765 0.121569
0.952941 0.815686 0.121569
0.996078 0.800000 0.113725
0.000000 0.949020 0.101961
0.007843 0.949020 0.113725
0.164706 0.949020 0.105882
0.360784 0.949020 0.109804
0.521569 0.949020 0.105882
0.666667 0.945098 0.090196
0.803922 0.945098 0.082353
0.945098 0.945098 0.074510
0.992157 0.937255 0.070588
0.007843 0.996078 0.105882
0.003922 0.996078 0.090196
0.160784 1.000000 0.098039
0.349020 1.000000 0.105882
0.498039 1.000000 0.109804
0.631373 1.000000 0.133333
0.776471 1.000000 0.145098
0.886275 1.000000 0.168627
1.000000 1.000000 0.192157
0.003922 0.000000 0.368627
0.121569 0.003922 0.356863
0.243137 0.000000 0.360784
0.380392 0.003922 0.364706
0.521569 0.000000 0.364706
0.662745 0.000000 0.364706
0.803922 0.000000 0.364706
0.949020 0.000000 0.360784
1.000000 0.003922 0.356863
0.000000 0.086275 0.352941
0.105882 0.078431 0.352941
0.250980 0.082353 0.364706
0.380392 0.066667 0.360784
0.525490 0.035294 0.356863
0.654902 0.003922 0.356863
0.803922 0.003922 0.360784
0.949020 0.000000 0.368627
0.996078 0.000000 0.345098
0.000000 0.235294 0.376471
0.086275 0.227451 0.368627
0.239216 0.235294 0.368627
0.388235 0.223529 0.368627
0.525490 0.223529 0.364706
0.658824 0.223529 0.360784
0.803922 0.211765 0.356863
0.949020 0.196078 0.356863
1.000000 0.180392 0.349020
0.000000 0.376471 0.360784
0.039216 0.376471 0.364706
0.227451 0.380392 0.368627
0.376471 0.372549 0.356863
0.521569 0.376471 0.352941
0.658824 0.372549 0.349020
0.807843 0.372549 0.356863
0.952941 0.368627 0.352941
1.000000 0.368627 0.356863
0.003922 0.521569 0.364706
0.000000 0.525490 0.364706
0.211765 0.529412 0.352941
0.380392 0.525490 0.356863
0.529412 0.517647 0.349020
0.670588 0.525490 0.352941
0.807843 0.521569 0.356863
0.952941 0.513725 0.356863
0.996078 0.513725 0.349020
0.000000 0.678431 0.356863
0.000000 0.674510 0.345098
0.192157 0.674510 0.356863
0.368627 0.670588 0.349020
0.525490 0.674510 0.349020
0.674510 0.670588 0.349020
0.815686 0.666667 0.341176
0.956863 0.662745 0.345098
1.000000 0.658824 0.349020
0.000000 0.811765 0.325490
0.007843 0.811765 0.345098
0.160784 0.807843 0.345098
0.349020 0.811765 0.333333
0.517647 0.815686 0.329412
0.666667 0.807843 0.321569
0.811765 0.811765 0.333333
0.956863 0.803922 0.329412
1.000000 0.796078 0.329412
0.000000 0.945098 0.321569
0.000000 0.949020 0.329412
0.125490 0.949020 0.309804
0.341176 0.952941 0.321569
0.509804 0.949020 0.321569
0.654902 0.945098 0.313725
0.803922 0.945098 0.317647
0.952941 0.945098 0.317647
1.000000 0.941176 0.309804
0.000000 0.996078 0.313725
0.000000 1.000000 0.317647
0.121569 1.000000 0.317647
0.337255 1.000000 0.329412
0.498039 1.000000 0.329412
0.635294 0.992157 0.333333
0.768627 1.000000 0.333333
0.894118 1.000000 0.345098
0.996078 1.000000 0.356863
0.000000 0.000000 0.501961
0.090196 0.000000 0.517647
0.235294 0.000000 0.501961
0.380392 0.000000 0.513725
0.521569 0.000000 0.513725
0.654902 0.000000 0.513725
0.807843 0.003922 0.517647
0.945098 0.003922 0.509804
0.992157 0.003922 0.517647
0.000000 0.078431 0.517647
0.066667 0.074510 0.509804
0.239216 0.074510 0.513725
0.384314 0.050980 0.525490
0.529412 0.011765 0.513725
0.670588 0.000000 0.517647
0.807843 0.003922 0.517647
0.933333 0.011765 0.525490
1.000000 0.000000 0.517647
0.003922 0.223529 0.513725
0.023529 0.227451 0.521569
0.231373 0.223529 0.517647
0.384314 0.219608 0.517647
0.533333 0.211765 0.513725
0.662745 0.207843 0.509804
0.807843 0.203922 0.509804
0.945098 0.188235 0.513725
1.000000 0.172549 0.505882
0.003922 0.372549 0.521569
0.000000 0.376471 0.513725
0.215686 0.368627 0.521569
0.388235 0.364706 0.513725
0.529412 0.364706 0.513725
0.666667 0.368627 0.509804
0.815686 0.368627 0.509804
0.956863 0.360784 0.513725
1.000000 0.352941 0.509804
0.000000 0.517647 0.505882
0.000000 0.525490 0.529412
0.203922 0.521569 0.525490
0.364706 0.521569 0.517647
0.525490 0.525490 0.517647
0.666667 0.517647 0.513725
0.811765 0.513725 0.513725
0.949020 0.513725 0.509804
0.996078 0.509804 0.501961
0.007843 0.674510 0.521569
0.000000 0.678431 0.517647
0.160784 0.670588 0.517647
0.352941 0.670588 0.509804
0.521569 0.674510 0.501961
0.666667 0.670588 0.505882
0.819608 0.666667 0.505882
0.952941 0.666667 0.509804
1.000000 0.654902 0.505882
0.007843 0.807843 0.505882
0.000000 0.811765 0.498039
0.074510 0.819608 0.505882
0.325490 0.807843 0.490196
0.509804 0.811765 0.498039
0.658824 0.803922 0.490196
0.811765 0.807843 0.494118
0.956863 0.807843 0.490196
0.992157 0.800000 0.498039
0.003922 0.945098 0.486275
0.007843 0.941176 0.501961
0.031373 0.952941 0.486275
0.329412 0.952941 0.490196
0.490196 0.952941 0.482353
0.654902 0.949020 0.486275
0.792157 0.945098 0.478431
0.945098 0.941176 0.478431
1.000000 0.941176 0.474510
0.003922 0.992157 0.478431
0.000000 1.000000 0.482353
0.141176 0.992157 0.501961
0.337255 0.996078 0.482353
0.494118 1.000000 0.486275
0.639216 1.000000 0.486275
0.776471 1.000000 0.490196
0.894118 1.000000 0.494118
1.000000 1.000000 0.505882
0.011765 0.000000 0.662745
0.074510 0.000000 0.662745
0.247059 0.000000 0.662745
0.388235 0.000000 0.666667
0.529412 0.000000 0.662745
0.670588 0.000000 0.662745
0.800000 0.000000 0.662745
0.945098 0.000000 0.654902
0.992157 0.007843 0.666667
0.000000 0.058824 0.650980
0.047059 0.062745 0.654902
0.239216 0.043137 0.666667
0.388235 0.015686 0.650980
0.517647 0.003922 0.662745
0.670588 0.000000 0.658824
0.803922 0.003922 0.666667
0.937255 0.003922 0.662745
0.992157 0.000000 0.662745
0.003922 0.223529 0.666667
0.007843 0.215686 0.654902
0.235294 0.207843 0.654902
0.384314 0.211765 0.662745
0.529412 0.203922 0.666667
0.666667 0.192157 0.658824
0.811765 0.188235 0.662745
0.949020 0.176471 0.658824
1.000000 0.156863 0.647059
0.000000 0.368627 0.650980
0.000000 0.364706 0.658824
0.200000 0.352941 0.662745
0.372549 0.360784 0.662745
0.529412 0.360784 0.670588
0.674510 0.356863 0.658824
0.819608 0.356863 0.662745
0.968627 0.352941 0.662745
0.996078 0.352941 0.658824
0.000000 0.517647 0.662745
0.003922 0.517647 0.666667
0.184314 0.517647 0.666667
0.360784 0.513725 0.666667
0.513725 0.509804 0.666667
0.666667 0.505882 0.662745
0.815686 0.509804 0.666667
0.960784 0.509804 0.670588
1.000000 0.509804 0.643137
0.003922 0.666667 0.670588
0.003922 0.666667 0.670588
0.145098 0.670588 0.674510
0.349020 0.666667 0.678431
0.501961 0.666667 0.662745
0.666667 0.658824 0.662745
0.811765 0.662745 0.658824
0.952941 0.666667 0.650980
0.996078 0.662745 0.654902
0.003922 0.811765 0.650980
0.000000 0.807843 0.658824
0.015686 0.815686 0.647059
0.313725 0.807843 0.650980
0.498039 0.815686 0.647059
0.662745 0.811765 0.650980
0.815686 0.807843 0.647059
0.949020 0.811765 0.662745
0.996078 0.800000 0.654902
0.007843 0.945098 0.647059
0.000000 0.952941 0.639216
0.011765 0.945098 0.647059
0.313725 0.949020 0.647059
0.486275 0.945098 0.639216
0.654902 0.945098 0.643137
0.803922 0.949020 0.647059
0.941176 0.945098 0.639216
1.000000 0.937255 0.635294
0.000000 0.996078 0.639216
0.000000 0.996078 0.643137
0.207843 1.000000 0.639216
0.376471 0.996078 0.647059
0.529412 1.000000 0.650980
0.658824 0.996078 0.647059
0.784314 1.000000 0.654902
0.898039 1.000000 0.658824
1.000000 0.996078 0.670588
0.000000 0.000000 0.811765
0.047059 0.000000 0.807843
0.235294 0.000000 0.819608
0.388235 0.000000 0.807843
0.525490 0.003922 0.807843
0.658824 0.003922 0.803922
0.803922 0.003922 0.800000
0.952941 0.000000 0.807843
0.996078 0.000000 0.800000
0.007843 0.043137 0.800000
0.007843 0.043137 0.800000
0.227451 0.019608 0.811765
0.368627 0.000000 0.800000
0.537255 0.000000 0.800000
0.670588 0.003922 0.807843
0.815686 0.003922 0.811765
0.952941 0.000000 0.800000
0.996078 0.003922 0.815686
0.000000 0.207843 0.803922
0.000000 0.211765 0.807843
0.215686 0.203922 0.803922
0.372549 0.203922 0.807843
0.525490 0.192157 0.807843
0.666667 0.180392 0.811765
0.803922 0.160784 0.803922
0.949020 0.156863 0.800000
1.000000 0.145098 0.800000
0.000000 0.360784 0.807843
0.000000 0.360784 0.803922
0.180392 0.356863 0.807843
0.360784 0.356863 0.815686
0.521569 0.352941 0.807843
0.666667 0.349020 0.819608
0.815686 0.349020 0.811765
0.956863 0.345098 0.811765
1.000000 0.349020 0.811765
0.000000 0.517647 0.803922
0.000000 0.513725 0.803922
0.125490 0.513725 0.815686
0.337255 0.505882 0.811765
0.513725 0.501961 0.811765
0.662745 0.501961 0.807843
0.815686 0.498039 0.807843
0.956863 0.498039 0.807843
0.988235 0.501961 0.807843
0.003922 0.662745 0.807843
0.003922 0.658824 0.815686
0.082353 0.658824 0.827451
0.325490 0.658824 0.819608
0.498039 0.650980 0.803922
0.658824 0.650980 0.803922
0.815686 0.654902 0.811765
0.952941 0.654902 0.803922
0.992157 0.662745 0.796078
0.000000 0.811765 0.803922
0.015686 0.800000 0.819608
0.000000 0.807843 0.800000
0.321569 0.807843 0.815686
0.494118 0.815686 0.807843
0.658824 0.807843 0.807843
0.807843 0.807843 0.807843
0.949020 0.807843 0.807843
1.000000 0.811765 0.811765
0.003922 0.945098 0.792157
0.007843 0.949020 0.803922
0.000000 0.945098 0.800000
0.309804 0.941176 0.800000
0.490196 0.952941 0.796078
0.650980 0.941176 0.796078
0.803922 0.945098 0.796078
0.949020 0.941176 0.792157
1.000000 0.941176 0.800000
0.000000 0.996078 0.784314
0.000000 1.000000 0.784314
0.239216 0.996078 0.780392
0.403922 1.000000 0.792157
0.552941 1.000000 0.796078
0.694118 1.000000 0.796078
0.811765 1.000000 0.811765
0.905882 1.000000 0.803922
1.000000 1.000000 0.811765
0.000000 0.000000 0.949020
0.011765 0.000000 0.952941
0.239216 0.000000 0.945098
0.380392 0.000000 0.937255
0.525490 0.000000 0.937255
0.662745 0.000000 0.945098
0.807843 0.000000 0.949020
0.952941 0.000000 0.941176
1.000000 0.000000 0.949020
0.000000 0.003922 0.937255
0.003922 0.000000 0.945098
0.223529 0.000000 0.945098
0.380392 0.000000 0.941176
0.529412 0.000000 0.949020
0.666667 0.000000 0.945098
0.803922 0.000000 0.949020
0.949020 0.007843 0.952941
0.996078 0.003922 0.945098
0.003922 0.203922 0.945098
0.003922 0.200000 0.949020
0.200000 0.196078 0.937255
0.364706 0.196078 0.945098
0.521569 0.188235 0.941176
0.662745 0.180392 0.949020
0.807843 0.164706 0.949020
0.949020 0.149020 0.945098
1.000000 0.113725 0.949020
0.000000 0.345098 0.941176
0.011765 0.352941 0.945098
0.168627 0.352941 0.949020
0.352941 0.356863 0.945098
0.513725 0.356863 0.949020
0.662745 0.345098 0.949020
0.803922 0.345098 0.956863
0.952941 0.337255 0.952941
1.000000 0.337255 0.952941
0.011765 0.494118 0.937255
0.000000 0.501961 0.952941
0.094118 0.498039 0.941176
0.329412 0.498039 0.949020
0.505882 0.494118 0.952941
0.650980 0.498039 0.949020
0.803922 0.494118 0.952941
0.952941 0.494118 0.952941
0.996078 0.490196 0.952941
0.000000 0.654902 0.941176
0.000000 0.654902 0.941176
0.003922 0.650980 0.949020
0.313725 0.650980 0.952941
0.494118 0.647059 0.941176
0.654902 0.654902 0.945098
0.800000 0.650980 0.952941
0.952941 0.654902 0.949020
1.000000 0.643137 0.929412
0.003922 0.792157 0.941176
0.003922 0.800000 0.956863
0.011765 0.800000 0.941176
0.317647 0.800000 0.952941
0.494118 0.800000 0.949020
0.654902 0.803922 0.949020
0.803922 0.803922 0.952941
0.949020 0.803922 0.945098
1.000000 0.803922 0.956863
0.000000 0.941176 0.937255
0.000000 0.945098 0.949020
0.000000 0.949020 0.949020
0.309804 0.941176 0.949020
0.490196 0.941176 0.945098
0.647059 0.945098 0.945098
0.796078 0.945098 0.945098
0.945098 0.945098 0.937255
1.000000 0.949020 0.945098
0.003922 0.996078 0.921569
0.121569 0.996078 0.921569
0.274510 0.996078 0.917647
0.423529 1.000000 0.917647
0.580392 1.000000 0.921569
0.721569 1.000000 0.925490
0.854902 1.000000 0.933333
0.949020 1.000000 0.960784
0.996078 1.000000 0.960784
0.000000 0.000000 0.996078
0.000000 0.000000 0.996078
0.223529 0.000000 0.992157
0.376471 0.003922 1.000000
0.517647 0.003922 1.000000
0.654902 0.000000 1.000000
0.788235 0.000000 0.996078
0.921569 0.000000 1.000000
0.992157 0.000000 1.000000
0.000000 0.000000 0.996078
0.000000 0.000000 0.996078
0.223529 0.000000 1.000000
0.372549 0.000000 0.996078
0.517647 0.003922 1.000000
0.654902 0.000000 1.000000
0.788235 0.000000 0.996078
0.917647 0.007843 0.996078
1.000000 0.000000 1.000000
0.000000 0.200000 1.000000
0.007843 0.196078 1.000000
0.203922 0.200000 0.992157
0.364706 0.192157 1.000000
0.513725 0.184314 1.000000
0.650980 0.184314 1.000000
0.788235 0.176471 1.000000
0.921569 0.172549 0.996078
1.000000 0.160784 0.992157
0.000000 0.352941 1.000000
0.003922 0.345098 0.992157
0.184314 0.352941 1.000000
0.360784 0.349020 0.996078
0.505882 0.356863 0.996078
0.643137 0.349020 0.996078
0.784314 0.349020 1.000000
0.917647 0.349020 1.000000
1.000000 0.345098 1.000000
0.003922 0.494118 0.988235
0.000000 0.494118 1.000000
0.156863 0.490196 0.996078
0.341176 0.494118 1.000000
0.498039 0.494118 1.000000
0.639216 0.494118 1.000000
0.776471 0.498039 1.000000
0.917647 0.501961 1.000000
0.996078 0.501961 0.992157
0.000000 0.631373 1.000000
0.003922 0.631373 1.000000
0.180392 0.635294 1.000000
0.352941 0.639216 1.000000
0.501961 0.647059 1.000000
0.643137 0.647059 1.000000
0.784314 0.647059 1.000000
0.909804 0.650980 1.000000
1.000000 0.662745 1.000000
0.000000 0.776471 1.000000
0.019608 0.772549 0.996078
0.243137 0.768627 1.000000
0.396078 0.772549 1.000000
0.545098 0.776471 1.000000
0.670588 0.788235 0.992157
0.796078 0.796078 1.000000
0.917647 0.800000 0.996078
1.000000 0.811765 1.000000
0.160784 0.894118 1.000000
0.203922 0.898039 1.000000
0.309804 0.898039 0.992157
0.439216 0.890196 1.000000
0.572549 0.901961 1.000000
0.705882 0.909804 0.996078
0.835294 0.921569 1.000000
0.945098 0.941176 1.000000
0.996078 0.949020 0.996078
0.337255 1.000000 0.992157
0.364706 0.996078 1.000000
0.431373 0.996078 0.996078
0.525490 1.000000 0.996078
0.647059 0.996078 1.000000
0.764706 1.000000 1.000000
0.890196 1.000000 0.996078
1.000000 1.000000 1.000000
1.000000 1.000000 0.992157
