lut_library_archive/removed_20260629/50个风景lut/50个风景lut42.cube
# 版权归凌孟成所有，侵权必究
TITLE "Jungle LUT #42"
#LUT size
LUT_3D_SIZE 5
#LUT data points
0.000000 0.000000 0.000000
0.200000 0.000000 0.000000
0.431373 0.000000 0.003922
0.678431 0.000000 0.035294
0.933333 0.000000 0.062745
0.000000 0.203922 0.000000
0.207843 0.200000 0.000000
0.423529 0.215686 0.058824
0.682353 0.219608 0.078431
0.925490 0.235294 0.113725
0.000000 0.450980 0.000000
0.203922 0.450980 0.000000
0.458824 0.454902 0.000000
0.678431 0.450980 0.129412
0.929412 0.486275 0.219608
0.007843 0.698039 0.007843
0.168627 0.698039 0.000000
0.450980 0.698039 0.003922
0.701961 0.698039 0.007843
0.964706 0.713725 0.129412
0.000000 0.996078 0.007843
0.074510 1.000000 0.000000
0.470588 1.000000 0.007843
0.745098 1.000000 0.000000
1.000000 1.000000 0.003922
0.000000 0.000000 0.243137
0.215686 0.003922 0.247059
0.447059 0.000000 0.243137
0.694118 0.003922 0.254902
0.945098 0.003922 0.250980
0.000000 0.203922 0.247059
0.203922 0.196078 0.247059
0.454902 0.188235 0.247059
0.686275 0.184314 0.243137
0.941176 0.203922 0.262745
0.000000 0.454902 0.239216
0.149020 0.458824 0.231373
0.462745 0.450980 0.235294
0.666667 0.458824 0.301961
0.929412 0.486275 0.321569
0.000000 0.701961 0.219608
0.129412 0.701961 0.243137
0.443137 0.701961 0.219608
0.705882 0.698039 0.215686
0.964706 0.717647 0.305882
0.007843 1.000000 0.098039
0.003922 1.000000 0.094118
0.454902 1.000000 0.078431
0.745098 1.000000 0.050980
1.000000 0.996078 0.011765
0.000000 0.000000 0.513725
0.207843 0.000000 0.509804
0.458824 0.000000 0.517647
0.698039 0.000000 0.509804
0.952941 0.007843 0.498039
0.000000 0.172549 0.513725
0.176471 0.176471 0.513725
0.454902 0.160784 0.521569
0.690196 0.156863 0.501961
0.956863 0.109804 0.505882
0.003922 0.447059 0.517647
0.117647 0.450980 0.521569
0.450980 0.443137 0.525490
0.694118 0.450980 0.509804
0.956863 0.454902 0.505882
0.000000 0.701961 0.505882
0.011765 0.701961 0.490196
0.435294 0.701961 0.494118
0.705882 0.698039 0.498039
0.960784 0.733333 0.549020
0.003922 1.000000 0.439216
0.000000 0.996078 0.439216
0.396078 0.996078 0.431373
0.725490 0.996078 0.427451
1.000000 1.000000 0.431373
0.000000 0.000000 0.749020
0.188235 0.003922 0.756863
0.443137 0.000000 0.760784
0.694118 0.000000 0.760784
0.960784 0.000000 0.776471
0.000000 0.168627 0.768627
0.156863 0.160784 0.749020
0.443137 0.149020 0.764706
0.686275 0.117647 0.756863
0.964706 0.000000 0.772549
0.000000 0.431373 0.760784
0.066667 0.419608 0.764706
0.419608 0.419608 0.764706
0.686275 0.415686 0.768627
0.980392 0.400000 0.792157
0.003922 0.694118 0.776471
0.000000 0.690196 0.760784
0.403922 0.686275 0.764706
0.690196 0.694118 0.764706
0.996078 0.705882 0.756863
0.007843 0.992157 0.760784
0.000000 0.996078 0.752941
0.176471 1.000000 0.733333
0.701961 1.000000 0.737255
1.000000 1.000000 0.741176
0.000000 0.000000 0.992157
0.168627 0.000000 1.000000
0.454902 0.000000 1.000000
0.709804 0.000000 1.000000
0.976471 0.003922 1.000000
0.000000 0.133333 1.000000
0.109804 0.121569 1.000000
0.435294 0.101961 0.996078
0.705882 0.023529 0.992157
0.984314 0.000000 0.992157
0.000000 0.415686 0.988235
0.000000 0.403922 0.996078
0.396078 0.400000 1.000000
0.694118 0.392157 1.000000
0.992157 0.360784 1.000000
0.000000 0.694118 0.996078
0.000000 0.694118 1.000000
0.364706 0.690196 1.000000
0.678431 0.670588 0.996078
0.996078 0.658824 1.000000
0.011765 0.937255 1.000000
0.000000 0.949020 0.996078
0.443137 0.949020 1.000000
0.803922 0.972549 1.000000
1.000000 0.996078 1.000000
