lut_library_archive/removed_20260629/50个风景lut/50个风景lut44.cube
# 版权归凌孟成所有，侵权必究
TITLE "Jungle LUT #44"
#LUT size
LUT_3D_SIZE 9
#LUT data points
0.000000 0.003922 0.007843
0.137255 0.003922 0.007843
0.286275 0.007843 0.007843
0.419608 0.047059 0.031373
0.552941 0.105882 0.074510
0.674510 0.172549 0.121569
0.807843 0.239216 0.180392
0.921569 0.298039 0.247059
1.000000 0.364706 0.317647
0.000000 0.141176 0.000000
0.164706 0.141176 0.000000
0.294118 0.141176 0.011765
0.415686 0.160784 0.035294
0.545098 0.192157 0.090196
0.670588 0.239216 0.149020
0.803922 0.286275 0.196078
0.925490 0.333333 0.258824
0.996078 0.392157 0.329412
0.050980 0.294118 0.000000
0.176471 0.305882 0.000000
0.325490 0.294118 0.000000
0.435294 0.294118 0.003922
0.545098 0.317647 0.133333
0.674510 0.352941 0.168627
0.800000 0.380392 0.223529
0.925490 0.411765 0.294118
1.000000 0.454902 0.349020
0.074510 0.435294 0.000000
0.176471 0.435294 0.003922
0.309804 0.435294 0.000000
0.443137 0.443137 0.003922
0.560784 0.435294 0.000000
0.682353 0.450980 0.184314
0.796078 0.482353 0.274510
0.917647 0.513725 0.321569
0.996078 0.545098 0.384314
0.074510 0.576471 0.000000
0.172549 0.580392 0.003922
0.298039 0.580392 0.007843
0.427451 0.576471 0.000000
0.580392 0.580392 0.007843
0.698039 0.572549 0.000000
0.815686 0.580392 0.196078
0.917647 0.615686 0.349020
1.000000 0.647059 0.443137
0.066667 0.721569 0.003922
0.164706 0.717647 0.000000
0.298039 0.709804 0.000000
0.423529 0.709804 0.003922
0.568627 0.705882 0.007843
0.694118 0.709804 0.000000
0.827451 0.701961 0.000000
0.941176 0.701961 0.215686
1.000000 0.729412 0.427451
0.050980 0.827451 0.000000
0.164706 0.839216 0.003922
0.286275 0.827451 0.003922
0.423529 0.831373 0.003922
0.549020 0.823529 0.000000
0.690196 0.823529 0.000000
0.807843 0.815686 0.011765
0.949020 0.811765 0.007843
1.000000 0.811765 0.266667
0.050980 0.937255 0.000000
0.160784 0.945098 0.000000
0.278431 0.945098 0.007843
0.407843 0.949020 0.000000
0.537255 0.941176 0.000000
0.674510 0.937255 0.000000
0.800000 0.933333 0.015686
0.941176 0.937255 0.000000
1.000000 0.937255 0.007843
0.035294 0.992157 0.011765
0.152941 0.996078 0.000000
0.270588 1.000000 0.000000
0.392157 1.000000 0.003922
0.537255 0.996078 0.000000
0.662745 0.996078 0.000000
0.811765 0.996078 0.000000
0.949020 1.000000 0.000000
1.000000 1.000000 0.000000
0.000000 0.003922 0.113725
0.156863 0.000000 0.101961
0.309804 0.003922 0.105882
0.431373 0.074510 0.133333
0.545098 0.145098 0.156863
0.674510 0.207843 0.200000
0.803922 0.258824 0.239216
0.921569 0.309804 0.290196
1.000000 0.376471 0.360784
0.015686 0.145098 0.109804
0.168627 0.145098 0.098039
0.298039 0.152941 0.113725
0.423529 0.180392 0.137255
0.545098 0.215686 0.176471
0.666667 0.262745 0.207843
0.796078 0.294118 0.243137
0.929412 0.349020 0.301961
0.992157 0.407843 0.360784
0.058824 0.290196 0.062745
0.184314 0.294118 0.062745
0.317647 0.294118 0.066667
0.427451 0.298039 0.137255
0.537255 0.329412 0.196078
0.678431 0.352941 0.227451
0.796078 0.384314 0.262745
0.913725 0.415686 0.309804
0.996078 0.462745 0.376471
0.086275 0.435294 0.019608
0.180392 0.439216 0.015686
0.305882 0.439216 0.007843
0.435294 0.435294 0.000000
0.560784 0.435294 0.101961
0.674510 0.458824 0.239216
0.796078 0.498039 0.313725
0.917647 0.521569 0.356863
1.000000 0.552941 0.411765
0.078431 0.580392 0.003922
0.172549 0.572549 0.000000
0.298039 0.568627 0.000000
0.435294 0.572549 0.000000
0.564706 0.572549 0.000000
0.694118 0.572549 0.023529
0.807843 0.588235 0.247059
0.913725 0.623529 0.392157
0.996078 0.650980 0.470588
0.078431 0.709804 0.000000
0.164706 0.705882 0.000000
0.294118 0.701961 0.007843
0.419608 0.709804 0.000000
0.564706 0.701961 0.003922
0.690196 0.701961 0.000000
0.823529 0.694118 0.007843
0.925490 0.705882 0.270588
1.000000 0.733333 0.447059
0.039216 0.819608 0.000000
0.145098 0.827451 0.000000
0.282353 0.831373 0.007843
0.415686 0.823529 0.003922
0.549020 0.819608 0.007843
0.682353 0.815686 0.000000
0.815686 0.823529 0.007843
0.949020 0.815686 0.000000
1.000000 0.819608 0.309804
0.027451 0.937255 0.003922
0.137255 0.945098 0.003922
0.282353 0.945098 0.000000
0.407843 0.945098 0.003922
0.537255 0.941176 0.003922
0.670588 0.941176 0.000000
0.803922 0.937255 0.007843
0.933333 0.937255 0.000000
0.996078 0.933333 0.003922
0.015686 1.000000 0.000000
0.137255 1.000000 0.000000
0.262745 0.996078 0.000000
0.392157 1.000000 0.003922
0.525490 1.000000 0.000000
0.670588 0.996078 0.000000
0.811765 0.996078 0.000000
0.949020 1.000000 0.007843
1.000000 1.000000 0.015686
0.043137 0.000000 0.235294
0.172549 0.000000 0.231373
0.321569 0.003922 0.235294
0.454902 0.003922 0.235294
0.564706 0.117647 0.250980
0.682353 0.207843 0.278431
0.807843 0.274510 0.321569
0.921569 0.329412 0.364706
1.000000 0.392157 0.423529
0.054902 0.141176 0.235294
0.176471 0.137255 0.239216
0.313725 0.133333 0.235294
0.443137 0.156863 0.235294
0.552941 0.219608 0.250980
0.678431 0.266667 0.286275
0.800000 0.313725 0.321569
0.929412 0.356863 0.360784
1.000000 0.407843 0.427451
0.070588 0.294118 0.227451
0.192157 0.298039 0.239216
0.317647 0.298039 0.215686
0.427451 0.313725 0.258824
0.545098 0.341176 0.286275
0.674510 0.368627 0.317647
0.800000 0.396078 0.341176
0.917647 0.431373 0.384314
1.000000 0.466667 0.435294
0.074510 0.439216 0.223529
0.180392 0.435294 0.207843
0.313725 0.435294 0.211765
0.439216 0.435294 0.215686
0.560784 0.439216 0.258824
0.670588 0.474510 0.345098
0.800000 0.501961 0.376471
0.917647 0.529412 0.407843
0.996078 0.564706 0.458824
0.082353 0.580392 0.207843
0.176471 0.576471 0.188235
0.301961 0.576471 0.200000
0.427451 0.572549 0.196078
0.568627 0.576471 0.196078
0.690196 0.572549 0.227451
0.807843 0.588235 0.349020
0.913725 0.627451 0.458824
0.992157 0.658824 0.509804
0.058824 0.713725 0.188235
0.168627 0.705882 0.180392
0.298039 0.701961 0.180392
0.427451 0.709804 0.180392
0.560784 0.701961 0.176471
0.690196 0.698039 0.176471
0.819608 0.698039 0.200000
0.929412 0.705882 0.356863
1.000000 0.741176 0.525490
0.007843 0.815686 0.168627
0.133333 0.827451 0.168627
0.282353 0.827451 0.164706
0.415686 0.819608 0.149020
0.541176 0.823529 0.156863
0.674510 0.823529 0.145098
0.815686 0.823529 0.152941
0.952941 0.819608 0.152941
1.000000 0.815686 0.376471
0.000000 0.945098 0.168627
0.129412 0.949020 0.145098
0.274510 0.937255 0.156863
0.415686 0.941176 0.152941
0.533333 0.941176 0.160784
0.666667 0.933333 0.145098
0.796078 0.929412 0.145098
0.937255 0.933333 0.141176
0.992157 0.929412 0.141176
0.000000 0.996078 0.172549
0.113725 1.000000 0.160784
0.262745 1.000000 0.172549
0.388235 1.000000 0.172549
0.529412 0.996078 0.180392
0.662745 1.000000 0.172549
0.803922 1.000000 0.172549
0.945098 0.996078 0.196078
0.996078 1.000000 0.207843
0.082353 0.000000 0.380392
0.184314 0.000000 0.376471
0.321569 0.003922 0.376471
0.447059 0.000000 0.376471
0.588235 0.000000 0.388235
0.701961 0.125490 0.372549
0.819608 0.227451 0.403922
0.933333 0.309804 0.431373
1.000000 0.396078 0.490196
0.086275 0.129412 0.380392
0.188235 0.133333 0.376471
0.313725 0.133333 0.376471
0.443137 0.129412 0.376471
0.576471 0.141176 0.368627
0.694118 0.215686 0.376471
0.803922 0.294118 0.411765
0.925490 0.356863 0.439216
0.992157 0.431373 0.478431
0.105882 0.286275 0.380392
0.196078 0.282353 0.372549
0.325490 0.294118 0.376471
0.450980 0.286275 0.372549
0.560784 0.317647 0.376471
0.674510 0.352941 0.400000
0.807843 0.396078 0.423529
0.917647 0.439216 0.458824
1.000000 0.486275 0.509804
0.094118 0.439216 0.376471
0.184314 0.435294 0.372549
0.309804 0.439216 0.372549
0.431373 0.435294 0.364706
0.552941 0.450980 0.396078
0.666667 0.478431 0.423529
0.796078 0.509804 0.454902
0.921569 0.537255 0.501961
0.996078 0.580392 0.529412
0.011765 0.580392 0.356863
0.145098 0.580392 0.345098
0.290196 0.576471 0.356863
0.435294 0.572549 0.352941
0.572549 0.576471 0.352941
0.698039 0.576471 0.392157
0.800000 0.607843 0.482353
0.913725 0.643137 0.529412
1.000000 0.666667 0.576471
0.000000 0.709804 0.345098
0.141176 0.709804 0.345098
0.290196 0.705882 0.345098
0.419608 0.705882 0.345098
0.564706 0.709804 0.345098
0.698039 0.701961 0.337255
0.827451 0.690196 0.360784
0.925490 0.721569 0.494118
0.996078 0.764706 0.615686
0.000000 0.827451 0.305882
0.117647 0.827451 0.321569
0.258824 0.827451 0.321569
0.407843 0.823529 0.321569
0.541176 0.823529 0.321569
0.682353 0.823529 0.329412
0.811765 0.819608 0.321569
0.941176 0.823529 0.337255
0.992157 0.827451 0.505882
0.003922 0.941176 0.321569
0.082353 0.941176 0.325490
0.262745 0.941176 0.317647
0.392157 0.941176 0.317647
0.525490 0.941176 0.313725
0.662745 0.933333 0.325490
0.792157 0.933333 0.305882
0.933333 0.933333 0.313725
1.000000 0.925490 0.313725
0.007843 1.000000 0.337255
0.054902 1.000000 0.329412
0.239216 1.000000 0.317647
0.376471 1.000000 0.325490
0.517647 0.996078 0.325490
0.658824 0.996078 0.317647
0.807843 1.000000 0.329412
0.941176 1.000000 0.341176
1.000000 1.000000 0.352941
0.098039 0.000000 0.501961
0.184314 0.000000 0.509804
0.309804 0.000000 0.498039
0.439216 0.000000 0.509804
0.568627 0.000000 0.513725
0.709804 0.000000 0.513725
0.827451 0.098039 0.498039
0.937255 0.239216 0.513725
1.000000 0.341176 0.545098
0.101961 0.125490 0.501961
0.184314 0.129412 0.509804
0.309804 0.133333 0.505882
0.443137 0.133333 0.501961
0.572549 0.137255 0.505882
0.705882 0.145098 0.498039
0.827451 0.200000 0.505882
0.941176 0.290196 0.509804
1.000000 0.384314 0.552941
0.109804 0.286275 0.501961
0.203922 0.282353 0.517647
0.317647 0.286275 0.517647
0.443137 0.290196 0.513725
0.576471 0.282353 0.505882
0.709804 0.290196 0.494118
0.823529 0.341176 0.513725
0.929412 0.400000 0.525490
1.000000 0.478431 0.584314
0.109804 0.431373 0.513725
0.180392 0.435294 0.505882
0.298039 0.427451 0.501961
0.431373 0.423529 0.505882
0.572549 0.419608 0.494118
0.690196 0.454902 0.501961
0.803922 0.490196 0.525490
0.917647 0.537255 0.564706
0.996078 0.576471 0.607843
0.023529 0.568627 0.517647
0.137255 0.588235 0.498039
0.282353 0.576471 0.498039
0.419608 0.572549 0.498039
0.572549 0.568627 0.498039
0.686275 0.596078 0.537255
0.796078 0.623529 0.572549
0.913725 0.643137 0.592157
1.000000 0.678431 0.631373
0.000000 0.705882 0.490196
0.117647 0.705882 0.490196
0.266667 0.709804 0.490196
0.419608 0.705882 0.490196
0.552941 0.705882 0.482353
0.698039 0.701961 0.478431
0.827451 0.705882 0.525490
0.917647 0.749020 0.631373
1.000000 0.772549 0.694118
0.003922 0.827451 0.478431
0.113725 0.823529 0.490196
0.254902 0.823529 0.482353
0.392157 0.823529 0.474510
0.537255 0.831373 0.470588
0.678431 0.819608 0.466667
0.811765 0.823529 0.466667
0.941176 0.819608 0.498039
1.000000 0.835294 0.639216
0.000000 0.941176 0.466667
0.000000 0.945098 0.462745
0.219608 0.945098 0.466667
0.380392 0.945098 0.462745
0.517647 0.941176 0.462745
0.658824 0.937255 0.458824
0.788235 0.937255 0.454902
0.933333 0.933333 0.462745
0.992157 0.929412 0.462745
0.000000 1.000000 0.470588
0.007843 1.000000 0.462745
0.227451 0.996078 0.470588
0.360784 1.000000 0.462745
0.513725 0.996078 0.470588
0.654902 1.000000 0.466667
0.800000 0.996078 0.466667
0.937255 1.000000 0.470588
0.996078 1.000000 0.474510
0.117647 0.000000 0.635294
0.200000 0.003922 0.635294
0.313725 0.000000 0.639216
0.439216 0.000000 0.643137
0.568627 0.000000 0.639216
0.698039 0.000000 0.635294
0.835294 0.011765 0.635294
0.960784 0.058824 0.623529
1.000000 0.227451 0.639216
0.121569 0.137255 0.635294
0.192157 0.133333 0.631373
0.309804 0.133333 0.639216
0.431373 0.137255 0.635294
0.564706 0.137255 0.635294
0.705882 0.137255 0.643137
0.835294 0.152941 0.635294
0.952941 0.164706 0.635294
0.992157 0.294118 0.631373
0.117647 0.278431 0.639216
0.188235 0.278431 0.643137
0.301961 0.274510 0.639216
0.431373 0.278431 0.635294
0.568627 0.282353 0.639216
0.713725 0.282353 0.639216
0.823529 0.290196 0.635294
0.949020 0.313725 0.619608
1.000000 0.396078 0.654902
0.086275 0.427451 0.635294
0.168627 0.423529 0.635294
0.290196 0.419608 0.635294
0.419608 0.415686 0.639216
0.560784 0.427451 0.635294
0.705882 0.419608 0.635294
0.831373 0.431373 0.627451
0.949020 0.474510 0.643137
0.996078 0.537255 0.670588
0.000000 0.564706 0.647059
0.125490 0.568627 0.639216
0.266667 0.568627 0.631373
0.415686 0.568627 0.635294
0.568627 0.564706 0.635294
0.694118 0.560784 0.627451
0.823529 0.584314 0.643137
0.925490 0.627451 0.666667
1.000000 0.666667 0.709804
0.000000 0.713725 0.635294
0.082353 0.705882 0.627451
0.262745 0.705882 0.635294
0.411765 0.705882 0.627451
0.549020 0.701961 0.627451
0.690196 0.694118 0.623529
0.807843 0.729412 0.694118
0.917647 0.749020 0.713725
0.996078 0.772549 0.745098
0.000000 0.831373 0.611765
0.074510 0.819608 0.600000
0.250980 0.823529 0.611765
0.400000 0.823529 0.619608
0.541176 0.827451 0.619608
0.678431 0.823529 0.619608
0.811765 0.823529 0.615686
0.929412 0.831373 0.674510
1.000000 0.858824 0.756863
0.003922 0.941176 0.615686
0.125490 0.945098 0.615686
0.270588 0.937255 0.619608
0.396078 0.941176 0.615686
0.517647 0.941176 0.607843
0.662745 0.933333 0.607843
0.796078 0.933333 0.603922
0.929412 0.925490 0.603922
1.000000 0.925490 0.627451
0.188235 0.996078 0.635294
0.231373 0.996078 0.627451
0.294118 0.996078 0.619608
0.376471 1.000000 0.619608
0.513725 1.000000 0.615686
0.658824 1.000000 0.619608
0.796078 1.000000 0.615686
0.937255 1.000000 0.615686
1.000000 1.000000 0.623529
0.129412 0.000000 0.764706
0.192157 0.003922 0.776471
0.313725 0.000000 0.764706
0.431373 0.000000 0.772549
0.560784 0.000000 0.768627
0.694118 0.003922 0.772549
0.835294 0.000000 0.768627
0.956863 0.027451 0.756863
0.992157 0.078431 0.752941
0.121569 0.125490 0.776471
0.196078 0.137255 0.768627
0.309804 0.133333 0.772549
0.431373 0.141176 0.772549
0.568627 0.137255 0.768627
0.709804 0.137255 0.768627
0.839216 0.133333 0.768627
0.956863 0.156863 0.752941
0.996078 0.176471 0.749020
0.105882 0.278431 0.768627
0.188235 0.282353 0.776471
0.294118 0.274510 0.768627
0.427451 0.274510 0.764706
0.560784 0.278431 0.772549
0.701961 0.274510 0.772549
0.827451 0.270588 0.764706
0.964706 0.286275 0.756863
0.996078 0.298039 0.745098
0.011765 0.415686 0.784314
0.137255 0.415686 0.760784
0.278431 0.415686 0.768627
0.419608 0.419608 0.772549
0.560784 0.419608 0.772549
0.694118 0.419608 0.772549
0.835294 0.419608 0.772549
0.956863 0.427451 0.760784
0.996078 0.443137 0.760784
0.011765 0.552941 0.768627
0.082353 0.560784 0.784314
0.254902 0.556863 0.768627
0.400000 0.552941 0.768627
0.549020 0.552941 0.772549
0.690196 0.552941 0.772549
0.839216 0.552941 0.772549
0.945098 0.552941 0.756863
1.000000 0.603922 0.768627
0.000000 0.698039 0.756863
0.007843 0.709804 0.764706
0.227451 0.701961 0.764706
0.392157 0.701961 0.768627
0.541176 0.690196 0.764706
0.686275 0.690196 0.776471
0.823529 0.694118 0.760784
0.925490 0.713725 0.768627
1.000000 0.749020 0.803922
0.000000 0.831373 0.764706
0.007843 0.831373 0.756863
0.223529 0.827451 0.764706
0.392157 0.827451 0.760784
0.537255 0.827451 0.760784
0.690196 0.823529 0.768627
0.811765 0.823529 0.756863
0.921569 0.854902 0.815686
1.000000 0.866667 0.843137
0.003922 0.941176 0.756863
0.109804 0.941176 0.749020
0.258824 0.937255 0.756863
0.407843 0.937255 0.749020
0.537255 0.941176 0.756863
0.674510 0.937255 0.760784
0.788235 0.937255 0.752941
0.937255 0.933333 0.752941
0.996078 0.933333 0.800000
0.196078 0.996078 0.745098
0.235294 0.996078 0.756863
0.333333 1.000000 0.752941
0.443137 0.996078 0.756863
0.576471 1.000000 0.768627
0.662745 1.000000 0.752941
0.803922 1.000000 0.760784
0.929412 1.000000 0.764706
1.000000 1.000000 0.760784
0.125490 0.000000 0.905882
0.203922 0.003922 0.901961
0.309804 0.000000 0.905882
0.435294 0.000000 0.898039
0.560784 0.000000 0.898039
0.698039 0.003922 0.905882
0.831373 0.003922 0.901961
0.964706 0.000000 0.894118
0.996078 0.035294 0.886275
0.109804 0.137255 0.898039
0.184314 0.141176 0.894118
0.301961 0.137255 0.905882
0.427451 0.141176 0.905882
0.568627 0.137255 0.901961
0.698039 0.137255 0.905882
0.831373 0.137255 0.898039
0.976471 0.129412 0.901961
0.988235 0.156863 0.894118
0.094118 0.270588 0.901961
0.168627 0.278431 0.901961
0.301961 0.278431 0.905882
0.423529 0.278431 0.898039
0.556863 0.278431 0.898039
0.698039 0.278431 0.905882
0.827451 0.274510 0.898039
0.964706 0.266667 0.901961
0.996078 0.286275 0.870588
0.000000 0.411765 0.890196
0.125490 0.411765 0.921569
0.262745 0.411765 0.898039
0.411765 0.407843 0.905882
0.552941 0.411765 0.898039
0.690196 0.407843 0.898039
0.827451 0.411765 0.905882
0.964706 0.411765 0.894118
1.000000 0.419608 0.890196
0.000000 0.545098 0.898039
0.003922 0.549020 0.901961
0.227451 0.537255 0.898039
0.400000 0.545098 0.901961
0.541176 0.549020 0.890196
0.682353 0.545098 0.905882
0.823529 0.545098 0.905882
0.960784 0.545098 0.905882
1.000000 0.556863 0.886275
0.003922 0.678431 0.890196
0.000000 0.690196 0.901961
0.207843 0.686275 0.909804
0.364706 0.682353 0.898039
0.525490 0.678431 0.901961
0.678431 0.682353 0.905882
0.815686 0.686275 0.901961
0.952941 0.686275 0.894118
0.992157 0.686275 0.882353
0.003922 0.819608 0.890196
0.003922 0.819608 0.905882
0.168627 0.823529 0.894118
0.364706 0.819608 0.901961
0.517647 0.819608 0.898039
0.670588 0.819608 0.894118
0.811765 0.815686 0.901961
0.949020 0.819608 0.901961
1.000000 0.831373 0.909804
0.000000 0.949020 0.894118
0.007843 0.945098 0.890196
0.211765 0.945098 0.878431
0.380392 0.945098 0.878431
0.525490 0.945098 0.882353
0.670588 0.937255 0.886275
0.803922 0.933333 0.890196
0.929412 0.933333 0.901961
1.000000 0.952941 0.949020
0.200000 1.000000 0.874510
0.247059 1.000000 0.866667
0.349020 0.996078 0.866667
0.450980 0.996078 0.866667
0.572549 1.000000 0.878431
0.705882 0.996078 0.890196
0.835294 1.000000 0.905882
0.937255 0.996078 0.905882
1.000000 1.000000 0.925490
0.117647 0.000000 0.996078
0.180392 0.003922 0.996078
0.301961 0.000000 0.996078
0.423529 0.003922 1.000000
0.556863 0.003922 1.000000
0.698039 0.011765 1.000000
0.819608 0.003922 1.000000
0.952941 0.003922 1.000000
0.992157 0.000000 1.000000
0.098039 0.149020 1.000000
0.184314 0.137255 1.000000
0.305882 0.145098 1.000000
0.423529 0.145098 1.000000
0.560784 0.149020 1.000000
0.690196 0.141176 1.000000
0.823529 0.145098 1.000000
0.949020 0.137255 1.000000
0.996078 0.129412 0.988235
0.094118 0.274510 0.996078
0.164706 0.274510 1.000000
0.298039 0.274510 1.000000
0.415686 0.274510 1.000000
0.549020 0.274510 0.996078
0.690196 0.274510 1.000000
0.819608 0.270588 0.996078
0.956863 0.266667 1.000000
0.996078 0.266667 1.000000
0.007843 0.411765 1.000000
0.125490 0.403922 1.000000
0.270588 0.407843 1.000000
0.403922 0.407843 1.000000
0.552941 0.411765 1.000000
0.682353 0.407843 1.000000
0.815686 0.407843 1.000000
0.952941 0.411765 1.000000
1.000000 0.403922 1.000000
0.000000 0.529412 0.992157
0.000000 0.537255 1.000000
0.239216 0.537255 1.000000
0.396078 0.541176 1.000000
0.533333 0.537255 1.000000
0.674510 0.537255 1.000000
0.807843 0.537255 0.996078
0.945098 0.541176 1.000000
0.996078 0.533333 1.000000
0.003922 0.658824 0.996078
0.007843 0.662745 1.000000
0.145098 0.658824 1.000000
0.345098 0.658824 0.992157
0.525490 0.674510 1.000000
0.666667 0.674510 1.000000
0.803922 0.674510 1.000000
0.933333 0.678431 1.000000
1.000000 0.674510 0.996078
0.003922 0.800000 1.000000
0.011765 0.800000 1.000000
0.125490 0.796078 1.000000
0.341176 0.803922 0.992157
0.513725 0.800000 1.000000
0.658824 0.800000 0.996078
0.803922 0.803922 1.000000
0.933333 0.807843 1.000000
1.000000 0.807843 0.992157
0.000000 0.933333 1.000000
0.011765 0.925490 1.000000
0.156863 0.929412 0.996078
0.349020 0.929412 1.000000
0.513725 0.925490 1.000000
0.662745 0.929412 1.000000
0.796078 0.925490 1.000000
0.925490 0.929412 1.000000
0.996078 0.941176 1.000000
0.000000 0.996078 0.996078
0.113725 1.000000 0.996078
0.290196 1.000000 1.000000
0.427451 1.000000 0.996078
0.576471 1.000000 0.992157
0.717647 1.000000 0.992157
0.858824 1.000000 0.984314
0.976471 1.000000 1.000000
1.000000 1.000000 1.000000
