lut_library_archive/removed_20260629/50个风景lut/50个风景lut06.cube
# 版权归凌孟成所有，侵权必究
TITLE "Jungle LUT #6"
#LUT size
LUT_3D_SIZE 9
#LUT data points
0.023529 0.019608 0.011765
0.133333 0.007843 0.011765
0.270588 0.003922 0.003922
0.368627 0.011765 0.007843
0.490196 0.039216 0.019608
0.596078 0.070588 0.027451
0.713725 0.105882 0.050980
0.847059 0.141176 0.054902
0.988235 0.176471 0.074510
0.109804 0.133333 0.000000
0.152941 0.129412 0.003922
0.258824 0.137255 0.015686
0.372549 0.141176 0.023529
0.474510 0.149020 0.031373
0.588235 0.160784 0.039216
0.709804 0.180392 0.062745
0.827451 0.200000 0.066667
0.976471 0.227451 0.082353
0.176471 0.258824 0.000000
0.227451 0.250980 0.007843
0.278431 0.258824 0.000000
0.360784 0.266667 0.031373
0.478431 0.274510 0.082353
0.592157 0.286275 0.094118
0.721569 0.301961 0.090196
0.850980 0.313725 0.101961
0.984314 0.337255 0.129412
0.235294 0.364706 0.000000
0.305882 0.364706 0.000000
0.349020 0.368627 0.000000
0.384314 0.372549 0.000000
0.462745 0.384314 0.047059
0.588235 0.403922 0.129412
0.709804 0.419608 0.133333
0.839216 0.431373 0.152941
0.976471 0.443137 0.168627
0.329412 0.486275 0.007843
0.372549 0.490196 0.003922
0.423529 0.486275 0.000000
0.450980 0.490196 0.000000
0.494118 0.486275 0.003922
0.584314 0.501961 0.035294
0.725490 0.529412 0.149020
0.854902 0.560784 0.211765
0.992157 0.572549 0.227451
0.439216 0.619608 0.000000
0.458824 0.619608 0.000000
0.517647 0.615686 0.003922
0.560784 0.615686 0.000000
0.592157 0.619608 0.000000
0.635294 0.611765 0.000000
0.709804 0.631373 0.015686
0.850980 0.654902 0.149020
0.992157 0.686275 0.262745
0.525490 0.729412 0.000000
0.545098 0.737255 0.000000
0.600000 0.733333 0.007843
0.662745 0.725490 0.003922
0.694118 0.725490 0.003922
0.737255 0.733333 0.000000
0.764706 0.733333 0.000000
0.850980 0.745098 0.000000
0.984314 0.764706 0.141176
0.654902 0.854902 0.000000
0.678431 0.854902 0.003922
0.717647 0.854902 0.000000
0.780392 0.858824 0.000000
0.819608 0.858824 0.003922
0.854902 0.862745 0.000000
0.901961 0.870588 0.007843
0.941176 0.862745 0.003922
0.992157 0.878431 0.000000
0.776471 0.976471 0.000000
0.796078 0.976471 0.003922
0.823529 0.976471 0.007843
0.886275 0.972549 0.000000
0.937255 0.972549 0.000000
0.972549 0.972549 0.000000
0.992157 0.980392 0.000000
1.000000 0.984314 0.003922
1.000000 0.976471 0.000000
0.015686 0.015686 0.125490
0.152941 0.000000 0.137255
0.270588 0.000000 0.129412
0.380392 0.015686 0.129412
0.478431 0.031373 0.129412
0.592157 0.070588 0.145098
0.705882 0.105882 0.145098
0.831373 0.133333 0.149020
0.976471 0.168627 0.149020
0.019608 0.133333 0.117647
0.152941 0.129412 0.129412
0.254902 0.129412 0.133333
0.368627 0.133333 0.125490
0.470588 0.141176 0.133333
0.580392 0.156863 0.145098
0.705882 0.180392 0.145098
0.835294 0.200000 0.152941
0.976471 0.219608 0.160784
0.054902 0.258824 0.098039
0.192157 0.254902 0.101961
0.270588 0.254902 0.109804
0.360784 0.266667 0.156863
0.466667 0.274510 0.149020
0.580392 0.282353 0.156863
0.705882 0.298039 0.168627
0.839216 0.305882 0.172549
0.972549 0.325490 0.176471
0.200000 0.368627 0.058824
0.258824 0.372549 0.050980
0.337255 0.368627 0.043137
0.368627 0.364706 0.101961
0.466667 0.380392 0.149020
0.576471 0.407843 0.200000
0.713725 0.419608 0.196078
0.843137 0.435294 0.196078
0.980392 0.447059 0.211765
0.290196 0.490196 0.000000
0.329412 0.478431 0.003922
0.403922 0.482353 0.000000
0.447059 0.490196 0.011765
0.490196 0.482353 0.090196
0.580392 0.498039 0.141176
0.717647 0.529412 0.200000
0.854902 0.556863 0.258824
0.992157 0.564706 0.274510
0.400000 0.611765 0.000000
0.427451 0.611765 0.007843
0.486275 0.607843 0.000000
0.552941 0.607843 0.000000
0.584314 0.611765 0.000000
0.627451 0.607843 0.043137
0.713725 0.623529 0.117647
0.854902 0.650980 0.211765
0.988235 0.682353 0.298039
0.501961 0.721569 0.000000
0.533333 0.721569 0.000000
0.572549 0.721569 0.000000
0.658824 0.713725 0.003922
0.682353 0.721569 0.000000
0.721569 0.729412 0.003922
0.772549 0.729412 0.000000
0.854902 0.741176 0.039216
0.988235 0.768627 0.200000
0.647059 0.847059 0.000000
0.662745 0.858824 0.000000
0.698039 0.862745 0.000000
0.760784 0.854902 0.000000
0.811765 0.854902 0.000000
0.854902 0.858824 0.003922
0.894118 0.862745 0.000000
0.929412 0.858824 0.000000
1.000000 0.866667 0.000000
0.756863 0.972549 0.000000
0.776471 0.972549 0.003922
0.815686 0.972549 0.003922
0.866667 0.972549 0.000000
0.933333 0.968627 0.000000
0.972549 0.972549 0.000000
0.996078 0.976471 0.000000
1.000000 0.980392 0.000000
1.000000 0.980392 0.003922
0.043137 0.000000 0.258824
0.145098 0.000000 0.262745
0.270588 0.000000 0.254902
0.380392 0.011765 0.254902
0.478431 0.050980 0.243137
0.584314 0.082353 0.250980
0.705882 0.094118 0.250980
0.835294 0.074510 0.250980
0.984314 0.117647 0.258824
0.039216 0.133333 0.243137
0.149020 0.121569 0.250980
0.266667 0.129412 0.254902
0.368627 0.137255 0.247059
0.478431 0.149020 0.258824
0.572549 0.168627 0.254902
0.698039 0.156863 0.250980
0.835294 0.164706 0.258824
0.972549 0.188235 0.258824
0.047059 0.258824 0.258824
0.145098 0.254902 0.258824
0.258824 0.258824 0.250980
0.356863 0.258824 0.243137
0.462745 0.262745 0.250980
0.584314 0.274510 0.258824
0.698039 0.278431 0.254902
0.839216 0.290196 0.262745
0.984314 0.305882 0.274510
0.019608 0.372549 0.231373
0.113725 0.376471 0.235294
0.274510 0.372549 0.219608
0.356863 0.372549 0.235294
0.458824 0.392157 0.274510
0.580392 0.396078 0.278431
0.705882 0.407843 0.282353
0.843137 0.419608 0.286275
0.976471 0.435294 0.294118
0.172549 0.494118 0.203922
0.239216 0.486275 0.207843
0.329412 0.490196 0.184314
0.439216 0.482353 0.184314
0.478431 0.486275 0.231373
0.580392 0.501961 0.262745
0.717647 0.533333 0.321569
0.858824 0.549020 0.329412
0.976471 0.560784 0.337255
0.325490 0.615686 0.180392
0.352941 0.615686 0.164706
0.423529 0.607843 0.152941
0.533333 0.603922 0.133333
0.580392 0.607843 0.164706
0.615686 0.607843 0.215686
0.717647 0.627451 0.250980
0.854902 0.650980 0.321569
0.992157 0.690196 0.392157
0.443137 0.725490 0.082353
0.466667 0.725490 0.066667
0.533333 0.729412 0.050980
0.623529 0.725490 0.000000
0.678431 0.725490 0.000000
0.709804 0.729412 0.094118
0.764706 0.733333 0.164706
0.854902 0.745098 0.211765
1.000000 0.768627 0.309804
0.584314 0.862745 0.000000
0.607843 0.854902 0.011765
0.658824 0.858824 0.000000
0.737255 0.854902 0.000000
0.811765 0.854902 0.007843
0.839216 0.854902 0.000000
0.890196 0.854902 0.003922
0.929412 0.866667 0.047059
1.000000 0.866667 0.141176
0.729412 0.972549 0.003922
0.741176 0.976471 0.003922
0.784314 0.972549 0.007843
0.839216 0.976471 0.000000
0.925490 0.964706 0.000000
0.972549 0.972549 0.007843
0.992157 0.972549 0.000000
1.000000 0.976471 0.000000
1.000000 0.980392 0.000000
0.058824 0.003922 0.376471
0.141176 0.000000 0.376471
0.266667 0.003922 0.384314
0.372549 0.019608 0.372549
0.482353 0.043137 0.380392
0.588235 0.078431 0.372549
0.701961 0.090196 0.376471
0.839216 0.070588 0.376471
0.976471 0.011765 0.376471
0.082353 0.121569 0.392157
0.152941 0.129412 0.372549
0.262745 0.129412 0.376471
0.368627 0.133333 0.376471
0.482353 0.137255 0.372549
0.580392 0.160784 0.372549
0.701961 0.164706 0.376471
0.823529 0.152941 0.380392
0.968627 0.113725 0.372549
0.074510 0.258824 0.376471
0.152941 0.250980 0.372549
0.258824 0.254902 0.376471
0.360784 0.258824 0.372549
0.462745 0.266667 0.372549
0.580392 0.266667 0.380392
0.701961 0.270588 0.376471
0.839216 0.254902 0.380392
0.972549 0.243137 0.364706
0.047059 0.384314 0.372549
0.137255 0.372549 0.380392
0.243137 0.376471 0.372549
0.341176 0.376471 0.372549
0.454902 0.372549 0.368627
0.572549 0.372549 0.368627
0.694118 0.376471 0.364706
0.835294 0.384314 0.372549
0.976471 0.403922 0.384314
0.007843 0.490196 0.368627
0.082353 0.501961 0.376471
0.215686 0.494118 0.360784
0.349020 0.490196 0.341176
0.466667 0.494118 0.360784
0.580392 0.521569 0.407843
0.717647 0.525490 0.407843
0.850980 0.533333 0.415686
0.988235 0.545098 0.419608
0.000000 0.631373 0.298039
0.003922 0.623529 0.290196
0.274510 0.611765 0.325490
0.435294 0.619608 0.313725
0.564706 0.611765 0.313725
0.607843 0.611765 0.345098
0.717647 0.631373 0.396078
0.850980 0.666667 0.454902
0.984314 0.690196 0.482353
0.290196 0.729412 0.290196
0.349020 0.733333 0.290196
0.419608 0.737255 0.274510
0.537255 0.733333 0.258824
0.666667 0.721569 0.235294
0.701961 0.729412 0.274510
0.760784 0.733333 0.325490
0.854902 0.756863 0.356863
0.992157 0.776471 0.450980
0.486275 0.874510 0.207843
0.517647 0.862745 0.219608
0.576471 0.862745 0.207843
0.658824 0.862745 0.188235
0.776471 0.858824 0.149020
0.835294 0.850980 0.168627
0.882353 0.862745 0.227451
0.925490 0.866667 0.274510
0.988235 0.874510 0.333333
0.650980 0.980392 0.007843
0.662745 0.988235 0.000000
0.717647 0.976471 0.000000
0.784314 0.980392 0.011765
0.874510 0.972549 0.000000
0.952941 0.976471 0.003922
0.996078 0.976471 0.000000
1.000000 0.980392 0.070588
1.000000 0.984314 0.168627
0.078431 0.000000 0.501961
0.152941 0.000000 0.505882
0.258824 0.003922 0.505882
0.368627 0.015686 0.501961
0.474510 0.039216 0.509804
0.592157 0.066667 0.505882
0.705882 0.082353 0.505882
0.839216 0.062745 0.513725
0.972549 0.000000 0.509804
0.090196 0.125490 0.498039
0.160784 0.125490 0.490196
0.262745 0.133333 0.498039
0.364706 0.133333 0.501961
0.466667 0.141176 0.501961
0.580392 0.149020 0.490196
0.701961 0.152941 0.494118
0.831373 0.141176 0.498039
0.976471 0.098039 0.505882
0.074510 0.243137 0.501961
0.156863 0.254902 0.505882
0.254902 0.262745 0.501961
0.368627 0.258824 0.498039
0.470588 0.258824 0.501961
0.572549 0.258824 0.498039
0.709804 0.258824 0.498039
0.839216 0.247059 0.509804
0.980392 0.231373 0.513725
0.007843 0.376471 0.513725
0.117647 0.376471 0.501961
0.219608 0.372549 0.494118
0.349020 0.368627 0.494118
0.454902 0.360784 0.486275
0.576471 0.368627 0.490196
0.701961 0.368627 0.498039
0.835294 0.360784 0.498039
0.980392 0.341176 0.486275
0.000000 0.490196 0.498039
0.047059 0.494118 0.498039
0.200000 0.494118 0.505882
0.321569 0.494118 0.505882
0.454902 0.482353 0.505882
0.572549 0.486275 0.498039
0.705882 0.486275 0.490196
0.843137 0.482353 0.494118
0.984314 0.509804 0.505882
0.003922 0.623529 0.517647
0.000000 0.619608 0.513725
0.149020 0.619608 0.509804
0.301961 0.619608 0.494118
0.454902 0.619608 0.474510
0.580392 0.615686 0.501961
0.721569 0.654902 0.545098
0.854902 0.658824 0.552941
0.980392 0.678431 0.560784
0.003922 0.745098 0.415686
0.007843 0.749020 0.427451
0.000000 0.741176 0.403922
0.329412 0.749020 0.435294
0.552941 0.737255 0.423529
0.690196 0.737255 0.415686
0.745098 0.733333 0.462745
0.858824 0.760784 0.509804
0.996078 0.784314 0.596078
0.172549 0.870588 0.368627
0.270588 0.874510 0.388235
0.400000 0.874510 0.407843
0.537255 0.870588 0.396078
0.686275 0.866667 0.368627
0.815686 0.858824 0.345098
0.870588 0.862745 0.388235
0.913725 0.866667 0.427451
0.992157 0.878431 0.482353
0.517647 0.984314 0.317647
0.541176 0.996078 0.333333
0.596078 0.984314 0.317647
0.686275 0.988235 0.305882
0.792157 0.976471 0.278431
0.921569 0.980392 0.247059
0.984314 0.980392 0.290196
0.996078 0.980392 0.325490
1.000000 0.980392 0.376471
0.086275 0.000000 0.635294
0.160784 0.000000 0.631373
0.266667 0.000000 0.631373
0.364706 0.007843 0.623529
0.482353 0.031373 0.631373
0.580392 0.050980 0.623529
0.709804 0.062745 0.635294
0.835294 0.031373 0.639216
0.980392 0.000000 0.643137
0.090196 0.117647 0.635294
0.164706 0.121569 0.631373
0.250980 0.121569 0.631373
0.356863 0.125490 0.627451
0.470588 0.133333 0.615686
0.588235 0.141176 0.627451
0.698039 0.145098 0.627451
0.839216 0.133333 0.631373
0.984314 0.078431 0.658824
0.070588 0.247059 0.635294
0.149020 0.250980 0.631373
0.254902 0.247059 0.635294
0.356863 0.250980 0.623529
0.474510 0.250980 0.631373
0.584314 0.247059 0.627451
0.701961 0.250980 0.623529
0.839216 0.243137 0.639216
0.972549 0.207843 0.639216
0.000000 0.356863 0.635294
0.086275 0.360784 0.635294
0.211765 0.364706 0.627451
0.341176 0.360784 0.627451
0.462745 0.364706 0.631373
0.568627 0.364706 0.623529
0.713725 0.356863 0.631373
0.839216 0.356863 0.639216
0.976471 0.341176 0.635294
0.000000 0.494118 0.619608
0.000000 0.490196 0.627451
0.164706 0.486275 0.631373
0.309804 0.482353 0.627451
0.447059 0.478431 0.631373
0.576471 0.474510 0.627451
0.701961 0.478431 0.643137
0.854902 0.478431 0.635294
0.992157 0.466667 0.611765
0.003922 0.619608 0.631373
0.000000 0.611765 0.631373
0.101961 0.611765 0.635294
0.286275 0.611765 0.635294
0.439216 0.607843 0.631373
0.576471 0.603922 0.635294
0.713725 0.607843 0.627451
0.847059 0.611765 0.611765
0.984314 0.627451 0.623529
0.000000 0.737255 0.619608
0.000000 0.737255 0.631373
0.003922 0.741176 0.635294
0.231373 0.741176 0.623529
0.403922 0.741176 0.619608
0.584314 0.741176 0.596078
0.717647 0.737255 0.611765
0.866667 0.784314 0.678431
0.988235 0.792157 0.694118
0.003922 0.874510 0.572549
0.000000 0.878431 0.564706
0.007843 0.878431 0.568627
0.003922 0.882353 0.525490
0.466667 0.878431 0.549020
0.701961 0.866667 0.545098
0.850980 0.862745 0.545098
0.898039 0.866667 0.584314
0.996078 0.874510 0.650980
0.003922 1.000000 0.443137
0.000000 1.000000 0.466667
0.266667 1.000000 0.478431
0.521569 0.996078 0.529412
0.670588 0.992157 0.505882
0.823529 0.988235 0.494118
0.960784 0.980392 0.474510
1.000000 0.980392 0.509804
0.996078 0.980392 0.552941
0.066667 0.000000 0.772549
0.156863 0.000000 0.764706
0.262745 0.000000 0.768627
0.368627 0.003922 0.764706
0.486275 0.019608 0.772549
0.607843 0.015686 0.764706
0.713725 0.023529 0.764706
0.839216 0.011765 0.776471
0.972549 0.000000 0.784314
0.062745 0.121569 0.768627
0.145098 0.117647 0.764706
0.250980 0.121569 0.772549
0.356863 0.129412 0.764706
0.470588 0.125490 0.760784
0.600000 0.129412 0.756863
0.709804 0.129412 0.764706
0.831373 0.117647 0.764706
0.988235 0.039216 0.784314
0.019608 0.239216 0.772549
0.121569 0.239216 0.764706
0.235294 0.247059 0.768627
0.349020 0.243137 0.756863
0.470588 0.243137 0.776471
0.592157 0.239216 0.772549
0.713725 0.239216 0.760784
0.831373 0.231373 0.760784
0.984314 0.200000 0.788235
0.000000 0.356863 0.752941
0.003922 0.352941 0.760784
0.203922 0.356863 0.768627
0.337255 0.352941 0.772549
0.458824 0.360784 0.760784
0.584314 0.352941 0.768627
0.709804 0.352941 0.768627
0.847059 0.345098 0.780392
0.988235 0.325490 0.784314
0.000000 0.486275 0.776471
0.000000 0.494118 0.764706
0.109804 0.478431 0.760784
0.290196 0.478431 0.768627
0.443137 0.470588 0.784314
0.588235 0.466667 0.768627
0.698039 0.470588 0.760784
0.843137 0.462745 0.772549
0.988235 0.462745 0.772549
0.000000 0.611765 0.772549
0.000000 0.623529 0.764706
0.003922 0.611765 0.768627
0.262745 0.611765 0.768627
0.415686 0.607843 0.768627
0.568627 0.603922 0.772549
0.713725 0.600000 0.772549
0.854902 0.600000 0.772549
1.000000 0.588235 0.760784
0.000000 0.733333 0.776471
0.003922 0.729412 0.768627
0.003922 0.729412 0.776471
0.235294 0.729412 0.756863
0.407843 0.737255 0.768627
0.564706 0.737255 0.772549
0.709804 0.737255 0.760784
0.854902 0.741176 0.749020
0.992157 0.749020 0.768627
0.007843 0.874510 0.776471
0.011765 0.878431 0.780392
0.007843 0.874510 0.772549
0.129412 0.874510 0.772549
0.372549 0.874510 0.768627
0.545098 0.878431 0.756863
0.749020 0.870588 0.737255
0.874510 0.870588 0.749020
0.992157 0.905882 0.815686
0.000000 1.000000 0.713725
0.003922 0.992157 0.721569
0.007843 1.000000 0.717647
0.007843 1.000000 0.690196
0.329412 1.000000 0.643137
0.658824 1.000000 0.694118
0.862745 0.988235 0.686275
0.996078 0.980392 0.694118
1.000000 0.988235 0.733333
0.035294 0.000000 0.913725
0.141176 0.000000 0.894118
0.243137 0.003922 0.898039
0.360784 0.003922 0.901961
0.478431 0.003922 0.894118
0.600000 0.000000 0.901961
0.717647 0.000000 0.901961
0.835294 0.000000 0.901961
0.956863 0.000000 0.909804
0.015686 0.117647 0.905882
0.125490 0.109804 0.898039
0.239216 0.109804 0.898039
0.364706 0.121569 0.901961
0.478431 0.125490 0.901961
0.600000 0.113725 0.905882
0.713725 0.109804 0.909804
0.843137 0.098039 0.898039
0.960784 0.058824 0.898039
0.003922 0.231373 0.898039
0.078431 0.239216 0.905882
0.215686 0.243137 0.901961
0.341176 0.239216 0.901961
0.466667 0.235294 0.894118
0.592157 0.235294 0.894118
0.717647 0.235294 0.905882
0.843137 0.223529 0.901961
0.968627 0.200000 0.898039
0.000000 0.352941 0.901961
0.000000 0.360784 0.905882
0.168627 0.360784 0.905882
0.313725 0.356863 0.909804
0.462745 0.356863 0.909804
0.576471 0.352941 0.898039
0.709804 0.345098 0.905882
0.839216 0.341176 0.905882
0.960784 0.329412 0.905882
0.003922 0.482353 0.901961
0.000000 0.478431 0.913725
0.000000 0.474510 0.901961
0.250980 0.470588 0.905882
0.435294 0.466667 0.901961
0.560784 0.466667 0.898039
0.709804 0.466667 0.909804
0.843137 0.454902 0.909804
0.980392 0.450980 0.913725
0.003922 0.611765 0.909804
0.003922 0.611765 0.909804
0.000000 0.611765 0.909804
0.235294 0.600000 0.909804
0.400000 0.603922 0.901961
0.552941 0.596078 0.905882
0.694118 0.600000 0.905882
0.839216 0.592157 0.901961
0.988235 0.592157 0.905882
0.000000 0.733333 0.901961
0.003922 0.733333 0.913725
0.011765 0.725490 0.909804
0.211765 0.737255 0.905882
0.407843 0.737255 0.909804
0.560784 0.737255 0.901961
0.694118 0.737255 0.905882
0.854902 0.733333 0.894118
1.000000 0.725490 0.913725
0.011765 0.854902 0.905882
0.000000 0.850980 0.898039
0.003922 0.854902 0.905882
0.215686 0.858824 0.901961
0.403922 0.858824 0.901961
0.572549 0.862745 0.905882
0.717647 0.866667 0.905882
0.862745 0.874510 0.901961
0.996078 0.882353 0.901961
0.000000 1.000000 0.917647
0.003922 1.000000 0.925490
0.007843 1.000000 0.917647
0.137255 0.996078 0.917647
0.396078 1.000000 0.905882
0.572549 1.000000 0.898039
0.725490 0.996078 0.874510
0.929412 0.984314 0.878431
1.000000 0.992157 0.905882
0.000000 0.000000 0.996078
0.105882 0.000000 0.992157
0.235294 0.000000 0.996078
0.349020 0.000000 1.000000
0.470588 0.000000 1.000000
0.588235 0.003922 1.000000
0.709804 0.000000 1.000000
0.843137 0.000000 0.996078
0.976471 0.003922 1.000000
0.000000 0.113725 1.000000
0.082353 0.121569 0.992157
0.223529 0.117647 1.000000
0.345098 0.117647 1.000000
0.474510 0.117647 1.000000
0.592157 0.113725 0.996078
0.713725 0.105882 1.000000
0.831373 0.070588 0.996078
0.968627 0.011765 0.992157
0.003922 0.235294 1.000000
0.011765 0.235294 0.992157
0.192157 0.243137 0.996078
0.337255 0.235294 1.000000
0.462745 0.239216 1.000000
0.584314 0.231373 1.000000
0.709804 0.223529 1.000000
0.847059 0.211765 0.996078
0.968627 0.188235 1.000000
0.000000 0.352941 1.000000
0.007843 0.349020 0.996078
0.125490 0.349020 1.000000
0.313725 0.349020 1.000000
0.443137 0.352941 1.000000
0.568627 0.345098 0.992157
0.701961 0.337255 0.996078
0.835294 0.329412 1.000000
0.968627 0.321569 1.000000
0.011765 0.474510 1.000000
0.000000 0.474510 1.000000
0.000000 0.470588 0.992157
0.243137 0.470588 1.000000
0.411765 0.466667 0.996078
0.556863 0.462745 1.000000
0.698039 0.458824 1.000000
0.843137 0.454902 1.000000
0.984314 0.447059 0.996078
0.007843 0.611765 0.996078
0.000000 0.611765 1.000000
0.000000 0.615686 0.996078
0.250980 0.611765 1.000000
0.384314 0.592157 0.992157
0.541176 0.592157 1.000000
0.686275 0.596078 1.000000
0.847059 0.592157 1.000000
0.988235 0.592157 1.000000
0.007843 0.729412 1.000000
0.000000 0.729412 1.000000
0.003922 0.733333 0.992157
0.266667 0.737255 1.000000
0.427451 0.737255 1.000000
0.564706 0.741176 1.000000
0.698039 0.725490 0.992157
0.847059 0.733333 0.992157
1.000000 0.729412 0.996078
0.000000 0.850980 1.000000
0.000000 0.854902 0.992157
0.050980 0.850980 1.000000
0.290196 0.854902 1.000000
0.439216 0.862745 0.996078
0.596078 0.862745 1.000000
0.741176 0.878431 0.996078
0.878431 0.882353 1.000000
0.996078 0.882353 1.000000
0.000000 0.960784 1.000000
0.078431 0.952941 1.000000
0.239216 0.964706 1.000000
0.376471 0.956863 0.996078
0.509804 0.968627 1.000000
0.658824 0.972549 1.000000
0.807843 0.976471 1.000000
0.941176 0.984314 1.000000
1.000000 1.000000 1.000000
