lut_library_archive/removed_20260629/50个风景lut/50个风景lut35.cube
# 版权归凌孟成所有，侵权必究
TITLE "Jungle LUT #35"
#LUT size
LUT_3D_SIZE 5
#LUT data points
0.000000 0.000000 0.000000
0.227451 0.000000 0.000000
0.494118 0.000000 0.003922
0.776471 0.003922 0.000000
0.996078 0.000000 0.000000
0.000000 0.223529 0.000000
0.231373 0.227451 0.003922
0.501961 0.231373 0.000000
0.784314 0.235294 0.000000
1.000000 0.231373 0.003922
0.000000 0.505882 0.007843
0.231373 0.517647 0.000000
0.513725 0.513725 0.000000
0.788235 0.521569 0.000000
0.992157 0.521569 0.000000
0.007843 0.803922 0.000000
0.215686 0.796078 0.003922
0.525490 0.796078 0.000000
0.796078 0.800000 0.007843
1.000000 0.800000 0.003922
0.000000 1.000000 0.000000
0.168627 0.996078 0.003922
0.498039 0.996078 0.000000
0.764706 1.000000 0.000000
0.992157 0.996078 0.000000
0.000000 0.000000 0.196078
0.231373 0.000000 0.211765
0.505882 0.003922 0.211765
0.780392 0.000000 0.192157
0.988235 0.003922 0.180392
0.003922 0.223529 0.211765
0.227451 0.227451 0.196078
0.501961 0.223529 0.207843
0.784314 0.211765 0.192157
1.000000 0.196078 0.172549
0.000000 0.513725 0.176471
0.215686 0.509804 0.176471
0.509804 0.509804 0.164706
0.796078 0.517647 0.172549
0.996078 0.517647 0.160784
0.000000 0.800000 0.113725
0.188235 0.796078 0.121569
0.521569 0.796078 0.113725
0.803922 0.800000 0.101961
0.996078 0.792157 0.078431
0.003922 1.000000 0.027451
0.117647 0.996078 0.023529
0.494118 1.000000 0.050980
0.768627 1.000000 0.098039
0.996078 1.000000 0.145098
0.000000 0.003922 0.498039
0.235294 0.000000 0.494118
0.513725 0.000000 0.501961
0.792157 0.000000 0.501961
0.992157 0.003922 0.509804
0.000000 0.215686 0.509804
0.223529 0.215686 0.501961
0.521569 0.203922 0.505882
0.788235 0.188235 0.501961
1.000000 0.145098 0.505882
0.007843 0.505882 0.501961
0.192157 0.513725 0.505882
0.513725 0.509804 0.501961
0.803922 0.505882 0.505882
1.000000 0.498039 0.486275
0.007843 0.800000 0.494118
0.007843 0.803922 0.486275
0.498039 0.800000 0.478431
0.807843 0.796078 0.478431
0.996078 0.796078 0.478431
0.000000 1.000000 0.466667
0.007843 0.996078 0.458824
0.482353 1.000000 0.470588
0.764706 1.000000 0.474510
0.992157 1.000000 0.490196
0.000000 0.000000 0.800000
0.231373 0.000000 0.792157
0.525490 0.000000 0.796078
0.800000 0.000000 0.796078
1.000000 0.003922 0.788235
0.003922 0.203922 0.803922
0.203922 0.203922 0.792157
0.521569 0.188235 0.796078
0.796078 0.152941 0.796078
0.996078 0.117647 0.800000
0.000000 0.501961 0.788235
0.098039 0.494118 0.800000
0.498039 0.486275 0.796078
0.803922 0.486275 0.796078
0.988235 0.494118 0.784314
0.000000 0.800000 0.803922
0.007843 0.796078 0.796078
0.486275 0.807843 0.792157
0.796078 0.803922 0.800000
0.996078 0.800000 0.803922
0.000000 1.000000 0.764706
0.152941 0.992157 0.780392
0.537255 1.000000 0.784314
0.796078 1.000000 0.800000
0.992157 1.000000 0.803922
0.003922 0.000000 0.996078
0.219608 0.003922 0.992157
0.513725 0.000000 0.996078
0.788235 0.000000 0.996078
1.000000 0.003922 1.000000
0.003922 0.192157 1.000000
0.196078 0.180392 1.000000
0.505882 0.168627 1.000000
0.788235 0.145098 1.000000
1.000000 0.113725 0.992157
0.003922 0.482353 1.000000
0.086275 0.478431 0.996078
0.486275 0.478431 1.000000
0.776471 0.478431 1.000000
1.000000 0.478431 0.992157
0.000000 0.772549 0.988235
0.164706 0.756863 1.000000
0.513725 0.772549 1.000000
0.788235 0.788235 1.000000
1.000000 0.796078 1.000000
0.270588 1.000000 0.988235
0.388235 1.000000 0.996078
0.611765 0.996078 1.000000
0.878431 1.000000 1.000000
1.000000 0.996078 1.000000
