lut_library_archive/removed_20260629/50个风景lut/50个风景lut23.cube
# 版权归凌孟成所有，侵权必究
TITLE "Jungle LUT #23"
#LUT size
LUT_3D_SIZE 9
#LUT data points
0.062745 0.058824 0.043137
0.121569 0.050980 0.050980
0.262745 0.031373 0.054902
0.372549 0.054902 0.050980
0.482353 0.090196 0.058824
0.592157 0.129412 0.094118
0.733333 0.172549 0.117647
0.870588 0.215686 0.145098
1.000000 0.254902 0.184314
0.011765 0.141176 0.019608
0.152941 0.141176 0.019608
0.250980 0.145098 0.039216
0.372549 0.149020 0.050980
0.482353 0.168627 0.070588
0.600000 0.188235 0.105882
0.729412 0.219608 0.117647
0.870588 0.254902 0.156863
1.000000 0.294118 0.196078
0.011765 0.266667 0.000000
0.145098 0.266667 0.003922
0.266667 0.262745 0.003922
0.376471 0.258824 0.023529
0.470588 0.266667 0.082353
0.596078 0.278431 0.101961
0.729412 0.309804 0.137255
0.870588 0.333333 0.160784
1.000000 0.360784 0.192157
0.031373 0.364706 0.000000
0.133333 0.372549 0.000000
0.250980 0.372549 0.000000
0.376471 0.364706 0.000000
0.478431 0.364706 0.003922
0.600000 0.376471 0.113725
0.725490 0.407843 0.149020
0.874510 0.431373 0.172549
1.000000 0.458824 0.203922
0.054902 0.478431 0.000000
0.133333 0.478431 0.000000
0.239216 0.470588 0.000000
0.352941 0.478431 0.000000
0.478431 0.470588 0.003922
0.600000 0.478431 0.000000
0.729412 0.501961 0.070588
0.874510 0.537255 0.172549
0.992157 0.560784 0.219608
0.054902 0.600000 0.000000
0.145098 0.600000 0.007843
0.247059 0.596078 0.000000
0.368627 0.600000 0.003922
0.486275 0.603922 0.000000
0.611765 0.596078 0.003922
0.741176 0.611765 0.011765
0.870588 0.639216 0.003922
1.000000 0.658824 0.168627
0.007843 0.745098 0.000000
0.109804 0.741176 0.000000
0.243137 0.737255 0.003922
0.376471 0.737255 0.003922
0.494118 0.737255 0.000000
0.619608 0.741176 0.000000
0.752941 0.737255 0.003922
0.870588 0.752941 0.000000
1.000000 0.760784 0.000000
0.000000 0.886275 0.000000
0.015686 0.886275 0.000000
0.223529 0.882353 0.000000
0.356863 0.886275 0.000000
0.501961 0.886275 0.003922
0.635294 0.878431 0.000000
0.760784 0.890196 0.000000
0.894118 0.886275 0.003922
1.000000 0.886275 0.007843
0.000000 1.000000 0.000000
0.000000 0.996078 0.000000
0.180392 0.996078 0.007843
0.345098 1.000000 0.000000
0.490196 1.000000 0.000000
0.619608 1.000000 0.000000
0.756863 1.000000 0.000000
0.886275 1.000000 0.007843
1.000000 1.000000 0.003922
0.035294 0.058824 0.113725
0.145098 0.039216 0.113725
0.274510 0.031373 0.113725
0.380392 0.082353 0.129412
0.482353 0.129412 0.137255
0.600000 0.164706 0.156863
0.729412 0.196078 0.172549
0.878431 0.227451 0.203922
0.988235 0.262745 0.223529
0.031373 0.149020 0.109804
0.145098 0.141176 0.121569
0.262745 0.149020 0.117647
0.384314 0.160784 0.125490
0.478431 0.192157 0.137255
0.592157 0.207843 0.156863
0.733333 0.235294 0.176471
0.882353 0.266667 0.207843
1.000000 0.298039 0.223529
0.035294 0.266667 0.086275
0.137255 0.266667 0.098039
0.266667 0.262745 0.090196
0.372549 0.254902 0.113725
0.474510 0.278431 0.149020
0.588235 0.290196 0.156863
0.729412 0.313725 0.180392
0.870588 0.341176 0.196078
1.000000 0.364706 0.235294
0.035294 0.376471 0.066667
0.145098 0.376471 0.062745
0.250980 0.372549 0.066667
0.376471 0.368627 0.066667
0.482353 0.368627 0.109804
0.592157 0.388235 0.160784
0.729412 0.411765 0.192157
0.878431 0.439216 0.211765
1.000000 0.466667 0.239216
0.074510 0.474510 0.035294
0.149020 0.478431 0.043137
0.243137 0.470588 0.031373
0.364706 0.470588 0.019608
0.482353 0.470588 0.011765
0.600000 0.474510 0.039216
0.733333 0.501961 0.141176
0.874510 0.537255 0.211765
0.992157 0.568627 0.254902
0.054902 0.600000 0.000000
0.141176 0.596078 0.000000
0.247059 0.596078 0.000000
0.364706 0.600000 0.003922
0.486275 0.600000 0.000000
0.607843 0.603922 0.000000
0.737255 0.607843 0.000000
0.874510 0.635294 0.074510
0.988235 0.662745 0.215686
0.003922 0.733333 0.000000
0.105882 0.741176 0.000000
0.239216 0.733333 0.000000
0.364706 0.737255 0.000000
0.494118 0.737255 0.003922
0.615686 0.737255 0.000000
0.749020 0.745098 0.003922
0.870588 0.752941 0.000000
1.000000 0.768627 0.007843
0.003922 0.882353 0.000000
0.000000 0.882353 0.000000
0.207843 0.882353 0.003922
0.352941 0.882353 0.000000
0.486275 0.878431 0.003922
0.635294 0.878431 0.011765
0.756863 0.882353 0.000000
0.886275 0.882353 0.000000
1.000000 0.886275 0.000000
0.007843 1.000000 0.000000
0.007843 1.000000 0.000000
0.149020 1.000000 0.003922
0.341176 0.996078 0.000000
0.482353 0.996078 0.000000
0.619608 1.000000 0.000000
0.749020 0.996078 0.000000
0.882353 1.000000 0.003922
0.996078 1.000000 0.003922
0.019608 0.047059 0.219608
0.152941 0.027451 0.211765
0.282353 0.015686 0.215686
0.384314 0.027451 0.200000
0.494118 0.101961 0.211765
0.600000 0.164706 0.223529
0.737255 0.203922 0.250980
0.878431 0.227451 0.274510
1.000000 0.262745 0.286275
0.070588 0.137255 0.215686
0.156863 0.137255 0.215686
0.282353 0.133333 0.223529
0.396078 0.145098 0.211765
0.490196 0.188235 0.211765
0.600000 0.231373 0.235294
0.737255 0.250980 0.250980
0.886275 0.270588 0.266667
0.988235 0.294118 0.286275
0.058824 0.262745 0.211765
0.145098 0.266667 0.203922
0.274510 0.258824 0.215686
0.368627 0.278431 0.215686
0.478431 0.286275 0.227451
0.592157 0.305882 0.247059
0.733333 0.321569 0.254902
0.882353 0.341176 0.262745
1.000000 0.372549 0.286275
0.082353 0.368627 0.192157
0.149020 0.376471 0.180392
0.262745 0.372549 0.184314
0.372549 0.368627 0.188235
0.474510 0.376471 0.219608
0.588235 0.396078 0.239216
0.741176 0.423529 0.254902
0.886275 0.435294 0.274510
1.000000 0.458824 0.298039
0.109804 0.478431 0.172549
0.156863 0.474510 0.172549
0.258824 0.482353 0.172549
0.364706 0.478431 0.164706
0.486275 0.474510 0.164706
0.603922 0.478431 0.184314
0.737255 0.505882 0.239216
0.874510 0.545098 0.270588
0.996078 0.560784 0.309804
0.035294 0.603922 0.137255
0.129412 0.596078 0.133333
0.247059 0.603922 0.129412
0.364706 0.603922 0.129412
0.486275 0.603922 0.125490
0.603922 0.607843 0.109804
0.741176 0.607843 0.117647
0.886275 0.639216 0.203922
0.996078 0.670588 0.294118
0.000000 0.741176 0.019608
0.031373 0.741176 0.015686
0.223529 0.741176 0.007843
0.352941 0.741176 0.000000
0.486275 0.741176 0.003922
0.619608 0.741176 0.000000
0.752941 0.752941 0.000000
0.890196 0.756863 0.000000
1.000000 0.756863 0.160784
0.011765 0.882353 0.007843
0.003922 0.874510 0.000000
0.168627 0.882353 0.000000
0.341176 0.882353 0.000000
0.482353 0.882353 0.000000
0.619608 0.882353 0.000000
0.756863 0.886275 0.000000
0.894118 0.882353 0.000000
0.996078 0.882353 0.000000
0.000000 1.000000 0.003922
0.000000 1.000000 0.000000
0.070588 1.000000 0.003922
0.309804 0.996078 0.003922
0.466667 1.000000 0.000000
0.607843 1.000000 0.000000
0.745098 1.000000 0.003922
0.882353 1.000000 0.000000
1.000000 1.000000 0.000000
0.105882 0.027451 0.313725
0.168627 0.019608 0.313725
0.270588 0.031373 0.305882
0.384314 0.019608 0.305882
0.494118 0.035294 0.309804
0.596078 0.098039 0.305882
0.733333 0.152941 0.317647
0.878431 0.200000 0.341176
1.000000 0.247059 0.360784
0.101961 0.129412 0.294118
0.164706 0.125490 0.321569
0.270588 0.121569 0.305882
0.388235 0.125490 0.301961
0.486275 0.141176 0.305882
0.603922 0.176471 0.301961
0.733333 0.215686 0.317647
0.890196 0.247059 0.352941
1.000000 0.290196 0.380392
0.101961 0.247059 0.309804
0.172549 0.247059 0.309804
0.278431 0.254902 0.309804
0.384314 0.250980 0.305882
0.490196 0.254902 0.301961
0.596078 0.286275 0.309804
0.741176 0.305882 0.333333
0.890196 0.333333 0.356863
0.996078 0.364706 0.364706
0.113725 0.376471 0.298039
0.180392 0.368627 0.305882
0.274510 0.372549 0.298039
0.384314 0.360784 0.305882
0.470588 0.380392 0.309804
0.600000 0.392157 0.321569
0.745098 0.423529 0.337255
0.890196 0.439216 0.364706
1.000000 0.466667 0.396078
0.121569 0.482353 0.298039
0.164706 0.478431 0.278431
0.262745 0.474510 0.278431
0.368627 0.470588 0.282353
0.490196 0.478431 0.278431
0.607843 0.486275 0.301961
0.745098 0.521569 0.345098
0.890196 0.545098 0.368627
0.992157 0.568627 0.388235
0.000000 0.603922 0.258824
0.050980 0.607843 0.254902
0.215686 0.600000 0.250980
0.349020 0.600000 0.250980
0.478431 0.607843 0.250980
0.619608 0.600000 0.243137
0.749020 0.611765 0.250980
0.882353 0.643137 0.329412
0.992157 0.686275 0.411765
0.007843 0.737255 0.207843
0.000000 0.749020 0.203922
0.145098 0.741176 0.203922
0.325490 0.745098 0.196078
0.482353 0.745098 0.200000
0.615686 0.745098 0.192157
0.756863 0.749020 0.184314
0.894118 0.760784 0.184314
1.000000 0.768627 0.305882
0.011765 0.886275 0.121569
0.000000 0.882353 0.121569
0.000000 0.886275 0.109804
0.294118 0.890196 0.117647
0.466667 0.882353 0.101961
0.607843 0.886275 0.086275
0.756863 0.890196 0.066667
0.898039 0.886275 0.035294
1.000000 0.878431 0.000000
0.011765 1.000000 0.007843
0.000000 1.000000 0.003922
0.000000 1.000000 0.000000
0.262745 0.996078 0.000000
0.447059 1.000000 0.000000
0.588235 1.000000 0.000000
0.741176 1.000000 0.000000
0.878431 1.000000 0.000000
0.996078 1.000000 0.003922
0.129412 0.031373 0.392157
0.176471 0.039216 0.407843
0.270588 0.039216 0.400000
0.380392 0.039216 0.407843
0.490196 0.039216 0.403922
0.603922 0.054902 0.411765
0.721569 0.054902 0.411765
0.874510 0.090196 0.435294
1.000000 0.152941 0.439216
0.129412 0.129412 0.403922
0.184314 0.133333 0.411765
0.278431 0.133333 0.407843
0.376471 0.129412 0.407843
0.490196 0.133333 0.407843
0.600000 0.133333 0.400000
0.729412 0.137255 0.407843
0.878431 0.164706 0.427451
0.988235 0.215686 0.454902
0.137255 0.243137 0.411765
0.192157 0.243137 0.407843
0.274510 0.239216 0.407843
0.380392 0.243137 0.400000
0.490196 0.243137 0.415686
0.600000 0.243137 0.403922
0.733333 0.243137 0.407843
0.882353 0.270588 0.427451
1.000000 0.313725 0.458824
0.137255 0.356863 0.407843
0.192157 0.356863 0.403922
0.266667 0.352941 0.403922
0.380392 0.349020 0.400000
0.490196 0.349020 0.396078
0.600000 0.352941 0.396078
0.756863 0.372549 0.423529
0.894118 0.411765 0.454902
1.000000 0.466667 0.490196
0.141176 0.474510 0.392157
0.176471 0.478431 0.407843
0.266667 0.470588 0.411765
0.368627 0.474510 0.400000
0.482353 0.470588 0.396078
0.603922 0.490196 0.419608
0.756863 0.517647 0.447059
0.898039 0.552941 0.478431
0.996078 0.584314 0.509804
0.000000 0.603922 0.400000
0.039216 0.603922 0.392157
0.192157 0.603922 0.384314
0.325490 0.603922 0.376471
0.466667 0.603922 0.368627
0.611765 0.603922 0.364706
0.760784 0.623529 0.407843
0.890196 0.662745 0.486275
0.996078 0.694118 0.529412
0.000000 0.749020 0.372549
0.000000 0.741176 0.368627
0.000000 0.749020 0.345098
0.254902 0.752941 0.341176
0.447059 0.745098 0.349020
0.607843 0.749020 0.333333
0.756863 0.752941 0.329412
0.905882 0.752941 0.356863
1.000000 0.780392 0.478431
0.003922 0.886275 0.305882
0.003922 0.882353 0.294118
0.000000 0.894118 0.294118
0.188235 0.886275 0.305882
0.419608 0.890196 0.294118
0.584314 0.894118 0.294118
0.749020 0.886275 0.282353
0.898039 0.886275 0.282353
1.000000 0.882353 0.294118
0.000000 1.000000 0.239216
0.000000 0.996078 0.262745
0.003922 1.000000 0.266667
0.121569 1.000000 0.250980
0.400000 0.996078 0.247059
0.568627 1.000000 0.243137
0.733333 0.996078 0.239216
0.874510 0.996078 0.243137
0.992157 1.000000 0.247059
0.152941 0.039216 0.533333
0.192157 0.039216 0.529412
0.290196 0.035294 0.529412
0.392157 0.031373 0.529412
0.498039 0.023529 0.529412
0.615686 0.019608 0.525490
0.733333 0.003922 0.541176
0.874510 0.003922 0.541176
0.996078 0.007843 0.560784
0.152941 0.125490 0.533333
0.200000 0.125490 0.545098
0.278431 0.129412 0.533333
0.384314 0.129412 0.529412
0.498039 0.121569 0.521569
0.619608 0.121569 0.533333
0.741176 0.105882 0.541176
0.878431 0.043137 0.560784
0.996078 0.000000 0.568627
0.149020 0.231373 0.541176
0.200000 0.235294 0.537255
0.278431 0.239216 0.525490
0.392157 0.231373 0.529412
0.498039 0.231373 0.533333
0.615686 0.231373 0.541176
0.741176 0.219608 0.537255
0.890196 0.192157 0.545098
1.000000 0.196078 0.560784
0.129412 0.356863 0.533333
0.172549 0.352941 0.545098
0.262745 0.349020 0.541176
0.388235 0.341176 0.537255
0.498039 0.341176 0.545098
0.627451 0.337255 0.537255
0.752941 0.325490 0.541176
0.894118 0.325490 0.556863
1.000000 0.368627 0.564706
0.050980 0.470588 0.533333
0.129412 0.478431 0.533333
0.247059 0.470588 0.545098
0.337255 0.466667 0.541176
0.486275 0.450980 0.533333
0.623529 0.450980 0.541176
0.760784 0.450980 0.537255
0.898039 0.490196 0.556863
0.996078 0.552941 0.600000
0.000000 0.607843 0.541176
0.000000 0.607843 0.541176
0.164706 0.603922 0.545098
0.317647 0.603922 0.529412
0.458824 0.603922 0.533333
0.615686 0.596078 0.521569
0.760784 0.631373 0.564706
0.898039 0.674510 0.607843
1.000000 0.694118 0.658824
0.003922 0.749020 0.529412
0.003922 0.745098 0.517647
0.007843 0.749020 0.521569
0.223529 0.745098 0.521569
0.431373 0.749020 0.517647
0.600000 0.752941 0.505882
0.760784 0.745098 0.505882
0.901961 0.772549 0.572549
0.996078 0.807843 0.658824
0.000000 0.890196 0.501961
0.003922 0.886275 0.501961
0.003922 0.890196 0.498039
0.070588 0.886275 0.486275
0.380392 0.890196 0.494118
0.580392 0.886275 0.486275
0.741176 0.894118 0.474510
0.901961 0.890196 0.478431
1.000000 0.882353 0.517647
0.000000 1.000000 0.466667
0.003922 0.996078 0.458824
0.003922 0.996078 0.466667
0.007843 0.996078 0.450980
0.376471 0.996078 0.458824
0.564706 0.996078 0.458824
0.725490 1.000000 0.462745
0.874510 1.000000 0.470588
1.000000 1.000000 0.462745
0.152941 0.019608 0.694118
0.207843 0.023529 0.674510
0.282353 0.019608 0.678431
0.392157 0.000000 0.682353
0.505882 0.000000 0.678431
0.623529 0.003922 0.682353
0.752941 0.000000 0.686275
0.882353 0.000000 0.690196
1.000000 0.003922 0.701961
0.141176 0.121569 0.686275
0.207843 0.117647 0.682353
0.290196 0.117647 0.694118
0.396078 0.125490 0.682353
0.509804 0.109804 0.690196
0.635294 0.090196 0.698039
0.756863 0.050980 0.686275
0.878431 0.003922 0.705882
1.000000 0.000000 0.690196
0.117647 0.235294 0.682353
0.172549 0.235294 0.678431
0.286275 0.231373 0.674510
0.384314 0.223529 0.686275
0.501961 0.223529 0.694118
0.631373 0.207843 0.686275
0.749020 0.192157 0.694118
0.886275 0.156863 0.694118
0.996078 0.094118 0.690196
0.007843 0.341176 0.694118
0.098039 0.337255 0.694118
0.239216 0.337255 0.698039
0.360784 0.337255 0.690196
0.498039 0.325490 0.698039
0.631373 0.321569 0.690196
0.760784 0.305882 0.701961
0.898039 0.294118 0.701961
0.996078 0.270588 0.705882
0.007843 0.470588 0.682353
0.000000 0.470588 0.694118
0.164706 0.454902 0.694118
0.317647 0.450980 0.701961
0.474510 0.439216 0.701961
0.611765 0.435294 0.698039
0.764706 0.431373 0.694118
0.905882 0.423529 0.698039
0.996078 0.415686 0.690196
0.003922 0.603922 0.698039
0.000000 0.607843 0.694118
0.007843 0.603922 0.694118
0.262745 0.600000 0.698039
0.431373 0.588235 0.690196
0.603922 0.576471 0.698039
0.772549 0.580392 0.705882
0.913725 0.576471 0.698039
1.000000 0.627451 0.713725
0.000000 0.749020 0.698039
0.011765 0.752941 0.705882
0.000000 0.749020 0.717647
0.200000 0.745098 0.694118
0.419608 0.745098 0.698039
0.600000 0.745098 0.705882
0.749020 0.752941 0.698039
0.913725 0.788235 0.741176
0.992157 0.819608 0.784314
0.000000 0.886275 0.678431
0.007843 0.890196 0.694118
0.000000 0.894118 0.682353
0.007843 0.894118 0.674510
0.376471 0.898039 0.682353
0.568627 0.894118 0.666667
0.729412 0.890196 0.670588
0.898039 0.894118 0.674510
1.000000 0.898039 0.737255
0.000000 0.996078 0.678431
0.003922 1.000000 0.654902
0.003922 1.000000 0.654902
0.011765 0.996078 0.662745
0.372549 1.000000 0.654902
0.572549 1.000000 0.662745
0.729412 1.000000 0.666667
0.870588 0.996078 0.662745
0.992157 1.000000 0.670588
0.117647 0.000000 0.839216
0.192157 0.000000 0.843137
0.278431 0.000000 0.847059
0.396078 0.003922 0.843137
0.509804 0.003922 0.843137
0.635294 0.000000 0.847059
0.764706 0.000000 0.847059
0.894118 0.000000 0.847059
1.000000 0.000000 0.854902
0.098039 0.113725 0.847059
0.184314 0.109804 0.847059
0.270588 0.105882 0.843137
0.380392 0.098039 0.835294
0.513725 0.082353 0.854902
0.643137 0.043137 0.854902
0.756863 0.003922 0.854902
0.890196 0.003922 0.850980
1.000000 0.000000 0.862745
0.039216 0.227451 0.854902
0.152941 0.227451 0.862745
0.254902 0.223529 0.862745
0.388235 0.211765 0.850980
0.498039 0.203922 0.843137
0.635294 0.192157 0.858824
0.764706 0.168627 0.854902
0.894118 0.117647 0.858824
1.000000 0.000000 0.854902
0.007843 0.329412 0.850980
0.000000 0.325490 0.858824
0.192157 0.337255 0.854902
0.352941 0.329412 0.862745
0.490196 0.325490 0.866667
0.627451 0.309804 0.854902
0.760784 0.294118 0.866667
0.898039 0.262745 0.870588
0.996078 0.239216 0.862745
0.003922 0.454902 0.850980
0.003922 0.443137 0.862745
0.007843 0.431373 0.847059
0.262745 0.435294 0.862745
0.454902 0.431373 0.862745
0.603922 0.423529 0.858824
0.752941 0.411765 0.862745
0.901961 0.403922 0.866667
0.996078 0.388235 0.858824
0.003922 0.584314 0.858824
0.003922 0.592157 0.858824
0.000000 0.588235 0.866667
0.176471 0.576471 0.874510
0.392157 0.572549 0.866667
0.596078 0.568627 0.870588
0.752941 0.564706 0.870588
0.901961 0.560784 0.866667
0.996078 0.556863 0.854902
0.000000 0.741176 0.866667
0.000000 0.737255 0.850980
0.000000 0.741176 0.866667
0.066667 0.733333 0.862745
0.376471 0.729412 0.862745
0.564706 0.729412 0.870588
0.745098 0.729412 0.866667
0.905882 0.733333 0.870588
1.000000 0.737255 0.850980
0.003922 0.886275 0.862745
0.000000 0.886275 0.862745
0.003922 0.894118 0.858824
0.000000 0.886275 0.862745
0.360784 0.890196 0.866667
0.560784 0.882353 0.862745
0.733333 0.886275 0.858824
0.890196 0.886275 0.866667
1.000000 0.925490 0.909804
0.000000 1.000000 0.854902
0.007843 1.000000 0.847059
0.000000 1.000000 0.847059
0.003922 0.996078 0.843137
0.372549 1.000000 0.850980
0.572549 1.000000 0.850980
0.737255 1.000000 0.850980
0.890196 1.000000 0.850980
0.992157 1.000000 0.854902
0.007843 0.003922 1.000000
0.125490 0.003922 0.996078
0.243137 0.003922 1.000000
0.376471 0.003922 1.000000
0.513725 0.000000 1.000000
0.635294 0.003922 1.000000
0.752941 0.000000 0.996078
0.890196 0.000000 1.000000
1.000000 0.000000 0.996078
0.007843 0.101961 0.996078
0.109804 0.098039 0.996078
0.239216 0.094118 0.996078
0.380392 0.078431 1.000000
0.501961 0.050980 1.000000
0.627451 0.003922 0.992157
0.756863 0.000000 1.000000
0.886275 0.003922 1.000000
1.000000 0.000000 1.000000
0.000000 0.215686 0.996078
0.035294 0.219608 1.000000
0.223529 0.215686 0.988235
0.352941 0.207843 1.000000
0.490196 0.196078 0.996078
0.635294 0.172549 1.000000
0.749020 0.149020 1.000000
0.886275 0.082353 0.996078
1.000000 0.000000 0.996078
0.007843 0.321569 1.000000
0.003922 0.317647 0.996078
0.141176 0.321569 1.000000
0.325490 0.313725 1.000000
0.474510 0.305882 1.000000
0.603922 0.294118 1.000000
0.745098 0.274510 1.000000
0.886275 0.254902 1.000000
0.996078 0.219608 1.000000
0.000000 0.431373 0.992157
0.000000 0.431373 1.000000
0.003922 0.423529 1.000000
0.235294 0.419608 1.000000
0.427451 0.415686 1.000000
0.580392 0.411765 1.000000
0.733333 0.400000 1.000000
0.882353 0.392157 1.000000
0.996078 0.380392 1.000000
0.000000 0.572549 0.992157
0.000000 0.568627 0.996078
0.003922 0.564706 1.000000
0.035294 0.556863 0.992157
0.352941 0.552941 1.000000
0.552941 0.552941 1.000000
0.717647 0.549020 1.000000
0.878431 0.552941 1.000000
0.992157 0.549020 1.000000
0.000000 0.717647 0.992157
0.000000 0.721569 1.000000
0.000000 0.713725 1.000000
0.000000 0.709804 0.988235
0.349020 0.717647 0.992157
0.549020 0.713725 1.000000
0.717647 0.717647 1.000000
0.866667 0.721569 0.996078
1.000000 0.717647 0.996078
0.003922 0.866667 1.000000
0.003922 0.866667 1.000000
0.000000 0.862745 0.996078
0.000000 0.866667 0.996078
0.349020 0.862745 1.000000
0.556863 0.866667 0.996078
0.729412 0.870588 1.000000
0.878431 0.874510 1.000000
1.000000 0.874510 1.000000
0.003922 1.000000 1.000000
0.007843 1.000000 0.996078
0.003922 0.996078 1.000000
0.000000 0.996078 0.996078
0.384314 0.992157 1.000000
0.572549 0.996078 1.000000
0.749020 1.000000 1.000000
0.898039 1.000000 0.996078
1.000000 1.000000 1.000000
