lut_library_archive/removed_20260629/50个风景lut/50个风景lut27.cube
# 版权归凌孟成所有，侵权必究
TITLE "Jungle LUT #27"
#LUT size
LUT_3D_SIZE 9
#LUT data points
0.000000 0.000000 0.000000
0.133333 0.000000 0.003922
0.286275 0.000000 0.000000
0.454902 0.000000 0.003922
0.588235 0.003922 0.000000
0.694118 0.000000 0.007843
0.788235 0.000000 0.000000
0.890196 0.000000 0.000000
0.988235 0.003922 0.000000
0.000000 0.149020 0.003922
0.125490 0.141176 0.000000
0.286275 0.149020 0.000000
0.450980 0.156863 0.003922
0.588235 0.149020 0.000000
0.690196 0.145098 0.000000
0.780392 0.129412 0.003922
0.886275 0.125490 0.000000
1.000000 0.117647 0.000000
0.000000 0.301961 0.000000
0.117647 0.301961 0.000000
0.298039 0.309804 0.000000
0.454902 0.309804 0.003922
0.592157 0.294118 0.000000
0.694118 0.274510 0.000000
0.788235 0.266667 0.003922
0.894118 0.254902 0.000000
0.996078 0.247059 0.003922
0.000000 0.454902 0.007843
0.113725 0.454902 0.011765
0.298039 0.454902 0.003922
0.450980 0.443137 0.000000
0.572549 0.427451 0.007843
0.674510 0.403922 0.000000
0.772549 0.380392 0.003922
0.886275 0.376471 0.000000
1.000000 0.372549 0.003922
0.000000 0.556863 0.007843
0.117647 0.568627 0.000000
0.282353 0.560784 0.003922
0.419608 0.556863 0.000000
0.556863 0.545098 0.000000
0.662745 0.533333 0.000000
0.772549 0.509804 0.000000
0.890196 0.501961 0.003922
0.996078 0.501961 0.000000
0.090196 0.670588 0.000000
0.172549 0.666667 0.000000
0.290196 0.654902 0.000000
0.411765 0.658824 0.003922
0.529412 0.650980 0.000000
0.658824 0.647059 0.007843
0.772549 0.643137 0.003922
0.894118 0.627451 0.003922
1.000000 0.631373 0.003922
0.137255 0.760784 0.000000
0.196078 0.768627 0.003922
0.294118 0.764706 0.000000
0.407843 0.768627 0.003922
0.521569 0.756863 0.000000
0.650980 0.756863 0.007843
0.760784 0.749020 0.000000
0.886275 0.752941 0.000000
1.000000 0.752941 0.000000
0.156863 0.886275 0.003922
0.223529 0.894118 0.000000
0.313725 0.886275 0.011765
0.427451 0.890196 0.000000
0.533333 0.890196 0.000000
0.662745 0.886275 0.000000
0.776471 0.886275 0.000000
0.905882 0.886275 0.000000
1.000000 0.894118 0.000000
0.121569 1.000000 0.000000
0.192157 0.996078 0.000000
0.298039 0.996078 0.000000
0.411765 1.000000 0.003922
0.541176 1.000000 0.000000
0.674510 1.000000 0.000000
0.815686 1.000000 0.003922
0.956863 1.000000 0.003922
1.000000 1.000000 0.000000
0.000000 0.000000 0.121569
0.133333 0.000000 0.121569
0.294118 0.000000 0.121569
0.450980 0.003922 0.105882
0.592157 0.000000 0.098039
0.690196 0.003922 0.086275
0.788235 0.011765 0.082353
0.886275 0.015686 0.074510
0.984314 0.007843 0.062745
0.000000 0.145098 0.117647
0.133333 0.145098 0.117647
0.286275 0.141176 0.109804
0.454902 0.141176 0.105882
0.584314 0.137255 0.094118
0.682353 0.137255 0.086275
0.776471 0.137255 0.078431
0.886275 0.137255 0.074510
1.000000 0.125490 0.066667
0.000000 0.305882 0.082353
0.101961 0.313725 0.086275
0.298039 0.301961 0.078431
0.454902 0.301961 0.078431
0.584314 0.290196 0.082353
0.678431 0.274510 0.082353
0.780392 0.262745 0.074510
0.890196 0.254902 0.070588
0.996078 0.254902 0.058824
0.000000 0.450980 0.031373
0.098039 0.443137 0.035294
0.282353 0.447059 0.023529
0.447059 0.443137 0.019608
0.568627 0.419608 0.031373
0.670588 0.403922 0.070588
0.772549 0.392157 0.082353
0.886275 0.380392 0.074510
0.996078 0.376471 0.058824
0.000000 0.552941 0.043137
0.125490 0.552941 0.043137
0.278431 0.556863 0.047059
0.423529 0.552941 0.039216
0.556863 0.541176 0.047059
0.662745 0.525490 0.054902
0.768627 0.509804 0.078431
0.886275 0.505882 0.094118
1.000000 0.498039 0.062745
0.113725 0.650980 0.101961
0.192157 0.650980 0.101961
0.290196 0.650980 0.105882
0.407843 0.654902 0.105882
0.529412 0.650980 0.109804
0.650980 0.647059 0.098039
0.764706 0.635294 0.098039
0.886275 0.627451 0.086275
1.000000 0.627451 0.086275
0.152941 0.756863 0.113725
0.211765 0.760784 0.129412
0.301961 0.756863 0.125490
0.403922 0.749020 0.113725
0.525490 0.749020 0.125490
0.639216 0.749020 0.105882
0.764706 0.752941 0.105882
0.878431 0.752941 0.086275
1.000000 0.756863 0.054902
0.172549 0.882353 0.133333
0.239216 0.886275 0.141176
0.317647 0.894118 0.133333
0.423529 0.882353 0.129412
0.533333 0.886275 0.125490
0.654902 0.882353 0.105882
0.772549 0.886275 0.086275
0.898039 0.882353 0.062745
1.000000 0.886275 0.031373
0.117647 1.000000 0.000000
0.172549 1.000000 0.000000
0.290196 1.000000 0.007843
0.407843 1.000000 0.000000
0.529412 1.000000 0.000000
0.674510 1.000000 0.000000
0.807843 1.000000 0.000000
0.949020 1.000000 0.000000
1.000000 0.996078 0.000000
0.000000 0.000000 0.282353
0.137255 0.000000 0.270588
0.290196 0.003922 0.274510
0.458824 0.000000 0.278431
0.592157 0.000000 0.262745
0.701961 0.031373 0.258824
0.784314 0.117647 0.254902
0.882353 0.129412 0.250980
1.000000 0.117647 0.250980
0.000000 0.137255 0.278431
0.117647 0.133333 0.278431
0.294118 0.129412 0.274510
0.458824 0.121569 0.274510
0.592157 0.137255 0.258824
0.686275 0.172549 0.250980
0.772549 0.192157 0.262745
0.890196 0.184314 0.258824
1.000000 0.176471 0.243137
0.011765 0.298039 0.262745
0.078431 0.301961 0.266667
0.298039 0.301961 0.270588
0.454902 0.305882 0.266667
0.576471 0.301961 0.270588
0.682353 0.298039 0.254902
0.760784 0.290196 0.254902
0.886275 0.286275 0.262745
1.000000 0.282353 0.250980
0.007843 0.447059 0.250980
0.086275 0.447059 0.254902
0.294118 0.450980 0.247059
0.443137 0.443137 0.247059
0.556863 0.419608 0.254902
0.662745 0.411765 0.262745
0.768627 0.400000 0.262745
0.878431 0.400000 0.262745
1.000000 0.396078 0.254902
0.078431 0.549020 0.258824
0.168627 0.552941 0.258824
0.305882 0.549020 0.262745
0.423529 0.549020 0.254902
0.549020 0.541176 0.250980
0.654902 0.525490 0.254902
0.756863 0.517647 0.270588
0.882353 0.513725 0.270588
1.000000 0.509804 0.250980
0.200000 0.650980 0.286275
0.235294 0.654902 0.278431
0.321569 0.650980 0.274510
0.427451 0.650980 0.278431
0.537255 0.643137 0.270588
0.643137 0.643137 0.266667
0.760784 0.631373 0.258824
0.882353 0.631373 0.258824
0.996078 0.627451 0.250980
0.207843 0.749020 0.270588
0.243137 0.752941 0.266667
0.321569 0.752941 0.270588
0.419608 0.749020 0.274510
0.529412 0.749020 0.266667
0.639216 0.749020 0.266667
0.756863 0.749020 0.266667
0.890196 0.756863 0.266667
1.000000 0.756863 0.243137
0.203922 0.874510 0.254902
0.235294 0.882353 0.266667
0.321569 0.886275 0.262745
0.431373 0.886275 0.262745
0.541176 0.882353 0.266667
0.654902 0.870588 0.258824
0.772549 0.878431 0.231373
0.898039 0.878431 0.235294
0.996078 0.886275 0.215686
0.105882 1.000000 0.200000
0.168627 1.000000 0.203922
0.282353 1.000000 0.200000
0.400000 1.000000 0.192157
0.533333 1.000000 0.192157
0.662745 0.996078 0.176471
0.811765 1.000000 0.168627
0.956863 1.000000 0.152941
1.000000 1.000000 0.149020
0.000000 0.000000 0.435294
0.125490 0.003922 0.419608
0.286275 0.003922 0.427451
0.443137 0.000000 0.431373
0.592157 0.000000 0.419608
0.690196 0.039216 0.400000
0.780392 0.137255 0.376471
0.874510 0.200000 0.388235
0.996078 0.223529 0.403922
0.000000 0.133333 0.423529
0.098039 0.129412 0.423529
0.282353 0.121569 0.427451
0.454902 0.113725 0.423529
0.588235 0.137255 0.411765
0.678431 0.176471 0.384314
0.764706 0.223529 0.384314
0.882353 0.250980 0.392157
0.992157 0.247059 0.396078
0.003922 0.294118 0.431373
0.086275 0.294118 0.419608
0.286275 0.305882 0.423529
0.458824 0.298039 0.423529
0.564706 0.305882 0.411765
0.662745 0.321569 0.396078
0.760784 0.341176 0.403922
0.870588 0.337255 0.396078
0.996078 0.333333 0.392157
0.000000 0.454902 0.411765
0.117647 0.450980 0.427451
0.301961 0.447059 0.415686
0.443137 0.439216 0.419608
0.549020 0.435294 0.411765
0.647059 0.435294 0.403922
0.756863 0.431373 0.407843
0.870588 0.427451 0.403922
0.996078 0.423529 0.403922
0.168627 0.549020 0.403922
0.239216 0.552941 0.407843
0.341176 0.556863 0.403922
0.439216 0.545098 0.407843
0.545098 0.545098 0.403922
0.647059 0.533333 0.407843
0.752941 0.533333 0.411765
0.874510 0.525490 0.400000
1.000000 0.529412 0.384314
0.258824 0.658824 0.411765
0.298039 0.650980 0.411765
0.356863 0.647059 0.415686
0.435294 0.647059 0.403922
0.545098 0.647059 0.400000
0.650980 0.643137 0.403922
0.756863 0.631373 0.392157
0.870588 0.635294 0.392157
1.000000 0.639216 0.396078
0.231373 0.752941 0.396078
0.274510 0.756863 0.400000
0.341176 0.752941 0.392157
0.427451 0.752941 0.392157
0.537255 0.752941 0.388235
0.647059 0.745098 0.384314
0.760784 0.749020 0.384314
0.886275 0.756863 0.384314
1.000000 0.756863 0.372549
0.192157 0.874510 0.380392
0.239216 0.886275 0.384314
0.317647 0.886275 0.372549
0.427451 0.886275 0.376471
0.529412 0.878431 0.368627
0.654902 0.878431 0.364706
0.772549 0.878431 0.364706
0.905882 0.882353 0.349020
1.000000 0.882353 0.345098
0.003922 0.996078 0.333333
0.094118 1.000000 0.321569
0.254902 0.996078 0.329412
0.376471 1.000000 0.325490
0.517647 0.996078 0.317647
0.658824 1.000000 0.313725
0.807843 1.000000 0.305882
0.949020 1.000000 0.301961
1.000000 1.000000 0.294118
0.003922 0.000000 0.541176
0.105882 0.003922 0.541176
0.258824 0.000000 0.533333
0.415686 0.000000 0.537255
0.564706 0.003922 0.537255
0.682353 0.031373 0.533333
0.776471 0.141176 0.505882
0.874510 0.192157 0.494118
0.992157 0.211765 0.498039
0.000000 0.133333 0.521569
0.101961 0.129412 0.545098
0.258824 0.129412 0.541176
0.415686 0.133333 0.533333
0.556863 0.141176 0.541176
0.670588 0.168627 0.517647
0.760784 0.223529 0.505882
0.866667 0.254902 0.509804
0.992157 0.258824 0.505882
0.000000 0.290196 0.537255
0.137255 0.294118 0.525490
0.282353 0.301961 0.529412
0.423529 0.301961 0.537255
0.560784 0.305882 0.533333
0.662745 0.321569 0.525490
0.756863 0.337255 0.509804
0.874510 0.345098 0.505882
1.000000 0.341176 0.509804
0.101961 0.419608 0.525490
0.192157 0.427451 0.529412
0.321569 0.431373 0.525490
0.427451 0.435294 0.521569
0.541176 0.431373 0.517647
0.643137 0.443137 0.509804
0.745098 0.443137 0.505882
0.870588 0.435294 0.509804
0.988235 0.419608 0.501961
0.203922 0.541176 0.529412
0.254902 0.549020 0.521569
0.345098 0.552941 0.521569
0.443137 0.541176 0.517647
0.545098 0.545098 0.513725
0.643137 0.537255 0.509804
0.749020 0.533333 0.513725
0.870588 0.529412 0.509804
1.000000 0.525490 0.490196
0.274510 0.647059 0.521569
0.301961 0.654902 0.517647
0.356863 0.647059 0.509804
0.447059 0.647059 0.517647
0.541176 0.643137 0.505882
0.650980 0.639216 0.509804
0.756863 0.639216 0.498039
0.878431 0.631373 0.494118
1.000000 0.639216 0.498039
0.231373 0.760784 0.501961
0.266667 0.756863 0.498039
0.325490 0.752941 0.490196
0.411765 0.752941 0.486275
0.529412 0.749020 0.494118
0.643137 0.749020 0.486275
0.760784 0.749020 0.486275
0.894118 0.749020 0.474510
1.000000 0.752941 0.482353
0.039216 0.878431 0.474510
0.145098 0.882353 0.470588
0.266667 0.886275 0.474510
0.392157 0.890196 0.478431
0.513725 0.886275 0.470588
0.643137 0.882353 0.466667
0.764706 0.878431 0.454902
0.894118 0.878431 0.450980
1.000000 0.882353 0.458824
0.003922 0.992157 0.439216
0.003922 1.000000 0.439216
0.109804 1.000000 0.439216
0.329412 0.996078 0.435294
0.478431 0.996078 0.423529
0.631373 1.000000 0.419608
0.796078 1.000000 0.423529
0.945098 1.000000 0.415686
1.000000 1.000000 0.411765
0.007843 0.000000 0.631373
0.074510 0.007843 0.619608
0.247059 0.003922 0.627451
0.380392 0.003922 0.627451
0.521569 0.027451 0.627451
0.650980 0.066667 0.627451
0.772549 0.129412 0.611765
0.874510 0.192157 0.603922
1.000000 0.207843 0.607843
0.011765 0.133333 0.627451
0.101961 0.133333 0.619608
0.239216 0.137255 0.627451
0.380392 0.149020 0.619608
0.525490 0.160784 0.627451
0.654902 0.184314 0.627451
0.756863 0.215686 0.611765
0.878431 0.247059 0.623529
0.988235 0.258824 0.615686
0.066667 0.286275 0.627451
0.168627 0.294118 0.627451
0.282353 0.290196 0.615686
0.411765 0.298039 0.627451
0.529412 0.305882 0.623529
0.654902 0.313725 0.619608
0.760784 0.329412 0.615686
0.874510 0.337255 0.619608
1.000000 0.329412 0.607843
0.184314 0.419608 0.623529
0.243137 0.423529 0.627451
0.325490 0.427451 0.615686
0.423529 0.431373 0.619608
0.537255 0.427451 0.619608
0.647059 0.427451 0.611765
0.756863 0.439216 0.615686
0.874510 0.439216 0.615686
1.000000 0.419608 0.623529
0.235294 0.525490 0.619608
0.270588 0.529412 0.615686
0.349020 0.537255 0.615686
0.435294 0.533333 0.611765
0.541176 0.529412 0.611765
0.643137 0.529412 0.615686
0.756863 0.529412 0.615686
0.886275 0.525490 0.615686
0.996078 0.509804 0.603922
0.262745 0.643137 0.615686
0.286275 0.643137 0.615686
0.352941 0.647059 0.619608
0.443137 0.635294 0.611765
0.533333 0.639216 0.611765
0.643137 0.631373 0.611765
0.752941 0.631373 0.611765
0.882353 0.627451 0.603922
1.000000 0.623529 0.600000
0.223529 0.756863 0.600000
0.250980 0.749020 0.611765
0.313725 0.745098 0.600000
0.407843 0.745098 0.600000
0.513725 0.749020 0.600000
0.639216 0.749020 0.592157
0.764706 0.749020 0.600000
0.898039 0.745098 0.592157
0.996078 0.752941 0.600000
0.003922 0.878431 0.600000
0.105882 0.878431 0.596078
0.227451 0.886275 0.592157
0.349020 0.882353 0.592157
0.478431 0.886275 0.584314
0.619608 0.882353 0.572549
0.760784 0.882353 0.576471
0.901961 0.882353 0.564706
1.000000 0.886275 0.556863
0.003922 1.000000 0.584314
0.000000 1.000000 0.568627
0.000000 0.996078 0.572549
0.200000 0.996078 0.564706
0.431373 0.996078 0.552941
0.607843 1.000000 0.552941
0.776471 1.000000 0.549020
0.941176 0.996078 0.545098
1.000000 1.000000 0.549020
0.000000 0.015686 0.741176
0.090196 0.019608 0.733333
0.239216 0.023529 0.733333
0.376471 0.035294 0.737255
0.505882 0.062745 0.729412
0.631373 0.098039 0.733333
0.764706 0.137255 0.725490
0.882353 0.184314 0.733333
1.000000 0.203922 0.737255
0.000000 0.141176 0.733333
0.101961 0.149020 0.729412
0.239216 0.149020 0.737255
0.384314 0.156863 0.737255
0.509804 0.168627 0.729412
0.647059 0.192157 0.729412
0.764706 0.219608 0.729412
0.878431 0.247059 0.725490
1.000000 0.254902 0.741176
0.105882 0.286275 0.729412
0.172549 0.290196 0.737255
0.282353 0.290196 0.725490
0.407843 0.298039 0.733333
0.525490 0.305882 0.733333
0.639216 0.313725 0.729412
0.760784 0.325490 0.733333
0.874510 0.325490 0.721569
1.000000 0.329412 0.737255
0.200000 0.423529 0.733333
0.262745 0.423529 0.737255
0.333333 0.423529 0.729412
0.435294 0.423529 0.725490
0.533333 0.427451 0.737255
0.647059 0.423529 0.725490
0.768627 0.427451 0.733333
0.882353 0.427451 0.729412
0.996078 0.419608 0.737255
0.215686 0.533333 0.717647
0.262745 0.525490 0.733333
0.325490 0.529412 0.725490
0.423529 0.529412 0.729412
0.521569 0.521569 0.725490
0.643137 0.525490 0.729412
0.764706 0.517647 0.733333
0.882353 0.509804 0.729412
0.996078 0.505882 0.741176
0.219608 0.635294 0.717647
0.258824 0.643137 0.725490
0.325490 0.639216 0.729412
0.415686 0.639216 0.737255
0.513725 0.631373 0.733333
0.627451 0.627451 0.721569
0.760784 0.627451 0.725490
0.890196 0.623529 0.721569
0.996078 0.619608 0.729412
0.176471 0.752941 0.713725
0.203922 0.756863 0.725490
0.282353 0.756863 0.729412
0.384314 0.756863 0.725490
0.509804 0.752941 0.733333
0.627451 0.756863 0.729412
0.760784 0.749020 0.729412
0.894118 0.749020 0.717647
1.000000 0.737255 0.725490
0.007843 0.886275 0.721569
0.000000 0.890196 0.713725
0.192157 0.882353 0.721569
0.333333 0.886275 0.717647
0.474510 0.886275 0.725490
0.603922 0.882353 0.709804
0.752941 0.882353 0.705882
0.894118 0.882353 0.705882
1.000000 0.878431 0.698039
0.000000 1.000000 0.717647
0.000000 1.000000 0.713725
0.000000 0.996078 0.717647
0.211765 1.000000 0.717647
0.415686 1.000000 0.713725
0.572549 0.996078 0.701961
0.752941 0.996078 0.694118
0.929412 1.000000 0.701961
1.000000 0.996078 0.694118
0.000000 0.019608 0.862745
0.101961 0.019608 0.862745
0.247059 0.027451 0.862745
0.384314 0.039216 0.866667
0.513725 0.070588 0.862745
0.635294 0.105882 0.862745
0.772549 0.137255 0.870588
0.894118 0.164706 0.866667
0.992157 0.188235 0.858824
0.000000 0.152941 0.862745
0.113725 0.149020 0.866667
0.247059 0.149020 0.858824
0.388235 0.156863 0.862745
0.521569 0.176471 0.858824
0.647059 0.192157 0.862745
0.772549 0.211765 0.866667
0.901961 0.219608 0.866667
1.000000 0.231373 0.858824
0.109804 0.286275 0.854902
0.176471 0.298039 0.862745
0.282353 0.290196 0.854902
0.400000 0.301961 0.862745
0.525490 0.301961 0.854902
0.650980 0.309804 0.862745
0.772549 0.313725 0.862745
0.898039 0.317647 0.858824
1.000000 0.301961 0.843137
0.180392 0.415686 0.847059
0.223529 0.423529 0.874510
0.317647 0.415686 0.870588
0.419608 0.427451 0.870588
0.533333 0.423529 0.866667
0.654902 0.419608 0.862745
0.780392 0.419608 0.862745
0.905882 0.407843 0.858824
1.000000 0.403922 0.858824
0.168627 0.521569 0.866667
0.219608 0.533333 0.866667
0.290196 0.525490 0.862745
0.403922 0.521569 0.866667
0.517647 0.517647 0.862745
0.643137 0.513725 0.862745
0.772549 0.513725 0.866667
0.905882 0.501961 0.862745
0.996078 0.501961 0.858824
0.121569 0.639216 0.862745
0.168627 0.643137 0.858824
0.258824 0.639216 0.854902
0.372549 0.631373 0.866667
0.490196 0.623529 0.862745
0.627451 0.619608 0.866667
0.764706 0.611765 0.866667
0.905882 0.611765 0.866667
1.000000 0.603922 0.858824
0.000000 0.764706 0.870588
0.011765 0.768627 0.858824
0.203922 0.749020 0.862745
0.341176 0.760784 0.862745
0.466667 0.764706 0.866667
0.611765 0.749020 0.866667
0.764706 0.745098 0.870588
0.898039 0.737255 0.862745
0.996078 0.741176 0.866667
0.003922 0.890196 0.866667
0.000000 0.898039 0.854902
0.027451 0.894118 0.862745
0.278431 0.894118 0.866667
0.439216 0.890196 0.858824
0.603922 0.890196 0.862745
0.745098 0.890196 0.862745
0.894118 0.882353 0.854902
1.000000 0.882353 0.870588
0.000000 0.996078 0.854902
0.000000 1.000000 0.862745
0.011765 0.996078 0.858824
0.184314 0.996078 0.862745
0.407843 0.996078 0.850980
0.580392 1.000000 0.866667
0.760784 1.000000 0.878431
0.913725 0.996078 0.866667
1.000000 1.000000 0.882353
0.000000 0.011765 0.996078
0.094118 0.011765 1.000000
0.243137 0.023529 1.000000
0.392157 0.031373 1.000000
0.525490 0.062745 0.996078
0.662745 0.090196 0.996078
0.784314 0.113725 1.000000
0.917647 0.129412 1.000000
0.996078 0.125490 1.000000
0.007843 0.149020 0.996078
0.113725 0.149020 0.992157
0.250980 0.160784 1.000000
0.396078 0.164706 1.000000
0.525490 0.172549 1.000000
0.662745 0.184314 1.000000
0.792157 0.200000 1.000000
0.917647 0.200000 1.000000
1.000000 0.188235 1.000000
0.074510 0.286275 1.000000
0.168627 0.286275 1.000000
0.286275 0.294118 1.000000
0.403922 0.294118 1.000000
0.529412 0.298039 1.000000
0.670588 0.298039 0.996078
0.796078 0.298039 0.992157
0.921569 0.290196 1.000000
1.000000 0.274510 0.992157
0.145098 0.419608 1.000000
0.184314 0.419608 0.992157
0.290196 0.415686 0.984314
0.407843 0.407843 0.996078
0.533333 0.415686 1.000000
0.666667 0.407843 1.000000
0.796078 0.403922 1.000000
0.917647 0.396078 1.000000
1.000000 0.368627 1.000000
0.000000 0.517647 0.992157
0.058824 0.513725 0.996078
0.235294 0.513725 1.000000
0.380392 0.513725 1.000000
0.509804 0.509804 0.996078
0.643137 0.505882 1.000000
0.776471 0.498039 1.000000
0.913725 0.482353 1.000000
0.996078 0.474510 1.000000
0.007843 0.635294 0.996078
0.000000 0.627451 1.000000
0.105882 0.631373 1.000000
0.313725 0.619608 1.000000
0.454902 0.611765 0.992157
0.607843 0.607843 0.992157
0.760784 0.600000 1.000000
0.913725 0.596078 1.000000
0.996078 0.592157 1.000000
0.000000 0.764706 1.000000
0.003922 0.764706 1.000000
0.000000 0.760784 1.000000
0.239216 0.752941 1.000000
0.419608 0.745098 1.000000
0.576471 0.737255 0.996078
0.741176 0.729412 1.000000
0.890196 0.729412 1.000000
1.000000 0.725490 1.000000
0.000000 0.901961 0.996078
0.000000 0.898039 0.992157
0.000000 0.894118 1.000000
0.090196 0.894118 0.992157
0.376471 0.890196 1.000000
0.556863 0.886275 0.996078
0.725490 0.878431 1.000000
0.882353 0.878431 1.000000
0.992157 0.890196 0.996078
0.007843 0.988235 1.000000
0.003922 1.000000 1.000000
0.000000 1.000000 0.992157
0.003922 0.996078 1.000000
0.384314 1.000000 0.996078
0.584314 0.996078 1.000000
0.780392 0.996078 1.000000
0.945098 1.000000 1.000000
1.000000 1.000000 1.000000
