lut_library_archive/removed_20260629/50个风景lut/50个风景lut47.cube
# 版权归凌孟成所有，侵权必究
TITLE "Jungle LUT #47"
#LUT size
LUT_3D_SIZE 25
#LUT data points
0.039216 0.047059 0.035294
0.066667 0.035294 0.035294
0.105882 0.031373 0.047059
0.145098 0.023529 0.043137
0.180392 0.027451 0.039216
0.223529 0.035294 0.035294
0.262745 0.027451 0.035294
0.286275 0.035294 0.039216
0.325490 0.035294 0.031373
0.364706 0.035294 0.035294
0.400000 0.039216 0.043137
0.431373 0.047059 0.050980
0.462745 0.050980 0.047059
0.505882 0.058824 0.054902
0.549020 0.062745 0.054902
0.580392 0.066667 0.050980
0.619608 0.074510 0.062745
0.666667 0.074510 0.070588
0.709804 0.078431 0.070588
0.752941 0.090196 0.070588
0.792157 0.090196 0.074510
0.839216 0.098039 0.086275
0.886275 0.098039 0.090196
0.941176 0.105882 0.090196
0.972549 0.105882 0.094118
0.035294 0.062745 0.031373
0.066667 0.062745 0.047059
0.101961 0.078431 0.031373
0.137255 0.070588 0.039216
0.188235 0.054902 0.050980
0.215686 0.070588 0.039216
0.258824 0.066667 0.039216
0.290196 0.066667 0.039216
0.321569 0.066667 0.043137
0.368627 0.074510 0.050980
0.388235 0.074510 0.039216
0.427451 0.074510 0.043137
0.466667 0.078431 0.054902
0.505882 0.086275 0.062745
0.545098 0.086275 0.058824
0.588235 0.090196 0.062745
0.623529 0.098039 0.070588
0.670588 0.105882 0.074510
0.709804 0.113725 0.078431
0.756863 0.113725 0.086275
0.796078 0.109804 0.090196
0.839216 0.109804 0.082353
0.886275 0.117647 0.086275
0.941176 0.125490 0.094118
0.980392 0.125490 0.090196
0.074510 0.105882 0.023529
0.094118 0.105882 0.039216
0.078431 0.109804 0.019608
0.133333 0.113725 0.039216
0.172549 0.105882 0.035294
0.203922 0.094118 0.039216
0.243137 0.101961 0.047059
0.286275 0.105882 0.047059
0.325490 0.101961 0.035294
0.368627 0.105882 0.043137
0.400000 0.101961 0.050980
0.431373 0.109804 0.062745
0.470588 0.109804 0.058824
0.501961 0.113725 0.062745
0.541176 0.113725 0.062745
0.592157 0.113725 0.062745
0.631373 0.113725 0.066667
0.662745 0.121569 0.078431
0.705882 0.125490 0.078431
0.752941 0.129412 0.078431
0.807843 0.133333 0.086275
0.850980 0.137255 0.094118
0.878431 0.145098 0.086275
0.949020 0.145098 0.101961
0.984314 0.145098 0.105882
0.109804 0.145098 0.023529
0.125490 0.137255 0.023529
0.129412 0.133333 0.007843
0.117647 0.145098 0.023529
0.149020 0.156863 0.011765
0.207843 0.152941 0.039216
0.243137 0.141176 0.050980
0.294118 0.133333 0.054902
0.325490 0.137255 0.058824
0.356863 0.141176 0.062745
0.388235 0.145098 0.062745
0.435294 0.141176 0.066667
0.466667 0.141176 0.070588
0.501961 0.141176 0.058824
0.556863 0.145098 0.078431
0.584314 0.149020 0.074510
0.627451 0.156863 0.070588
0.666667 0.152941 0.074510
0.713725 0.152941 0.082353
0.745098 0.164706 0.086275
0.800000 0.160784 0.094118
0.843137 0.168627 0.090196
0.886275 0.172549 0.098039
0.933333 0.172549 0.101961
0.976471 0.176471 0.109804
0.145098 0.180392 0.011765
0.164706 0.176471 0.007843
0.168627 0.180392 0.011765
0.164706 0.172549 0.019608
0.145098 0.176471 0.023529
0.172549 0.196078 0.023529
0.243137 0.188235 0.035294
0.278431 0.184314 0.050980
0.313725 0.172549 0.070588
0.360784 0.172549 0.082353
0.388235 0.176471 0.074510
0.431373 0.176471 0.066667
0.470588 0.172549 0.078431
0.513725 0.176471 0.078431
0.549020 0.180392 0.078431
0.588235 0.180392 0.082353
0.631373 0.184314 0.090196
0.678431 0.184314 0.090196
0.709804 0.196078 0.086275
0.752941 0.200000 0.090196
0.803922 0.192157 0.105882
0.850980 0.196078 0.101961
0.890196 0.203922 0.098039
0.941176 0.207843 0.109804
0.980392 0.211765 0.117647
0.176471 0.215686 0.007843
0.200000 0.219608 0.007843
0.207843 0.219608 0.011765
0.196078 0.223529 0.019608
0.188235 0.211765 0.023529
0.176471 0.215686 0.019608
0.188235 0.227451 0.019608
0.270588 0.243137 0.039216
0.317647 0.227451 0.066667
0.349020 0.215686 0.070588
0.388235 0.215686 0.078431
0.431373 0.219608 0.086275
0.474510 0.215686 0.090196
0.513725 0.219608 0.098039
0.552941 0.223529 0.090196
0.592157 0.227451 0.098039
0.627451 0.223529 0.094118
0.678431 0.223529 0.101961
0.713725 0.227451 0.098039
0.752941 0.239216 0.098039
0.807843 0.235294 0.105882
0.858824 0.235294 0.117647
0.890196 0.239216 0.113725
0.941176 0.239216 0.113725
0.988235 0.250980 0.121569
0.219608 0.254902 0.007843
0.223529 0.247059 0.003922
0.247059 0.254902 0.000000
0.231373 0.258824 0.000000
0.239216 0.254902 0.015686
0.227451 0.250980 0.000000
0.211765 0.254902 0.027451
0.200000 0.262745 0.015686
0.294118 0.278431 0.031373
0.345098 0.270588 0.035294
0.392157 0.266667 0.074510
0.431373 0.254902 0.094118
0.454902 0.247059 0.090196
0.509804 0.254902 0.098039
0.564706 0.258824 0.109804
0.588235 0.262745 0.105882
0.631373 0.258824 0.109804
0.682353 0.258824 0.109804
0.725490 0.262745 0.113725
0.768627 0.266667 0.113725
0.811765 0.274510 0.117647
0.854902 0.278431 0.117647
0.898039 0.282353 0.121569
0.933333 0.274510 0.129412
0.984314 0.286275 0.137255
0.247059 0.294118 0.003922
0.258824 0.290196 0.000000
0.278431 0.294118 0.003922
0.290196 0.290196 0.015686
0.270588 0.298039 0.000000
0.274510 0.286275 0.007843
0.262745 0.294118 0.007843
0.239216 0.290196 0.019608
0.243137 0.294118 0.023529
0.309804 0.309804 0.035294
0.376471 0.317647 0.047059
0.415686 0.313725 0.074510
0.462745 0.298039 0.101961
0.513725 0.290196 0.113725
0.549020 0.294118 0.129412
0.592157 0.301961 0.125490
0.631373 0.301961 0.117647
0.670588 0.301961 0.121569
0.725490 0.309804 0.125490
0.756863 0.309804 0.125490
0.807843 0.309804 0.133333
0.854902 0.317647 0.145098
0.898039 0.317647 0.137255
0.952941 0.317647 0.137255
0.988235 0.329412 0.145098
0.270588 0.329412 0.003922
0.294118 0.329412 0.003922
0.301961 0.333333 0.007843
0.321569 0.329412 0.000000
0.321569 0.329412 0.000000
0.309804 0.329412 0.000000
0.301961 0.333333 0.000000
0.294118 0.333333 0.000000
0.274510 0.325490 0.003922
0.270588 0.325490 0.015686
0.333333 0.349020 0.019608
0.419608 0.360784 0.035294
0.458824 0.356863 0.066667
0.494118 0.352941 0.109804
0.545098 0.337255 0.125490
0.584314 0.337255 0.137255
0.639216 0.341176 0.149020
0.678431 0.341176 0.141176
0.717647 0.337255 0.137255
0.760784 0.349020 0.141176
0.811765 0.352941 0.145098
0.854902 0.352941 0.137255
0.909804 0.356863 0.149020
0.949020 0.356863 0.156863
0.984314 0.364706 0.156863
0.309804 0.368627 0.003922
0.313725 0.376471 0.000000
0.329412 0.372549 0.000000
0.356863 0.372549 0.000000
0.360784 0.376471 0.003922
0.356863 0.380392 0.003922
0.349020 0.372549 0.000000
0.333333 0.372549 0.000000
0.329412 0.372549 0.003922
0.305882 0.364706 0.007843
0.298039 0.360784 0.003922
0.352941 0.380392 0.015686
0.443137 0.403922 0.019608
0.486275 0.403922 0.054902
0.537255 0.396078 0.098039
0.596078 0.384314 0.133333
0.627451 0.384314 0.152941
0.678431 0.380392 0.156863
0.733333 0.384314 0.164706
0.768627 0.392157 0.164706
0.811765 0.400000 0.152941
0.858824 0.392157 0.164706
0.898039 0.396078 0.168627
0.949020 0.400000 0.160784
0.992157 0.403922 0.168627
0.352941 0.411765 0.000000
0.352941 0.423529 0.000000
0.372549 0.423529 0.000000
0.392157 0.423529 0.000000
0.415686 0.423529 0.003922
0.407843 0.419608 0.000000
0.392157 0.423529 0.000000
0.396078 0.419608 0.000000
0.372549 0.419608 0.000000
0.364706 0.407843 0.000000
0.345098 0.403922 0.007843
0.333333 0.403922 0.011765
0.376471 0.419608 0.007843
0.462745 0.439216 0.007843
0.533333 0.447059 0.043137
0.580392 0.447059 0.098039
0.627451 0.447059 0.113725
0.678431 0.435294 0.149020
0.737255 0.431373 0.180392
0.776471 0.431373 0.184314
0.823529 0.435294 0.180392
0.862745 0.435294 0.172549
0.905882 0.447059 0.176471
0.945098 0.450980 0.184314
1.000000 0.447059 0.180392
0.392157 0.466667 0.007843
0.403922 0.466667 0.000000
0.407843 0.470588 0.000000
0.415686 0.466667 0.003922
0.450980 0.470588 0.000000
0.450980 0.474510 0.000000
0.454902 0.466667 0.007843
0.427451 0.462745 0.000000
0.423529 0.466667 0.000000
0.415686 0.458824 0.000000
0.396078 0.454902 0.000000
0.380392 0.443137 0.015686
0.364706 0.439216 0.015686
0.392157 0.462745 0.000000
0.482353 0.482353 0.003922
0.568627 0.494118 0.019608
0.615686 0.498039 0.066667
0.666667 0.494118 0.113725
0.721569 0.486275 0.149020
0.776471 0.478431 0.180392
0.823529 0.478431 0.196078
0.866667 0.482353 0.196078
0.905882 0.482353 0.192157
0.949020 0.486275 0.203922
1.000000 0.482353 0.196078
0.427451 0.509804 0.003922
0.450980 0.509804 0.003922
0.439216 0.517647 0.003922
0.466667 0.517647 0.003922
0.482353 0.521569 0.000000
0.509804 0.521569 0.015686
0.501961 0.513725 0.000000
0.494118 0.517647 0.000000
0.482353 0.509804 0.003922
0.466667 0.501961 0.000000
0.454902 0.498039 0.000000
0.443137 0.490196 0.000000
0.415686 0.490196 0.000000
0.396078 0.482353 0.000000
0.407843 0.494118 0.000000
0.505882 0.521569 0.000000
0.603922 0.541176 0.003922
0.654902 0.545098 0.047059
0.705882 0.541176 0.101961
0.764706 0.537255 0.145098
0.819608 0.533333 0.164706
0.866667 0.529412 0.203922
0.905882 0.517647 0.211765
0.952941 0.529412 0.215686
1.000000 0.529412 0.219608
0.466667 0.556863 0.000000
0.478431 0.564706 0.000000
0.486275 0.556863 0.000000
0.505882 0.564706 0.003922
0.513725 0.568627 0.000000
0.541176 0.572549 0.000000
0.552941 0.568627 0.000000
0.541176 0.560784 0.003922
0.529412 0.556863 0.007843
0.521569 0.552941 0.007843
0.501961 0.549020 0.007843
0.478431 0.545098 0.000000
0.470588 0.537255 0.000000
0.447059 0.529412 0.000000
0.423529 0.525490 0.000000
0.431373 0.533333 0.000000
0.529412 0.556863 0.000000
0.623529 0.588235 0.000000
0.698039 0.596078 0.011765
0.749020 0.592157 0.066667
0.803922 0.588235 0.121569
0.850980 0.588235 0.176471
0.909804 0.580392 0.203922
0.960784 0.560784 0.231373
1.000000 0.576471 0.250980
0.501961 0.600000 0.000000
0.517647 0.611765 0.000000
0.525490 0.607843 0.007843
0.537255 0.611765 0.007843
0.552941 0.615686 0.000000
0.576471 0.615686 0.000000
0.607843 0.603922 0.000000
0.596078 0.607843 0.007843
0.572549 0.607843 0.000000
0.564706 0.607843 0.000000
0.556863 0.600000 0.000000
0.537255 0.596078 0.003922
0.525490 0.588235 0.000000
0.509804 0.580392 0.000000
0.486275 0.572549 0.003922
0.474510 0.564706 0.000000
0.466667 0.576471 0.000000
0.545098 0.596078 0.000000
0.658824 0.627451 0.000000
0.737255 0.647059 0.000000
0.788235 0.647059 0.035294
0.847059 0.647059 0.101961
0.890196 0.639216 0.164706
0.949020 0.627451 0.200000
0.996078 0.623529 0.231373
0.552941 0.658824 0.003922
0.560784 0.658824 0.007843
0.560784 0.662745 0.000000
0.576471 0.662745 0.000000
0.600000 0.662745 0.000000
0.615686 0.662745 0.000000
0.639216 0.662745 0.000000
0.650980 0.666667 0.000000
0.635294 0.662745 0.003922
0.627451 0.662745 0.007843
0.603922 0.654902 0.000000
0.596078 0.643137 0.007843
0.592157 0.639216 0.003922
0.572549 0.635294 0.003922
0.549020 0.635294 0.000000
0.537255 0.623529 0.000000
0.513725 0.611765 0.000000
0.505882 0.623529 0.003922
0.576471 0.647059 0.011765
0.686275 0.670588 0.000000
0.784314 0.701961 0.000000
0.827451 0.698039 0.011765
0.886275 0.690196 0.078431
0.929412 0.690196 0.141176
0.984314 0.686275 0.207843
0.592157 0.709804 0.000000
0.592157 0.705882 0.007843
0.607843 0.705882 0.000000
0.619608 0.709804 0.003922
0.635294 0.705882 0.000000
0.654902 0.709804 0.000000
0.678431 0.709804 0.000000
0.705882 0.709804 0.000000
0.682353 0.713725 0.003922
0.674510 0.701961 0.003922
0.670588 0.698039 0.000000
0.658824 0.694118 0.000000
0.639216 0.698039 0.000000
0.623529 0.690196 0.000000
0.607843 0.686275 0.000000
0.596078 0.674510 0.000000
0.576471 0.666667 0.000000
0.537255 0.662745 0.000000
0.545098 0.670588 0.000000
0.607843 0.686275 0.000000
0.709804 0.713725 0.003922
0.803922 0.745098 0.011765
0.870588 0.749020 0.007843
0.925490 0.741176 0.043137
0.976471 0.737255 0.141176
0.623529 0.752941 0.000000
0.635294 0.760784 0.000000
0.647059 0.752941 0.000000
0.643137 0.760784 0.000000
0.670588 0.752941 0.000000
0.686275 0.752941 0.007843
0.709804 0.756863 0.000000
0.729412 0.756863 0.007843
0.733333 0.752941 0.007843
0.729412 0.756863 0.003922
0.713725 0.752941 0.000000
0.705882 0.749020 0.000000
0.694118 0.741176 0.003922
0.678431 0.737255 0.003922
0.662745 0.737255 0.000000
0.650980 0.729412 0.003922
0.627451 0.721569 0.000000
0.615686 0.717647 0.000000
0.588235 0.709804 0.000000
0.576471 0.717647 0.000000
0.639216 0.737255 0.000000
0.737255 0.760784 0.000000
0.839216 0.788235 0.003922
0.905882 0.800000 0.000000
0.964706 0.800000 0.000000
0.670588 0.796078 0.015686
0.670588 0.792157 0.007843
0.674510 0.796078 0.003922
0.682353 0.796078 0.003922
0.694118 0.803922 0.000000
0.705882 0.796078 0.000000
0.729412 0.796078 0.003922
0.768627 0.796078 0.000000
0.780392 0.800000 0.000000
0.776471 0.796078 0.000000
0.768627 0.796078 0.000000
0.749020 0.796078 0.000000
0.737255 0.784314 0.007843
0.733333 0.784314 0.000000
0.717647 0.784314 0.000000
0.694118 0.776471 0.000000
0.690196 0.768627 0.000000
0.674510 0.764706 0.003922
0.650980 0.756863 0.007843
0.627451 0.756863 0.000000
0.615686 0.756863 0.000000
0.639216 0.784314 0.000000
0.752941 0.803922 0.003922
0.862745 0.835294 0.003922
0.952941 0.850980 0.000000
0.701961 0.839216 0.000000
0.709804 0.827451 0.000000
0.701961 0.831373 0.000000
0.729412 0.835294 0.000000
0.725490 0.839216 0.000000
0.741176 0.839216 0.000000
0.760784 0.843137 0.000000
0.788235 0.839216 0.000000
0.815686 0.835294 0.000000
0.819608 0.839216 0.000000
0.803922 0.839216 0.003922
0.796078 0.839216 0.000000
0.784314 0.835294 0.003922
0.780392 0.831373 0.003922
0.768627 0.823529 0.000000
0.764706 0.819608 0.000000
0.733333 0.823529 0.000000
0.725490 0.819608 0.000000
0.705882 0.815686 0.000000
0.694118 0.807843 0.000000
0.674510 0.803922 0.000000
0.654902 0.807843 0.000000
0.674510 0.823529 0.000000
0.788235 0.847059 0.003922
0.890196 0.874510 0.007843
0.729412 0.878431 0.000000
0.745098 0.882353 0.003922
0.741176 0.878431 0.000000
0.749020 0.874510 0.000000
0.760784 0.878431 0.007843
0.776471 0.878431 0.003922
0.796078 0.878431 0.000000
0.815686 0.882353 0.000000
0.839216 0.882353 0.000000
0.858824 0.874510 0.007843
0.850980 0.874510 0.003922
0.839216 0.882353 0.000000
0.835294 0.878431 0.000000
0.827451 0.870588 0.000000
0.811765 0.870588 0.000000
0.803922 0.866667 0.000000
0.788235 0.866667 0.007843
0.776471 0.870588 0.007843
0.764706 0.866667 0.000000
0.741176 0.858824 0.000000
0.725490 0.858824 0.000000
0.709804 0.847059 0.000000
0.709804 0.854902 0.003922
0.690196 0.878431 0.003922
0.811765 0.894118 0.003922
0.752941 0.905882 0.000000
0.752941 0.917647 0.000000
0.768627 0.917647 0.003922
0.776471 0.905882 0.007843
0.800000 0.913725 0.003922
0.796078 0.909804 0.000000
0.819608 0.909804 0.007843
0.839216 0.913725 0.007843
0.858824 0.909804 0.007843
0.886275 0.909804 0.000000
0.898039 0.913725 0.000000
0.878431 0.917647 0.000000
0.866667 0.913725 0.000000
0.874510 0.909804 0.003922
0.854902 0.905882 0.003922
0.843137 0.913725 0.000000
0.839216 0.905882 0.003922
0.819608 0.901961 0.003922
0.807843 0.909804 0.003922
0.796078 0.905882 0.000000
0.780392 0.905882 0.000000
0.760784 0.901961 0.000000
0.752941 0.890196 0.000000
0.749020 0.901961 0.000000
0.737255 0.925490 0.007843
0.780392 0.949020 0.007843
0.788235 0.941176 0.003922
0.792157 0.937255 0.000000
0.819608 0.937255 0.003922
0.811765 0.941176 0.003922
0.827451 0.949020 0.000000
0.831373 0.945098 0.000000
0.854902 0.949020 0.000000
0.882353 0.941176 0.000000
0.901961 0.945098 0.000000
0.913725 0.945098 0.000000
0.925490 0.945098 0.003922
0.909804 0.945098 0.000000
0.894118 0.949020 0.000000
0.890196 0.941176 0.007843
0.890196 0.941176 0.000000
0.874510 0.945098 0.000000
0.862745 0.945098 0.000000
0.858824 0.937255 0.000000
0.847059 0.937255 0.000000
0.827451 0.941176 0.000000
0.811765 0.941176 0.003922
0.796078 0.941176 0.007843
0.792157 0.945098 0.007843
0.780392 0.952941 0.000000
0.796078 0.972549 0.000000
0.807843 0.984314 0.000000
0.811765 0.972549 0.000000
0.831373 0.972549 0.007843
0.831373 0.976471 0.000000
0.854902 0.968627 0.000000
0.850980 0.968627 0.003922
0.866667 0.968627 0.000000
0.886275 0.972549 0.000000
0.913725 0.968627 0.000000
0.941176 0.976471 0.007843
0.956863 0.976471 0.000000
0.949020 0.972549 0.007843
0.937255 0.972549 0.003922
0.929412 0.968627 0.003922
0.917647 0.976471 0.000000
0.917647 0.976471 0.000000
0.901961 0.976471 0.000000
0.898039 0.968627 0.003922
0.878431 0.972549 0.007843
0.866667 0.980392 0.007843
0.858824 0.968627 0.007843
0.843137 0.980392 0.000000
0.823529 0.984314 0.000000
0.819608 0.988235 0.000000
0.819608 0.996078 0.003922
0.839216 1.000000 0.011765
0.839216 1.000000 0.000000
0.831373 1.000000 0.000000
0.854902 0.992157 0.000000
0.858824 0.996078 0.000000
0.862745 1.000000 0.000000
0.890196 0.996078 0.000000
0.909804 0.992157 0.000000
0.929412 0.996078 0.000000
0.956863 0.996078 0.000000
0.984314 0.988235 0.000000
0.960784 1.000000 0.000000
0.956863 0.996078 0.000000
0.949020 1.000000 0.000000
0.949020 1.000000 0.000000
0.937255 1.000000 0.000000
0.937255 1.000000 0.000000
0.917647 1.000000 0.000000
0.913725 0.996078 0.003922
0.894118 1.000000 0.000000
0.898039 1.000000 0.000000
0.878431 1.000000 0.003922
0.858824 1.000000 0.000000
0.862745 1.000000 0.000000
0.039216 0.043137 0.062745
0.054902 0.047059 0.066667
0.098039 0.039216 0.066667
0.133333 0.027451 0.054902
0.188235 0.023529 0.062745
0.223529 0.027451 0.062745
0.250980 0.035294 0.058824
0.294118 0.039216 0.070588
0.325490 0.043137 0.066667
0.364706 0.047059 0.074510
0.396078 0.058824 0.078431
0.427451 0.054902 0.070588
0.462745 0.062745 0.074510
0.501961 0.070588 0.074510
0.545098 0.074510 0.082353
0.580392 0.070588 0.086275
0.631373 0.074510 0.082353
0.662745 0.074510 0.082353
0.701961 0.086275 0.090196
0.749020 0.094118 0.094118
0.803922 0.098039 0.101961
0.831373 0.098039 0.101961
0.886275 0.105882 0.101961
0.945098 0.105882 0.105882
0.980392 0.101961 0.105882
0.031373 0.074510 0.058824
0.066667 0.066667 0.066667
0.105882 0.066667 0.058824
0.149020 0.066667 0.062745
0.176471 0.066667 0.054902
0.211765 0.078431 0.070588
0.250980 0.070588 0.070588
0.294118 0.078431 0.070588
0.317647 0.078431 0.066667
0.360784 0.082353 0.074510
0.396078 0.082353 0.078431
0.435294 0.086275 0.078431
0.474510 0.086275 0.074510
0.501961 0.090196 0.074510
0.552941 0.090196 0.090196
0.584314 0.094118 0.070588
0.627451 0.098039 0.086275
0.666667 0.101961 0.098039
0.713725 0.113725 0.101961
0.756863 0.109804 0.094118
0.800000 0.113725 0.101961
0.843137 0.117647 0.101961
0.886275 0.121569 0.113725
0.937255 0.117647 0.109804
0.980392 0.133333 0.113725
0.039216 0.101961 0.058824
0.098039 0.113725 0.058824
0.094118 0.105882 0.062745
0.137255 0.109804 0.070588
0.176471 0.101961 0.078431
0.215686 0.101961 0.078431
0.250980 0.098039 0.070588
0.282353 0.105882 0.078431
0.321569 0.109804 0.078431
0.356863 0.109804 0.074510
0.392157 0.105882 0.078431
0.431373 0.105882 0.074510
0.474510 0.109804 0.082353
0.505882 0.121569 0.086275
0.545098 0.121569 0.082353
0.584314 0.117647 0.094118
0.623529 0.125490 0.098039
0.658824 0.125490 0.094118
0.709804 0.129412 0.098039
0.752941 0.129412 0.105882
0.800000 0.141176 0.101961
0.843137 0.145098 0.105882
0.886275 0.141176 0.101961
0.945098 0.137255 0.105882
0.976471 0.141176 0.117647
0.098039 0.133333 0.050980
0.125490 0.133333 0.050980
0.129412 0.141176 0.058824
0.121569 0.141176 0.047059
0.172549 0.152941 0.070588
0.207843 0.141176 0.070588
0.250980 0.137255 0.074510
0.286275 0.133333 0.082353
0.321569 0.141176 0.090196
0.364706 0.145098 0.086275
0.392157 0.145098 0.078431
0.427451 0.141176 0.082353
0.466667 0.141176 0.086275
0.501961 0.152941 0.090196
0.533333 0.149020 0.098039
0.572549 0.152941 0.090196
0.631373 0.156863 0.094118
0.658824 0.152941 0.090196
0.709804 0.152941 0.098039
0.749020 0.164706 0.109804
0.800000 0.164706 0.113725
0.843137 0.164706 0.109804
0.890196 0.172549 0.109804
0.941176 0.168627 0.105882
0.992157 0.176471 0.129412
0.121569 0.176471 0.047059
0.160784 0.172549 0.050980
0.168627 0.172549 0.050980
0.160784 0.172549 0.058824
0.156863 0.172549 0.066667
0.180392 0.196078 0.066667
0.235294 0.192157 0.074510
0.282353 0.180392 0.082353
0.313725 0.176471 0.098039
0.356863 0.172549 0.094118
0.396078 0.176471 0.094118
0.423529 0.180392 0.098039
0.470588 0.180392 0.086275
0.509804 0.176471 0.094118
0.545098 0.184314 0.101961
0.592157 0.180392 0.105882
0.623529 0.180392 0.109804
0.674510 0.184314 0.105882
0.709804 0.192157 0.101961
0.756863 0.196078 0.101961
0.792157 0.196078 0.113725
0.850980 0.200000 0.121569
0.894118 0.203922 0.121569
0.937255 0.200000 0.121569
0.976471 0.207843 0.129412
0.168627 0.211765 0.047059
0.192157 0.203922 0.035294
0.211765 0.215686 0.050980
0.200000 0.219608 0.058824
0.192157 0.211765 0.054902
0.180392 0.211765 0.058824
0.203922 0.231373 0.058824
0.278431 0.235294 0.066667
0.305882 0.227451 0.082353
0.352941 0.215686 0.098039
0.396078 0.211765 0.109804
0.427451 0.211765 0.101961
0.470588 0.215686 0.105882
0.513725 0.219608 0.105882
0.552941 0.219608 0.109804
0.584314 0.227451 0.121569
0.623529 0.227451 0.117647
0.674510 0.219608 0.121569
0.717647 0.223529 0.125490
0.760784 0.231373 0.117647
0.815686 0.231373 0.121569
0.850980 0.239216 0.121569
0.894118 0.243137 0.125490
0.941176 0.239216 0.121569
0.980392 0.250980 0.129412
0.196078 0.254902 0.031373
0.215686 0.250980 0.035294
0.235294 0.254902 0.035294
0.243137 0.254902 0.031373
0.235294 0.254902 0.043137
0.223529 0.250980 0.039216
0.223529 0.258824 0.050980
0.211765 0.262745 0.054902
0.301961 0.274510 0.062745
0.341176 0.274510 0.070588
0.384314 0.258824 0.098039
0.431373 0.250980 0.121569
0.458824 0.250980 0.125490
0.505882 0.258824 0.121569
0.545098 0.258824 0.133333
0.588235 0.266667 0.121569
0.631373 0.262745 0.125490
0.674510 0.266667 0.129412
0.713725 0.266667 0.125490
0.760784 0.266667 0.129412
0.803922 0.270588 0.137255
0.854902 0.274510 0.133333
0.901961 0.274510 0.141176
0.941176 0.278431 0.133333
0.980392 0.282353 0.133333
0.227451 0.298039 0.007843
0.250980 0.278431 0.015686
0.262745 0.294118 0.007843
0.282353 0.290196 0.003922
0.278431 0.290196 0.011765
0.270588 0.290196 0.031373
0.266667 0.294118 0.031373
0.235294 0.290196 0.047059
0.239216 0.294118 0.050980
0.313725 0.309804 0.050980
0.384314 0.313725 0.070588
0.427451 0.301961 0.101961
0.466667 0.290196 0.125490
0.509804 0.294118 0.141176
0.549020 0.298039 0.121569
0.588235 0.301961 0.137255
0.627451 0.301961 0.137255
0.670588 0.298039 0.133333
0.725490 0.305882 0.141176
0.756863 0.309804 0.137255
0.807843 0.309804 0.141176
0.858824 0.309804 0.141176
0.901961 0.313725 0.149020
0.941176 0.321569 0.145098
0.980392 0.325490 0.160784
0.266667 0.325490 0.007843
0.278431 0.333333 0.000000
0.294118 0.333333 0.000000
0.317647 0.333333 0.003922
0.321569 0.337255 0.000000
0.301961 0.329412 0.015686
0.298039 0.333333 0.023529
0.290196 0.333333 0.027451
0.274510 0.325490 0.043137
0.270588 0.333333 0.050980
0.333333 0.349020 0.050980
0.415686 0.364706 0.058824
0.454902 0.356863 0.094118
0.505882 0.345098 0.125490
0.556863 0.337255 0.137255
0.588235 0.337255 0.149020
0.631373 0.341176 0.156863
0.678431 0.341176 0.156863
0.733333 0.337255 0.156863
0.768627 0.349020 0.152941
0.807843 0.349020 0.141176
0.850980 0.349020 0.156863
0.894118 0.356863 0.160784
0.941176 0.364706 0.164706
0.980392 0.360784 0.176471
0.309804 0.376471 0.000000
0.313725 0.372549 0.000000
0.325490 0.380392 0.000000
0.345098 0.372549 0.000000
0.360784 0.376471 0.003922
0.360784 0.376471 0.003922
0.352941 0.368627 0.000000
0.337255 0.364706 0.000000
0.321569 0.372549 0.019608
0.301961 0.360784 0.027451
0.298039 0.368627 0.039216
0.360784 0.380392 0.050980
0.447059 0.403922 0.054902
0.486275 0.400000 0.074510
0.537255 0.392157 0.113725
0.592157 0.392157 0.145098
0.627451 0.384314 0.152941
0.682353 0.384314 0.160784
0.725490 0.388235 0.164706
0.764706 0.384314 0.168627
0.811765 0.396078 0.168627
0.854902 0.400000 0.176471
0.894118 0.400000 0.172549
0.949020 0.400000 0.176471
0.992157 0.400000 0.184314
0.337255 0.423529 0.000000
0.352941 0.423529 0.000000
0.368627 0.419608 0.003922
0.388235 0.419608 0.000000
0.403922 0.427451 0.003922
0.403922 0.427451 0.003922
0.400000 0.411765 0.000000
0.388235 0.415686 0.000000
0.376471 0.411765 0.000000
0.364706 0.407843 0.007843
