lut_library_archive/removed_20260629/50个风景lut/50个风景lut42.cube
# 版权归凌孟成所有，侵权必究
TITLE "Jungle LUT #42"
#LUT size
LUT_3D_SIZE 25
#LUT data points
0.000000 0.000000 0.000000
0.000000 0.000000 0.000000
0.035294 0.003922 0.000000
0.094118 0.000000 0.000000
0.133333 0.000000 0.000000
0.164706 0.000000 0.003922
0.200000 0.000000 0.000000
0.231373 0.003922 0.000000
0.274510 0.000000 0.003922
0.309804 0.000000 0.000000
0.352941 0.003922 0.000000
0.392157 0.003922 0.000000
0.431373 0.000000 0.003922
0.474510 0.000000 0.007843
0.517647 0.000000 0.011765
0.564706 0.000000 0.007843
0.603922 0.000000 0.007843
0.647059 0.000000 0.023529
0.678431 0.000000 0.035294
0.721569 0.003922 0.043137
0.756863 0.000000 0.035294
0.796078 0.000000 0.043137
0.850980 0.003922 0.054902
0.890196 0.000000 0.074510
0.933333 0.000000 0.062745
0.003922 0.003922 0.000000
0.000000 0.007843 0.000000
0.058824 0.003922 0.000000
0.082353 0.007843 0.000000
0.125490 0.007843 0.007843
0.156863 0.003922 0.000000
0.200000 0.011765 0.003922
0.223529 0.007843 0.000000
0.266667 0.011765 0.003922
0.309804 0.015686 0.000000
0.349020 0.015686 0.003922
0.400000 0.015686 0.011765
0.435294 0.011765 0.011765
0.478431 0.007843 0.011765
0.513725 0.003922 0.011765
0.552941 0.003922 0.015686
0.596078 0.000000 0.011765
0.639216 0.003922 0.023529
0.686275 0.000000 0.027451
0.725490 0.000000 0.039216
0.764706 0.000000 0.043137
0.807843 0.000000 0.050980
0.839216 0.003922 0.058824
0.890196 0.003922 0.066667
0.933333 0.003922 0.074510
0.000000 0.054902 0.003922
0.003922 0.050980 0.000000
0.050980 0.054902 0.000000
0.094118 0.047059 0.000000
0.121569 0.043137 0.000000
0.152941 0.047059 0.011765
0.188235 0.047059 0.000000
0.231373 0.047059 0.007843
0.274510 0.054902 0.003922
0.305882 0.054902 0.007843
0.345098 0.058824 0.003922
0.388235 0.058824 0.015686
0.435294 0.058824 0.011765
0.474510 0.050980 0.003922
0.513725 0.043137 0.011765
0.556863 0.047059 0.023529
0.596078 0.047059 0.019608
0.635294 0.047059 0.023529
0.678431 0.039216 0.027451
0.721569 0.039216 0.043137
0.756863 0.035294 0.043137
0.800000 0.039216 0.050980
0.839216 0.047059 0.070588
0.894118 0.050980 0.074510
0.937255 0.054902 0.086275
0.000000 0.094118 0.000000
0.007843 0.082353 0.000000
0.043137 0.078431 0.000000
0.082353 0.090196 0.000000
0.129412 0.082353 0.000000
0.149020 0.090196 0.007843
0.192157 0.086275 0.011765
0.231373 0.086275 0.011765
0.266667 0.090196 0.015686
0.313725 0.098039 0.019608
0.352941 0.098039 0.027451
0.392157 0.090196 0.011765
0.431373 0.090196 0.015686
0.470588 0.090196 0.015686
0.513725 0.094118 0.023529
0.560784 0.098039 0.027451
0.600000 0.094118 0.031373
0.639216 0.094118 0.043137
0.674510 0.086275 0.050980
0.717647 0.090196 0.050980
0.756863 0.094118 0.050980
0.792157 0.094118 0.054902
0.831373 0.101961 0.074510
0.886275 0.101961 0.074510
0.937255 0.101961 0.090196
0.000000 0.125490 0.000000
0.007843 0.129412 0.000000
0.047059 0.121569 0.000000
0.086275 0.129412 0.003922
0.125490 0.125490 0.000000
0.160784 0.125490 0.003922
0.192157 0.117647 0.000000
0.223529 0.125490 0.015686
0.262745 0.129412 0.023529
0.301961 0.129412 0.023529
0.345098 0.129412 0.019608
0.384314 0.133333 0.023529
0.431373 0.137255 0.031373
0.470588 0.133333 0.035294
0.513725 0.133333 0.035294
0.564706 0.133333 0.043137
0.600000 0.129412 0.035294
0.635294 0.137255 0.039216
0.678431 0.137255 0.054902
0.713725 0.141176 0.058824
0.752941 0.141176 0.062745
0.800000 0.141176 0.070588
0.835294 0.141176 0.082353
0.886275 0.145098 0.090196
0.929412 0.149020 0.098039
0.000000 0.164706 0.007843
0.015686 0.164706 0.003922
0.054902 0.164706 0.007843
0.090196 0.160784 0.003922
0.125490 0.168627 0.003922
0.156863 0.168627 0.000000
0.203922 0.168627 0.000000
0.247059 0.160784 0.000000
0.266667 0.168627 0.019608
0.305882 0.164706 0.031373
0.345098 0.168627 0.047059
0.388235 0.172549 0.050980
0.431373 0.176471 0.050980
0.474510 0.176471 0.043137
0.517647 0.180392 0.050980
0.556863 0.180392 0.054902
0.600000 0.184314 0.058824
0.647059 0.180392 0.062745
0.686275 0.180392 0.066667
0.725490 0.180392 0.070588
0.764706 0.176471 0.082353
0.800000 0.180392 0.094118
0.843137 0.188235 0.094118
0.886275 0.188235 0.101961
0.933333 0.200000 0.109804
0.000000 0.203922 0.000000
0.003922 0.200000 0.000000
0.043137 0.200000 0.000000
0.078431 0.203922 0.007843
0.125490 0.203922 0.000000
0.168627 0.200000 0.000000
0.207843 0.200000 0.000000
0.247059 0.203922 0.000000
0.282353 0.203922 0.007843
0.313725 0.203922 0.019608
0.349020 0.203922 0.031373
0.388235 0.211765 0.058824
0.423529 0.215686 0.058824
0.470588 0.215686 0.058824
0.513725 0.219608 0.066667
0.560784 0.215686 0.066667
0.600000 0.215686 0.070588
0.639216 0.215686 0.066667
0.682353 0.219608 0.078431
0.725490 0.223529 0.086275
0.756863 0.223529 0.090196
0.796078 0.223529 0.090196
0.839216 0.227451 0.098039
0.894118 0.227451 0.105882
0.925490 0.235294 0.113725
0.000000 0.247059 0.011765
0.000000 0.243137 0.000000
0.039216 0.239216 0.000000
0.086275 0.243137 0.000000
0.133333 0.243137 0.015686
0.168627 0.239216 0.000000
0.207843 0.247059 0.000000
0.247059 0.247059 0.000000
0.290196 0.247059 0.000000
0.325490 0.247059 0.007843
0.360784 0.247059 0.023529
0.396078 0.247059 0.054902
0.431373 0.247059 0.074510
0.466667 0.250980 0.090196
0.509804 0.258824 0.082353
0.560784 0.258824 0.086275
0.600000 0.258824 0.090196
0.639216 0.258824 0.090196
0.678431 0.258824 0.094118
0.721569 0.262745 0.101961
0.760784 0.258824 0.105882
0.800000 0.270588 0.121569
0.847059 0.266667 0.117647
0.886275 0.278431 0.121569
0.937255 0.278431 0.133333
0.000000 0.282353 0.000000
0.000000 0.282353 0.011765
0.023529 0.286275 0.007843
0.082353 0.286275 0.003922
0.117647 0.290196 0.000000
0.160784 0.286275 0.000000
0.207843 0.286275 0.000000
0.250980 0.290196 0.011765
0.286275 0.290196 0.000000
0.325490 0.290196 0.000000
0.364706 0.290196 0.000000
0.400000 0.286275 0.019608
0.439216 0.290196 0.047059
0.474510 0.290196 0.070588
0.513725 0.294118 0.094118
0.556863 0.294118 0.117647
0.596078 0.298039 0.113725
0.635294 0.298039 0.105882
0.666667 0.301961 0.101961
0.717647 0.301961 0.113725
0.756863 0.301961 0.117647
0.803922 0.305882 0.137255
0.835294 0.309804 0.125490
0.882353 0.317647 0.141176
0.929412 0.313725 0.145098
0.000000 0.329412 0.000000
0.000000 0.317647 0.007843
0.007843 0.325490 0.007843
0.070588 0.317647 0.000000
0.121569 0.325490 0.003922
0.164706 0.329412 0.007843
0.211765 0.325490 0.000000
0.250980 0.329412 0.000000
0.294118 0.329412 0.003922
0.337255 0.329412 0.003922
0.376471 0.329412 0.000000
0.411765 0.325490 0.000000
0.450980 0.329412 0.007843
0.478431 0.329412 0.043137
0.517647 0.329412 0.078431
0.549020 0.337255 0.101961
0.588235 0.329412 0.125490
0.623529 0.337255 0.141176
0.662745 0.337255 0.133333
0.709804 0.349020 0.133333
0.745098 0.349020 0.137255
0.792157 0.349020 0.145098
0.835294 0.352941 0.149020
0.886275 0.356863 0.149020
0.925490 0.368627 0.156863
0.003922 0.380392 0.000000
0.000000 0.376471 0.000000
0.000000 0.376471 0.000000
0.058824 0.376471 0.003922
0.113725 0.368627 0.000000
0.164706 0.376471 0.000000
0.203922 0.376471 0.000000
0.258824 0.376471 0.000000
0.294118 0.380392 0.000000
0.337255 0.376471 0.000000
0.384314 0.372549 0.000000
0.423529 0.376471 0.000000
0.462745 0.376471 0.000000
0.490196 0.376471 0.015686
0.525490 0.376471 0.050980
0.560784 0.372549 0.090196
0.592157 0.376471 0.121569
0.635294 0.376471 0.137255
0.670588 0.380392 0.149020
0.705882 0.384314 0.156863
0.749020 0.388235 0.164706
0.792157 0.392157 0.164706
0.835294 0.396078 0.168627
0.878431 0.400000 0.168627
0.933333 0.403922 0.184314
0.000000 0.415686 0.000000
0.000000 0.411765 0.007843
0.003922 0.415686 0.003922
0.039216 0.419608 0.007843
0.101961 0.411765 0.000000
0.164706 0.411765 0.000000
0.203922 0.423529 0.000000
0.250980 0.411765 0.000000
0.294118 0.415686 0.000000
0.329412 0.415686 0.000000
0.372549 0.415686 0.003922
0.411765 0.419608 0.000000
0.458824 0.415686 0.000000
0.501961 0.411765 0.000000
0.541176 0.411765 0.000000
0.568627 0.407843 0.054902
0.607843 0.407843 0.082353
0.639216 0.411765 0.121569
0.666667 0.419608 0.149020
0.705882 0.427451 0.168627
0.745098 0.427451 0.172549
0.796078 0.427451 0.184314
0.843137 0.435294 0.196078
0.878431 0.443137 0.196078
0.937255 0.450980 0.207843
0.000000 0.450980 0.000000
0.003922 0.454902 0.000000
0.000000 0.462745 0.007843
0.015686 0.458824 0.000000
0.090196 0.454902 0.000000
0.149020 0.462745 0.011765
0.203922 0.450980 0.000000
0.247059 0.454902 0.000000
0.294118 0.450980 0.000000
0.337255 0.454902 0.000000
0.372549 0.454902 0.000000
0.415686 0.454902 0.003922
0.458824 0.454902 0.000000
0.498039 0.454902 0.000000
0.541176 0.454902 0.000000
0.580392 0.447059 0.015686
0.615686 0.447059 0.047059
0.647059 0.447059 0.082353
0.678431 0.450980 0.129412
0.713725 0.454902 0.156863
0.749020 0.466667 0.184314
0.784314 0.470588 0.200000
0.827451 0.470588 0.215686
0.890196 0.478431 0.219608
0.929412 0.486275 0.219608
0.000000 0.494118 0.011765
0.003922 0.498039 0.000000
0.000000 0.501961 0.000000
0.011765 0.498039 0.011765
0.078431 0.498039 0.000000
0.145098 0.494118 0.000000
0.196078 0.494118 0.007843
0.243137 0.498039 0.000000
0.282353 0.494118 0.007843
0.333333 0.498039 0.003922
0.376471 0.494118 0.007843
0.419608 0.494118 0.000000
0.450980 0.494118 0.000000
0.494118 0.498039 0.000000
0.533333 0.498039 0.000000
0.576471 0.494118 0.000000
0.611765 0.490196 0.003922
0.650980 0.490196 0.043137
0.682353 0.490196 0.090196
0.713725 0.490196 0.133333
0.752941 0.494118 0.164706
0.796078 0.501961 0.184314
0.839216 0.509804 0.227451
0.870588 0.517647 0.239216
0.929412 0.525490 0.254902
0.007843 0.529412 0.000000
0.000000 0.545098 0.007843
0.000000 0.541176 0.000000
0.000000 0.537255 0.000000
0.066667 0.537255 0.003922
0.137255 0.537255 0.003922
0.192157 0.537255 0.000000
0.235294 0.533333 0.000000
0.286275 0.529412 0.000000
0.325490 0.533333 0.007843
0.368627 0.541176 0.000000
0.411765 0.541176 0.000000
0.454902 0.537255 0.000000
0.494118 0.537255 0.000000
0.537255 0.529412 0.000000
0.576471 0.529412 0.000000
0.615686 0.529412 0.000000
0.647059 0.529412 0.003922
0.686275 0.525490 0.039216
0.733333 0.525490 0.086275
0.764706 0.533333 0.141176
0.807843 0.537255 0.164706
0.843137 0.549020 0.192157
0.890196 0.556863 0.231373
0.921569 0.564706 0.258824
0.000000 0.580392 0.000000
0.007843 0.576471 0.000000
0.003922 0.584314 0.011765
0.007843 0.576471 0.007843
0.054902 0.576471 0.007843
0.121569 0.572549 0.003922
0.188235 0.580392 0.000000
0.231373 0.576471 0.000000
0.282353 0.576471 0.000000
0.329412 0.580392 0.007843
0.372549 0.576471 0.007843
0.411765 0.576471 0.003922
0.458824 0.576471 0.000000
0.498039 0.576471 0.000000
0.541176 0.572549 0.000000
0.580392 0.572549 0.003922
0.615686 0.576471 0.000000
0.654902 0.576471 0.000000
0.694118 0.576471 0.003922
0.737255 0.572549 0.031373
0.772549 0.572549 0.082353
0.811765 0.576471 0.137255
0.850980 0.580392 0.184314
0.901961 0.588235 0.215686
0.941176 0.607843 0.243137
0.003922 0.611765 0.000000
0.000000 0.619608 0.000000
0.000000 0.611765 0.007843
0.000000 0.607843 0.000000
0.031373 0.615686 0.003922
0.125490 0.615686 0.000000
0.168627 0.615686 0.000000
0.227451 0.619608 0.000000
0.278431 0.619608 0.003922
0.321569 0.615686 0.000000
0.368627 0.619608 0.007843
0.415686 0.615686 0.007843
0.450980 0.611765 0.000000
0.494118 0.615686 0.003922
0.529412 0.611765 0.003922
0.580392 0.619608 0.000000
0.619608 0.619608 0.007843
0.662745 0.611765 0.007843
0.701961 0.611765 0.000000
0.741176 0.615686 0.000000
0.780392 0.619608 0.023529
0.815686 0.623529 0.090196
0.862745 0.619608 0.152941
0.905882 0.631373 0.188235
0.949020 0.643137 0.227451
0.007843 0.650980 0.000000
0.003922 0.658824 0.003922
0.000000 0.654902 0.007843
0.003922 0.658824 0.003922
0.003922 0.666667 0.000000
0.113725 0.643137 0.000000
0.172549 0.654902 0.000000
0.219608 0.654902 0.000000
0.274510 0.654902 0.000000
0.321569 0.654902 0.003922
0.368627 0.654902 0.000000
0.407843 0.654902 0.000000
0.450980 0.650980 0.000000
0.490196 0.650980 0.000000
0.533333 0.658824 0.000000
0.572549 0.654902 0.000000
0.619608 0.654902 0.000000
0.662745 0.658824 0.007843
0.701961 0.658824 0.003922
0.741176 0.658824 0.003922
0.788235 0.658824 0.003922
0.827451 0.658824 0.003922
0.874510 0.658824 0.094118
0.905882 0.682353 0.137255
0.956863 0.674510 0.200000
0.007843 0.698039 0.007843
0.007843 0.698039 0.000000
0.007843 0.698039 0.000000
0.003922 0.698039 0.000000
0.007843 0.698039 0.000000
0.098039 0.698039 0.000000
0.168627 0.698039 0.000000
0.231373 0.698039 0.000000
0.270588 0.701961 0.000000
0.313725 0.701961 0.003922
0.356863 0.698039 0.000000
0.407843 0.698039 0.003922
0.450980 0.698039 0.003922
0.490196 0.698039 0.000000
0.541176 0.698039 0.003922
0.584314 0.698039 0.000000
0.623529 0.698039 0.000000
0.662745 0.698039 0.003922
0.701961 0.698039 0.007843
0.745098 0.701961 0.003922
0.784314 0.701961 0.000000
0.827451 0.698039 0.003922
0.866667 0.705882 0.007843
0.921569 0.713725 0.062745
0.964706 0.713725 0.129412
0.000000 0.745098 0.007843
0.007843 0.737255 0.000000
0.007843 0.745098 0.000000
0.000000 0.745098 0.000000
0.000000 0.752941 0.000000
0.082353 0.741176 0.000000
0.156863 0.741176 0.000000
0.215686 0.752941 0.000000
0.270588 0.749020 0.007843
0.317647 0.745098 0.003922
0.368627 0.745098 0.007843
0.411765 0.745098 0.003922
0.450980 0.745098 0.003922
0.490196 0.745098 0.000000
0.537255 0.741176 0.000000
0.584314 0.745098 0.000000
0.627451 0.741176 0.000000
0.670588 0.745098 0.007843
0.709804 0.745098 0.003922
0.752941 0.749020 0.011765
0.796078 0.745098 0.000000
0.835294 0.745098 0.000000
0.886275 0.756863 0.007843
0.925490 0.756863 0.003922
0.968627 0.768627 0.035294
0.000000 0.803922 0.000000
0.003922 0.800000 0.000000
0.007843 0.792157 0.000000
0.000000 0.800000 0.000000
0.007843 0.792157 0.000000
0.074510 0.796078 0.000000
0.160784 0.788235 0.000000
0.211765 0.792157 0.000000
0.274510 0.792157 0.007843
0.317647 0.796078 0.007843
0.360784 0.796078 0.000000
0.400000 0.796078 0.000000
0.454902 0.796078 0.003922
0.505882 0.800000 0.000000
0.549020 0.796078 0.000000
0.592157 0.796078 0.000000
0.627451 0.796078 0.007843
0.666667 0.796078 0.000000
0.713725 0.800000 0.000000
0.764706 0.800000 0.003922
0.807843 0.796078 0.007843
0.847059 0.796078 0.003922
0.890196 0.803922 0.000000
0.933333 0.807843 0.000000
0.988235 0.803922 0.003922
0.007843 0.839216 0.000000
0.000000 0.843137 0.000000
0.011765 0.843137 0.000000
0.011765 0.843137 0.003922
0.003922 0.843137 0.011765
0.039216 0.839216 0.003922
0.141176 0.843137 0.000000
0.215686 0.850980 0.000000
0.254902 0.847059 0.000000
0.313725 0.847059 0.000000
0.360784 0.843137 0.000000
0.415686 0.843137 0.000000
0.454902 0.843137 0.000000
0.505882 0.847059 0.000000
0.545098 0.847059 0.000000
0.603922 0.843137 0.000000
0.635294 0.843137 0.000000
0.678431 0.850980 0.000000
0.721569 0.854902 0.000000
0.768627 0.850980 0.000000
0.807843 0.850980 0.000000
0.854902 0.854902 0.000000
0.901961 0.850980 0.003922
0.949020 0.850980 0.003922
0.988235 0.862745 0.000000
0.000000 0.894118 0.000000
0.003922 0.894118 0.000000
0.003922 0.890196 0.003922
0.007843 0.898039 0.000000
0.000000 0.894118 0.003922
0.007843 0.898039 0.000000
0.141176 0.898039 0.000000
0.192157 0.901961 0.003922
0.254902 0.898039 0.000000
0.305882 0.898039 0.000000
0.364706 0.894118 0.003922
0.415686 0.898039 0.003922
0.462745 0.898039 0.000000
0.501961 0.898039 0.000000
0.556863 0.898039 0.003922
0.596078 0.898039 0.003922
0.643137 0.901961 0.000000
0.690196 0.898039 0.000000
0.733333 0.898039 0.000000
0.776471 0.901961 0.000000
0.827451 0.901961 0.000000
0.862745 0.898039 0.000000
0.905882 0.905882 0.000000
0.960784 0.905882 0.000000
0.996078 0.917647 0.000000
0.003922 0.945098 0.007843
0.003922 0.949020 0.000000
0.000000 0.952941 0.003922
0.003922 0.945098 0.000000
0.000000 0.941176 0.011765
0.007843 0.945098 0.000000
0.090196 0.949020 0.000000
0.192157 0.949020 0.000000
0.262745 0.949020 0.003922
0.321569 0.952941 0.000000
0.364706 0.949020 0.007843
0.411765 0.952941 0.000000
0.450980 0.952941 0.000000
0.513725 0.949020 0.000000
0.556863 0.952941 0.003922
0.603922 0.956863 0.000000
0.643137 0.956863 0.000000
0.686275 0.952941 0.000000
0.737255 0.952941 0.007843
0.780392 0.952941 0.000000
0.827451 0.949020 0.000000
0.874510 0.960784 0.000000
0.917647 0.956863 0.000000
0.960784 0.956863 0.000000
1.000000 0.964706 0.011765
0.000000 0.996078 0.007843
0.007843 0.996078 0.011765
0.000000 1.000000 0.000000
0.003922 1.000000 0.007843
0.000000 0.996078 0.000000
0.011765 1.000000 0.000000
0.074510 1.000000 0.000000
0.176471 0.992157 0.000000
0.258824 0.992157 0.000000
0.305882 1.000000 0.000000
0.364706 1.000000 0.000000
0.419608 0.996078 0.000000
0.470588 1.000000 0.007843
0.517647 1.000000 0.003922
0.560784 0.996078 0.000000
0.607843 1.000000 0.000000
0.658824 1.000000 0.000000
0.701961 0.996078 0.003922
0.745098 1.000000 0.000000
0.784314 1.000000 0.000000
0.835294 1.000000 0.000000
0.882353 1.000000 0.000000
0.921569 1.000000 0.000000
0.972549 1.000000 0.003922
1.000000 1.000000 0.003922
0.000000 0.000000 0.007843
0.000000 0.000000 0.007843
0.043137 0.003922 0.007843
0.098039 0.000000 0.011765
0.129412 0.003922 0.023529
0.152941 0.000000 0.011765
0.200000 0.000000 0.019608
0.235294 0.003922 0.027451
0.274510 0.003922 0.023529
0.313725 0.003922 0.027451
0.356863 0.000000 0.027451
0.396078 0.000000 0.031373
0.435294 0.000000 0.035294
0.474510 0.000000 0.035294
0.517647 0.003922 0.043137
0.556863 0.000000 0.047059
0.603922 0.007843 0.035294
0.639216 0.000000 0.043137
0.678431 0.000000 0.054902
0.717647 0.003922 0.062745
0.756863 0.003922 0.066667
0.800000 0.000000 0.074510
0.843137 0.003922 0.074510
0.894118 0.003922 0.090196
0.937255 0.000000 0.101961
0.003922 0.000000 0.019608
0.011765 0.003922 0.015686
0.054902 0.007843 0.023529
0.086275 0.007843 0.011765
0.117647 0.015686 0.019608
0.160784 0.011765 0.011765
0.196078 0.019608 0.039216
0.243137 0.011765 0.035294
0.278431 0.007843 0.027451
0.317647 0.007843 0.031373
0.356863 0.007843 0.035294
0.396078 0.000000 0.039216
0.439216 0.003922 0.039216
0.482353 0.000000 0.043137
0.517647 0.000000 0.050980
0.560784 0.003922 0.058824
0.600000 0.003922 0.054902
0.643137 0.000000 0.062745
0.682353 0.000000 0.058824
0.729412 0.000000 0.062745
0.768627 0.000000 0.066667
0.807843 0.000000 0.066667
0.850980 0.000000 0.074510
0.882353 0.000000 0.086275
0.941176 0.000000 0.094118
0.000000 0.050980 0.011765
0.023529 0.054902 0.011765
0.050980 0.050980 0.011765
0.090196 0.043137 0.043137
0.117647 0.047059 0.031373
0.160784 0.050980 0.047059
0.196078 0.050980 0.027451
0.239216 0.054902 0.027451
0.278431 0.054902 0.035294
0.317647 0.050980 0.039216
0.356863 0.043137 0.039216
0.396078 0.043137 0.043137
0.435294 0.043137 0.050980
0.478431 0.039216 0.047059
0.521569 0.035294 0.043137
0.560784 0.031373 0.054902
0.600000 0.031373 0.058824
0.635294 0.027451 0.058824
0.682353 0.027451 0.066667
0.721569 0.027451 0.070588
0.760784 0.023529 0.078431
0.803922 0.027451 0.086275
0.847059 0.031373 0.086275
0.894118 0.031373 0.098039
0.933333 0.039216 0.098039
0.000000 0.090196 0.019608
0.019608 0.086275 0.023529
0.043137 0.094118 0.027451
0.098039 0.086275 0.019608
0.121569 0.094118 0.031373
0.145098 0.090196 0.047059
0.188235 0.098039 0.039216
0.231373 0.090196 0.043137
0.262745 0.094118 0.031373
0.313725 0.090196 0.054902
0.352941 0.094118 0.047059
0.396078 0.090196 0.050980
0.435294 0.090196 0.050980
0.478431 0.086275 0.054902
0.517647 0.086275 0.058824
0.564706 0.086275 0.050980
0.603922 0.082353 0.054902
0.643137 0.082353 0.058824
0.682353 0.082353 0.070588
0.721569 0.082353 0.070588
0.764706 0.086275 0.062745
0.796078 0.086275 0.082353
0.839216 0.090196 0.090196
0.886275 0.098039 0.098039
0.937255 0.090196 0.101961
0.000000 0.129412 0.023529
0.011765 0.129412 0.019608
0.047059 0.125490 0.027451
0.086275 0.125490 0.031373
0.133333 0.125490 0.027451
0.152941 0.129412 0.043137
0.188235 0.121569 0.050980
0.231373 0.125490 0.058824
0.270588 0.133333 0.058824
0.301961 0.137255 0.050980
0.352941 0.133333 0.050980
0.384314 0.129412 0.058824
0.435294 0.133333 0.054902
0.474510 0.133333 0.058824
0.517647 0.129412 0.066667
0.556863 0.129412 0.078431
0.603922 0.125490 0.074510
0.643137 0.129412 0.066667
0.686275 0.133333 0.066667
0.713725 0.129412 0.082353
0.752941 0.133333 0.082353
0.796078 0.133333 0.090196
0.843137 0.141176 0.086275
0.890196 0.137255 0.094118
0.933333 0.149020 0.117647
0.000000 0.160784 0.027451
0.007843 0.164706 0.023529
0.043137 0.168627 0.023529
0.090196 0.168627 0.031373
0.133333 0.160784 0.027451
0.176471 0.164706 0.035294
0.211765 0.160784 0.027451
0.243137 0.160784 0.039216
0.266667 0.160784 0.054902
0.309804 0.160784 0.070588
0.349020 0.168627 0.074510
0.388235 0.168627 0.070588
0.435294 0.172549 0.066667
0.478431 0.176471 0.066667
0.517647 0.176471 0.066667
0.556863 0.176471 0.078431
0.596078 0.176471 0.074510
0.643137 0.172549 0.078431
0.686275 0.176471 0.082353
0.717647 0.180392 0.086275
0.764706 0.176471 0.090196
0.800000 0.180392 0.098039
0.843137 0.184314 0.109804
0.886275 0.188235 0.117647
0.929412 0.200000 0.121569
0.000000 0.200000 0.023529
0.000000 0.200000 0.039216
0.050980 0.203922 0.031373
0.082353 0.207843 0.023529
0.129412 0.200000 0.035294
0.168627 0.203922 0.027451
0.196078 0.211765 0.011765
0.239216 0.207843 0.027451
0.274510 0.207843 0.039216
0.313725 0.203922 0.058824
0.345098 0.203922 0.070588
0.388235 0.207843 0.078431
0.431373 0.211765 0.074510
0.474510 0.215686 0.082353
0.517647 0.219608 0.094118
0.552941 0.223529 0.090196
0.596078 0.219608 0.094118
0.635294 0.219608 0.094118
0.686275 0.219608 0.094118
0.721569 0.215686 0.094118
0.756863 0.219608 0.109804
0.800000 0.223529 0.121569
0.839216 0.231373 0.129412
0.890196 0.227451 0.121569
0.933333 0.239216 0.129412
0.007843 0.247059 0.023529
0.000000 0.239216 0.015686
0.015686 0.247059 0.019608
0.074510 0.247059 0.015686
0.125490 0.247059 0.023529
0.152941 0.254902 0.015686
0.203922 0.247059 0.019608
0.243137 0.247059 0.023529
0.286275 0.243137 0.023529
0.321569 0.247059 0.027451
0.360784 0.243137 0.047059
0.392157 0.247059 0.074510
0.427451 0.250980 0.090196
0.470588 0.254902 0.105882
0.513725 0.258824 0.094118
0.552941 0.258824 0.098039
0.600000 0.254902 0.105882
0.631373 0.258824 0.101961
0.674510 0.262745 0.109804
0.709804 0.258824 0.113725
0.749020 0.262745 0.121569
0.792157 0.266667 0.129412
0.835294 0.270588 0.133333
0.882353 0.274510 0.125490
0.925490 0.278431 0.133333
0.000000 0.282353 0.031373
0.000000 0.286275 0.007843
0.011765 0.290196 0.023529
0.062745 0.286275 0.007843
0.125490 0.286275 0.019608
0.164706 0.282353 0.007843
0.207843 0.282353 0.023529
0.250980 0.290196 0.015686
0.290196 0.290196 0.015686
0.329412 0.290196 0.007843
0.368627 0.286275 0.023529
0.403922 0.286275 0.043137
0.439216 0.282353 0.074510
0.470588 0.290196 0.098039
0.513725 0.290196 0.113725
0.545098 0.294118 0.117647
0.588235 0.298039 0.121569
0.631373 0.301961 0.129412
0.670588 0.301961 0.129412
0.709804 0.301961 0.133333
0.752941 0.305882 0.133333
0.803922 0.305882 0.145098
0.835294 0.309804 0.141176
0.882353 0.313725 0.160784
0.941176 0.317647 0.160784
0.000000 0.333333 0.003922
0.000000 0.325490 0.003922
0.000000 0.333333 0.015686
0.058824 0.329412 0.011765
0.117647 0.329412 0.000000
0.164706 0.329412 0.007843
0.211765 0.325490 0.003922
0.243137 0.329412 0.003922
0.282353 0.329412 0.000000
0.325490 0.333333 0.003922
0.372549 0.329412 0.007843
0.411765 0.329412 0.019608
0.443137 0.325490 0.050980
0.482353 0.325490 0.082353
0.521569 0.329412 0.101961
0.549020 0.333333 0.113725
0.584314 0.337255 0.129412
0.623529 0.337255 0.141176
0.666667 0.337255 0.152941
0.709804 0.341176 0.152941
0.749020 0.352941 0.149020
0.796078 0.352941 0.156863
0.835294 0.352941 0.160784
0.890196 0.356863 0.172549
0.925490 0.360784 0.176471
0.003922 0.372549 0.000000
0.000000 0.368627 0.000000
0.000000 0.376471 0.000000
0.047059 0.376471 0.000000
0.113725 0.376471 0.003922
0.160784 0.376471 0.007843
0.203922 0.376471 0.000000
0.254902 0.376471 0.000000
0.290196 0.372549 0.000000
0.333333 0.372549 0.000000
