lut_library_archive/removed_20260629/50个风景lut/50个风景lut29.cube
# 版权归凌孟成所有，侵权必究
TITLE "Jungle LUT #29"
#LUT size
LUT_3D_SIZE 9
#LUT data points
0.000000 0.003922 0.000000
0.058824 0.000000 0.000000
0.149020 0.000000 0.000000
0.239216 0.000000 0.000000
0.356863 0.000000 0.000000
0.494118 0.000000 0.003922
0.658824 0.003922 0.003922
0.811765 0.000000 0.000000
0.972549 0.007843 0.000000
0.007843 0.066667 0.000000
0.070588 0.054902 0.007843
0.137255 0.062745 0.007843
0.243137 0.062745 0.003922
0.356863 0.070588 0.011765
0.494118 0.066667 0.000000
0.654902 0.054902 0.000000
0.819608 0.015686 0.003922
0.984314 0.000000 0.007843
0.066667 0.152941 0.003922
0.121569 0.149020 0.015686
0.164706 0.149020 0.003922
0.247059 0.160784 0.007843
0.360784 0.172549 0.031373
0.501961 0.180392 0.023529
0.658824 0.196078 0.007843
0.823529 0.203922 0.000000
0.996078 0.200000 0.003922
0.117647 0.254902 0.000000
0.160784 0.258824 0.003922
0.227451 0.262745 0.000000
0.286275 0.266667 0.000000
0.388235 0.286275 0.000000
0.505882 0.294118 0.043137
0.662745 0.313725 0.047059
0.827451 0.341176 0.035294
0.984314 0.356863 0.031373
0.180392 0.396078 0.000000
0.227451 0.392157 0.000000
0.298039 0.392157 0.007843
0.368627 0.400000 0.000000
0.443137 0.407843 0.000000
0.549020 0.427451 0.011765
0.682353 0.439216 0.003922
0.827451 0.474510 0.098039
0.976471 0.490196 0.113725
0.270588 0.556863 0.003922
0.305882 0.552941 0.000000
0.380392 0.545098 0.003922
0.462745 0.552941 0.000000
0.533333 0.560784 0.003922
0.607843 0.576471 0.015686
0.717647 0.584314 0.000000
0.854902 0.600000 0.003922
0.992157 0.619608 0.125490
0.356863 0.705882 0.000000
0.396078 0.713725 0.000000
0.450980 0.705882 0.000000
0.541176 0.713725 0.000000
0.615686 0.709804 0.000000
0.698039 0.721569 0.000000
0.772549 0.729412 0.000000
0.878431 0.741176 0.000000
1.000000 0.745098 0.000000
0.450980 0.858824 0.000000
0.486275 0.862745 0.000000
0.541176 0.858824 0.000000
0.627451 0.862745 0.000000
0.705882 0.862745 0.000000
0.772549 0.866667 0.003922
0.854902 0.870588 0.003922
0.945098 0.874510 0.000000
0.996078 0.882353 0.003922
0.560784 0.996078 0.000000
0.588235 0.992157 0.000000
0.623529 0.996078 0.000000
0.694118 0.996078 0.000000
0.792157 0.992157 0.000000
0.854902 0.992157 0.000000
0.921569 1.000000 0.000000
0.992157 0.996078 0.000000
1.000000 0.996078 0.000000
0.000000 0.000000 0.078431
0.066667 0.000000 0.082353
0.152941 0.000000 0.074510
0.247059 0.000000 0.082353
0.380392 0.000000 0.086275
0.505882 0.000000 0.078431
0.670588 0.003922 0.078431
0.827451 0.003922 0.078431
0.992157 0.000000 0.066667
0.000000 0.062745 0.078431
0.062745 0.058824 0.082353
0.156863 0.050980 0.086275
0.258824 0.039216 0.082353
0.368627 0.023529 0.086275
0.517647 0.003922 0.082353
0.666667 0.000000 0.082353
0.823529 0.007843 0.078431
0.988235 0.000000 0.078431
0.000000 0.156863 0.054902
0.058824 0.156863 0.070588
0.168627 0.149020 0.074510
0.247059 0.156863 0.094118
0.368627 0.168627 0.101961
0.505882 0.172549 0.090196
0.666667 0.172549 0.086275
0.827451 0.176471 0.082353
0.980392 0.168627 0.098039
0.000000 0.266667 0.027451
0.105882 0.266667 0.031373
0.223529 0.266667 0.007843
0.282353 0.274510 0.050980
0.384314 0.278431 0.078431
0.509804 0.298039 0.117647
0.674510 0.317647 0.113725
0.835294 0.333333 0.117647
0.996078 0.345098 0.125490
0.105882 0.403922 0.000000
0.180392 0.403922 0.000000
0.270588 0.396078 0.000000
0.360784 0.403922 0.000000
0.439216 0.411765 0.003922
0.549020 0.419608 0.015686
0.686275 0.447059 0.101961
0.843137 0.470588 0.160784
0.996078 0.482353 0.176471
0.211765 0.552941 0.000000
0.262745 0.552941 0.000000
0.345098 0.552941 0.000000
0.447059 0.552941 0.000000
0.529412 0.556863 0.000000
0.603922 0.572549 0.011765
0.721569 0.588235 0.011765
0.858824 0.600000 0.035294
0.996078 0.615686 0.203922
0.313725 0.701961 0.000000
0.360784 0.713725 0.000000
0.423529 0.709804 0.003922
0.533333 0.705882 0.000000
0.615686 0.709804 0.000000
0.694118 0.713725 0.000000
0.788235 0.733333 0.000000
0.878431 0.741176 0.003922
1.000000 0.752941 0.003922
0.431373 0.858824 0.007843
0.466667 0.862745 0.007843
0.517647 0.858824 0.000000
0.607843 0.858824 0.000000
0.698039 0.862745 0.000000
0.780392 0.862745 0.003922
0.850980 0.866667 0.007843
0.937255 0.878431 0.000000
1.000000 0.878431 0.003922
0.541176 0.996078 0.011765
0.560784 1.000000 0.003922
0.607843 0.996078 0.003922
0.686275 1.000000 0.000000
0.780392 1.000000 0.000000
0.858824 0.996078 0.000000
0.921569 1.000000 0.000000
0.996078 1.000000 0.011765
1.000000 1.000000 0.000000
0.000000 0.003922 0.192157
0.062745 0.000000 0.192157
0.156863 0.003922 0.188235
0.258824 0.000000 0.196078
0.376471 0.000000 0.211765
0.521569 0.000000 0.223529
0.670588 0.000000 0.227451
0.843137 0.000000 0.192157
0.996078 0.000000 0.184314
0.000000 0.058824 0.188235
0.043137 0.050980 0.200000
0.152941 0.043137 0.192157
0.258824 0.035294 0.200000
0.376471 0.007843 0.211765
0.525490 0.000000 0.215686
0.686275 0.000000 0.200000
0.850980 0.000000 0.192157
0.996078 0.003922 0.196078
0.007843 0.156863 0.196078
0.003922 0.152941 0.192157
0.156863 0.149020 0.200000
0.266667 0.149020 0.196078
0.388235 0.137255 0.200000
0.541176 0.101961 0.200000
0.690196 0.066667 0.196078
0.850980 0.035294 0.200000
0.992157 0.035294 0.203922
0.000000 0.274510 0.188235
0.003922 0.266667 0.188235
0.090196 0.282353 0.168627
0.278431 0.270588 0.180392
0.380392 0.278431 0.219608
0.529412 0.290196 0.219608
0.698039 0.298039 0.211765
0.858824 0.298039 0.227451
0.992157 0.309804 0.227451
0.000000 0.407843 0.113725
0.000000 0.403922 0.133333
0.164706 0.407843 0.121569
0.333333 0.403922 0.105882
0.439216 0.407843 0.152941
0.549020 0.423529 0.200000
0.690196 0.443137 0.243137
0.850980 0.458824 0.262745
0.996078 0.474510 0.274510
0.003922 0.564706 0.047059
0.015686 0.564706 0.043137
0.243137 0.564706 0.000000
0.400000 0.560784 0.007843
0.509804 0.560784 0.003922
0.611765 0.568627 0.074510
0.721569 0.580392 0.149020
0.866667 0.596078 0.223529
0.984314 0.627451 0.313725
0.168627 0.713725 0.000000
0.231373 0.717647 0.000000
0.349020 0.717647 0.003922
0.474510 0.713725 0.003922
0.600000 0.709804 0.000000
0.682353 0.717647 0.007843
0.788235 0.729412 0.000000
0.886275 0.749020 0.054902
1.000000 0.749020 0.227451
0.341176 0.866667 0.000000
0.376471 0.866667 0.000000
0.454902 0.870588 0.007843
0.564706 0.862745 0.000000
0.682353 0.862745 0.000000
0.764706 0.866667 0.000000
0.843137 0.874510 0.000000
0.945098 0.874510 0.000000
1.000000 0.878431 0.003922
0.486275 1.000000 0.000000
0.513725 0.996078 0.000000
0.564706 1.000000 0.000000
0.654902 0.996078 0.000000
0.752941 1.000000 0.000000
0.839216 0.996078 0.000000
0.917647 1.000000 0.000000
0.996078 1.000000 0.003922
1.000000 0.992157 0.000000
0.011765 0.000000 0.325490
0.058824 0.000000 0.325490
0.176471 0.000000 0.325490
0.286275 0.000000 0.329412
0.384314 0.000000 0.333333
0.533333 0.000000 0.345098
0.682353 0.000000 0.368627
0.858824 0.000000 0.376471
0.996078 0.000000 0.356863
0.003922 0.043137 0.325490
0.023529 0.039216 0.325490
0.156863 0.023529 0.329412
0.298039 0.000000 0.345098
0.384314 0.003922 0.325490
0.529412 0.003922 0.352941
0.690196 0.000000 0.364706
0.850980 0.000000 0.376471
1.000000 0.003922 0.356863
0.003922 0.152941 0.337255
0.000000 0.149020 0.341176
0.141176 0.141176 0.337255
0.278431 0.133333 0.337255
0.396078 0.117647 0.337255
0.529412 0.090196 0.341176
0.705882 0.003922 0.372549
0.858824 0.000000 0.360784
1.000000 0.000000 0.345098
0.003922 0.282353 0.352941
0.000000 0.278431 0.341176
0.066667 0.270588 0.352941
0.258824 0.262745 0.341176
0.396078 0.258824 0.337255
0.549020 0.254902 0.345098
0.717647 0.235294 0.345098
0.874510 0.223529 0.349020
0.996078 0.243137 0.356863
0.000000 0.415686 0.352941
0.000000 0.415686 0.345098
0.000000 0.419608 0.356863
0.207843 0.419608 0.325490
0.427451 0.407843 0.321569
0.549020 0.423529 0.372549
0.701961 0.431373 0.368627
0.862745 0.443137 0.380392
1.000000 0.454902 0.380392
0.000000 0.576471 0.301961
0.000000 0.576471 0.294118
0.000000 0.584314 0.266667
0.227451 0.572549 0.266667
0.482353 0.568627 0.235294
0.603922 0.576471 0.301961
0.729412 0.580392 0.337255
0.854902 0.603922 0.415686
0.988235 0.627451 0.443137
0.000000 0.733333 0.188235
0.000000 0.733333 0.200000
0.000000 0.729412 0.200000
0.341176 0.725490 0.180392
0.541176 0.721569 0.141176
0.674510 0.721569 0.188235
0.772549 0.733333 0.250980
0.882353 0.741176 0.309804
1.000000 0.749020 0.407843
0.000000 0.874510 0.070588
0.149020 0.874510 0.058824
0.305882 0.874510 0.023529
0.462745 0.870588 0.003922
0.611765 0.862745 0.000000
0.749020 0.866667 0.003922
0.839216 0.874510 0.039216
0.937255 0.878431 0.184314
1.000000 0.882353 0.254902
0.352941 1.000000 0.000000
0.400000 1.000000 0.000000
0.478431 0.996078 0.011765
0.560784 0.996078 0.000000
0.698039 1.000000 0.000000
0.823529 1.000000 0.000000
0.905882 0.996078 0.007843
0.988235 1.000000 0.000000
1.000000 1.000000 0.074510
0.007843 0.000000 0.505882
0.054902 0.000000 0.486275
0.188235 0.000000 0.486275
0.313725 0.000000 0.490196
0.427451 0.003922 0.490196
0.549020 0.000000 0.501961
0.694118 0.000000 0.517647
0.850980 0.000000 0.529412
1.000000 0.003922 0.529412
0.000000 0.011765 0.482353
0.000000 0.007843 0.490196
0.168627 0.003922 0.494118
0.301961 0.000000 0.509804
0.431373 0.003922 0.509804
0.549020 0.000000 0.498039
0.698039 0.003922 0.521569
0.866667 0.000000 0.517647
0.992157 0.007843 0.533333
0.000000 0.137255 0.494118
0.000000 0.133333 0.501961
0.117647 0.129412 0.509804
0.290196 0.109804 0.498039
0.423529 0.082353 0.501961
0.560784 0.019608 0.505882
0.701961 0.003922 0.513725
0.866667 0.000000 0.517647
0.996078 0.003922 0.533333
0.003922 0.278431 0.509804
0.003922 0.278431 0.521569
0.003922 0.254902 0.498039
0.239216 0.250980 0.513725
0.407843 0.239216 0.509804
0.568627 0.231373 0.517647
0.729412 0.219608 0.509804
0.878431 0.180392 0.517647
1.000000 0.141176 0.494118
0.000000 0.427451 0.501961
0.007843 0.427451 0.529412
0.000000 0.427451 0.517647
0.188235 0.411765 0.517647
0.392157 0.407843 0.521569
0.568627 0.400000 0.509804
0.733333 0.403922 0.513725
0.874510 0.403922 0.509804
1.000000 0.423529 0.505882
0.000000 0.580392 0.517647
0.003922 0.576471 0.525490
0.000000 0.576471 0.513725
0.086275 0.580392 0.525490
0.360784 0.572549 0.501961
0.576471 0.564706 0.490196
0.713725 0.588235 0.537255
0.862745 0.603922 0.549020
1.000000 0.619608 0.556863
0.000000 0.741176 0.458824
0.000000 0.741176 0.466667
0.003922 0.737255 0.450980
0.015686 0.737255 0.423529
0.396078 0.737255 0.431373
0.635294 0.729412 0.392157
0.764706 0.729412 0.458824
0.882353 0.741176 0.513725
1.000000 0.764706 0.576471
0.000000 0.890196 0.266667
0.003922 0.890196 0.286275
0.000000 0.890196 0.352941
0.250980 0.878431 0.376471
0.498039 0.874510 0.341176
0.705882 0.870588 0.298039
0.823529 0.878431 0.341176
0.925490 0.878431 0.407843
1.000000 0.882353 0.474510
0.003922 1.000000 0.301961
0.074510 1.000000 0.294118
0.270588 1.000000 0.286275
0.447059 0.996078 0.262745
0.603922 1.000000 0.231373
0.772549 1.000000 0.180392
0.890196 1.000000 0.211765
0.972549 1.000000 0.309804
1.000000 1.000000 0.380392
0.007843 0.000000 0.658824
0.023529 0.000000 0.658824
0.203922 0.003922 0.658824
0.329412 0.000000 0.662745
0.458824 0.000000 0.650980
0.580392 0.000000 0.670588
0.709804 0.000000 0.662745
0.866667 0.000000 0.682353
0.996078 0.000000 0.690196
0.007843 0.000000 0.658824
0.003922 0.000000 0.658824
0.172549 0.003922 0.666667
0.309804 0.000000 0.662745
0.450980 0.000000 0.654902
0.580392 0.003922 0.666667
0.709804 0.000000 0.670588
0.862745 0.000000 0.690196
1.000000 0.003922 0.686275
0.003922 0.117647 0.666667
0.007843 0.113725 0.666667
0.078431 0.105882 0.662745
0.290196 0.078431 0.666667
0.435294 0.015686 0.666667
0.564706 0.003922 0.670588
0.713725 0.000000 0.674510
0.874510 0.000000 0.678431
0.992157 0.007843 0.666667
0.000000 0.262745 0.678431
0.007843 0.250980 0.678431
0.000000 0.243137 0.678431
0.235294 0.235294 0.674510
0.415686 0.223529 0.674510
0.564706 0.207843 0.674510
0.729412 0.184314 0.682353
0.886275 0.156863 0.694118
1.000000 0.113725 0.674510
0.011765 0.415686 0.686275
0.000000 0.411765 0.666667
0.000000 0.411765 0.678431
0.125490 0.392157 0.678431
0.380392 0.388235 0.678431
0.556863 0.384314 0.678431
0.737255 0.380392 0.690196
0.886275 0.376471 0.670588
1.000000 0.364706 0.658824
0.000000 0.572549 0.682353
0.003922 0.564706 0.670588
0.000000 0.568627 0.674510
0.000000 0.560784 0.674510
0.360784 0.560784 0.674510
0.560784 0.556863 0.678431
0.737255 0.564706 0.670588
0.882353 0.576471 0.662745
1.000000 0.588235 0.666667
0.000000 0.741176 0.678431
0.000000 0.737255 0.682353
0.019608 0.737255 0.686275
0.000000 0.745098 0.666667
0.337255 0.745098 0.678431
0.537255 0.741176 0.654902
0.749020 0.741176 0.650980
0.866667 0.756863 0.701961
0.984314 0.776471 0.713725
0.000000 0.894118 0.631373
0.003922 0.898039 0.635294
0.000000 0.890196 0.611765
0.000000 0.886275 0.580392
0.152941 0.898039 0.552941
0.592157 0.882353 0.580392
0.792157 0.874510 0.564706
0.913725 0.878431 0.615686
1.000000 0.878431 0.654902
0.000000 1.000000 0.466667
0.000000 0.996078 0.439216
0.000000 1.000000 0.427451
0.007843 0.992157 0.505882
0.494118 1.000000 0.537255
0.686275 1.000000 0.517647
0.858824 1.000000 0.482353
0.964706 1.000000 0.533333
1.000000 1.000000 0.596078
0.000000 0.003922 0.800000
0.007843 0.000000 0.811765
0.188235 0.000000 0.807843
0.329412 0.000000 0.823529
0.454902 0.000000 0.800000
0.584314 0.000000 0.803922
0.713725 0.007843 0.811765
0.843137 0.000000 0.819608
1.000000 0.003922 0.843137
0.000000 0.003922 0.811765
0.000000 0.000000 0.811765
0.160784 0.000000 0.811765
0.309804 0.003922 0.815686
0.450980 0.000000 0.819608
0.584314 0.003922 0.819608
0.709804 0.000000 0.811765
0.843137 0.000000 0.819608
0.992157 0.003922 0.847059
0.000000 0.098039 0.815686
0.003922 0.086275 0.811765
0.015686 0.066667 0.811765
0.278431 0.027451 0.811765
0.439216 0.000000 0.823529
0.580392 0.000000 0.815686
0.709804 0.000000 0.811765
0.858824 0.000000 0.823529
1.000000 0.003922 0.850980
0.000000 0.235294 0.823529
0.000000 0.235294 0.811765
0.003922 0.223529 0.831373
0.203922 0.215686 0.819608
0.407843 0.207843 0.815686
0.568627 0.192157 0.823529
0.709804 0.172549 0.823529
0.874510 0.137255 0.831373
0.996078 0.011765 0.847059
0.000000 0.403922 0.815686
0.000000 0.396078 0.819608
0.007843 0.392157 0.811765
0.035294 0.376471 0.819608
0.368627 0.376471 0.819608
0.545098 0.368627 0.827451
0.713725 0.364706 0.827451
0.866667 0.360784 0.823529
1.000000 0.349020 0.831373
0.000000 0.552941 0.831373
0.003922 0.552941 0.815686
0.003922 0.552941 0.823529
0.000000 0.560784 0.823529
0.349020 0.549020 0.807843
0.537255 0.549020 0.827451
0.717647 0.549020 0.827451
0.886275 0.549020 0.827451
0.996078 0.560784 0.800000
0.000000 0.709804 0.815686
0.000000 0.709804 0.823529
0.000000 0.709804 0.815686
0.000000 0.709804 0.823529
0.352941 0.721569 0.823529
0.549020 0.729412 0.823529
0.725490 0.729412 0.815686
0.890196 0.737255 0.819608
1.000000 0.749020 0.811765
0.000000 0.890196 0.850980
0.003922 0.890196 0.843137
0.000000 0.886275 0.823529
0.000000 0.894118 0.827451
0.313725 0.894118 0.823529
0.545098 0.886275 0.811765
0.717647 0.890196 0.792157
0.894118 0.886275 0.796078
0.996078 0.890196 0.847059
0.000000 1.000000 0.772549
0.000000 1.000000 0.764706
0.003922 1.000000 0.756863
0.000000 1.000000 0.749020
0.200000 1.000000 0.717647
0.521569 1.000000 0.705882
0.800000 0.996078 0.749020
0.952941 1.000000 0.741176
1.000000 1.000000 0.780392
0.003922 0.000000 0.952941
0.000000 0.003922 0.952941
0.156863 0.003922 0.941176
0.309804 0.000000 0.945098
0.450980 0.000000 0.945098
0.580392 0.003922 0.941176
0.709804 0.003922 0.949020
0.835294 0.000000 0.949020
0.976471 0.000000 0.949020
0.000000 0.000000 0.941176
0.000000 0.000000 0.925490
0.125490 0.003922 0.949020
0.301961 0.000000 0.949020
0.443137 0.000000 0.949020
0.576471 0.000000 0.945098
0.705882 0.003922 0.952941
0.843137 0.000000 0.956863
0.976471 0.000000 0.956863
0.003922 0.050980 0.937255
0.000000 0.039216 0.941176
0.003922 0.015686 0.945098
0.270588 0.000000 0.941176
0.423529 0.000000 0.949020
0.564706 0.003922 0.952941
0.694118 0.003922 0.945098
0.839216 0.003922 0.952941
0.976471 0.003922 0.941176
0.007843 0.219608 0.941176
0.007843 0.215686 0.956863
0.003922 0.211765 0.956863
0.200000 0.211765 0.952941
0.392157 0.196078 0.952941
0.549020 0.180392 0.956863
0.698039 0.156863 0.945098
0.839216 0.129412 0.956863
0.984314 0.082353 0.952941
0.003922 0.380392 0.960784
0.000000 0.384314 0.952941
0.000000 0.372549 0.952941
0.000000 0.364706 0.949020
0.349020 0.364706 0.956863
0.533333 0.360784 0.952941
0.690196 0.360784 0.949020
0.843137 0.356863 0.952941
0.996078 0.341176 0.956863
0.003922 0.541176 0.949020
0.003922 0.541176 0.949020
0.003922 0.549020 0.952941
0.000000 0.545098 0.949020
0.356863 0.549020 0.949020
0.533333 0.537255 0.952941
0.694118 0.545098 0.949020
0.850980 0.545098 0.952941
1.000000 0.537255 0.968627
0.003922 0.698039 0.949020
0.003922 0.694118 0.956863
0.003922 0.698039 0.941176
0.000000 0.701961 0.952941
0.364706 0.709804 0.949020
0.556863 0.713725 0.952941
0.717647 0.725490 0.949020
0.862745 0.729412 0.937255
0.992157 0.725490 0.956863
0.000000 0.847059 0.945098
0.000000 0.847059 0.937255
0.003922 0.847059 0.949020
0.094118 0.850980 0.956863
0.392157 0.862745 0.956863
0.576471 0.858824 0.937255
0.745098 0.874510 0.949020
0.878431 0.886275 0.937255
1.000000 0.898039 0.933333
0.007843 1.000000 0.960784
0.003922 0.996078 0.956863
0.019608 0.992157 0.960784
0.003922 0.996078 0.945098
0.384314 0.996078 0.945098
0.580392 1.000000 0.941176
0.749020 1.000000 0.925490
0.913725 0.996078 0.921569
1.000000 0.992157 0.945098
0.000000 0.000000 0.996078
0.007843 0.000000 0.996078
0.121569 0.000000 1.000000
0.282353 0.003922 1.000000
0.431373 0.000000 1.000000
0.560784 0.000000 1.000000
0.690196 0.000000 1.000000
0.827451 0.000000 1.000000
0.956863 0.007843 1.000000
0.003922 0.000000 0.996078
0.000000 0.003922 0.996078
0.090196 0.000000 1.000000
0.286275 0.000000 1.000000
0.419608 0.000000 1.000000
0.552941 0.000000 1.000000
0.682353 0.003922 1.000000
0.831373 0.000000 1.000000
0.960784 0.000000 0.992157
0.003922 0.007843 0.992157
0.000000 0.000000 0.992157
0.000000 0.000000 0.996078
0.243137 0.000000 1.000000
0.403922 0.000000 1.000000
0.549020 0.000000 1.000000
0.674510 0.000000 0.996078
0.827451 0.000000 1.000000
0.956863 0.007843 0.996078
0.000000 0.215686 1.000000
0.003922 0.211765 0.996078
0.000000 0.207843 1.000000
0.176471 0.203922 1.000000
0.380392 0.192157 1.000000
0.533333 0.184314 1.000000
0.674510 0.164706 0.996078
0.823529 0.125490 1.000000
0.976471 0.074510 1.000000
0.003922 0.372549 1.000000
0.000000 0.360784 1.000000
0.003922 0.352941 0.988235
0.043137 0.364706 0.996078
0.349020 0.360784 1.000000
0.517647 0.356863 1.000000
0.674510 0.356863 1.000000
0.827451 0.352941 1.000000
0.988235 0.345098 1.000000
0.003922 0.545098 1.000000
0.003922 0.537255 1.000000
0.007843 0.545098 1.000000
0.219608 0.552941 1.000000
0.349020 0.529412 1.000000
0.529412 0.529412 1.000000
0.686275 0.537255 1.000000
0.847059 0.545098 1.000000
0.992157 0.545098 0.988235
0.007843 0.690196 1.000000
0.000000 0.690196 0.996078
0.000000 0.698039 0.988235
0.270588 0.698039 1.000000
0.458824 0.709804 0.992157
0.592157 0.721569 1.000000
0.709804 0.721569 1.000000
0.866667 0.721569 0.996078
0.996078 0.721569 1.000000
0.007843 0.823529 0.996078
0.003922 0.827451 1.000000
0.156863 0.835294 0.992157
0.345098 0.831373 1.000000
0.494118 0.843137 1.000000
0.631373 0.858824 0.996078
0.780392 0.878431 1.000000
0.905882 0.886275 1.000000
1.000000 0.905882 1.000000
0.243137 0.945098 0.992157
0.266667 0.945098 1.000000
0.360784 0.937255 0.996078
0.462745 0.949020 0.996078
0.580392 0.956863 1.000000
0.725490 0.960784 1.000000
0.862745 0.976471 1.000000
0.976471 0.992157 1.000000
1.000000 1.000000 1.000000
