lut_library_archive/removed_20260629/50个风景lut/50个风景lut03.cube
# 版权归凌孟成所有，侵权必究
TITLE "Jungle LUT #3"
#LUT size
LUT_3D_SIZE 5
#LUT data points
0.000000 0.000000 0.000000
0.250980 0.000000 0.000000
0.517647 0.000000 0.011765
0.788235 0.011765 0.047059
0.996078 0.094118 0.101961
0.000000 0.254902 0.000000
0.247059 0.247059 0.000000
0.513725 0.266667 0.090196
0.792157 0.282353 0.109804
1.000000 0.301961 0.160784
0.000000 0.529412 0.003922
0.239216 0.525490 0.000000
0.521569 0.529412 0.000000
0.788235 0.541176 0.129412
0.996078 0.568627 0.266667
0.000000 0.788235 0.000000
0.196078 0.788235 0.000000
0.494118 0.784314 0.003922
0.768627 0.776471 0.000000
1.000000 0.776471 0.141176
0.000000 1.000000 0.011765
0.176471 0.992157 0.003922
0.482353 0.996078 0.000000
0.741176 0.996078 0.000000
0.996078 1.000000 0.003922
0.000000 0.000000 0.258824
0.247059 0.003922 0.258824
0.513725 0.003922 0.262745
0.776471 0.003922 0.254902
0.996078 0.007843 0.278431
0.000000 0.250980 0.258824
0.243137 0.247059 0.262745
0.509804 0.258824 0.262745
0.780392 0.266667 0.266667
0.988235 0.294118 0.286275
0.000000 0.529412 0.239216
0.215686 0.529412 0.235294
0.513725 0.521569 0.227451
0.788235 0.545098 0.313725
1.000000 0.572549 0.360784
0.000000 0.784314 0.203922
0.180392 0.784314 0.203922
0.490196 0.780392 0.188235
0.768627 0.784314 0.200000
1.000000 0.784314 0.301961
0.000000 1.000000 0.156863
0.176471 0.996078 0.149020
0.478431 1.000000 0.149020
0.749020 1.000000 0.137255
0.996078 1.000000 0.156863
0.074510 0.000000 0.494118
0.266667 0.000000 0.494118
0.537255 0.000000 0.509804
0.788235 0.003922 0.501961
1.000000 0.003922 0.494118
0.007843 0.239216 0.505882
0.254902 0.243137 0.513725
0.533333 0.231373 0.513725
0.792157 0.235294 0.501961
1.000000 0.239216 0.498039
0.011765 0.521569 0.505882
0.219608 0.529412 0.513725
0.517647 0.521569 0.501961
0.776471 0.529412 0.501961
1.000000 0.556863 0.525490
0.003922 0.784314 0.490196
0.172549 0.788235 0.478431
0.501961 0.788235 0.470588
0.772549 0.784314 0.474510
0.992157 0.811765 0.576471
0.003922 1.000000 0.450980
0.215686 1.000000 0.450980
0.486275 1.000000 0.450980
0.760784 1.000000 0.450980
0.996078 1.000000 0.458824
0.101961 0.000000 0.752941
0.278431 0.000000 0.745098
0.529412 0.000000 0.756863
0.780392 0.003922 0.752941
1.000000 0.003922 0.745098
0.031373 0.227451 0.749020
0.266667 0.227451 0.756863
0.517647 0.219608 0.752941
0.784314 0.211765 0.749020
1.000000 0.207843 0.749020
0.000000 0.505882 0.741176
0.231373 0.505882 0.749020
0.513725 0.505882 0.752941
0.784314 0.501961 0.752941
1.000000 0.513725 0.749020
0.007843 0.776471 0.752941
0.207843 0.776471 0.749020
0.509804 0.780392 0.752941
0.780392 0.780392 0.741176
1.000000 0.803922 0.760784
0.000000 1.000000 0.733333
0.219608 1.000000 0.717647
0.513725 0.996078 0.721569
0.784314 1.000000 0.733333
0.996078 1.000000 0.737255
0.137255 0.000000 0.988235
0.282353 0.003922 0.984314
0.517647 0.000000 0.988235
0.764706 0.000000 0.988235
1.000000 0.000000 1.000000
0.105882 0.215686 0.988235
0.290196 0.219608 0.996078
0.517647 0.219608 0.988235
0.768627 0.219608 0.992157
0.996078 0.223529 0.988235
0.121569 0.494118 0.996078
0.274510 0.490196 0.988235
0.509804 0.490196 0.984314
0.764706 0.494118 0.984314
1.000000 0.498039 0.980392
0.129412 0.756863 0.984314
0.294118 0.756863 0.984314
0.537255 0.756863 0.980392
0.776471 0.764706 0.972549
0.992157 0.768627 0.968627
0.141176 1.000000 0.952941
0.301961 0.996078 0.952941
0.556863 1.000000 0.952941
0.835294 1.000000 0.952941
1.000000 1.000000 0.941176
