lut_library_archive/removed_20260629/50个风景lut/50个风景lut37.cube
# 版权归凌孟成所有，侵权必究
TITLE "Jungle LUT #37"
#LUT size
LUT_3D_SIZE 5
#LUT data points
0.003922 0.000000 0.000000
0.231373 0.003922 0.000000
0.490196 0.003922 0.011765
0.772549 0.000000 0.035294
1.000000 0.058824 0.086275
0.000000 0.243137 0.007843
0.243137 0.243137 0.000000
0.494118 0.254902 0.074510
0.776471 0.274510 0.082353
1.000000 0.290196 0.152941
0.000000 0.513725 0.000000
0.227451 0.509804 0.007843
0.505882 0.509804 0.007843
0.776471 0.533333 0.105882
0.988235 0.572549 0.247059
0.000000 0.780392 0.000000
0.184314 0.780392 0.000000
0.494118 0.776471 0.000000
0.764706 0.772549 0.000000
1.000000 0.768627 0.105882
0.000000 1.000000 0.007843
0.117647 1.000000 0.000000
0.478431 1.000000 0.000000
0.741176 0.996078 0.000000
0.992157 0.996078 0.000000
0.003922 0.000000 0.250980
0.239216 0.003922 0.247059
0.501961 0.000000 0.247059
0.768627 0.003922 0.239216
1.000000 0.003922 0.247059
0.000000 0.239216 0.247059
0.239216 0.239216 0.247059
0.498039 0.247059 0.250980
0.776471 0.250980 0.254902
1.000000 0.278431 0.278431
0.000000 0.509804 0.227451
0.196078 0.509804 0.223529
0.501961 0.509804 0.215686
0.780392 0.541176 0.298039
1.000000 0.568627 0.345098
0.000000 0.788235 0.176471
0.145098 0.780392 0.180392
0.490196 0.776471 0.172549
0.764706 0.780392 0.168627
1.000000 0.780392 0.290196
0.000000 1.000000 0.113725
0.133333 1.000000 0.109804
0.470588 1.000000 0.109804
0.737255 1.000000 0.109804
0.992157 1.000000 0.113725
0.058824 0.003922 0.486275
0.270588 0.000000 0.494118
0.513725 0.000000 0.486275
0.772549 0.000000 0.486275
1.000000 0.000000 0.490196
0.000000 0.227451 0.486275
0.243137 0.219608 0.494118
0.517647 0.219608 0.501961
0.780392 0.211765 0.482353
1.000000 0.192157 0.486275
0.000000 0.513725 0.490196
0.192157 0.513725 0.494118
0.505882 0.509804 0.486275
0.780392 0.517647 0.494118
0.992157 0.545098 0.513725
0.000000 0.784314 0.470588
0.094118 0.780392 0.454902
0.478431 0.780392 0.458824
0.772549 0.776471 0.462745
1.000000 0.803922 0.564706
0.000000 1.000000 0.443137
0.180392 0.996078 0.447059
0.482353 0.996078 0.439216
0.749020 1.000000 0.447059
0.992157 0.996078 0.447059
0.098039 0.000000 0.752941
0.270588 0.000000 0.741176
0.517647 0.000000 0.745098
0.780392 0.003922 0.752941
0.992157 0.003922 0.752941
0.019608 0.207843 0.764706
0.254902 0.215686 0.745098
0.509804 0.203922 0.752941
0.780392 0.188235 0.749020
0.996078 0.176471 0.745098
0.000000 0.490196 0.749020
0.188235 0.494118 0.745098
0.501961 0.494118 0.756863
0.784314 0.490196 0.752941
0.996078 0.501961 0.749020
0.003922 0.776471 0.741176
0.156863 0.772549 0.745098
0.498039 0.776471 0.737255
0.776471 0.776471 0.745098
1.000000 0.796078 0.764706
0.000000 1.000000 0.725490
0.192157 1.000000 0.705882
0.513725 0.996078 0.721569
0.784314 1.000000 0.733333
0.996078 1.000000 0.725490
0.121569 0.003922 0.976471
0.286275 0.000000 0.992157
0.513725 0.003922 0.984314
0.764706 0.003922 0.980392
1.000000 0.000000 0.988235
0.078431 0.200000 0.992157
0.270588 0.207843 0.980392
0.505882 0.203922 0.988235
0.756863 0.200000 0.984314
1.000000 0.192157 0.984314
0.027451 0.486275 0.980392
0.247059 0.478431 0.980392
0.505882 0.478431 0.984314
0.760784 0.482353 0.984314
0.992157 0.490196 0.972549
0.078431 0.752941 0.980392
0.274510 0.752941 0.984314
0.533333 0.752941 0.976471
0.776471 0.756863 0.968627
1.000000 0.768627 0.972549
0.078431 1.000000 0.945098
0.278431 0.996078 0.949020
0.545098 1.000000 0.949020
0.823529 1.000000 0.952941
1.000000 0.996078 0.949020
