lut_library_archive/removed_20260629/50个风景lut/50个风景lut44.cube
# 版权归凌孟成所有，侵权必究
TITLE "Jungle LUT #44"
#LUT size
LUT_3D_SIZE 5
#LUT data points
0.000000 0.003922 0.007843
0.286275 0.007843 0.007843
0.552941 0.105882 0.074510
0.807843 0.239216 0.180392
1.000000 0.364706 0.317647
0.050980 0.294118 0.000000
0.325490 0.294118 0.000000
0.545098 0.317647 0.133333
0.800000 0.380392 0.223529
1.000000 0.454902 0.349020
0.074510 0.576471 0.000000
0.298039 0.580392 0.007843
0.580392 0.580392 0.007843
0.815686 0.580392 0.196078
1.000000 0.647059 0.443137
0.050980 0.827451 0.000000
0.286275 0.827451 0.003922
0.549020 0.823529 0.000000
0.807843 0.815686 0.011765
1.000000 0.811765 0.266667
0.035294 0.992157 0.011765
0.270588 1.000000 0.000000
0.537255 0.996078 0.000000
0.811765 0.996078 0.000000
1.000000 1.000000 0.000000
0.043137 0.000000 0.235294
0.321569 0.003922 0.235294
0.564706 0.117647 0.250980
0.807843 0.274510 0.321569
1.000000 0.392157 0.423529
0.070588 0.294118 0.227451
0.317647 0.298039 0.215686
0.545098 0.341176 0.286275
0.800000 0.396078 0.341176
1.000000 0.466667 0.435294
0.082353 0.580392 0.207843
0.301961 0.576471 0.200000
0.568627 0.576471 0.196078
0.807843 0.588235 0.349020
0.992157 0.658824 0.509804
0.007843 0.815686 0.168627
0.282353 0.827451 0.164706
0.541176 0.823529 0.156863
0.815686 0.823529 0.152941
1.000000 0.815686 0.376471
0.000000 0.996078 0.172549
0.262745 1.000000 0.172549
0.529412 0.996078 0.180392
0.803922 1.000000 0.172549
0.996078 1.000000 0.207843
0.098039 0.000000 0.501961
0.309804 0.000000 0.498039
0.568627 0.000000 0.513725
0.827451 0.098039 0.498039
1.000000 0.341176 0.545098
0.109804 0.286275 0.501961
0.317647 0.286275 0.517647
0.576471 0.282353 0.505882
0.823529 0.341176 0.513725
1.000000 0.478431 0.584314
0.023529 0.568627 0.517647
0.282353 0.576471 0.498039
0.572549 0.568627 0.498039
0.796078 0.623529 0.572549
1.000000 0.678431 0.631373
0.003922 0.827451 0.478431
0.254902 0.823529 0.482353
0.537255 0.831373 0.470588
0.811765 0.823529 0.466667
1.000000 0.835294 0.639216
0.000000 1.000000 0.470588
0.227451 0.996078 0.470588
0.513725 0.996078 0.470588
0.800000 0.996078 0.466667
0.996078 1.000000 0.474510
0.129412 0.000000 0.764706
0.313725 0.000000 0.764706
0.560784 0.000000 0.768627
0.835294 0.000000 0.768627
0.992157 0.078431 0.752941
0.105882 0.278431 0.768627
0.294118 0.274510 0.768627
0.560784 0.278431 0.772549
0.827451 0.270588 0.764706
0.996078 0.298039 0.745098
0.011765 0.552941 0.768627
0.254902 0.556863 0.768627
0.549020 0.552941 0.772549
0.839216 0.552941 0.772549
1.000000 0.603922 0.768627
0.000000 0.831373 0.764706
0.223529 0.827451 0.764706
0.537255 0.827451 0.760784
0.811765 0.823529 0.756863
1.000000 0.866667 0.843137
0.196078 0.996078 0.745098
0.333333 1.000000 0.752941
0.576471 1.000000 0.768627
0.803922 1.000000 0.760784
1.000000 1.000000 0.760784
0.117647 0.000000 0.996078
0.301961 0.000000 0.996078
0.556863 0.003922 1.000000
0.819608 0.003922 1.000000
0.992157 0.000000 1.000000
0.094118 0.274510 0.996078
0.298039 0.274510 1.000000
0.549020 0.274510 0.996078
0.819608 0.270588 0.996078
0.996078 0.266667 1.000000
0.000000 0.529412 0.992157
0.239216 0.537255 1.000000
0.533333 0.537255 1.000000
0.807843 0.537255 0.996078
0.996078 0.533333 1.000000
0.003922 0.800000 1.000000
0.125490 0.796078 1.000000
0.513725 0.800000 1.000000
0.803922 0.803922 1.000000
1.000000 0.807843 0.992157
0.000000 0.996078 0.996078
0.290196 1.000000 1.000000
0.576471 1.000000 0.992157
0.858824 1.000000 0.984314
1.000000 1.000000 1.000000
