lut_library_archive/removed_20260629/50个风景lut/50个风景lut43.cube
# 版权归凌孟成所有，侵权必究
TITLE "Jungle LUT #43"
#LUT size
LUT_3D_SIZE 25
#LUT data points
0.000000 0.000000 0.000000
0.039216 0.000000 0.003922
0.078431 0.000000 0.003922
0.101961 0.000000 0.000000
0.156863 0.000000 0.000000
0.196078 0.000000 0.003922
0.219608 0.003922 0.000000
0.274510 0.000000 0.000000
0.309804 0.003922 0.000000
0.352941 0.000000 0.000000
0.407843 0.000000 0.000000
0.450980 0.000000 0.000000
0.509804 0.000000 0.007843
0.556863 0.003922 0.000000
0.615686 0.000000 0.003922
0.666667 0.000000 0.003922
0.725490 0.000000 0.000000
0.772549 0.000000 0.000000
0.827451 0.000000 0.000000
0.882353 0.003922 0.003922
0.929412 0.000000 0.000000
0.976471 0.000000 0.000000
0.996078 0.000000 0.000000
0.996078 0.000000 0.000000
0.996078 0.000000 0.000000
0.000000 0.035294 0.000000
0.027451 0.023529 0.003922
0.066667 0.035294 0.000000
0.105882 0.035294 0.000000
0.156863 0.027451 0.000000
0.184314 0.027451 0.000000
0.223529 0.031373 0.003922
0.270588 0.023529 0.000000
0.317647 0.023529 0.000000
0.356863 0.023529 0.003922
0.407843 0.019608 0.007843
0.458824 0.011765 0.007843
0.501961 0.011765 0.003922
0.556863 0.007843 0.003922
0.611765 0.003922 0.000000
0.666667 0.003922 0.000000
0.721569 0.000000 0.000000
0.772549 0.000000 0.000000
0.827451 0.000000 0.000000
0.882353 0.000000 0.000000
0.929412 0.000000 0.000000
0.980392 0.003922 0.003922
1.000000 0.003922 0.003922
0.988235 0.007843 0.000000
1.000000 0.007843 0.000000
0.000000 0.070588 0.000000
0.027451 0.070588 0.003922
0.070588 0.066667 0.000000
0.109804 0.062745 0.000000
0.156863 0.066667 0.003922
0.180392 0.066667 0.000000
0.227451 0.066667 0.000000
0.274510 0.066667 0.003922
0.305882 0.074510 0.003922
0.352941 0.066667 0.000000
0.415686 0.054902 0.000000
0.447059 0.066667 0.000000
0.505882 0.070588 0.003922
0.552941 0.058824 0.000000
0.603922 0.062745 0.000000
0.662745 0.054902 0.000000
0.721569 0.047059 0.007843
0.776471 0.031373 0.000000
0.827451 0.019608 0.000000
0.882353 0.003922 0.003922
0.925490 0.000000 0.000000
0.976471 0.000000 0.000000
0.996078 0.000000 0.000000
0.996078 0.000000 0.000000
0.996078 0.003922 0.000000
0.007843 0.101961 0.000000
0.027451 0.105882 0.000000
0.062745 0.101961 0.000000
0.105882 0.105882 0.003922
0.149020 0.105882 0.000000
0.188235 0.113725 0.000000
0.223529 0.105882 0.000000
0.270588 0.109804 0.000000
0.309804 0.109804 0.000000
0.356863 0.105882 0.000000
0.407843 0.121569 0.003922
0.450980 0.113725 0.000000
0.498039 0.109804 0.000000
0.560784 0.109804 0.000000
0.607843 0.109804 0.003922
0.666667 0.113725 0.003922
0.717647 0.109804 0.000000
0.772549 0.101961 0.000000
0.827451 0.098039 0.007843
0.882353 0.094118 0.000000
0.921569 0.086275 0.000000
0.972549 0.066667 0.003922
0.996078 0.058824 0.007843
0.996078 0.035294 0.000000
0.992157 0.019608 0.000000
0.000000 0.145098 0.007843
0.023529 0.149020 0.000000
0.062745 0.141176 0.000000
0.105882 0.149020 0.000000
0.149020 0.141176 0.000000
0.184314 0.145098 0.003922
0.219608 0.149020 0.000000
0.270588 0.145098 0.000000
0.317647 0.152941 0.003922
0.356863 0.145098 0.000000
0.403922 0.152941 0.003922
0.443137 0.156863 0.000000
0.501961 0.152941 0.000000
0.556863 0.156863 0.000000
0.607843 0.156863 0.000000
0.662745 0.156863 0.000000
0.717647 0.156863 0.000000
0.772549 0.156863 0.000000
0.823529 0.156863 0.000000
0.874510 0.149020 0.000000
0.925490 0.145098 0.000000
0.968627 0.141176 0.000000
1.000000 0.133333 0.000000
1.000000 0.121569 0.000000
1.000000 0.113725 0.000000
0.003922 0.192157 0.003922
0.023529 0.188235 0.000000
0.062745 0.188235 0.003922
0.109804 0.184314 0.003922
0.145098 0.180392 0.000000
0.188235 0.180392 0.000000
0.231373 0.180392 0.003922
0.270588 0.188235 0.011765
0.317647 0.192157 0.000000
0.360784 0.192157 0.000000
0.403922 0.196078 0.000000
0.454902 0.196078 0.000000
0.505882 0.203922 0.000000
0.564706 0.207843 0.000000
0.619608 0.207843 0.000000
0.670588 0.211765 0.000000
0.725490 0.203922 0.000000
0.780392 0.211765 0.003922
0.831373 0.211765 0.000000
0.882353 0.203922 0.000000
0.929412 0.203922 0.000000
0.976471 0.196078 0.003922
0.996078 0.188235 0.000000
0.996078 0.184314 0.000000
1.000000 0.172549 0.007843
0.000000 0.227451 0.000000
0.015686 0.231373 0.003922
0.058824 0.239216 0.000000
0.101961 0.223529 0.000000
0.152941 0.223529 0.000000
0.188235 0.223529 0.000000
0.227451 0.231373 0.003922
0.266667 0.223529 0.003922
0.313725 0.227451 0.000000
0.356863 0.239216 0.003922
0.403922 0.239216 0.003922
0.458824 0.243137 0.000000
0.509804 0.243137 0.003922
0.560784 0.247059 0.000000
0.619608 0.254902 0.000000
0.674510 0.254902 0.000000
0.725490 0.250980 0.000000
0.780392 0.250980 0.000000
0.827451 0.254902 0.000000
0.882353 0.250980 0.000000
0.929412 0.250980 0.000000
0.968627 0.250980 0.000000
1.000000 0.243137 0.000000
1.000000 0.239216 0.000000
1.000000 0.223529 0.000000
0.000000 0.270588 0.007843
0.011765 0.266667 0.000000
0.039216 0.274510 0.000000
0.098039 0.274510 0.011765
0.145098 0.274510 0.003922
0.184314 0.266667 0.000000
0.223529 0.274510 0.000000
0.270588 0.270588 0.000000
0.309804 0.270588 0.000000
0.352941 0.274510 0.000000
0.407843 0.278431 0.000000
0.462745 0.282353 0.000000
0.509804 0.282353 0.000000
0.560784 0.294118 0.000000
0.623529 0.294118 0.007843
0.674510 0.298039 0.007843
0.729412 0.301961 0.007843
0.784314 0.301961 0.000000
0.831373 0.301961 0.003922
0.878431 0.301961 0.000000
0.933333 0.301961 0.000000
0.976471 0.298039 0.000000
0.992157 0.290196 0.000000
0.996078 0.290196 0.011765
1.000000 0.282353 0.015686
0.000000 0.317647 0.003922
0.000000 0.317647 0.007843
0.027451 0.321569 0.000000
0.090196 0.313725 0.000000
0.137255 0.321569 0.007843
0.172549 0.321569 0.000000
0.227451 0.317647 0.003922
0.274510 0.317647 0.007843
0.317647 0.313725 0.000000
0.356863 0.313725 0.000000
0.407843 0.325490 0.007843
0.462745 0.325490 0.003922
0.509804 0.325490 0.011765
0.564706 0.341176 0.000000
0.615686 0.341176 0.000000
0.674510 0.345098 0.000000
0.721569 0.349020 0.003922
0.776471 0.345098 0.003922
0.823529 0.349020 0.000000
0.878431 0.349020 0.000000
0.921569 0.345098 0.000000
0.972549 0.349020 0.000000
0.992157 0.345098 0.000000
1.000000 0.337255 0.000000
1.000000 0.325490 0.000000
0.007843 0.364706 0.000000
0.000000 0.360784 0.000000
0.011765 0.368627 0.000000
0.086275 0.360784 0.007843
0.141176 0.360784 0.003922
0.188235 0.372549 0.003922
0.231373 0.368627 0.000000
0.282353 0.356863 0.003922
0.337255 0.360784 0.007843
0.360784 0.376471 0.003922
0.407843 0.368627 0.000000
0.466667 0.360784 0.003922
0.509804 0.384314 0.000000
0.556863 0.384314 0.003922
0.611765 0.384314 0.000000
0.662745 0.388235 0.003922
0.717647 0.388235 0.000000
0.764706 0.392157 0.000000
0.823529 0.396078 0.000000
0.870588 0.396078 0.000000
0.921569 0.392157 0.000000
0.968627 0.388235 0.003922
0.996078 0.388235 0.000000
1.000000 0.380392 0.000000
1.000000 0.372549 0.003922
0.003922 0.427451 0.000000
0.000000 0.423529 0.000000
0.000000 0.431373 0.000000
0.074510 0.423529 0.000000
0.121569 0.423529 0.000000
0.172549 0.431373 0.007843
0.235294 0.419608 0.000000
0.282353 0.431373 0.000000
0.333333 0.423529 0.007843
0.376471 0.419608 0.007843
0.427451 0.423529 0.000000
0.466667 0.423529 0.000000
0.517647 0.423529 0.000000
0.572549 0.431373 0.000000
0.623529 0.439216 0.000000
0.682353 0.439216 0.003922
0.725490 0.447059 0.000000
0.780392 0.443137 0.000000
0.839216 0.439216 0.003922
0.886275 0.443137 0.003922
0.933333 0.439216 0.000000
0.972549 0.439216 0.000000
0.992157 0.439216 0.000000
0.992157 0.431373 0.000000
1.000000 0.427451 0.000000
0.000000 0.478431 0.000000
0.000000 0.474510 0.000000
0.000000 0.470588 0.000000
0.035294 0.482353 0.007843
0.109804 0.478431 0.000000
0.180392 0.478431 0.000000
0.239216 0.470588 0.000000
0.274510 0.474510 0.000000
0.333333 0.474510 0.000000
0.380392 0.474510 0.003922
0.423529 0.478431 0.000000
0.478431 0.478431 0.007843
0.521569 0.474510 0.000000
0.572549 0.474510 0.011765
0.623529 0.482353 0.011765
0.674510 0.486275 0.000000
0.729412 0.490196 0.000000
0.784314 0.490196 0.000000
0.835294 0.490196 0.000000
0.882353 0.490196 0.011765
0.925490 0.490196 0.007843
0.972549 0.486275 0.007843
0.996078 0.482353 0.003922
1.000000 0.470588 0.007843
1.000000 0.462745 0.000000
0.000000 0.529412 0.000000
0.000000 0.529412 0.003922
0.003922 0.525490 0.000000
0.003922 0.537255 0.003922
0.094118 0.525490 0.000000
0.176471 0.529412 0.003922
0.235294 0.525490 0.000000
0.270588 0.529412 0.000000
0.341176 0.529412 0.000000
0.376471 0.525490 0.000000
0.415686 0.525490 0.000000
0.478431 0.521569 0.007843
0.525490 0.525490 0.000000
0.572549 0.517647 0.000000
0.627451 0.521569 0.000000
0.670588 0.525490 0.003922
0.725490 0.533333 0.000000
0.772549 0.541176 0.000000
0.827451 0.541176 0.000000
0.874510 0.537255 0.000000
0.917647 0.537255 0.000000
0.960784 0.533333 0.000000
0.996078 0.529412 0.000000
0.992157 0.521569 0.000000
1.000000 0.513725 0.000000
0.007843 0.576471 0.000000
0.000000 0.572549 0.000000
0.003922 0.584314 0.003922
0.000000 0.580392 0.000000
0.066667 0.588235 0.000000
0.156863 0.580392 0.000000
0.219608 0.580392 0.003922
0.282353 0.576471 0.000000
0.333333 0.576471 0.000000
0.384314 0.580392 0.003922
0.439216 0.576471 0.003922
0.482353 0.568627 0.000000
0.533333 0.572549 0.000000
0.576471 0.576471 0.000000
0.623529 0.576471 0.000000
0.678431 0.576471 0.000000
0.725490 0.580392 0.000000
0.776471 0.580392 0.000000
0.823529 0.580392 0.003922
0.874510 0.576471 0.000000
0.917647 0.572549 0.000000
0.960784 0.580392 0.000000
1.000000 0.568627 0.000000
1.000000 0.560784 0.000000
0.996078 0.556863 0.000000
0.007843 0.623529 0.000000
0.000000 0.635294 0.003922
0.000000 0.635294 0.003922
0.003922 0.631373 0.003922
0.019608 0.639216 0.000000
0.133333 0.623529 0.003922
0.211765 0.635294 0.000000
0.266667 0.639216 0.003922
0.325490 0.631373 0.000000
0.380392 0.635294 0.000000
0.427451 0.631373 0.000000
0.490196 0.627451 0.015686
0.529412 0.623529 0.000000
0.580392 0.627451 0.000000
0.623529 0.623529 0.000000
0.674510 0.627451 0.000000
0.725490 0.623529 0.000000
0.776471 0.627451 0.000000
0.823529 0.627451 0.003922
0.874510 0.631373 0.003922
0.921569 0.623529 0.003922
0.956863 0.623529 0.000000
0.992157 0.615686 0.000000
0.996078 0.611765 0.000000
0.996078 0.603922 0.000000
0.007843 0.698039 0.007843
0.000000 0.698039 0.000000
0.003922 0.694118 0.000000
0.003922 0.694118 0.000000
0.000000 0.698039 0.000000
0.113725 0.690196 0.000000
0.192157 0.698039 0.000000
0.270588 0.686275 0.007843
0.329412 0.694118 0.000000
0.380392 0.694118 0.000000
0.439216 0.690196 0.000000
0.490196 0.686275 0.000000
0.541176 0.686275 0.000000
0.588235 0.682353 0.000000
0.635294 0.686275 0.000000
0.686275 0.686275 0.000000
0.729412 0.682353 0.000000
0.784314 0.682353 0.003922
0.839216 0.682353 0.003922
0.878431 0.682353 0.007843
0.913725 0.678431 0.003922
0.956863 0.666667 0.000000
1.000000 0.658824 0.003922
1.000000 0.654902 0.003922
1.000000 0.647059 0.007843
0.003922 0.729412 0.015686
0.000000 0.733333 0.000000
0.011765 0.741176 0.000000
0.000000 0.741176 0.000000
0.003922 0.741176 0.000000
0.070588 0.737255 0.000000
0.176471 0.745098 0.000000
0.247059 0.737255 0.000000
0.321569 0.737255 0.000000
0.380392 0.733333 0.000000
0.423529 0.737255 0.003922
0.470588 0.741176 0.000000
0.525490 0.737255 0.007843
0.576471 0.733333 0.000000
0.635294 0.729412 0.000000
0.674510 0.733333 0.000000
0.729412 0.729412 0.000000
0.780392 0.725490 0.000000
0.823529 0.721569 0.003922
0.870588 0.721569 0.000000
0.913725 0.717647 0.000000
0.956863 0.713725 0.000000
0.992157 0.709804 0.000000
0.996078 0.694118 0.000000
0.996078 0.694118 0.000000
0.000000 0.776471 0.003922
0.007843 0.784314 0.003922
0.000000 0.784314 0.000000
0.000000 0.780392 0.000000
0.000000 0.788235 0.003922
0.003922 0.780392 0.000000
0.149020 0.784314 0.003922
0.235294 0.772549 0.011765
0.301961 0.780392 0.007843
0.356863 0.780392 0.000000
0.415686 0.776471 0.000000
0.474510 0.780392 0.000000
0.525490 0.768627 0.000000
0.572549 0.776471 0.000000
0.627451 0.776471 0.000000
0.674510 0.780392 0.000000
0.725490 0.772549 0.000000
0.768627 0.772549 0.000000
0.819608 0.764706 0.000000
0.870588 0.764706 0.000000
0.913725 0.764706 0.003922
0.949020 0.752941 0.003922
0.996078 0.745098 0.015686
1.000000 0.733333 0.000000
1.000000 0.737255 0.000000
0.000000 0.823529 0.000000
0.003922 0.831373 0.011765
0.000000 0.827451 0.000000
0.003922 0.819608 0.000000
0.003922 0.827451 0.000000
0.003922 0.823529 0.007843
0.113725 0.823529 0.003922
0.215686 0.819608 0.000000
0.282353 0.827451 0.000000
0.337255 0.823529 0.000000
0.400000 0.823529 0.003922
0.458824 0.819608 0.000000
0.498039 0.823529 0.000000
0.564706 0.819608 0.003922
0.607843 0.815686 0.007843
0.662745 0.815686 0.003922
0.713725 0.815686 0.000000
0.756863 0.811765 0.000000
0.807843 0.803922 0.000000
0.854902 0.807843 0.000000
0.901961 0.803922 0.000000
0.941176 0.800000 0.000000
0.988235 0.788235 0.000000
1.000000 0.776471 0.003922
0.996078 0.776471 0.000000
0.000000 0.862745 0.000000
0.000000 0.862745 0.000000
0.000000 0.866667 0.000000
0.000000 0.862745 0.000000
0.000000 0.862745 0.003922
0.007843 0.858824 0.000000
0.058824 0.866667 0.000000
0.192157 0.866667 0.000000
0.254902 0.866667 0.000000
0.333333 0.854902 0.003922
0.384314 0.858824 0.000000
0.443137 0.866667 0.000000
0.505882 0.854902 0.007843
0.552941 0.854902 0.007843
0.603922 0.854902 0.000000
0.650980 0.850980 0.000000
0.701961 0.847059 0.000000
0.749020 0.850980 0.000000
0.796078 0.850980 0.000000
0.843137 0.847059 0.000000
0.890196 0.847059 0.000000
0.941176 0.843137 0.003922
0.980392 0.835294 0.000000
1.000000 0.823529 0.000000
1.000000 0.815686 0.000000
0.000000 0.901961 0.000000
0.003922 0.909804 0.007843
0.003922 0.898039 0.000000
0.003922 0.901961 0.000000
0.003922 0.898039 0.000000
0.007843 0.894118 0.007843
0.000000 0.905882 0.000000
0.160784 0.901961 0.000000
0.243137 0.898039 0.000000
0.305882 0.898039 0.000000
0.368627 0.898039 0.000000
0.431373 0.894118 0.000000
0.494118 0.894118 0.007843
0.545098 0.890196 0.003922
0.596078 0.890196 0.000000
0.643137 0.890196 0.000000
0.698039 0.886275 0.000000
0.745098 0.890196 0.000000
0.796078 0.882353 0.000000
0.835294 0.886275 0.000000
0.874510 0.886275 0.000000
0.925490 0.878431 0.000000
0.972549 0.882353 0.000000
0.992157 0.874510 0.003922
0.996078 0.862745 0.000000
0.003922 0.929412 0.000000
0.011765 0.937255 0.003922
0.000000 0.929412 0.000000
0.003922 0.937255 0.015686
0.007843 0.929412 0.011765
0.003922 0.937255 0.011765
0.000000 0.925490 0.000000
0.113725 0.929412 0.000000
0.207843 0.929412 0.000000
0.294118 0.929412 0.007843
0.356863 0.933333 0.000000
0.423529 0.933333 0.007843
0.474510 0.933333 0.000000
0.525490 0.925490 0.007843
0.580392 0.929412 0.000000
0.619608 0.925490 0.000000
0.670588 0.921569 0.000000
0.725490 0.921569 0.000000
0.768627 0.917647 0.000000
0.823529 0.917647 0.000000
0.866667 0.913725 0.000000
0.917647 0.917647 0.000000
0.952941 0.913725 0.000000
0.996078 0.917647 0.000000
0.996078 0.901961 0.000000
0.003922 0.956863 0.000000
0.000000 0.964706 0.000000
0.003922 0.960784 0.000000
0.003922 0.964706 0.000000
0.003922 0.964706 0.003922
0.000000 0.960784 0.000000
0.000000 0.968627 0.003922
0.019608 0.960784 0.000000
0.176471 0.956863 0.003922
0.278431 0.964706 0.003922
0.329412 0.960784 0.000000
0.403922 0.956863 0.000000
0.450980 0.964706 0.000000
0.498039 0.960784 0.000000
0.556863 0.952941 0.000000
0.603922 0.956863 0.000000
0.658824 0.952941 0.000000
0.709804 0.949020 0.000000
0.756863 0.949020 0.003922
0.803922 0.949020 0.007843
0.843137 0.952941 0.000000
0.886275 0.945098 0.000000
0.949020 0.941176 0.000000
0.988235 0.945098 0.007843
1.000000 0.941176 0.003922
0.003922 0.988235 0.000000
0.000000 0.992157 0.000000
0.003922 0.992157 0.000000
0.000000 1.000000 0.011765
0.000000 0.996078 0.007843
0.007843 0.996078 0.003922
0.000000 0.996078 0.000000
0.003922 0.988235 0.000000
0.109804 0.988235 0.011765
0.227451 0.988235 0.011765
0.313725 0.988235 0.000000
0.376471 0.992157 0.000000
0.431373 0.988235 0.007843
0.490196 0.984314 0.003922
0.537255 0.988235 0.003922
0.592157 0.988235 0.000000
0.643137 0.984314 0.000000
0.698039 0.980392 0.003922
0.741176 0.976471 0.003922
0.788235 0.980392 0.003922
0.831373 0.972549 0.000000
0.882353 0.976471 0.011765
0.921569 0.980392 0.003922
0.976471 0.972549 0.000000
1.000000 0.968627 0.000000
0.000000 1.000000 0.000000
0.000000 0.996078 0.000000
0.003922 0.992157 0.007843
0.000000 0.996078 0.000000
0.003922 0.992157 0.000000
0.000000 1.000000 0.000000
0.000000 1.000000 0.000000
0.000000 1.000000 0.011765
0.007843 1.000000 0.000000
0.176471 0.992157 0.000000
0.282353 1.000000 0.000000
0.349020 0.996078 0.000000
0.411765 0.996078 0.000000
0.462745 1.000000 0.007843
0.517647 1.000000 0.003922
0.568627 0.996078 0.003922
0.623529 0.996078 0.007843
0.674510 1.000000 0.003922
0.725490 0.996078 0.003922
0.772549 0.996078 0.003922
0.811765 1.000000 0.000000
0.866667 0.996078 0.000000
0.917647 0.996078 0.000000
0.960784 1.000000 0.000000
0.992157 1.000000 0.011765
0.000000 0.000000 0.047059
0.035294 0.000000 0.031373
0.078431 0.003922 0.027451
0.117647 0.000000 0.031373
0.137255 0.000000 0.027451
0.192157 0.000000 0.031373
0.231373 0.000000 0.023529
0.278431 0.000000 0.023529
0.317647 0.000000 0.019608
0.360784 0.000000 0.019608
0.415686 0.000000 0.015686
0.454902 0.000000 0.003922
0.509804 0.000000 0.007843
0.556863 0.003922 0.000000
0.611765 0.003922 0.000000
0.658824 0.003922 0.000000
0.721569 0.000000 0.007843
0.772549 0.000000 0.007843
0.839216 0.000000 0.007843
0.886275 0.003922 0.003922
0.929412 0.007843 0.003922
0.968627 0.000000 0.000000
0.996078 0.000000 0.000000
0.996078 0.000000 0.000000
0.996078 0.000000 0.000000
0.003922 0.039216 0.027451
0.031373 0.023529 0.035294
0.078431 0.035294 0.027451
0.105882 0.031373 0.015686
0.152941 0.031373 0.023529
0.184314 0.019608 0.027451
0.227451 0.023529 0.031373
0.258824 0.023529 0.015686
0.313725 0.023529 0.019608
0.356863 0.023529 0.011765
0.400000 0.015686 0.011765
0.450980 0.007843 0.000000
0.501961 0.000000 0.000000
0.556863 0.003922 0.000000
0.611765 0.003922 0.000000
0.666667 0.003922 0.000000
0.721569 0.000000 0.000000
0.772549 0.000000 0.000000
0.823529 0.000000 0.003922
0.878431 0.000000 0.000000
0.929412 0.000000 0.000000
0.976471 0.000000 0.000000
0.996078 0.000000 0.000000
0.996078 0.000000 0.000000
0.996078 0.000000 0.007843
0.000000 0.074510 0.023529
0.031373 0.070588 0.035294
0.066667 0.070588 0.039216
0.105882 0.062745 0.039216
0.149020 0.058824 0.027451
0.184314 0.074510 0.031373
0.223529 0.066667 0.027451
0.270588 0.066667 0.023529
0.313725 0.062745 0.023529
0.356863 0.058824 0.007843
0.403922 0.058824 0.011765
0.458824 0.058824 0.011765
0.509804 0.047059 0.000000
0.568627 0.050980 0.003922
0.607843 0.035294 0.003922
0.658824 0.031373 0.007843
0.721569 0.019608 0.000000
0.772549 0.007843 0.000000
0.827451 0.000000 0.000000
0.878431 0.000000 0.000000
0.929412 0.000000 0.000000
0.980392 0.003922 0.000000
0.988235 0.007843 0.000000
0.996078 0.000000 0.007843
0.996078 0.000000 0.007843
0.000000 0.113725 0.019608
0.019608 0.113725 0.027451
0.062745 0.109804 0.031373
0.098039 0.105882 0.023529
0.156863 0.109804 0.015686
0.184314 0.105882 0.011765
0.227451 0.105882 0.023529
0.266667 0.109804 0.019608
0.313725 0.109804 0.015686
0.360784 0.101961 0.007843
0.407843 0.105882 0.003922
0.458824 0.109804 0.000000
0.494118 0.105882 0.000000
0.552941 0.101961 0.000000
0.607843 0.098039 0.000000
0.658824 0.098039 0.000000
0.721569 0.094118 0.000000
0.776471 0.086275 0.003922
0.827451 0.078431 0.003922
0.882353 0.070588 0.007843
0.917647 0.062745 0.000000
0.964706 0.050980 0.000000
1.000000 0.023529 0.000000
0.996078 0.011765 0.007843
0.996078 0.000000 0.000000
0.003922 0.145098 0.035294
0.027451 0.141176 0.015686
0.066667 0.149020 0.019608
0.113725 0.141176 0.019608
0.141176 0.145098 0.019608
0.180392 0.145098 0.023529
0.231373 0.141176 0.015686
0.270588 0.152941 0.011765
0.305882 0.149020 0.007843
0.360784 0.149020 0.007843
0.396078 0.152941 0.000000
0.447059 0.152941 0.000000
0.513725 0.156863 0.000000
0.560784 0.156863 0.000000
0.615686 0.156863 0.000000
0.666667 0.152941 0.000000
0.721569 0.152941 0.007843
0.772549 0.145098 0.003922
0.823529 0.145098 0.000000
0.870588 0.145098 0.003922
0.925490 0.137255 0.003922
0.972549 0.133333 0.007843
1.000000 0.117647 0.000000
1.000000 0.105882 0.000000
1.000000 0.094118 0.000000
0.000000 0.188235 0.011765
0.007843 0.184314 0.015686
0.058824 0.188235 0.019608
0.101961 0.188235 0.003922
0.141176 0.188235 0.000000
0.188235 0.184314 0.011765
0.227451 0.184314 0.007843
0.270588 0.188235 0.003922
0.313725 0.192157 0.007843
0.352941 0.196078 0.003922
0.403922 0.196078 0.000000
0.450980 0.192157 0.000000
0.501961 0.200000 0.000000
0.560784 0.203922 0.000000
0.623529 0.203922 0.000000
0.678431 0.203922 0.000000
0.729412 0.196078 0.000000
0.776471 0.200000 0.000000
0.831373 0.200000 0.000000
0.878431 0.200000 0.003922
0.929412 0.196078 0.003922
0.976471 0.184314 0.000000
1.000000 0.176471 0.000000
0.996078 0.172549 0.000000
0.992157 0.168627 0.000000
0.000000 0.227451 0.000000
0.007843 0.235294 0.007843
0.047059 0.223529 0.000000
0.098039 0.227451 0.003922
0.145098 0.227451 0.003922
0.184314 0.227451 0.000000
0.227451 0.223529 0.003922
0.274510 0.223529 0.007843
0.313725 0.227451 0.000000
0.356863 0.231373 0.000000
0.400000 0.235294 0.000000
0.462745 0.231373 0.003922
0.509804 0.243137 0.003922
0.560784 0.239216 0.003922
0.619608 0.243137 0.003922
0.678431 0.250980 0.000000
0.725490 0.250980 0.003922
0.780392 0.250980 0.000000
0.827451 0.250980 0.000000
0.878431 0.247059 0.000000
0.929412 0.243137 0.000000
0.968627 0.243137 0.000000
1.000000 0.235294 0.000000
1.000000 0.235294 0.000000
1.000000 0.223529 0.000000
0.000000 0.266667 0.003922
0.007843 0.266667 0.007843
0.047059 0.270588 0.000000
0.101961 0.270588 0.000000
0.145098 0.274510 0.000000
0.184314 0.278431 0.000000
0.223529 0.274510 0.000000
0.270588 0.270588 0.000000
0.305882 0.274510 0.000000
0.352941 0.274510 0.000000
0.411765 0.278431 0.000000
0.450980 0.286275 0.003922
0.509804 0.290196 0.000000
0.564706 0.290196 0.007843
0.615686 0.298039 0.000000
0.670588 0.294118 0.000000
0.725490 0.298039 0.000000
0.780392 0.298039 0.000000
0.835294 0.298039 0.000000
0.878431 0.294118 0.000000
0.925490 0.290196 0.000000
0.968627 0.290196 0.000000
1.000000 0.282353 0.000000
1.000000 0.278431 0.000000
1.000000 0.270588 0.000000
0.003922 0.313725 0.000000
0.000000 0.309804 0.000000
0.023529 0.317647 0.000000
0.082353 0.325490 0.000000
0.125490 0.317647 0.000000
0.180392 0.317647 0.003922
0.231373 0.313725 0.003922
0.282353 0.317647 0.000000
0.321569 0.317647 0.000000
0.360784 0.317647 0.003922
0.403922 0.321569 0.003922
0.462745 0.325490 0.003922
0.509804 0.329412 0.003922
0.564706 0.341176 0.000000
0.611765 0.337255 0.000000
0.670588 0.341176 0.000000
0.717647 0.345098 0.000000
0.776471 0.349020 0.000000
0.823529 0.349020 0.000000
0.878431 0.349020 0.000000
0.921569 0.345098 0.000000
0.968627 0.337255 0.000000
0.988235 0.337255 0.000000
1.000000 0.325490 0.000000
0.996078 0.325490 0.011765
0.000000 0.360784 0.000000
0.000000 0.368627 0.000000
0.000000 0.368627 0.000000
0.070588 0.364706 0.003922
0.129412 0.368627 0.000000
0.184314 0.368627 0.000000
0.235294 0.356863 0.000000
0.278431 0.360784 0.000000
0.329412 0.364706 0.000000
0.364706 0.360784 0.000000
0.415686 0.364706 0.003922
0.454902 0.372549 0.007843
0.505882 0.380392 0.000000
0.556863 0.376471 0.000000
0.611765 0.384314 0.000000
0.670588 0.388235 0.003922
0.717647 0.388235 0.000000
0.772549 0.388235 0.000000
0.827451 0.388235 0.000000
0.874510 0.392157 0.000000
0.921569 0.392157 0.000000
0.968627 0.388235 0.000000
0.996078 0.388235 0.000000
1.000000 0.380392 0.000000
1.000000 0.372549 0.003922
0.000000 0.419608 0.000000
0.003922 0.415686 0.003922
0.007843 0.419608 0.007843
0.047059 0.423529 0.000000
0.125490 0.423529 0.000000
0.184314 0.427451 0.000000
0.239216 0.419608 0.000000
0.278431 0.427451 0.000000
0.333333 0.419608 0.000000
0.372549 0.415686 0.003922
