lut_library_archive/removed_20260629/50个风景lut/50个风景lut48.cube
# 版权归凌孟成所有，侵权必究
TITLE "Jungle LUT #48"
#LUT size
LUT_3D_SIZE 5
#LUT data points
0.149020 0.149020 0.149020
0.235294 0.133333 0.145098
0.450980 0.117647 0.137255
0.756863 0.109804 0.105882
1.000000 0.047059 0.047059
0.141176 0.227451 0.129412
0.235294 0.235294 0.125490
0.458824 0.250980 0.125490
0.768627 0.270588 0.094118
0.992157 0.262745 0.000000
0.109804 0.486275 0.054902
0.266667 0.478431 0.039216
0.498039 0.490196 0.015686
0.780392 0.509804 0.003922
1.000000 0.513725 0.000000
0.003922 0.780392 0.000000
0.243137 0.784314 0.000000
0.521569 0.784314 0.000000
0.792157 0.780392 0.000000
0.988235 0.768627 0.000000
0.007843 0.992157 0.000000
0.062745 1.000000 0.000000
0.490196 1.000000 0.000000
0.800000 1.000000 0.000000
0.996078 0.996078 0.000000
0.121569 0.145098 0.231373
0.239216 0.141176 0.227451
0.466667 0.109804 0.239216
0.768627 0.000000 0.211765
1.000000 0.000000 0.176471
0.145098 0.227451 0.231373
0.239216 0.235294 0.227451
0.474510 0.235294 0.223529
0.772549 0.223529 0.196078
1.000000 0.196078 0.164706
0.007843 0.482353 0.180392
0.235294 0.486275 0.188235
0.509804 0.490196 0.172549
0.792157 0.498039 0.149020
1.000000 0.486275 0.090196
0.000000 0.780392 0.003922
0.176471 0.780392 0.000000
0.513725 0.780392 0.007843
0.800000 0.788235 0.007843
1.000000 0.760784 0.011765
0.000000 1.000000 0.000000
0.000000 1.000000 0.000000
0.466667 1.000000 0.000000
0.792157 1.000000 0.000000
1.000000 1.000000 0.000000
0.129412 0.133333 0.458824
0.266667 0.125490 0.466667
0.486275 0.070588 0.454902
0.784314 0.003922 0.478431
1.000000 0.003922 0.458824
0.000000 0.239216 0.454902
0.231373 0.227451 0.454902
0.498039 0.203922 0.466667
0.800000 0.133333 0.478431
1.000000 0.000000 0.454902
0.007843 0.486275 0.466667
0.152941 0.486275 0.466667
0.501961 0.486275 0.450980
0.803922 0.474510 0.443137
0.992157 0.458824 0.443137
0.003922 0.792157 0.423529
0.000000 0.780392 0.423529
0.478431 0.780392 0.411765
0.800000 0.776471 0.400000
0.992157 0.756863 0.388235
0.000000 1.000000 0.341176
0.003922 0.996078 0.333333
0.400000 0.996078 0.325490
0.776471 1.000000 0.305882
1.000000 1.000000 0.270588
0.098039 0.101961 0.760784
0.278431 0.070588 0.760784
0.533333 0.000000 0.768627
0.803922 0.000000 0.756863
0.992157 0.003922 0.760784
0.000000 0.211765 0.768627
0.219608 0.200000 0.764706
0.509804 0.172549 0.772549
0.807843 0.047059 0.768627
0.996078 0.000000 0.733333
0.003922 0.482353 0.760784
0.007843 0.478431 0.756863
0.478431 0.462745 0.764706
0.815686 0.458824 0.768627
1.000000 0.462745 0.756863
0.000000 0.788235 0.756863
0.000000 0.784314 0.764706
0.470588 0.788235 0.760784
0.800000 0.780392 0.756863
1.000000 0.772549 0.760784
0.007843 0.996078 0.725490
0.000000 1.000000 0.725490
0.490196 0.992157 0.745098
0.776471 1.000000 0.721569
0.996078 1.000000 0.725490
0.000000 0.015686 0.996078
0.262745 0.000000 0.992157
0.521569 0.003922 0.992157
0.788235 0.000000 0.996078
0.992157 0.003922 0.988235
0.003922 0.184314 1.000000
0.188235 0.172549 1.000000
0.498039 0.137255 1.000000
0.780392 0.011765 1.000000
1.000000 0.000000 0.996078
0.000000 0.458824 0.992157
0.000000 0.454902 1.000000
0.462745 0.450980 0.996078
0.772549 0.447059 0.996078
1.000000 0.435294 0.996078
0.000000 0.760784 0.980392
0.000000 0.749020 1.000000
0.466667 0.756863 0.996078
0.768627 0.764706 0.992157
0.996078 0.764706 0.992157
0.000000 1.000000 0.992157
0.003922 1.000000 1.000000
0.486275 0.996078 0.996078
0.827451 1.000000 1.000000
1.000000 1.000000 1.000000
