lut_library_archive/removed_20260629/50个风景lut/50个风景lut14.cube
# 版权归凌孟成所有，侵权必究
TITLE "Jungle LUT #14"
#LUT size
LUT_3D_SIZE 25
#LUT data points
0.000000 0.003922 0.000000
0.003922 0.000000 0.000000
0.058824 0.000000 0.011765
0.101961 0.000000 0.003922
0.160784 0.000000 0.000000
0.203922 0.003922 0.000000
0.247059 0.000000 0.000000
0.298039 0.000000 0.007843
0.345098 0.000000 0.000000
0.392157 0.000000 0.000000
0.439216 0.003922 0.000000
0.490196 0.003922 0.003922
0.537255 0.000000 0.000000
0.584314 0.000000 0.000000
0.631373 0.000000 0.000000
0.682353 0.000000 0.003922
0.729412 0.003922 0.000000
0.780392 0.000000 0.000000
0.823529 0.003922 0.000000
0.866667 0.000000 0.000000
0.917647 0.003922 0.000000
0.960784 0.000000 0.000000
0.996078 0.000000 0.000000
0.996078 0.000000 0.000000
0.996078 0.003922 0.000000
0.000000 0.019608 0.000000
0.011765 0.015686 0.000000
0.066667 0.023529 0.007843
0.105882 0.011765 0.003922
0.164706 0.007843 0.007843
0.200000 0.011765 0.000000
0.243137 0.011765 0.000000
0.298039 0.000000 0.000000
0.349020 0.003922 0.007843
0.392157 0.000000 0.000000
0.439216 0.003922 0.000000
0.494118 0.000000 0.003922
0.537255 0.000000 0.000000
0.588235 0.000000 0.003922
0.631373 0.000000 0.000000
0.682353 0.000000 0.000000
0.725490 0.000000 0.000000
0.784314 0.003922 0.000000
0.823529 0.003922 0.000000
0.870588 0.003922 0.000000
0.921569 0.003922 0.007843
0.964706 0.003922 0.003922
1.000000 0.003922 0.011765
0.996078 0.000000 0.000000
1.000000 0.007843 0.000000
0.000000 0.066667 0.003922
0.019608 0.062745 0.000000
0.070588 0.062745 0.003922
0.113725 0.062745 0.000000
0.152941 0.062745 0.000000
0.203922 0.058824 0.000000
0.250980 0.058824 0.000000
0.301961 0.058824 0.000000
0.352941 0.054902 0.000000
0.392157 0.054902 0.000000
0.439216 0.050980 0.000000
0.482353 0.043137 0.000000
0.541176 0.039216 0.000000
0.588235 0.027451 0.000000
0.635294 0.011765 0.000000
0.678431 0.007843 0.000000
0.729412 0.003922 0.000000
0.772549 0.000000 0.000000
0.823529 0.000000 0.003922
0.866667 0.000000 0.000000
0.917647 0.000000 0.003922
0.964706 0.003922 0.003922
0.996078 0.000000 0.007843
1.000000 0.003922 0.011765
0.996078 0.003922 0.000000
0.000000 0.105882 0.007843
0.011765 0.113725 0.000000
0.074510 0.109804 0.003922
0.113725 0.109804 0.000000
0.152941 0.109804 0.000000
0.207843 0.117647 0.000000
0.250980 0.113725 0.003922
0.298039 0.113725 0.000000
0.345098 0.113725 0.000000
0.392157 0.113725 0.003922
0.443137 0.109804 0.000000
0.494118 0.101961 0.000000
0.545098 0.098039 0.000000
0.588235 0.094118 0.000000
0.635294 0.098039 0.003922
0.686275 0.090196 0.000000
0.725490 0.086275 0.000000
0.772549 0.074510 0.000000
0.823529 0.074510 0.003922
0.870588 0.070588 0.003922
0.913725 0.062745 0.000000
0.952941 0.054902 0.000000
0.992157 0.062745 0.007843
0.992157 0.054902 0.000000
1.000000 0.050980 0.000000
0.007843 0.149020 0.007843
0.031373 0.156863 0.003922
0.058824 0.156863 0.000000
0.113725 0.156863 0.000000
0.160784 0.152941 0.000000
0.203922 0.156863 0.000000
0.250980 0.152941 0.000000
0.298039 0.160784 0.000000
0.345098 0.156863 0.000000
0.392157 0.160784 0.003922
0.443137 0.156863 0.000000
0.490196 0.156863 0.003922
0.541176 0.152941 0.000000
0.588235 0.149020 0.000000
0.631373 0.149020 0.000000
0.678431 0.149020 0.000000
0.733333 0.145098 0.007843
0.776471 0.145098 0.003922
0.823529 0.145098 0.000000
0.866667 0.141176 0.000000
0.913725 0.137255 0.000000
0.960784 0.133333 0.000000
0.996078 0.137255 0.000000
0.996078 0.137255 0.000000
1.000000 0.133333 0.000000
0.007843 0.203922 0.003922
0.031373 0.203922 0.003922
0.074510 0.207843 0.007843
0.129412 0.207843 0.000000
0.164706 0.203922 0.000000
0.211765 0.207843 0.000000
0.266667 0.203922 0.000000
0.301961 0.211765 0.000000
0.352941 0.207843 0.000000
0.403922 0.207843 0.000000
0.454902 0.207843 0.000000
0.501961 0.207843 0.000000
0.545098 0.203922 0.000000
0.596078 0.203922 0.000000
0.643137 0.207843 0.000000
0.686275 0.203922 0.000000
0.737255 0.207843 0.000000
0.780392 0.203922 0.000000
0.823529 0.203922 0.000000
0.874510 0.203922 0.003922
0.917647 0.200000 0.003922
0.964706 0.196078 0.000000
0.992157 0.196078 0.000000
1.000000 0.192157 0.000000
1.000000 0.192157 0.011765
0.007843 0.250980 0.003922
0.023529 0.254902 0.000000
0.070588 0.250980 0.000000
0.117647 0.254902 0.000000
0.168627 0.254902 0.003922
0.215686 0.250980 0.000000
0.254902 0.250980 0.000000
0.309804 0.258824 0.000000
0.352941 0.254902 0.000000
0.403922 0.250980 0.000000
0.450980 0.250980 0.000000
0.501961 0.250980 0.000000
0.545098 0.250980 0.000000
0.600000 0.254902 0.003922
0.643137 0.254902 0.000000
0.690196 0.254902 0.003922
0.737255 0.254902 0.000000
0.784314 0.254902 0.000000
0.823529 0.254902 0.000000
0.874510 0.250980 0.000000
0.921569 0.250980 0.000000
0.960784 0.250980 0.000000
1.000000 0.250980 0.003922
1.000000 0.247059 0.003922
1.000000 0.243137 0.000000
0.007843 0.298039 0.003922
0.007843 0.298039 0.000000
0.054902 0.298039 0.000000
0.117647 0.305882 0.000000
0.172549 0.298039 0.000000
0.203922 0.298039 0.000000
0.258824 0.301961 0.003922
0.309804 0.301961 0.007843
0.356863 0.305882 0.000000
0.403922 0.301961 0.000000
0.450980 0.305882 0.000000
0.494118 0.301961 0.000000
0.545098 0.305882 0.000000
0.588235 0.301961 0.000000
0.643137 0.309804 0.000000
0.686275 0.305882 0.000000
0.737255 0.301961 0.000000
0.780392 0.305882 0.000000
0.827451 0.298039 0.000000
0.870588 0.301961 0.000000
0.917647 0.301961 0.000000
0.964706 0.301961 0.000000
0.996078 0.301961 0.000000
0.992157 0.309804 0.000000
0.992157 0.298039 0.000000
0.011765 0.349020 0.000000
0.000000 0.345098 0.003922
0.054902 0.352941 0.007843
0.109804 0.345098 0.003922
0.172549 0.352941 0.000000
0.211765 0.352941 0.000000
0.258824 0.356863 0.000000
0.313725 0.352941 0.003922
0.352941 0.352941 0.000000
0.396078 0.352941 0.000000
0.447059 0.352941 0.000000
0.494118 0.349020 0.000000
0.545098 0.349020 0.007843
0.600000 0.349020 0.000000
0.643137 0.352941 0.003922
0.694118 0.352941 0.003922
0.733333 0.352941 0.003922
0.784314 0.349020 0.000000
0.819608 0.352941 0.000000
0.870588 0.352941 0.000000
0.909804 0.352941 0.000000
0.972549 0.349020 0.000000
1.000000 0.345098 0.000000
1.000000 0.352941 0.003922
0.996078 0.345098 0.007843
0.000000 0.400000 0.000000
0.003922 0.396078 0.003922
0.043137 0.403922 0.007843
0.098039 0.396078 0.000000
0.160784 0.396078 0.003922
0.211765 0.400000 0.007843
0.262745 0.400000 0.000000
0.313725 0.400000 0.003922
0.356863 0.400000 0.000000
0.407843 0.400000 0.003922
0.450980 0.400000 0.000000
0.498039 0.400000 0.000000
0.549020 0.403922 0.000000
0.588235 0.403922 0.000000
0.639216 0.400000 0.000000
0.682353 0.403922 0.000000
0.733333 0.400000 0.003922
0.772549 0.400000 0.000000
0.823529 0.396078 0.000000
0.866667 0.400000 0.000000
0.909804 0.396078 0.003922
0.960784 0.400000 0.007843
0.996078 0.396078 0.000000
0.996078 0.396078 0.000000
1.000000 0.392157 0.000000
0.011765 0.458824 0.011765
0.000000 0.458824 0.007843
0.000000 0.458824 0.000000
0.094118 0.458824 0.000000
0.156863 0.458824 0.003922
0.211765 0.458824 0.007843
0.258824 0.458824 0.000000
0.313725 0.458824 0.003922
0.360784 0.458824 0.000000
0.407843 0.458824 0.003922
0.462745 0.458824 0.003922
0.505882 0.454902 0.003922
0.552941 0.454902 0.000000
0.600000 0.454902 0.003922
0.647059 0.454902 0.000000
0.694118 0.454902 0.000000
0.737255 0.454902 0.000000
0.788235 0.454902 0.000000
0.831373 0.450980 0.000000
0.878431 0.450980 0.000000
0.913725 0.447059 0.000000
0.960784 0.447059 0.000000
1.000000 0.447059 0.003922
1.000000 0.447059 0.003922
0.996078 0.454902 0.000000
0.000000 0.501961 0.000000
0.000000 0.505882 0.007843
0.007843 0.501961 0.007843
0.082353 0.498039 0.000000
0.145098 0.509804 0.000000
0.207843 0.505882 0.007843
0.266667 0.501961 0.007843
0.301961 0.501961 0.000000
0.352941 0.505882 0.000000
0.407843 0.505882 0.003922
0.458824 0.505882 0.003922
0.505882 0.509804 0.007843
0.549020 0.505882 0.003922
0.600000 0.501961 0.000000
0.647059 0.498039 0.000000
0.694118 0.501961 0.000000
0.737255 0.498039 0.007843
0.784314 0.498039 0.000000
0.827451 0.501961 0.000000
0.878431 0.498039 0.000000
0.921569 0.494118 0.000000
0.968627 0.494118 0.003922
1.000000 0.494118 0.000000
0.992157 0.498039 0.000000
1.000000 0.494118 0.000000
0.000000 0.549020 0.000000
0.007843 0.549020 0.003922
0.000000 0.549020 0.000000
0.070588 0.552941 0.000000
0.145098 0.549020 0.000000
0.200000 0.556863 0.003922
0.250980 0.552941 0.000000
0.305882 0.552941 0.000000
0.360784 0.552941 0.000000
0.411765 0.545098 0.000000
0.458824 0.549020 0.000000
0.501961 0.545098 0.000000
0.552941 0.549020 0.000000
0.600000 0.549020 0.007843
0.647059 0.545098 0.000000
0.690196 0.541176 0.003922
0.737255 0.545098 0.003922
0.788235 0.541176 0.003922
0.827451 0.545098 0.003922
0.878431 0.541176 0.003922
0.917647 0.541176 0.000000
0.960784 0.541176 0.000000
1.000000 0.533333 0.000000
1.000000 0.537255 0.003922
1.000000 0.541176 0.000000
0.003922 0.592157 0.000000
0.003922 0.596078 0.011765
0.003922 0.592157 0.000000
0.070588 0.603922 0.007843
0.133333 0.600000 0.003922
0.211765 0.600000 0.000000
0.262745 0.600000 0.007843
0.305882 0.592157 0.000000
0.356863 0.592157 0.000000
0.407843 0.600000 0.000000
0.458824 0.600000 0.003922
0.498039 0.596078 0.000000
0.545098 0.596078 0.000000
0.596078 0.600000 0.000000
0.647059 0.592157 0.000000
0.686275 0.592157 0.000000
0.733333 0.588235 0.000000
0.776471 0.592157 0.003922
0.827451 0.588235 0.000000
0.866667 0.588235 0.000000
0.913725 0.584314 0.000000
0.956863 0.584314 0.000000
1.000000 0.588235 0.007843
1.000000 0.580392 0.000000
1.000000 0.584314 0.003922
0.003922 0.639216 0.000000
0.000000 0.647059 0.003922
0.000000 0.635294 0.000000
0.058824 0.639216 0.000000
0.141176 0.643137 0.003922
0.196078 0.647059 0.007843
0.254902 0.639216 0.000000
0.305882 0.639216 0.000000
0.356863 0.639216 0.000000
0.403922 0.643137 0.000000
0.454902 0.647059 0.000000
0.501961 0.647059 0.000000
0.552941 0.639216 0.000000
0.596078 0.635294 0.003922
0.643137 0.635294 0.000000
0.690196 0.639216 0.000000
0.737255 0.639216 0.003922
0.784314 0.635294 0.003922
0.827451 0.635294 0.000000
0.874510 0.631373 0.000000
0.917647 0.635294 0.000000
0.968627 0.635294 0.003922
1.000000 0.631373 0.003922
1.000000 0.631373 0.003922
1.000000 0.627451 0.000000
0.000000 0.701961 0.000000
0.011765 0.701961 0.003922
0.000000 0.701961 0.000000
0.058824 0.701961 0.007843
0.149020 0.698039 0.011765
0.200000 0.698039 0.000000
0.250980 0.701961 0.000000
0.313725 0.701961 0.003922
0.364706 0.694118 0.003922
0.407843 0.694118 0.000000
0.458824 0.698039 0.000000
0.505882 0.698039 0.000000
0.556863 0.690196 0.003922
0.600000 0.690196 0.000000
0.650980 0.694118 0.000000
0.698039 0.694118 0.000000
0.741176 0.690196 0.000000
0.788235 0.686275 0.000000
0.831373 0.686275 0.000000
0.882353 0.686275 0.000000
0.921569 0.686275 0.003922
0.960784 0.678431 0.000000
1.000000 0.686275 0.000000
1.000000 0.682353 0.000000
0.988235 0.686275 0.003922
0.000000 0.733333 0.000000
0.003922 0.733333 0.000000
0.003922 0.733333 0.000000
0.054902 0.741176 0.000000
0.129412 0.741176 0.000000
0.203922 0.737255 0.000000
0.250980 0.741176 0.000000
0.313725 0.741176 0.000000
0.360784 0.737255 0.003922
0.407843 0.741176 0.000000
0.454902 0.737255 0.000000
0.505882 0.737255 0.000000
0.552941 0.733333 0.000000
0.600000 0.737255 0.000000
0.650980 0.737255 0.000000
0.690196 0.737255 0.000000
0.733333 0.733333 0.003922
0.784314 0.729412 0.003922
0.827451 0.733333 0.000000
0.870588 0.733333 0.000000
0.921569 0.725490 0.000000
0.964706 0.729412 0.000000
1.000000 0.725490 0.003922
1.000000 0.721569 0.007843
0.996078 0.729412 0.000000
0.000000 0.776471 0.000000
0.003922 0.784314 0.003922
0.007843 0.780392 0.011765
0.043137 0.788235 0.000000
0.125490 0.784314 0.000000
0.200000 0.780392 0.000000
0.250980 0.784314 0.000000
0.301961 0.780392 0.000000
0.360784 0.784314 0.003922
0.403922 0.784314 0.000000
0.450980 0.780392 0.000000
0.498039 0.780392 0.000000
0.541176 0.780392 0.000000
0.592157 0.780392 0.000000
0.647059 0.780392 0.000000
0.686275 0.780392 0.003922
0.737255 0.780392 0.003922
0.776471 0.780392 0.000000
0.831373 0.776471 0.003922
0.866667 0.780392 0.000000
0.917647 0.776471 0.000000
0.960784 0.772549 0.000000
1.000000 0.772549 0.000000
1.000000 0.768627 0.000000
1.000000 0.772549 0.000000
0.000000 0.827451 0.000000
0.003922 0.823529 0.007843
0.000000 0.827451 0.000000
0.023529 0.827451 0.000000
0.121569 0.835294 0.000000
0.184314 0.827451 0.000000
0.243137 0.831373 0.000000
0.301961 0.827451 0.000000
0.345098 0.827451 0.000000
0.403922 0.827451 0.003922
0.450980 0.827451 0.000000
0.498039 0.819608 0.000000
0.549020 0.823529 0.000000
0.592157 0.827451 0.003922
0.631373 0.827451 0.000000
0.690196 0.823529 0.000000
0.729412 0.823529 0.000000
0.780392 0.819608 0.000000
0.823529 0.823529 0.000000
0.878431 0.823529 0.000000
0.921569 0.819608 0.000000
0.964706 0.823529 0.000000
1.000000 0.811765 0.000000
1.000000 0.815686 0.000000
0.996078 0.823529 0.000000
0.000000 0.878431 0.000000
0.003922 0.866667 0.003922
0.003922 0.870588 0.007843
0.000000 0.874510 0.007843
0.117647 0.870588 0.000000
0.176471 0.870588 0.000000
0.239216 0.874510 0.000000
0.298039 0.874510 0.003922
0.345098 0.870588 0.003922
0.396078 0.874510 0.000000
0.443137 0.874510 0.000000
0.490196 0.874510 0.000000
0.541176 0.870588 0.000000
0.588235 0.866667 0.003922
0.631373 0.866667 0.000000
0.682353 0.870588 0.000000
0.729412 0.870588 0.007843
0.772549 0.866667 0.003922
0.819608 0.866667 0.000000
0.866667 0.866667 0.003922
0.905882 0.866667 0.000000
0.956863 0.862745 0.000000
0.996078 0.870588 0.000000
1.000000 0.866667 0.000000
1.000000 0.862745 0.007843
0.003922 0.929412 0.000000
0.000000 0.921569 0.000000
0.000000 0.925490 0.000000
0.015686 0.925490 0.000000
0.117647 0.921569 0.000000
0.188235 0.925490 0.000000
0.243137 0.925490 0.000000
0.294118 0.921569 0.000000
0.349020 0.921569 0.000000
0.396078 0.917647 0.003922
0.443137 0.921569 0.000000
0.498039 0.921569 0.000000
0.541176 0.917647 0.000000
0.592157 0.921569 0.000000
0.635294 0.917647 0.000000
0.686275 0.921569 0.000000
0.729412 0.917647 0.000000
0.784314 0.917647 0.000000
0.819608 0.913725 0.000000
0.866667 0.913725 0.003922
0.917647 0.913725 0.003922
0.960784 0.913725 0.000000
1.000000 0.913725 0.000000
1.000000 0.913725 0.000000
1.000000 0.913725 0.000000
0.011765 0.952941 0.007843
0.000000 0.960784 0.000000
0.000000 0.968627 0.000000
0.015686 0.960784 0.000000
0.098039 0.964706 0.003922
0.176471 0.964706 0.000000
0.231373 0.964706 0.000000
0.290196 0.960784 0.000000
0.337255 0.964706 0.000000
0.392157 0.960784 0.000000
0.439216 0.964706 0.003922
0.490196 0.964706 0.003922
0.533333 0.964706 0.003922
0.588235 0.960784 0.003922
0.631373 0.960784 0.000000
0.682353 0.964706 0.000000
0.725490 0.960784 0.000000
0.776471 0.952941 0.000000
0.819608 0.956863 0.000000
0.874510 0.956863 0.003922
0.917647 0.956863 0.000000
0.960784 0.960784 0.003922
0.996078 0.956863 0.003922
0.996078 0.956863 0.003922
1.000000 0.952941 0.000000
0.007843 1.000000 0.000000
0.007843 1.000000 0.000000
0.000000 0.996078 0.000000
0.000000 0.996078 0.000000
0.082353 1.000000 0.011765
0.176471 0.992157 0.003922
0.231373 0.996078 0.000000
0.286275 0.996078 0.003922
0.337255 1.000000 0.000000
0.384314 1.000000 0.000000
0.439216 1.000000 0.000000
0.490196 1.000000 0.007843
0.537255 0.996078 0.000000
0.584314 0.996078 0.003922
0.627451 1.000000 0.000000
0.678431 0.996078 0.003922
0.721569 1.000000 0.003922
0.772549 0.996078 0.003922
0.815686 1.000000 0.003922
0.870588 1.000000 0.003922
0.909804 1.000000 0.000000
0.956863 0.996078 0.000000
1.000000 1.000000 0.000000
1.000000 1.000000 0.003922
1.000000 0.996078 0.011765
0.000000 1.000000 0.000000
0.000000 1.000000 0.003922
0.000000 1.000000 0.003922
0.000000 1.000000 0.000000
0.086275 0.996078 0.011765
0.164706 1.000000 0.000000
0.223529 1.000000 0.000000
0.282353 1.000000 0.000000
0.337255 1.000000 0.000000
0.384314 1.000000 0.000000
0.431373 1.000000 0.000000
0.486275 1.000000 0.003922
0.529412 0.996078 0.007843
0.584314 1.000000 0.000000
0.631373 0.996078 0.000000
0.674510 1.000000 0.000000
0.721569 0.996078 0.000000
0.756863 0.996078 0.000000
0.803922 1.000000 0.000000
0.847059 1.000000 0.000000
0.894118 1.000000 0.000000
0.921569 1.000000 0.000000
0.976471 1.000000 0.000000
1.000000 1.000000 0.003922
1.000000 0.992157 0.007843
0.000000 1.000000 0.000000
0.000000 0.996078 0.000000
0.007843 1.000000 0.000000
0.035294 0.996078 0.000000
0.129412 0.996078 0.000000
0.184314 1.000000 0.003922
0.235294 1.000000 0.003922
0.282353 1.000000 0.000000
0.337255 0.996078 0.003922
0.384314 1.000000 0.000000
0.439216 1.000000 0.000000
0.482353 0.996078 0.007843
0.517647 1.000000 0.000000
0.560784 0.996078 0.000000
0.607843 1.000000 0.000000
0.647059 1.000000 0.000000
0.690196 1.000000 0.003922
0.737255 1.000000 0.000000
0.780392 1.000000 0.000000
0.823529 1.000000 0.000000
0.854902 1.000000 0.000000
0.909804 0.996078 0.000000
0.952941 1.000000 0.000000
0.972549 1.000000 0.003922
0.992157 1.000000 0.011765
0.000000 0.000000 0.015686
0.003922 0.000000 0.007843
0.074510 0.000000 0.015686
0.113725 0.000000 0.015686
0.160784 0.000000 0.011765
0.203922 0.000000 0.015686
0.250980 0.000000 0.011765
0.305882 0.000000 0.011765
0.349020 0.003922 0.000000
0.392157 0.000000 0.000000
0.439216 0.003922 0.000000
0.490196 0.003922 0.003922
0.537255 0.000000 0.000000
0.588235 0.000000 0.003922
0.631373 0.000000 0.000000
0.682353 0.000000 0.003922
0.729412 0.003922 0.000000
0.784314 0.003922 0.000000
0.823529 0.003922 0.000000
0.870588 0.003922 0.000000
0.917647 0.003922 0.000000
0.964706 0.003922 0.000000
1.000000 0.003922 0.003922
1.000000 0.007843 0.000000
0.992157 0.000000 0.000000
0.000000 0.019608 0.003922
0.015686 0.015686 0.007843
0.066667 0.019608 0.019608
0.101961 0.019608 0.015686
0.160784 0.019608 0.027451
0.203922 0.015686 0.007843
0.258824 0.007843 0.011765
0.301961 0.003922 0.003922
0.349020 0.003922 0.000000
0.396078 0.007843 0.000000
0.447059 0.000000 0.000000
0.490196 0.000000 0.000000
0.537255 0.000000 0.000000
0.588235 0.003922 0.000000
0.635294 0.003922 0.000000
0.682353 0.000000 0.000000
0.729412 0.003922 0.000000
0.772549 0.000000 0.000000
0.823529 0.003922 0.000000
0.866667 0.000000 0.000000
0.917647 0.003922 0.000000
0.964706 0.003922 0.000000
0.996078 0.000000 0.000000
0.988235 0.003922 0.007843
0.996078 0.000000 0.000000
0.000000 0.066667 0.011765
0.027451 0.058824 0.007843
0.074510 0.066667 0.019608
0.117647 0.062745 0.011765
0.152941 0.066667 0.007843
0.211765 0.062745 0.011765
0.250980 0.066667 0.003922
0.298039 0.066667 0.011765
0.345098 0.058824 0.000000
0.392157 0.054902 0.003922
0.439216 0.050980 0.000000
0.490196 0.043137 0.003922
0.533333 0.031373 0.000000
0.584314 0.023529 0.000000
0.635294 0.003922 0.000000
0.674510 0.003922 0.000000
0.733333 0.000000 0.000000
0.772549 0.000000 0.000000
0.827451 0.000000 0.000000
0.870588 0.003922 0.000000
0.921569 0.000000 0.000000
0.960784 0.000000 0.000000
1.000000 0.003922 0.011765
0.992157 0.007843 0.011765
0.996078 0.000000 0.000000
0.000000 0.105882 0.007843
0.023529 0.109804 0.011765
0.074510 0.105882 0.007843
0.121569 0.105882 0.007843
0.164706 0.105882 0.015686
0.207843 0.113725 0.011765
0.250980 0.109804 0.007843
0.301961 0.105882 0.000000
0.345098 0.105882 0.000000
0.400000 0.105882 0.000000
0.439216 0.105882 0.000000
0.482353 0.101961 0.000000
0.529412 0.098039 0.000000
0.588235 0.094118 0.000000
0.627451 0.090196 0.000000
0.686275 0.086275 0.000000
0.725490 0.082353 0.003922
0.780392 0.070588 0.003922
0.815686 0.066667 0.003922
0.862745 0.062745 0.003922
0.913725 0.062745 0.003922
0.964706 0.058824 0.000000
0.984314 0.054902 0.000000
1.000000 0.043137 0.003922
0.992157 0.043137 0.000000
0.000000 0.152941 0.007843
0.019608 0.156863 0.000000
0.078431 0.149020 0.000000
0.117647 0.156863 0.011765
0.160784 0.152941 0.000000
0.207843 0.152941 0.000000
0.254902 0.156863 0.000000
0.298039 0.160784 0.000000
0.345098 0.156863 0.000000
0.392157 0.160784 0.003922
0.443137 0.156863 0.000000
0.486275 0.152941 0.000000
0.541176 0.152941 0.000000
0.588235 0.149020 0.000000
0.631373 0.149020 0.000000
0.678431 0.149020 0.000000
0.729412 0.141176 0.003922
0.772549 0.141176 0.000000
0.823529 0.137255 0.000000
0.862745 0.137255 0.000000
0.913725 0.133333 0.011765
0.960784 0.129412 0.011765
0.992157 0.129412 0.003922
0.996078 0.129412 0.000000
0.996078 0.125490 0.003922
0.000000 0.200000 0.000000
0.019608 0.203922 0.000000
0.074510 0.207843 0.007843
0.117647 0.207843 0.000000
0.164706 0.203922 0.000000
0.211765 0.203922 0.003922
0.258824 0.207843 0.003922
0.294118 0.211765 0.003922
0.352941 0.207843 0.003922
0.400000 0.203922 0.003922
0.450980 0.203922 0.000000
0.498039 0.203922 0.000000
0.545098 0.203922 0.003922
0.596078 0.203922 0.007843
0.639216 0.203922 0.000000
0.686275 0.203922 0.003922
0.733333 0.200000 0.003922
0.780392 0.196078 0.000000
0.819608 0.196078 0.000000
0.870588 0.200000 0.000000
0.913725 0.196078 0.003922
0.960784 0.192157 0.000000
1.000000 0.192157 0.000000
1.000000 0.192157 0.000000
0.996078 0.200000 0.003922
0.000000 0.243137 0.000000
0.015686 0.247059 0.000000
0.074510 0.254902 0.000000
0.117647 0.254902 0.000000
0.164706 0.250980 0.000000
0.211765 0.247059 0.000000
0.258824 0.254902 0.003922
0.305882 0.250980 0.003922
0.349020 0.250980 0.000000
0.400000 0.250980 0.003922
0.447059 0.250980 0.003922
0.498039 0.247059 0.003922
0.545098 0.250980 0.003922
0.596078 0.250980 0.000000
0.643137 0.250980 0.007843
0.690196 0.254902 0.003922
0.737255 0.250980 0.007843
0.784314 0.254902 0.007843
0.823529 0.247059 0.003922
0.870588 0.247059 0.000000
0.917647 0.247059 0.003922
0.964706 0.243137 0.000000
1.000000 0.243137 0.000000
1.000000 0.250980 0.003922
0.996078 0.247059 0.003922
0.000000 0.298039 0.007843
0.007843 0.298039 0.003922
0.054902 0.298039 0.000000
0.113725 0.301961 0.000000
0.168627 0.294118 0.000000
0.207843 0.301961 0.000000
0.254902 0.298039 0.000000
0.309804 0.301961 0.007843
0.360784 0.298039 0.003922
0.403922 0.301961 0.000000
0.447059 0.301961 0.000000
0.494118 0.301961 0.000000
0.549020 0.301961 0.000000
0.596078 0.298039 0.000000
0.639216 0.305882 0.000000
0.686275 0.305882 0.000000
0.729412 0.301961 0.000000
0.776471 0.301961 0.000000
0.819608 0.305882 0.000000
0.866667 0.298039 0.000000
0.905882 0.301961 0.000000
0.952941 0.298039 0.000000
1.000000 0.298039 0.000000
0.988235 0.294118 0.000000
0.996078 0.301961 0.000000
0.007843 0.345098 0.000000
0.000000 0.349020 0.003922
0.047059 0.345098 0.000000
0.101961 0.352941 0.003922
0.160784 0.352941 0.000000
0.207843 0.349020 0.000000
0.258824 0.356863 0.000000
0.313725 0.352941 0.003922
0.356863 0.352941 0.000000
0.403922 0.349020 0.000000
0.447059 0.349020 0.000000
0.498039 0.352941 0.003922
0.549020 0.352941 0.003922
0.592157 0.352941 0.000000
0.639216 0.349020 0.000000
0.686275 0.352941 0.000000
0.733333 0.352941 0.003922
0.776471 0.349020 0.000000
0.819608 0.345098 0.000000
0.862745 0.349020 0.000000
0.909804 0.352941 0.000000
0.960784 0.345098 0.003922
1.000000 0.345098 0.000000
0.996078 0.349020 0.000000
1.000000 0.345098 0.000000
0.003922 0.396078 0.003922
0.000000 0.400000 0.003922
0.015686 0.400000 0.000000
0.098039 0.403922 0.000000
0.160784 0.396078 0.003922
0.211765 0.400000 0.007843
0.254902 0.400000 0.000000
0.301961 0.400000 0.000000
0.352941 0.400000 0.000000
0.400000 0.403922 0.003922
0.450980 0.400000 0.000000
0.498039 0.400000 0.000000
0.552941 0.400000 0.003922
0.592157 0.400000 0.000000
0.639216 0.396078 0.000000
0.686275 0.400000 0.000000
0.725490 0.400000 0.000000
0.772549 0.400000 0.000000
0.819608 0.400000 0.000000
0.862745 0.403922 0.000000
0.909804 0.400000 0.000000
0.964706 0.400000 0.000000
1.000000 0.400000 0.000000
1.000000 0.400000 0.000000
1.000000 0.392157 0.000000
0.000000 0.454902 0.000000
0.000000 0.454902 0.003922
0.003922 0.454902 0.000000
0.094118 0.458824 0.007843
0.156863 0.458824 0.000000
0.207843 0.462745 0.000000
0.262745 0.454902 0.000000
0.321569 0.458824 0.003922
0.364706 0.454902 0.000000
0.407843 0.458824 0.003922
