lut_library_archive/removed_20260629/50个风景lut/50个风景lut17.cube
# 版权归凌孟成所有，侵权必究
TITLE "Jungle LUT #17"
#LUT size
LUT_3D_SIZE 25
#LUT data points
0.003922 0.000000 0.000000
0.000000 0.000000 0.000000
0.058824 0.003922 0.000000
0.117647 0.000000 0.000000
0.164706 0.000000 0.003922
0.215686 0.003922 0.003922
0.266667 0.000000 0.000000
0.309804 0.003922 0.003922
0.356863 0.000000 0.000000
0.407843 0.000000 0.000000
0.454902 0.003922 0.000000
0.494118 0.003922 0.000000
0.541176 0.003922 0.000000
0.592157 0.007843 0.000000
0.643137 0.000000 0.000000
0.690196 0.000000 0.007843
0.749020 0.000000 0.000000
0.796078 0.000000 0.000000
0.839216 0.000000 0.000000
0.882353 0.000000 0.000000
0.921569 0.000000 0.000000
0.964706 0.003922 0.000000
0.996078 0.000000 0.000000
0.996078 0.000000 0.000000
1.000000 0.003922 0.011765
0.000000 0.011765 0.000000
0.015686 0.019608 0.000000
0.062745 0.019608 0.000000
0.113725 0.015686 0.000000
0.164706 0.011765 0.000000
0.215686 0.003922 0.003922
0.262745 0.003922 0.003922
0.305882 0.000000 0.000000
0.352941 0.000000 0.000000
0.396078 0.000000 0.000000
0.447059 0.000000 0.000000
0.490196 0.000000 0.000000
0.537255 0.000000 0.000000
0.592157 0.003922 0.007843
0.631373 0.000000 0.000000
0.694118 0.000000 0.000000
0.741176 0.000000 0.000000
0.788235 0.000000 0.000000
0.839216 0.000000 0.000000
0.882353 0.000000 0.000000
0.921569 0.000000 0.000000
0.960784 0.000000 0.000000
0.996078 0.000000 0.000000
0.996078 0.000000 0.000000
0.996078 0.000000 0.000000
0.000000 0.066667 0.000000
0.015686 0.066667 0.000000
0.058824 0.070588 0.003922
0.113725 0.062745 0.000000
0.164706 0.054902 0.000000
0.207843 0.062745 0.000000
0.258824 0.058824 0.000000
0.305882 0.058824 0.000000
0.352941 0.054902 0.000000
0.396078 0.050980 0.003922
0.439216 0.047059 0.007843
0.490196 0.043137 0.011765
0.537255 0.031373 0.007843
0.584314 0.023529 0.007843
0.639216 0.007843 0.000000
0.686275 0.003922 0.000000
0.733333 0.000000 0.000000
0.784314 0.003922 0.000000
0.827451 0.000000 0.000000
0.870588 0.003922 0.000000
0.917647 0.000000 0.003922
0.960784 0.000000 0.000000
0.996078 0.000000 0.000000
0.996078 0.000000 0.000000
0.996078 0.003922 0.000000
0.000000 0.109804 0.011765
0.007843 0.109804 0.003922
0.058824 0.113725 0.007843
0.113725 0.105882 0.007843
0.160784 0.105882 0.000000
0.211765 0.105882 0.000000
0.254902 0.109804 0.003922
0.309804 0.109804 0.000000
0.345098 0.105882 0.000000
0.396078 0.105882 0.000000
0.439216 0.105882 0.000000
0.482353 0.101961 0.000000
0.529412 0.098039 0.000000
0.584314 0.090196 0.000000
0.635294 0.086275 0.003922
0.682353 0.078431 0.000000
0.729412 0.070588 0.000000
0.776471 0.050980 0.003922
0.819608 0.035294 0.003922
0.858824 0.019608 0.000000
0.894118 0.003922 0.000000
0.941176 0.003922 0.000000
0.984314 0.000000 0.007843
0.996078 0.000000 0.011765
0.996078 0.000000 0.000000
0.003922 0.152941 0.007843
0.019608 0.156863 0.000000
0.062745 0.160784 0.000000
0.113725 0.156863 0.000000
0.164706 0.156863 0.003922
0.207843 0.152941 0.000000
0.258824 0.149020 0.000000
0.301961 0.152941 0.000000
0.345098 0.149020 0.003922
0.392157 0.149020 0.003922
0.435294 0.145098 0.000000
0.482353 0.149020 0.000000
0.533333 0.149020 0.000000
0.584314 0.145098 0.000000
0.631373 0.137255 0.000000
0.678431 0.137255 0.000000
0.721569 0.125490 0.000000
0.768627 0.121569 0.003922
0.807843 0.113725 0.003922
0.850980 0.109804 0.003922
0.894118 0.098039 0.000000
0.945098 0.082353 0.000000
0.988235 0.058824 0.003922
1.000000 0.031373 0.003922
0.992157 0.011765 0.000000
0.003922 0.211765 0.000000
0.019608 0.211765 0.000000
0.078431 0.211765 0.003922
0.137255 0.207843 0.003922
0.176471 0.211765 0.003922
0.219608 0.207843 0.000000
0.270588 0.207843 0.003922
0.317647 0.211765 0.003922
0.360784 0.203922 0.000000
0.403922 0.200000 0.003922
0.458824 0.200000 0.003922
0.505882 0.200000 0.007843
0.560784 0.203922 0.000000
0.615686 0.200000 0.003922
0.666667 0.196078 0.000000
0.713725 0.196078 0.007843
0.749020 0.196078 0.000000
0.800000 0.188235 0.000000
0.839216 0.180392 0.000000
0.878431 0.172549 0.003922
0.921569 0.164706 0.003922
0.968627 0.152941 0.003922
1.000000 0.145098 0.000000
1.000000 0.141176 0.000000
1.000000 0.121569 0.003922
0.000000 0.250980 0.000000
0.023529 0.254902 0.003922
0.082353 0.243137 0.007843
0.145098 0.247059 0.000000
0.176471 0.250980 0.000000
0.223529 0.247059 0.000000
0.258824 0.254902 0.000000
0.305882 0.247059 0.000000
0.356863 0.247059 0.000000
0.407843 0.247059 0.000000
0.458824 0.247059 0.000000
0.513725 0.247059 0.000000
0.560784 0.247059 0.000000
0.615686 0.247059 0.003922
0.658824 0.247059 0.000000
0.705882 0.243137 0.000000
0.749020 0.239216 0.003922
0.792157 0.239216 0.000000
0.839216 0.235294 0.003922
0.882353 0.223529 0.007843
0.925490 0.215686 0.000000
0.964706 0.207843 0.000000
1.000000 0.203922 0.003922
1.000000 0.196078 0.011765
1.000000 0.188235 0.000000
0.011765 0.286275 0.003922
0.015686 0.294118 0.000000
0.078431 0.290196 0.000000
0.129412 0.294118 0.000000
0.168627 0.301961 0.000000
0.211765 0.294118 0.000000
0.266667 0.298039 0.000000
0.309804 0.294118 0.003922
0.364706 0.294118 0.000000
0.407843 0.294118 0.000000
0.462745 0.294118 0.000000
0.513725 0.294118 0.000000
0.564706 0.294118 0.000000
0.611765 0.290196 0.000000
0.654902 0.294118 0.000000
0.698039 0.290196 0.003922
0.749020 0.286275 0.003922
0.792157 0.282353 0.000000
0.835294 0.278431 0.000000
0.870588 0.274510 0.000000
0.913725 0.270588 0.000000
0.956863 0.266667 0.000000
0.988235 0.258824 0.003922
1.000000 0.250980 0.003922
0.996078 0.250980 0.000000
0.003922 0.341176 0.000000
0.011765 0.333333 0.000000
0.070588 0.337255 0.000000
0.129412 0.341176 0.000000
0.176471 0.345098 0.000000
0.223529 0.341176 0.000000
0.274510 0.349020 0.000000
0.321569 0.345098 0.000000
0.368627 0.345098 0.000000
0.407843 0.337255 0.000000
0.458824 0.341176 0.003922
0.509804 0.337255 0.000000
0.549020 0.333333 0.007843
0.603922 0.341176 0.000000
0.650980 0.337255 0.003922
0.694118 0.333333 0.000000
0.737255 0.329412 0.000000
0.776471 0.321569 0.000000
0.815686 0.321569 0.000000
0.866667 0.313725 0.000000
0.905882 0.305882 0.000000
0.941176 0.313725 0.000000
0.980392 0.301961 0.000000
1.000000 0.298039 0.000000
1.000000 0.290196 0.003922
0.000000 0.388235 0.000000
0.011765 0.388235 0.000000
0.074510 0.388235 0.000000
0.129412 0.384314 0.007843
0.176471 0.392157 0.000000
0.223529 0.388235 0.000000
0.278431 0.388235 0.000000
0.321569 0.392157 0.000000
0.364706 0.388235 0.003922
0.407843 0.384314 0.000000
0.458824 0.380392 0.000000
0.498039 0.380392 0.000000
0.552941 0.380392 0.003922
0.596078 0.376471 0.003922
0.643137 0.372549 0.000000
0.686275 0.372549 0.000000
0.733333 0.368627 0.000000
0.768627 0.364706 0.000000
0.811765 0.360784 0.000000
0.854902 0.360784 0.000000
0.901961 0.349020 0.000000
0.945098 0.345098 0.000000
0.992157 0.345098 0.000000
1.000000 0.337255 0.003922
1.000000 0.333333 0.000000
0.000000 0.474510 0.000000
0.019608 0.470588 0.000000
0.086275 0.474510 0.007843
0.145098 0.474510 0.000000
0.200000 0.470588 0.003922
0.247059 0.462745 0.000000
0.294118 0.462745 0.000000
0.349020 0.470588 0.003922
0.400000 0.470588 0.007843
0.443137 0.462745 0.000000
0.494118 0.458824 0.000000
0.537255 0.454902 0.000000
0.580392 0.450980 0.000000
0.627451 0.450980 0.000000
0.674510 0.439216 0.000000
0.717647 0.439216 0.000000
0.752941 0.431373 0.000000
0.792157 0.427451 0.000000
0.835294 0.419608 0.000000
0.878431 0.415686 0.000000
0.921569 0.411765 0.003922
0.964706 0.403922 0.000000
1.000000 0.400000 0.000000
1.000000 0.392157 0.000000
0.996078 0.396078 0.000000
0.015686 0.494118 0.000000
0.000000 0.501961 0.003922
0.078431 0.505882 0.000000
0.129412 0.509804 0.000000
0.188235 0.505882 0.000000
0.247059 0.509804 0.000000
0.290196 0.505882 0.000000
0.341176 0.501961 0.000000
0.388235 0.501961 0.000000
0.435294 0.501961 0.000000
0.486275 0.494118 0.000000
0.533333 0.494118 0.007843
0.580392 0.486275 0.000000
0.623529 0.482353 0.000000
0.674510 0.478431 0.000000
0.713725 0.478431 0.000000
0.749020 0.474510 0.000000
0.796078 0.462745 0.000000
0.831373 0.458824 0.000000
0.874510 0.458824 0.000000
0.917647 0.454902 0.000000
0.964706 0.450980 0.000000
1.000000 0.450980 0.000000
1.000000 0.439216 0.000000
1.000000 0.439216 0.000000
0.000000 0.537255 0.000000
0.000000 0.541176 0.000000
0.074510 0.549020 0.003922
0.133333 0.552941 0.003922
0.180392 0.549020 0.000000
0.254902 0.545098 0.007843
0.286275 0.549020 0.003922
0.337255 0.541176 0.003922
0.388235 0.537255 0.000000
0.431373 0.533333 0.000000
0.478431 0.533333 0.003922
0.525490 0.533333 0.003922
0.568627 0.529412 0.003922
0.615686 0.529412 0.000000
0.654902 0.521569 0.000000
0.701961 0.517647 0.007843
0.749020 0.513725 0.003922
0.788235 0.513725 0.000000
0.831373 0.505882 0.003922
0.870588 0.498039 0.000000
0.917647 0.494118 0.000000
0.956863 0.486275 0.003922
1.000000 0.486275 0.007843
0.996078 0.482353 0.003922
0.996078 0.482353 0.000000
0.000000 0.572549 0.000000
0.011765 0.576471 0.000000
0.074510 0.576471 0.000000
0.133333 0.580392 0.003922
0.180392 0.588235 0.003922
0.235294 0.580392 0.000000
0.274510 0.580392 0.000000
0.333333 0.584314 0.000000
0.380392 0.576471 0.000000
0.435294 0.572549 0.000000
0.474510 0.568627 0.000000
0.529412 0.564706 0.000000
0.568627 0.560784 0.000000
0.603922 0.560784 0.003922
0.647059 0.556863 0.007843
0.694118 0.556863 0.000000
0.737255 0.552941 0.003922
0.780392 0.549020 0.000000
0.815686 0.545098 0.000000
0.862745 0.537255 0.000000
0.898039 0.533333 0.000000
0.937255 0.529412 0.007843
0.988235 0.525490 0.000000
1.000000 0.521569 0.000000
0.984314 0.521569 0.000000
0.007843 0.596078 0.000000
0.007843 0.615686 0.011765
0.066667 0.619608 0.007843
0.133333 0.623529 0.003922
0.192157 0.619608 0.007843
0.239216 0.619608 0.003922
0.282353 0.615686 0.003922
0.325490 0.615686 0.000000
0.376471 0.615686 0.000000
0.419608 0.615686 0.000000
0.470588 0.615686 0.000000
0.513725 0.611765 0.007843
0.552941 0.607843 0.000000
0.600000 0.603922 0.000000
0.643137 0.600000 0.000000
0.690196 0.596078 0.000000
0.729412 0.592157 0.000000
0.772549 0.588235 0.000000
0.815686 0.580392 0.000000
0.858824 0.576471 0.003922
0.898039 0.576471 0.003922
0.941176 0.572549 0.000000
0.984314 0.568627 0.000000
0.996078 0.564706 0.000000
0.992157 0.556863 0.000000
0.011765 0.701961 0.000000
0.050980 0.701961 0.003922
0.109804 0.698039 0.003922
0.152941 0.698039 0.000000
0.203922 0.694118 0.000000
0.258824 0.690196 0.003922
0.298039 0.690196 0.000000
0.349020 0.690196 0.000000
0.396078 0.686275 0.000000
0.439216 0.686275 0.000000
0.490196 0.678431 0.003922
0.529412 0.678431 0.000000
0.580392 0.670588 0.003922
0.619608 0.666667 0.000000
0.666667 0.662745 0.003922
0.705882 0.654902 0.000000
0.749020 0.650980 0.003922
0.800000 0.647059 0.000000
0.835294 0.643137 0.000000
0.882353 0.639216 0.007843
0.921569 0.631373 0.000000
0.956863 0.623529 0.000000
0.996078 0.619608 0.003922
1.000000 0.619608 0.003922
0.996078 0.607843 0.007843
0.003922 0.705882 0.000000
0.039216 0.705882 0.003922
0.090196 0.713725 0.007843
0.137255 0.717647 0.000000
0.196078 0.721569 0.003922
0.247059 0.717647 0.000000
0.290196 0.721569 0.000000
0.333333 0.717647 0.000000
0.380392 0.713725 0.000000
0.431373 0.709804 0.000000
0.470588 0.709804 0.000000
0.521569 0.705882 0.007843
0.556863 0.701961 0.003922
0.607843 0.698039 0.000000
0.654902 0.694118 0.003922
0.698039 0.694118 0.000000
0.737255 0.686275 0.000000
0.788235 0.686275 0.000000
0.831373 0.686275 0.003922
0.878431 0.682353 0.007843
0.917647 0.674510 0.003922
0.956863 0.666667 0.003922
1.000000 0.658824 0.003922
1.000000 0.654902 0.011765
1.000000 0.658824 0.003922
0.003922 0.741176 0.000000
0.035294 0.741176 0.003922
0.094118 0.745098 0.000000
0.141176 0.749020 0.000000
0.188235 0.756863 0.007843
0.239216 0.745098 0.003922
0.282353 0.749020 0.000000
0.329412 0.745098 0.000000
0.380392 0.745098 0.000000
0.419608 0.737255 0.000000
0.466667 0.737255 0.000000
0.505882 0.737255 0.000000
0.552941 0.733333 0.000000
0.596078 0.733333 0.000000
0.650980 0.729412 0.003922
0.686275 0.725490 0.000000
0.737255 0.721569 0.000000
0.776471 0.721569 0.000000
0.819608 0.717647 0.000000
0.866667 0.713725 0.003922
0.909804 0.713725 0.000000
0.952941 0.709804 0.007843
0.992157 0.698039 0.000000
0.996078 0.694118 0.003922
1.000000 0.694118 0.000000
0.003922 0.772549 0.003922
0.031373 0.772549 0.000000
0.086275 0.776471 0.003922
0.141176 0.776471 0.000000
0.180392 0.784314 0.000000
0.239216 0.780392 0.000000
0.282353 0.776471 0.000000
0.325490 0.772549 0.000000
0.372549 0.780392 0.000000
0.411765 0.772549 0.000000
0.462745 0.776471 0.003922
0.501961 0.768627 0.000000
0.541176 0.768627 0.000000
0.596078 0.764706 0.000000
0.639216 0.764706 0.000000
0.682353 0.760784 0.003922
0.725490 0.752941 0.000000
0.764706 0.745098 0.000000
0.803922 0.745098 0.000000
0.850980 0.745098 0.000000
0.898039 0.745098 0.003922
0.941176 0.741176 0.000000
0.976471 0.737255 0.003922
1.000000 0.729412 0.000000
1.000000 0.729412 0.007843
0.003922 0.800000 0.000000
0.015686 0.811765 0.003922
0.090196 0.807843 0.000000
0.141176 0.811765 0.000000
0.184314 0.807843 0.000000
0.231373 0.807843 0.003922
0.282353 0.811765 0.000000
0.325490 0.811765 0.000000
0.368627 0.807843 0.000000
0.407843 0.807843 0.000000
0.454902 0.803922 0.000000
0.498039 0.800000 0.000000
0.537255 0.800000 0.000000
0.584314 0.796078 0.003922
0.623529 0.792157 0.000000
0.666667 0.788235 0.000000
0.713725 0.788235 0.000000
0.752941 0.788235 0.000000
0.796078 0.784314 0.000000
0.847059 0.784314 0.000000
0.890196 0.780392 0.003922
0.941176 0.776471 0.000000
0.988235 0.780392 0.000000
1.000000 0.772549 0.000000
1.000000 0.764706 0.000000
0.090196 0.874510 0.000000
0.121569 0.870588 0.007843
0.156863 0.866667 0.000000
0.180392 0.870588 0.000000
0.219608 0.870588 0.000000
0.258824 0.870588 0.003922
0.294118 0.870588 0.000000
0.341176 0.866667 0.000000
0.376471 0.862745 0.000000
0.423529 0.858824 0.000000
0.466667 0.858824 0.000000
0.513725 0.854902 0.000000
0.556863 0.850980 0.000000
0.596078 0.850980 0.003922
0.647059 0.847059 0.000000
0.686275 0.847059 0.000000
0.721569 0.835294 0.000000
0.772549 0.835294 0.003922
0.807843 0.831373 0.000000
0.854902 0.835294 0.000000
0.894118 0.827451 0.000000
0.929412 0.823529 0.000000
0.984314 0.827451 0.000000
0.984314 0.827451 0.000000
1.000000 0.827451 0.003922
0.015686 0.882353 0.000000
0.070588 0.886275 0.003922
0.117647 0.886275 0.000000
0.168627 0.890196 0.003922
0.203922 0.898039 0.003922
0.247059 0.890196 0.003922
0.294118 0.890196 0.007843
0.333333 0.894118 0.000000
0.368627 0.886275 0.000000
0.423529 0.886275 0.000000
0.458824 0.882353 0.000000
0.501961 0.878431 0.000000
0.541176 0.878431 0.000000
0.592157 0.874510 0.000000
0.631373 0.874510 0.000000
0.674510 0.870588 0.000000
0.721569 0.866667 0.003922
0.764706 0.866667 0.000000
0.803922 0.866667 0.000000
0.847059 0.862745 0.003922
0.894118 0.862745 0.000000
0.937255 0.858824 0.000000
0.984314 0.854902 0.003922
1.000000 0.858824 0.000000
1.000000 0.858824 0.000000
0.011765 0.909804 0.000000
0.062745 0.913725 0.000000
0.109804 0.913725 0.000000
0.156863 0.917647 0.000000
0.200000 0.917647 0.000000
0.239216 0.921569 0.000000
0.282353 0.917647 0.000000
0.321569 0.917647 0.003922
0.368627 0.917647 0.000000
0.407843 0.913725 0.000000
0.447059 0.913725 0.003922
0.490196 0.913725 0.000000
0.541176 0.905882 0.003922
0.584314 0.901961 0.003922
0.619608 0.905882 0.000000
0.662745 0.901961 0.007843
0.705882 0.898039 0.000000
0.752941 0.898039 0.000000
0.796078 0.898039 0.000000
0.835294 0.898039 0.000000
0.886275 0.890196 0.000000
0.921569 0.886275 0.000000
0.980392 0.890196 0.003922
0.996078 0.886275 0.007843
1.000000 0.878431 0.003922
0.000000 0.945098 0.000000
0.023529 0.945098 0.000000
0.090196 0.949020 0.000000
0.145098 0.949020 0.000000
0.184314 0.949020 0.000000
0.223529 0.941176 0.000000
0.262745 0.941176 0.000000
0.313725 0.941176 0.000000
0.349020 0.937255 0.000000
0.403922 0.949020 0.003922
0.439216 0.945098 0.003922
0.486275 0.945098 0.007843
0.525490 0.937255 0.000000
0.568627 0.941176 0.000000
0.607843 0.933333 0.000000
0.654902 0.929412 0.000000
0.698039 0.929412 0.000000
0.745098 0.929412 0.003922
0.792157 0.925490 0.000000
0.835294 0.925490 0.000000
0.882353 0.921569 0.003922
0.921569 0.921569 0.000000
0.980392 0.917647 0.000000
1.000000 0.917647 0.000000
1.000000 0.905882 0.003922
0.000000 0.980392 0.000000
0.000000 0.976471 0.003922
0.066667 0.972549 0.000000
0.125490 0.972549 0.000000
0.168627 0.976471 0.003922
0.211765 0.972549 0.003922
0.258824 0.968627 0.000000
0.301961 0.968627 0.000000
0.341176 0.968627 0.000000
0.388235 0.968627 0.000000
0.435294 0.968627 0.000000
0.478431 0.964706 0.000000
0.529412 0.964706 0.003922
0.568627 0.960784 0.000000
0.615686 0.960784 0.000000
0.662745 0.956863 0.003922
0.713725 0.952941 0.000000
0.760784 0.952941 0.003922
0.807843 0.956863 0.003922
0.850980 0.949020 0.003922
0.913725 0.945098 0.000000
0.952941 0.945098 0.000000
0.996078 0.937255 0.000000
0.996078 0.929412 0.000000
0.992157 0.925490 0.000000
0.000000 0.000000 0.015686
0.015686 0.000000 0.011765
0.070588 0.000000 0.011765
0.113725 0.000000 0.007843
0.160784 0.003922 0.007843
0.207843 0.003922 0.011765
0.258824 0.000000 0.007843
0.313725 0.000000 0.011765
0.356863 0.003922 0.003922
0.400000 0.000000 0.011765
0.454902 0.000000 0.003922
0.494118 0.000000 0.003922
0.537255 0.000000 0.000000
0.588235 0.000000 0.003922
0.635294 0.003922 0.000000
0.686275 0.003922 0.007843
0.737255 0.003922 0.000000
0.788235 0.000000 0.000000
0.827451 0.000000 0.000000
0.870588 0.003922 0.003922
0.917647 0.000000 0.003922
0.960784 0.000000 0.000000
0.996078 0.000000 0.000000
1.000000 0.003922 0.003922
0.988235 0.003922 0.000000
0.007843 0.015686 0.011765
0.011765 0.019608 0.015686
0.070588 0.015686 0.011765
0.113725 0.011765 0.015686
0.156863 0.007843 0.003922
0.207843 0.011765 0.007843
0.266667 0.007843 0.007843
0.313725 0.003922 0.015686
0.349020 0.003922 0.007843
0.400000 0.003922 0.003922
0.447059 0.000000 0.000000
0.490196 0.000000 0.000000
0.537255 0.000000 0.000000
0.588235 0.003922 0.000000
0.631373 0.000000 0.000000
0.694118 0.000000 0.000000
0.741176 0.000000 0.003922
0.784314 0.000000 0.003922
0.827451 0.003922 0.007843
0.870588 0.003922 0.003922
0.909804 0.003922 0.003922
0.956863 0.003922 0.000000
0.996078 0.000000 0.000000
0.996078 0.003922 0.000000
1.000000 0.003922 0.003922
0.000000 0.062745 0.000000
0.015686 0.062745 0.015686
0.066667 0.066667 0.019608
0.117647 0.062745 0.019608
0.152941 0.062745 0.003922
0.211765 0.070588 0.015686
0.254902 0.062745 0.003922
0.294118 0.062745 0.007843
0.349020 0.062745 0.007843
0.392157 0.054902 0.003922
0.435294 0.043137 0.003922
0.494118 0.035294 0.000000
0.537255 0.027451 0.003922
0.588235 0.019608 0.000000
0.635294 0.003922 0.000000
0.682353 0.000000 0.000000
0.729412 0.003922 0.000000
0.772549 0.007843 0.000000
0.815686 0.003922 0.000000
0.862745 0.003922 0.000000
0.909804 0.003922 0.000000
0.952941 0.000000 0.000000
0.996078 0.003922 0.000000
1.000000 0.003922 0.003922
1.000000 0.007843 0.007843
0.003922 0.101961 0.015686
0.015686 0.109804 0.015686
0.062745 0.109804 0.015686
0.113725 0.105882 0.015686
0.164706 0.109804 0.007843
0.207843 0.109804 0.000000
0.250980 0.109804 0.007843
0.301961 0.105882 0.000000
0.349020 0.105882 0.007843
0.392157 0.101961 0.003922
0.439216 0.101961 0.003922
0.486275 0.094118 0.000000
0.525490 0.094118 0.003922
0.580392 0.086275 0.000000
0.631373 0.082353 0.000000
0.678431 0.074510 0.003922
0.733333 0.062745 0.003922
0.768627 0.043137 0.003922
0.807843 0.023529 0.000000
0.854902 0.007843 0.000000
0.905882 0.000000 0.000000
0.945098 0.000000 0.000000
0.980392 0.003922 0.003922
0.996078 0.000000 0.007843
1.000000 0.003922 0.003922
0.000000 0.145098 0.007843
0.007843 0.156863 0.003922
0.062745 0.149020 0.000000
0.109804 0.156863 0.000000
0.164706 0.149020 0.000000
0.207843 0.152941 0.000000
0.262745 0.152941 0.000000
0.301961 0.152941 0.000000
0.349020 0.152941 0.007843
0.388235 0.156863 0.007843
0.435294 0.145098 0.000000
0.474510 0.145098 0.000000
0.537255 0.149020 0.000000
0.580392 0.141176 0.000000
0.631373 0.137255 0.000000
0.678431 0.137255 0.003922
0.717647 0.121569 0.000000
0.764706 0.117647 0.000000
0.811765 0.109804 0.000000
0.850980 0.101961 0.000000
0.898039 0.090196 0.007843
0.941176 0.074510 0.003922
0.988235 0.050980 0.003922
1.000000 0.019608 0.000000
1.000000 0.003922 0.003922
0.000000 0.207843 0.000000
0.011765 0.207843 0.000000
0.066667 0.211765 0.000000
0.129412 0.207843 0.000000
0.176471 0.211765 0.003922
0.227451 0.203922 0.007843
0.270588 0.200000 0.003922
0.325490 0.200000 0.007843
0.360784 0.203922 0.003922
0.403922 0.200000 0.003922
0.450980 0.203922 0.003922
0.501961 0.196078 0.003922
0.556863 0.196078 0.003922
0.603922 0.200000 0.000000
0.654902 0.196078 0.000000
0.701961 0.196078 0.003922
0.741176 0.184314 0.000000
0.792157 0.180392 0.000000
0.831373 0.172549 0.000000
0.874510 0.168627 0.000000
0.913725 0.156863 0.000000
0.960784 0.145098 0.000000
1.000000 0.141176 0.000000
1.000000 0.133333 0.000000
1.000000 0.117647 0.000000
0.003922 0.247059 0.000000
0.019608 0.250980 0.000000
0.066667 0.247059 0.003922
0.125490 0.250980 0.000000
0.168627 0.247059 0.000000
0.215686 0.247059 0.011765
0.266667 0.250980 0.003922
0.309804 0.247059 0.003922
0.356863 0.247059 0.000000
0.403922 0.247059 0.003922
0.447059 0.247059 0.000000
0.501961 0.247059 0.000000
0.552941 0.247059 0.000000
0.600000 0.243137 0.000000
0.650980 0.243137 0.000000
0.705882 0.243137 0.000000
0.737255 0.239216 0.000000
0.788235 0.235294 0.000000
0.823529 0.227451 0.000000
0.870588 0.219608 0.000000
0.909804 0.219608 0.000000
0.956863 0.207843 0.000000
0.996078 0.207843 0.000000
0.992157 0.196078 0.000000
0.988235 0.192157 0.000000
0.000000 0.286275 0.000000
0.007843 0.290196 0.000000
0.062745 0.290196 0.000000
0.125490 0.290196 0.000000
0.168627 0.294118 0.000000
0.227451 0.290196 0.003922
0.266667 0.290196 0.007843
0.317647 0.290196 0.007843
0.364706 0.294118 0.003922
0.403922 0.294118 0.003922
0.454902 0.290196 0.000000
0.501961 0.290196 0.000000
0.552941 0.294118 0.000000
0.596078 0.290196 0.000000
0.654902 0.286275 0.011765
0.690196 0.282353 0.003922
0.741176 0.278431 0.000000
0.780392 0.274510 0.007843
0.819608 0.270588 0.000000
0.862745 0.262745 0.000000
0.905882 0.258824 0.000000
0.945098 0.254902 0.000000
0.984314 0.254902 0.000000
0.992157 0.243137 0.000000
1.000000 0.235294 0.000000
0.003922 0.329412 0.007843
0.011765 0.333333 0.003922
0.062745 0.337255 0.000000
0.117647 0.333333 0.000000
0.176471 0.341176 0.003922
0.223529 0.341176 0.000000
0.266667 0.337255 0.000000
0.321569 0.345098 0.000000
0.360784 0.337255 0.000000
0.407843 0.337255 0.000000
0.454902 0.337255 0.000000
0.509804 0.337255 0.000000
0.545098 0.329412 0.003922
0.596078 0.329412 0.003922
0.643137 0.325490 0.007843
0.682353 0.321569 0.003922
0.725490 0.325490 0.003922
0.772549 0.321569 0.003922
0.803922 0.317647 0.003922
0.847059 0.309804 0.000000
0.890196 0.305882 0.003922
0.941176 0.301961 0.007843
0.984314 0.286275 0.000000
1.000000 0.290196 0.000000
1.000000 0.286275 0.000000
0.000000 0.384314 0.000000
0.003922 0.376471 0.000000
0.066667 0.384314 0.011765
0.121569 0.380392 0.000000
0.184314 0.388235 0.003922
0.227451 0.384314 0.003922
0.274510 0.380392 0.000000
0.317647 0.380392 0.000000
0.364706 0.380392 0.000000
0.411765 0.380392 0.000000
0.458824 0.380392 0.000000
0.505882 0.376471 0.003922
0.549020 0.376471 0.000000
0.584314 0.368627 0.003922
0.639216 0.368627 0.003922
0.678431 0.368627 0.003922
0.717647 0.364706 0.000000
0.768627 0.364706 0.000000
0.811765 0.360784 0.000000
0.854902 0.360784 0.000000
0.901961 0.349020 0.000000
0.941176 0.349020 0.000000
0.984314 0.345098 0.003922
0.996078 0.341176 0.003922
0.992157 0.333333 0.007843
0.000000 0.458824 0.007843
0.003922 0.466667 0.000000
0.070588 0.466667 0.003922
0.133333 0.458824 0.000000
0.192157 0.462745 0.003922
0.239216 0.466667 0.000000
0.290196 0.458824 0.000000
0.329412 0.462745 0.000000
0.384314 0.450980 0.000000
0.431373 0.450980 0.000000
