lut_library_archive/removed_20260629/50个风景lut/50个风景lut06.cube
# 版权归凌孟成所有，侵权必究
TITLE "Jungle LUT #6"
#LUT size
LUT_3D_SIZE 5
#LUT data points
0.023529 0.019608 0.011765
0.270588 0.003922 0.003922
0.490196 0.039216 0.019608
0.713725 0.105882 0.050980
0.988235 0.176471 0.074510
0.176471 0.258824 0.000000
0.278431 0.258824 0.000000
0.478431 0.274510 0.082353
0.721569 0.301961 0.090196
0.984314 0.337255 0.129412
0.329412 0.486275 0.007843
0.423529 0.486275 0.000000
0.494118 0.486275 0.003922
0.725490 0.529412 0.149020
0.992157 0.572549 0.227451
0.525490 0.729412 0.000000
0.600000 0.733333 0.007843
0.694118 0.725490 0.003922
0.764706 0.733333 0.000000
0.984314 0.764706 0.141176
0.776471 0.976471 0.000000
0.823529 0.976471 0.007843
0.937255 0.972549 0.000000
0.992157 0.980392 0.000000
1.000000 0.976471 0.000000
0.043137 0.000000 0.258824
0.270588 0.000000 0.254902
0.478431 0.050980 0.243137
0.705882 0.094118 0.250980
0.984314 0.117647 0.258824
0.047059 0.258824 0.258824
0.258824 0.258824 0.250980
0.462745 0.262745 0.250980
0.698039 0.278431 0.254902
0.984314 0.305882 0.274510
0.172549 0.494118 0.203922
0.329412 0.490196 0.184314
0.478431 0.486275 0.231373
0.717647 0.533333 0.321569
0.976471 0.560784 0.337255
0.443137 0.725490 0.082353
0.533333 0.729412 0.050980
0.678431 0.725490 0.000000
0.764706 0.733333 0.164706
1.000000 0.768627 0.309804
0.729412 0.972549 0.003922
0.784314 0.972549 0.007843
0.925490 0.964706 0.000000
0.992157 0.972549 0.000000
1.000000 0.980392 0.000000
0.078431 0.000000 0.501961
0.258824 0.003922 0.505882
0.474510 0.039216 0.509804
0.705882 0.082353 0.505882
0.972549 0.000000 0.509804
0.074510 0.243137 0.501961
0.254902 0.262745 0.501961
0.470588 0.258824 0.501961
0.709804 0.258824 0.498039
0.980392 0.231373 0.513725
0.000000 0.490196 0.498039
0.200000 0.494118 0.505882
0.454902 0.482353 0.505882
0.705882 0.486275 0.490196
0.984314 0.509804 0.505882
0.003922 0.745098 0.415686
0.000000 0.741176 0.403922
0.552941 0.737255 0.423529
0.745098 0.733333 0.462745
0.996078 0.784314 0.596078
0.517647 0.984314 0.317647
0.596078 0.984314 0.317647
0.792157 0.976471 0.278431
0.984314 0.980392 0.290196
1.000000 0.980392 0.376471
0.066667 0.000000 0.772549
0.262745 0.000000 0.768627
0.486275 0.019608 0.772549
0.713725 0.023529 0.764706
0.972549 0.000000 0.784314
0.019608 0.239216 0.772549
0.235294 0.247059 0.768627
0.470588 0.243137 0.776471
0.713725 0.239216 0.760784
0.984314 0.200000 0.788235
0.000000 0.486275 0.776471
0.109804 0.478431 0.760784
0.443137 0.470588 0.784314
0.698039 0.470588 0.760784
0.988235 0.462745 0.772549
0.000000 0.733333 0.776471
0.003922 0.729412 0.776471
0.407843 0.737255 0.768627
0.709804 0.737255 0.760784
0.992157 0.749020 0.768627
0.000000 1.000000 0.713725
0.007843 1.000000 0.717647
0.329412 1.000000 0.643137
0.862745 0.988235 0.686275
1.000000 0.988235 0.733333
0.000000 0.000000 0.996078
0.235294 0.000000 0.996078
0.470588 0.000000 1.000000
0.709804 0.000000 1.000000
0.976471 0.003922 1.000000
0.003922 0.235294 1.000000
0.192157 0.243137 0.996078
0.462745 0.239216 1.000000
0.709804 0.223529 1.000000
0.968627 0.188235 1.000000
0.011765 0.474510 1.000000
0.000000 0.470588 0.992157
0.411765 0.466667 0.996078
0.698039 0.458824 1.000000
0.984314 0.447059 0.996078
0.007843 0.729412 1.000000
0.003922 0.733333 0.992157
0.427451 0.737255 1.000000
0.698039 0.725490 0.992157
1.000000 0.729412 0.996078
0.000000 0.960784 1.000000
0.239216 0.964706 1.000000
0.509804 0.968627 1.000000
0.807843 0.976471 1.000000
1.000000 1.000000 1.000000
