lut_library_archive/removed_20260629/50个风景lut/50个风景lut19.cube
# 版权归凌孟成所有，侵权必究
TITLE "Jungle LUT #19"
#LUT size
LUT_3D_SIZE 25
#LUT data points
0.000000 0.003922 0.000000
0.003922 0.000000 0.000000
0.007843 0.000000 0.003922
0.050980 0.003922 0.003922
0.098039 0.000000 0.000000
0.121569 0.003922 0.000000
0.149020 0.000000 0.000000
0.172549 0.000000 0.003922
0.211765 0.000000 0.000000
0.239216 0.000000 0.000000
0.274510 0.000000 0.000000
0.313725 0.000000 0.000000
0.356863 0.000000 0.000000
0.400000 0.003922 0.003922
0.447059 0.000000 0.000000
0.482353 0.007843 0.011765
0.545098 0.000000 0.000000
0.592157 0.000000 0.003922
0.643137 0.000000 0.000000
0.698039 0.003922 0.000000
0.760784 0.000000 0.000000
0.811765 0.000000 0.000000
0.866667 0.000000 0.000000
0.917647 0.003922 0.000000
0.968627 0.000000 0.000000
0.007843 0.003922 0.000000
0.000000 0.007843 0.003922
0.031373 0.000000 0.000000
0.062745 0.000000 0.003922
0.086275 0.003922 0.000000
0.113725 0.003922 0.000000
0.141176 0.007843 0.003922
0.172549 0.000000 0.003922
0.207843 0.007843 0.003922
0.247059 0.007843 0.000000
0.278431 0.007843 0.000000
0.313725 0.000000 0.000000
0.352941 0.007843 0.003922
0.396078 0.003922 0.003922
0.447059 0.000000 0.000000
0.494118 0.000000 0.003922
0.537255 0.000000 0.000000
0.592157 0.000000 0.000000
0.643137 0.000000 0.000000
0.698039 0.003922 0.003922
0.752941 0.003922 0.000000
0.807843 0.003922 0.000000
0.862745 0.003922 0.000000
0.909804 0.003922 0.000000
0.968627 0.000000 0.003922
0.000000 0.031373 0.000000
0.003922 0.031373 0.003922
0.023529 0.035294 0.000000
0.058824 0.031373 0.000000
0.078431 0.027451 0.000000
0.117647 0.019608 0.000000
0.141176 0.019608 0.000000
0.180392 0.027451 0.000000
0.200000 0.031373 0.000000
0.239216 0.031373 0.000000
0.278431 0.031373 0.003922
0.309804 0.035294 0.007843
0.356863 0.031373 0.000000
0.407843 0.027451 0.000000
0.443137 0.023529 0.000000
0.486275 0.019608 0.003922
0.541176 0.011765 0.000000
0.588235 0.003922 0.000000
0.643137 0.000000 0.000000
0.690196 0.003922 0.000000
0.752941 0.003922 0.000000
0.807843 0.003922 0.000000
0.862745 0.003922 0.000000
0.905882 0.000000 0.000000
0.968627 0.000000 0.000000
0.007843 0.062745 0.011765
0.003922 0.058824 0.000000
0.027451 0.058824 0.000000
0.054902 0.058824 0.000000
0.086275 0.054902 0.011765
0.105882 0.054902 0.000000
0.137255 0.062745 0.007843
0.172549 0.062745 0.011765
0.196078 0.062745 0.015686
0.243137 0.062745 0.003922
0.274510 0.066667 0.003922
0.313725 0.074510 0.003922
0.352941 0.066667 0.011765
0.400000 0.066667 0.000000
0.439216 0.062745 0.000000
0.486275 0.066667 0.003922
0.537255 0.062745 0.000000
0.588235 0.062745 0.000000
0.639216 0.054902 0.000000
0.694118 0.047059 0.000000
0.741176 0.035294 0.000000
0.800000 0.019608 0.000000
0.858824 0.019608 0.000000
0.905882 0.007843 0.000000
0.952941 0.007843 0.011765
0.007843 0.082353 0.000000
0.011765 0.090196 0.000000
0.023529 0.082353 0.000000
0.050980 0.086275 0.003922
0.086275 0.082353 0.000000
0.113725 0.090196 0.000000
0.137255 0.090196 0.003922
0.168627 0.086275 0.011765
0.200000 0.094118 0.011765
0.235294 0.094118 0.007843
0.270588 0.094118 0.011765
0.305882 0.101961 0.007843
0.352941 0.098039 0.011765
0.392157 0.101961 0.007843
0.439216 0.101961 0.003922
0.482353 0.109804 0.000000
0.537255 0.105882 0.000000
0.588235 0.101961 0.000000
0.639216 0.101961 0.000000
0.690196 0.105882 0.000000
0.749020 0.101961 0.000000
0.803922 0.098039 0.000000
0.858824 0.090196 0.000000
0.909804 0.086275 0.000000
0.956863 0.090196 0.000000
0.007843 0.121569 0.003922
0.003922 0.117647 0.000000
0.035294 0.113725 0.000000
0.058824 0.125490 0.000000
0.094118 0.121569 0.000000
0.133333 0.117647 0.003922
0.149020 0.125490 0.000000
0.184314 0.117647 0.000000
0.215686 0.121569 0.011765
0.239216 0.121569 0.011765
0.274510 0.129412 0.023529
0.313725 0.137255 0.023529
0.356863 0.141176 0.023529
0.403922 0.145098 0.019608
0.450980 0.141176 0.011765
0.498039 0.145098 0.011765
0.552941 0.152941 0.011765
0.600000 0.152941 0.011765
0.650980 0.149020 0.003922
0.701961 0.156863 0.003922
0.760784 0.152941 0.000000
0.815686 0.152941 0.000000
0.870588 0.152941 0.000000
0.917647 0.152941 0.003922
0.972549 0.152941 0.003922
0.000000 0.152941 0.003922
0.000000 0.149020 0.003922
0.019608 0.156863 0.000000
0.054902 0.152941 0.000000
0.086275 0.156863 0.000000
0.125490 0.152941 0.000000
0.160784 0.152941 0.003922
0.184314 0.152941 0.000000
0.211765 0.156863 0.003922
0.235294 0.156863 0.011765
0.278431 0.160784 0.019608
0.321569 0.164706 0.035294
0.360784 0.168627 0.039216
0.392157 0.176471 0.023529
0.435294 0.180392 0.023529
0.494118 0.184314 0.015686
0.545098 0.188235 0.015686
0.596078 0.188235 0.003922
0.650980 0.196078 0.003922
0.701961 0.196078 0.003922
0.760784 0.200000 0.003922
0.815686 0.200000 0.000000
0.862745 0.200000 0.000000
0.925490 0.200000 0.000000
0.980392 0.200000 0.000000
0.000000 0.188235 0.000000
0.000000 0.188235 0.000000
0.019608 0.184314 0.003922
0.058824 0.192157 0.000000
0.090196 0.192157 0.003922
0.117647 0.188235 0.000000
0.156863 0.188235 0.000000
0.192157 0.188235 0.000000
0.231373 0.192157 0.000000
0.254902 0.192157 0.000000
0.286275 0.192157 0.003922
0.329412 0.196078 0.019608
0.364706 0.203922 0.031373
0.392157 0.207843 0.043137
0.443137 0.215686 0.039216
0.486275 0.219608 0.035294
0.545098 0.223529 0.027451
0.592157 0.227451 0.023529
0.647059 0.231373 0.007843
0.705882 0.235294 0.007843
0.756863 0.243137 0.000000
0.811765 0.247059 0.003922
0.870588 0.247059 0.000000
0.917647 0.247059 0.000000
0.980392 0.254902 0.003922
0.000000 0.223529 0.000000
0.000000 0.227451 0.000000
0.000000 0.223529 0.000000
0.043137 0.227451 0.011765
0.101961 0.223529 0.000000
0.129412 0.227451 0.003922
0.156863 0.227451 0.000000
0.192157 0.231373 0.000000
0.231373 0.223529 0.000000
0.266667 0.231373 0.000000
0.294118 0.231373 0.000000
0.329412 0.227451 0.000000
0.372549 0.235294 0.007843
0.411765 0.243137 0.035294
0.447059 0.247059 0.039216
0.498039 0.250980 0.043137
0.545098 0.262745 0.043137
0.596078 0.262745 0.039216
0.643137 0.266667 0.027451
0.701961 0.274510 0.011765
0.749020 0.278431 0.003922
0.807843 0.290196 0.007843
0.862745 0.282353 0.000000
0.917647 0.294118 0.003922
0.956863 0.294118 0.000000
0.007843 0.262745 0.000000
0.000000 0.258824 0.003922
0.003922 0.262745 0.011765
0.031373 0.262745 0.000000
0.086275 0.262745 0.007843
0.129412 0.266667 0.000000
0.168627 0.258824 0.000000
0.203922 0.270588 0.000000
0.231373 0.270588 0.000000
0.270588 0.274510 0.007843
0.313725 0.262745 0.003922
0.341176 0.266667 0.000000
0.384314 0.274510 0.000000
0.419608 0.274510 0.000000
0.450980 0.282353 0.023529
0.490196 0.290196 0.043137
0.533333 0.294118 0.050980
0.588235 0.298039 0.050980
0.643137 0.313725 0.039216
0.698039 0.313725 0.027451
0.756863 0.321569 0.019608
0.807843 0.325490 0.019608
0.858824 0.333333 0.011765
0.917647 0.341176 0.000000
0.968627 0.341176 0.003922
0.000000 0.313725 0.003922
0.000000 0.313725 0.003922
0.000000 0.317647 0.000000
0.023529 0.317647 0.000000
0.074510 0.321569 0.003922
0.117647 0.317647 0.007843
0.172549 0.317647 0.003922
0.211765 0.321569 0.000000
0.247059 0.321569 0.000000
0.282353 0.317647 0.000000
0.321569 0.317647 0.003922
0.360784 0.317647 0.003922
0.396078 0.325490 0.003922
0.435294 0.325490 0.000000
0.474510 0.325490 0.000000
0.529412 0.329412 0.003922
0.552941 0.349020 0.023529
0.607843 0.349020 0.043137
0.654902 0.352941 0.047059
0.709804 0.360784 0.054902
0.764706 0.364706 0.043137
0.819608 0.372549 0.035294
0.874510 0.384314 0.031373
0.925490 0.388235 0.035294
0.976471 0.388235 0.047059
0.000000 0.356863 0.000000
0.015686 0.352941 0.000000
0.000000 0.356863 0.000000
0.000000 0.360784 0.000000
0.066667 0.360784 0.000000
0.117647 0.364706 0.007843
0.164706 0.364706 0.000000
0.203922 0.364706 0.003922
0.254902 0.356863 0.000000
0.298039 0.356863 0.000000
0.329412 0.364706 0.000000
0.360784 0.364706 0.000000
0.400000 0.364706 0.000000
0.443137 0.368627 0.000000
0.486275 0.372549 0.003922
0.529412 0.372549 0.000000
0.572549 0.376471 0.000000
0.619608 0.384314 0.007843
0.666667 0.388235 0.027451
0.717647 0.396078 0.058824
0.760784 0.407843 0.070588
0.811765 0.415686 0.054902
0.866667 0.423529 0.054902
0.921569 0.427451 0.066667
0.972549 0.439216 0.070588
0.000000 0.403922 0.000000
0.000000 0.400000 0.003922
0.003922 0.403922 0.003922
0.000000 0.407843 0.000000
0.043137 0.400000 0.000000
0.109804 0.411765 0.003922
0.164706 0.407843 0.003922
0.196078 0.411765 0.003922
0.258824 0.407843 0.003922
0.298039 0.407843 0.003922
0.329412 0.411765 0.007843
0.364706 0.407843 0.000000
0.403922 0.407843 0.000000
0.443137 0.415686 0.000000
0.494118 0.411765 0.000000
0.537255 0.415686 0.000000
0.580392 0.419608 0.000000
0.627451 0.431373 0.000000
0.674510 0.435294 0.000000
0.721569 0.439216 0.007843
0.768627 0.450980 0.047059
0.819608 0.454902 0.082353
0.862745 0.470588 0.086275
0.925490 0.470588 0.090196
0.968627 0.478431 0.094118
0.003922 0.454902 0.000000
0.000000 0.447059 0.003922
0.007843 0.447059 0.003922
0.000000 0.450980 0.000000
0.007843 0.458824 0.000000
0.090196 0.454902 0.000000
0.164706 0.454902 0.003922
0.200000 0.454902 0.000000
0.247059 0.454902 0.000000
0.298039 0.454902 0.003922
0.341176 0.454902 0.000000
0.380392 0.454902 0.000000
0.411765 0.450980 0.000000
0.458824 0.454902 0.000000
0.498039 0.454902 0.000000
0.545098 0.462745 0.003922
0.588235 0.470588 0.000000
0.635294 0.470588 0.000000
0.674510 0.478431 0.003922
0.725490 0.486275 0.000000
0.776471 0.486275 0.003922
0.823529 0.490196 0.035294
0.866667 0.505882 0.086275
0.913725 0.505882 0.117647
0.972549 0.521569 0.125490
0.000000 0.494118 0.003922
0.000000 0.501961 0.003922
0.000000 0.498039 0.000000
0.000000 0.509804 0.000000
0.007843 0.505882 0.000000
0.070588 0.505882 0.000000
0.145098 0.501961 0.000000
0.196078 0.505882 0.003922
0.254902 0.498039 0.000000
0.290196 0.505882 0.000000
0.329412 0.509804 0.011765
0.384314 0.501961 0.007843
0.423529 0.505882 0.000000
0.462745 0.505882 0.000000
0.509804 0.509804 0.000000
0.556863 0.505882 0.000000
0.600000 0.509804 0.000000
0.643137 0.513725 0.000000
0.686275 0.517647 0.003922
0.729412 0.521569 0.003922
0.780392 0.537255 0.000000
0.827451 0.541176 0.000000
0.870588 0.545098 0.011765
0.921569 0.552941 0.078431
0.964706 0.556863 0.129412
0.007843 0.576471 0.000000
0.003922 0.572549 0.000000
0.000000 0.584314 0.000000
0.000000 0.576471 0.000000
0.000000 0.576471 0.000000
0.035294 0.576471 0.000000
0.133333 0.572549 0.000000
0.203922 0.572549 0.000000
0.258824 0.568627 0.000000
0.305882 0.568627 0.011765
0.360784 0.568627 0.003922
0.400000 0.568627 0.003922
0.439216 0.572549 0.000000
0.486275 0.572549 0.000000
0.533333 0.572549 0.000000
0.576471 0.568627 0.000000
0.615686 0.568627 0.000000
0.666667 0.568627 0.000000
0.713725 0.580392 0.003922
0.756863 0.584314 0.003922
0.800000 0.580392 0.003922
0.843137 0.588235 0.000000
0.894118 0.592157 0.003922
0.941176 0.600000 0.015686
0.988235 0.607843 0.105882
0.003922 0.619608 0.003922
0.000000 0.611765 0.000000
0.003922 0.615686 0.011765
0.000000 0.615686 0.000000
0.000000 0.623529 0.003922
0.007843 0.615686 0.011765
0.113725 0.623529 0.000000
0.200000 0.619608 0.000000
0.247059 0.623529 0.000000
0.305882 0.619608 0.000000
0.352941 0.615686 0.000000
0.400000 0.619608 0.000000
0.443137 0.623529 0.003922
0.498039 0.619608 0.007843
0.549020 0.615686 0.003922
0.576471 0.623529 0.000000
0.619608 0.619608 0.000000
0.670588 0.623529 0.000000
0.713725 0.627451 0.000000
0.756863 0.623529 0.000000
0.803922 0.631373 0.007843
0.850980 0.635294 0.000000
0.901961 0.635294 0.003922
0.949020 0.635294 0.011765
0.984314 0.650980 0.011765
0.000000 0.662745 0.000000
0.000000 0.674510 0.000000
0.000000 0.666667 0.003922
0.000000 0.674510 0.000000
0.007843 0.670588 0.000000
0.000000 0.674510 0.000000
0.078431 0.674510 0.000000
0.184314 0.666667 0.007843
0.239216 0.678431 0.003922
0.286275 0.670588 0.000000
0.352941 0.662745 0.000000
0.400000 0.670588 0.007843
0.462745 0.662745 0.007843
0.498039 0.658824 0.000000
0.541176 0.666667 0.000000
0.584314 0.670588 0.000000
0.635294 0.670588 0.007843
0.678431 0.670588 0.003922
0.721569 0.666667 0.003922
0.772549 0.666667 0.003922
0.815686 0.674510 0.007843
0.858824 0.670588 0.003922
0.909804 0.674510 0.000000
0.956863 0.682353 0.003922
0.980392 0.694118 0.000000
0.007843 0.717647 0.000000
0.000000 0.721569 0.000000
0.000000 0.721569 0.000000
0.000000 0.717647 0.007843
0.000000 0.721569 0.000000
0.000000 0.717647 0.011765
0.039216 0.721569 0.000000
0.164706 0.717647 0.000000
0.219608 0.729412 0.000000
0.294118 0.717647 0.003922
0.352941 0.721569 0.007843
0.403922 0.717647 0.000000
0.447059 0.721569 0.000000
0.494118 0.721569 0.000000
0.541176 0.721569 0.000000
0.584314 0.717647 0.000000
0.639216 0.717647 0.000000
0.686275 0.717647 0.000000
0.717647 0.717647 0.000000
0.768627 0.721569 0.000000
0.803922 0.721569 0.000000
0.858824 0.725490 0.000000
0.913725 0.721569 0.007843
0.945098 0.725490 0.000000
0.992157 0.725490 0.000000
0.007843 0.764706 0.000000
0.000000 0.768627 0.000000
0.000000 0.768627 0.000000
0.015686 0.768627 0.000000
0.000000 0.772549 0.003922
0.000000 0.768627 0.000000
0.000000 0.768627 0.000000
0.137255 0.768627 0.015686
0.219608 0.776471 0.007843
0.282353 0.780392 0.000000
0.329412 0.768627 0.000000
0.403922 0.764706 0.000000
0.447059 0.768627 0.000000
0.494118 0.768627 0.000000
0.549020 0.768627 0.000000
0.596078 0.768627 0.000000
0.639216 0.764706 0.000000
0.682353 0.768627 0.000000
0.725490 0.764706 0.000000
0.776471 0.768627 0.000000
0.823529 0.768627 0.003922
0.874510 0.772549 0.000000
0.913725 0.772549 0.003922
0.960784 0.772549 0.011765
1.000000 0.772549 0.007843
0.000000 0.831373 0.000000
0.011765 0.835294 0.000000
0.007843 0.831373 0.000000
0.000000 0.831373 0.000000
0.011765 0.831373 0.015686
0.000000 0.835294 0.011765
0.007843 0.831373 0.000000
0.094118 0.831373 0.011765
0.207843 0.831373 0.000000
0.270588 0.831373 0.000000
0.341176 0.827451 0.000000
0.396078 0.827451 0.000000
0.450980 0.827451 0.000000
0.498039 0.827451 0.003922
0.552941 0.827451 0.003922
0.596078 0.831373 0.007843
0.647059 0.827451 0.003922
0.690196 0.831373 0.003922
0.737255 0.827451 0.000000
0.776471 0.827451 0.000000
0.823529 0.823529 0.000000
0.870588 0.823529 0.000000
0.921569 0.827451 0.003922
0.968627 0.827451 0.003922
1.000000 0.823529 0.000000
0.000000 0.862745 0.000000
0.003922 0.878431 0.015686
0.000000 0.866667 0.003922
0.007843 0.874510 0.011765
0.003922 0.874510 0.000000
0.000000 0.874510 0.000000
0.000000 0.874510 0.007843
0.082353 0.882353 0.000000
0.180392 0.874510 0.003922
0.270588 0.874510 0.003922
0.337255 0.878431 0.003922
0.388235 0.878431 0.000000
0.450980 0.874510 0.000000
0.501961 0.874510 0.000000
0.552941 0.874510 0.000000
0.596078 0.870588 0.000000
0.647059 0.874510 0.000000
0.690196 0.874510 0.000000
0.737255 0.874510 0.000000
0.784314 0.870588 0.000000
0.831373 0.870588 0.003922
0.882353 0.874510 0.003922
0.929412 0.874510 0.007843
0.960784 0.878431 0.000000
1.000000 0.874510 0.000000
0.007843 0.913725 0.003922
0.003922 0.917647 0.003922
0.000000 0.913725 0.000000
0.007843 0.921569 0.003922
0.007843 0.917647 0.000000
0.003922 0.917647 0.000000
0.000000 0.921569 0.000000
0.039216 0.925490 0.000000
0.168627 0.921569 0.000000
0.270588 0.929412 0.007843
0.321569 0.925490 0.000000
0.380392 0.921569 0.000000
0.435294 0.921569 0.000000
0.498039 0.921569 0.000000
0.549020 0.913725 0.007843
0.596078 0.917647 0.000000
0.650980 0.917647 0.000000
0.690196 0.917647 0.000000
0.737255 0.921569 0.000000
0.776471 0.917647 0.000000
0.831373 0.917647 0.003922
0.878431 0.917647 0.000000
0.921569 0.921569 0.003922
0.964706 0.917647 0.000000
0.996078 0.917647 0.000000
0.007843 0.960784 0.011765
0.000000 0.964706 0.000000
0.003922 0.964706 0.003922
0.003922 0.964706 0.000000
0.003922 0.964706 0.000000
0.003922 0.964706 0.003922
0.000000 0.960784 0.000000
0.003922 0.972549 0.000000
0.145098 0.964706 0.007843
0.258824 0.960784 0.003922
0.317647 0.968627 0.000000
0.380392 0.976471 0.000000
0.435294 0.968627 0.003922
0.494118 0.964706 0.000000
0.537255 0.968627 0.007843
0.588235 0.960784 0.003922
0.635294 0.964706 0.000000
0.686275 0.960784 0.000000
0.733333 0.960784 0.003922
0.784314 0.960784 0.007843
0.827451 0.960784 0.003922
0.870588 0.964706 0.000000
0.917647 0.956863 0.000000
0.956863 0.960784 0.003922
1.000000 0.960784 0.003922
0.000000 1.000000 0.003922
0.000000 1.000000 0.003922
0.000000 1.000000 0.000000
0.003922 0.996078 0.000000
0.003922 0.992157 0.000000
0.000000 0.996078 0.000000
0.003922 0.992157 0.000000
0.007843 1.000000 0.000000
0.145098 0.996078 0.000000
0.231373 0.996078 0.000000
0.313725 1.000000 0.003922
0.368627 1.000000 0.003922
0.427451 0.996078 0.000000
0.478431 1.000000 0.000000
0.529412 1.000000 0.000000
0.580392 1.000000 0.000000
0.635294 1.000000 0.000000
0.682353 1.000000 0.000000
0.737255 1.000000 0.000000
0.784314 1.000000 0.003922
0.823529 1.000000 0.007843
0.874510 1.000000 0.003922
0.917647 1.000000 0.000000
0.960784 1.000000 0.000000
1.000000 1.000000 0.000000
0.007843 0.000000 0.019608
0.000000 0.000000 0.007843
0.015686 0.000000 0.003922
0.062745 0.000000 0.003922
0.090196 0.000000 0.003922
0.117647 0.003922 0.011765
0.145098 0.003922 0.011765
0.176471 0.003922 0.007843
0.203922 0.000000 0.015686
0.243137 0.000000 0.019608
0.282353 0.000000 0.023529
0.317647 0.000000 0.019608
0.352941 0.000000 0.015686
0.400000 0.000000 0.015686
0.447059 0.000000 0.015686
0.494118 0.000000 0.015686
0.541176 0.000000 0.019608
0.592157 0.003922 0.011765
0.647059 0.003922 0.007843
0.698039 0.003922 0.003922
0.760784 0.000000 0.003922
0.815686 0.003922 0.003922
0.866667 0.000000 0.000000
0.917647 0.003922 0.000000
0.972549 0.003922 0.003922
0.000000 0.000000 0.007843
0.000000 0.000000 0.007843
0.039216 0.007843 0.000000
0.058824 0.003922 0.000000
0.101961 0.007843 0.015686
0.105882 0.011765 0.019608
0.145098 0.003922 0.019608
0.176471 0.000000 0.019608
0.207843 0.003922 0.019608
0.243137 0.007843 0.015686
0.278431 0.003922 0.015686
0.321569 0.000000 0.019608
0.356863 0.000000 0.027451
0.400000 0.003922 0.027451
0.439216 0.003922 0.027451
0.494118 0.000000 0.003922
0.541176 0.000000 0.019608
0.596078 0.000000 0.019608
0.650980 0.000000 0.015686
0.701961 0.000000 0.000000
0.760784 0.003922 0.000000
0.811765 0.000000 0.000000
0.866667 0.000000 0.000000
0.917647 0.003922 0.000000
0.980392 0.000000 0.007843
0.000000 0.039216 0.000000
0.007843 0.023529 0.019608
0.031373 0.035294 0.011765
0.054902 0.035294 0.011765
0.070588 0.027451 0.011765
0.113725 0.039216 0.015686
0.141176 0.031373 0.027451
0.180392 0.023529 0.023529
0.207843 0.035294 0.023529
0.235294 0.035294 0.023529
0.274510 0.023529 0.019608
0.305882 0.027451 0.027451
0.356863 0.027451 0.027451
0.396078 0.019608 0.023529
0.439216 0.011765 0.023529
0.486275 0.007843 0.027451
0.541176 0.000000 0.019608
0.592157 0.003922 0.019608
0.647059 0.003922 0.015686
0.690196 0.003922 0.000000
0.749020 0.000000 0.000000
0.803922 0.000000 0.000000
0.866667 0.000000 0.000000
0.917647 0.000000 0.003922
0.972549 0.003922 0.003922
0.003922 0.058824 0.000000
0.011765 0.058824 0.011765
0.039216 0.062745 0.023529
0.054902 0.058824 0.003922
0.078431 0.062745 0.027451
0.109804 0.062745 0.015686
0.137255 0.058824 0.023529
0.188235 0.050980 0.027451
0.203922 0.058824 0.027451
0.239216 0.066667 0.031373
0.274510 0.070588 0.027451
0.309804 0.058824 0.011765
0.345098 0.062745 0.015686
0.400000 0.058824 0.023529
0.439216 0.058824 0.031373
0.486275 0.054902 0.019608
0.537255 0.050980 0.019608
0.588235 0.039216 0.011765
0.639216 0.035294 0.011765
0.701961 0.023529 0.007843
0.745098 0.015686 0.000000
0.800000 0.000000 0.003922
0.862745 0.003922 0.000000
0.917647 0.003922 0.000000
0.960784 0.000000 0.007843
0.011765 0.086275 0.007843
0.007843 0.082353 0.007843
0.031373 0.082353 0.011765
0.058824 0.086275 0.015686
0.082353 0.086275 0.015686
0.113725 0.086275 0.015686
0.133333 0.090196 0.015686
0.172549 0.086275 0.027451
0.203922 0.098039 0.031373
0.239216 0.098039 0.035294
0.274510 0.090196 0.027451
0.313725 0.098039 0.027451
0.360784 0.098039 0.031373
0.400000 0.098039 0.027451
0.443137 0.098039 0.023529
0.486275 0.101961 0.027451
0.537255 0.094118 0.023529
0.584314 0.094118 0.023529
0.643137 0.090196 0.015686
0.690196 0.094118 0.011765
0.752941 0.086275 0.000000
0.803922 0.086275 0.000000
0.854902 0.078431 0.003922
0.905882 0.074510 0.000000
0.960784 0.074510 0.000000
0.000000 0.117647 0.015686
0.003922 0.113725 0.015686
0.027451 0.121569 0.019608
0.062745 0.117647 0.011765
0.086275 0.121569 0.007843
0.113725 0.125490 0.011765
0.160784 0.113725 0.011765
0.184314 0.121569 0.019608
0.207843 0.129412 0.035294
0.243137 0.121569 0.039216
0.274510 0.125490 0.035294
0.313725 0.125490 0.035294
0.356863 0.133333 0.035294
0.400000 0.137255 0.031373
0.443137 0.141176 0.031373
0.486275 0.145098 0.035294
0.545098 0.141176 0.023529
0.592157 0.141176 0.019608
0.650980 0.145098 0.019608
0.698039 0.141176 0.007843
0.752941 0.145098 0.003922
0.811765 0.145098 0.007843
0.862745 0.141176 0.000000
0.917647 0.141176 0.007843
0.972549 0.145098 0.007843
0.003922 0.149020 0.011765
0.011765 0.149020 0.023529
0.019608 0.152941 0.015686
0.062745 0.156863 0.023529
0.086275 0.152941 0.011765
0.117647 0.149020 0.003922
0.156863 0.156863 0.007843
0.184314 0.152941 0.007843
0.215686 0.152941 0.011765
0.250980 0.156863 0.023529
0.278431 0.156863 0.035294
0.317647 0.164706 0.050980
0.356863 0.164706 0.047059
0.403922 0.176471 0.039216
0.447059 0.180392 0.043137
0.501961 0.180392 0.035294
0.549020 0.180392 0.031373
0.596078 0.184314 0.027451
0.647059 0.188235 0.019608
0.698039 0.188235 0.015686
0.749020 0.192157 0.011765
0.811765 0.196078 0.003922
0.858824 0.196078 0.003922
0.901961 0.200000 0.000000
0.972549 0.200000 0.003922
0.000000 0.184314 0.011765
0.000000 0.184314 0.003922
0.019608 0.188235 0.011765
0.050980 0.192157 0.011765
0.086275 0.188235 0.011765
0.125490 0.184314 0.015686
0.160784 0.184314 0.003922
0.196078 0.184314 0.007843
0.219608 0.196078 0.007843
0.258824 0.192157 0.011765
0.301961 0.196078 0.027451
0.321569 0.196078 0.035294
0.356863 0.203922 0.050980
0.400000 0.203922 0.058824
0.439216 0.215686 0.047059
0.494118 0.215686 0.043137
0.541176 0.219608 0.035294
0.600000 0.223529 0.035294
0.647059 0.223529 0.039216
0.705882 0.231373 0.027451
0.760784 0.231373 0.015686
0.811765 0.239216 0.015686
0.858824 0.243137 0.003922
0.905882 0.243137 0.000000
0.976471 0.243137 0.000000
0.000000 0.219608 0.003922
0.000000 0.227451 0.000000
0.000000 0.215686 0.000000
0.035294 0.227451 0.000000
0.090196 0.227451 0.000000
0.113725 0.223529 0.000000
0.160784 0.227451 0.011765
0.196078 0.227451 0.003922
0.227451 0.231373 0.003922
0.274510 0.227451 0.000000
0.301961 0.227451 0.007843
0.337255 0.231373 0.031373
0.372549 0.231373 0.043137
0.411765 0.239216 0.054902
0.447059 0.243137 0.058824
0.494118 0.250980 0.066667
0.537255 0.254902 0.058824
0.588235 0.262745 0.050980
0.643137 0.274510 0.043137
0.698039 0.274510 0.031373
0.749020 0.274510 0.019608
0.803922 0.286275 0.003922
0.862745 0.282353 0.007843
0.909804 0.290196 0.011765
0.956863 0.290196 0.019608
0.003922 0.258824 0.000000
0.000000 0.258824 0.000000
0.007843 0.262745 0.003922
0.023529 0.262745 0.000000
0.082353 0.262745 0.011765
0.121569 0.266667 0.003922
0.164706 0.270588 0.000000
0.188235 0.266667 0.000000
0.227451 0.270588 0.000000
0.266667 0.262745 0.000000
0.301961 0.266667 0.003922
0.349020 0.270588 0.000000
0.376471 0.270588 0.000000
0.411765 0.274510 0.023529
0.450980 0.278431 0.039216
0.486275 0.286275 0.062745
0.537255 0.290196 0.078431
0.592157 0.301961 0.070588
0.647059 0.301961 0.050980
0.698039 0.309804 0.043137
0.749020 0.317647 0.047059
0.803922 0.325490 0.039216
0.858824 0.329412 0.039216
0.913725 0.337255 0.031373
0.968627 0.337255 0.031373
0.000000 0.313725 0.000000
0.003922 0.309804 0.003922
0.000000 0.313725 0.003922
0.003922 0.313725 0.000000
0.070588 0.317647 0.000000
0.125490 0.309804 0.000000
0.164706 0.317647 0.000000
0.207843 0.313725 0.000000
0.247059 0.313725 0.007843
0.278431 0.313725 0.003922
