lut_library_archive/removed_20260629/50个风景lut/50个风景lut10.cube
# 版权归凌孟成所有，侵权必究
TITLE "Jungle LUT #10"
#LUT size
LUT_3D_SIZE 9
#LUT data points
0.000000 0.000000 0.007843
0.101961 0.000000 0.003922
0.247059 0.007843 0.000000
0.372549 0.000000 0.000000
0.501961 0.000000 0.003922
0.635294 0.000000 0.011765
0.772549 0.003922 0.027451
0.913725 0.000000 0.047059
0.996078 0.000000 0.070588
0.003922 0.090196 0.007843
0.133333 0.086275 0.000000
0.250980 0.086275 0.000000
0.376471 0.074510 0.003922
0.498039 0.070588 0.003922
0.631373 0.074510 0.027451
0.768627 0.062745 0.039216
0.901961 0.050980 0.054902
1.000000 0.043137 0.074510
0.066667 0.207843 0.027451
0.152941 0.215686 0.023529
0.254902 0.211765 0.031373
0.384314 0.211765 0.027451
0.501961 0.219608 0.039216
0.635294 0.227451 0.050980
0.776471 0.235294 0.062745
0.909804 0.231373 0.074510
1.000000 0.235294 0.094118
0.086275 0.352941 0.066667
0.168627 0.356863 0.066667
0.270588 0.349020 0.062745
0.388235 0.356863 0.074510
0.509804 0.360784 0.082353
0.635294 0.360784 0.086275
0.772549 0.364706 0.094118
0.913725 0.368627 0.105882
1.000000 0.368627 0.117647
0.062745 0.494118 0.105882
0.149020 0.501961 0.109804
0.258824 0.501961 0.113725
0.388235 0.494118 0.113725
0.517647 0.501961 0.121569
0.639216 0.505882 0.117647
0.780392 0.505882 0.129412
0.913725 0.509804 0.145098
1.000000 0.513725 0.141176
0.000000 0.654902 0.141176
0.098039 0.654902 0.145098
0.247059 0.647059 0.145098
0.388235 0.647059 0.152941
0.521569 0.647059 0.149020
0.650980 0.647059 0.152941
0.784314 0.643137 0.156863
0.913725 0.639216 0.152941
1.000000 0.639216 0.172549
0.011765 0.784314 0.156863
0.000000 0.784314 0.156863
0.211765 0.788235 0.168627
0.376471 0.784314 0.168627
0.505882 0.780392 0.160784
0.647059 0.780392 0.168627
0.780392 0.780392 0.168627
0.909804 0.772549 0.176471
1.000000 0.768627 0.180392
0.000000 0.909804 0.168627
0.000000 0.905882 0.184314
0.200000 0.909804 0.192157
0.360784 0.913725 0.192157
0.498039 0.909804 0.192157
0.631373 0.909804 0.188235
0.768627 0.905882 0.192157
0.901961 0.905882 0.196078
0.992157 0.901961 0.219608
0.000000 1.000000 0.215686
0.007843 0.996078 0.215686
0.184314 1.000000 0.215686
0.345098 0.996078 0.219608
0.486275 1.000000 0.215686
0.619608 1.000000 0.223529
0.752941 1.000000 0.227451
0.882353 1.000000 0.231373
0.992157 1.000000 0.247059
0.000000 0.000000 0.149020
0.101961 0.000000 0.145098
0.250980 0.000000 0.152941
0.372549 0.000000 0.156863
0.498039 0.000000 0.149020
0.631373 0.003922 0.160784
0.772549 0.003922 0.168627
0.909804 0.000000 0.172549
1.000000 0.000000 0.196078
0.000000 0.090196 0.160784
0.105882 0.090196 0.149020
0.247059 0.078431 0.156863
0.376471 0.066667 0.152941
0.490196 0.058824 0.156863
0.631373 0.039216 0.168627
0.768627 0.015686 0.168627
0.909804 0.000000 0.180392
0.996078 0.003922 0.188235
0.007843 0.207843 0.172549
0.141176 0.211765 0.164706
0.258824 0.207843 0.172549
0.384314 0.211765 0.168627
0.501961 0.219608 0.180392
0.635294 0.219608 0.176471
0.768627 0.219608 0.184314
0.909804 0.219608 0.188235
1.000000 0.215686 0.184314
0.023529 0.349020 0.176471
0.137255 0.352941 0.188235
0.262745 0.352941 0.180392
0.384314 0.349020 0.188235
0.501961 0.349020 0.188235
0.639216 0.360784 0.192157
0.776471 0.368627 0.200000
0.913725 0.372549 0.200000
1.000000 0.364706 0.203922
0.000000 0.494118 0.196078
0.133333 0.494118 0.207843
0.250980 0.494118 0.200000
0.380392 0.501961 0.200000
0.513725 0.498039 0.207843
0.639216 0.498039 0.207843
0.776471 0.505882 0.211765
0.909804 0.505882 0.207843
1.000000 0.501961 0.223529
0.007843 0.647059 0.219608
0.047059 0.650980 0.203922
0.231373 0.647059 0.223529
0.372549 0.643137 0.223529
0.513725 0.643137 0.223529
0.647059 0.643137 0.219608
0.776471 0.643137 0.219608
0.909804 0.643137 0.223529
1.000000 0.635294 0.223529
0.000000 0.780392 0.219608
0.003922 0.776471 0.219608
0.200000 0.784314 0.223529
0.356863 0.776471 0.219608
0.509804 0.776471 0.231373
0.643137 0.776471 0.231373
0.776471 0.780392 0.231373
0.905882 0.776471 0.231373
0.996078 0.764706 0.231373
0.000000 0.909804 0.235294
0.000000 0.905882 0.239216
0.176471 0.913725 0.231373
0.352941 0.909804 0.235294
0.490196 0.905882 0.231373
0.635294 0.905882 0.235294
0.764706 0.905882 0.239216
0.898039 0.905882 0.243137
0.992157 0.901961 0.243137
0.000000 1.000000 0.247059
0.011765 0.992157 0.247059
0.172549 1.000000 0.250980
0.345098 0.996078 0.250980
0.486275 1.000000 0.254902
0.611765 1.000000 0.258824
0.756863 1.000000 0.258824
0.878431 0.996078 0.274510
1.000000 1.000000 0.278431
0.003922 0.000000 0.305882
0.078431 0.000000 0.305882
0.231373 0.003922 0.305882
0.360784 0.000000 0.313725
0.498039 0.000000 0.317647
0.627451 0.000000 0.313725
0.772549 0.000000 0.313725
0.909804 0.000000 0.313725
0.996078 0.007843 0.317647
0.000000 0.082353 0.305882
0.066667 0.086275 0.305882
0.243137 0.070588 0.317647
0.368627 0.050980 0.313725
0.498039 0.027451 0.309804
0.623529 0.000000 0.309804
0.764706 0.003922 0.313725
0.913725 0.000000 0.325490
0.992157 0.000000 0.317647
0.007843 0.207843 0.321569
0.090196 0.215686 0.313725
0.239216 0.219608 0.313725
0.372549 0.203922 0.313725
0.498039 0.203922 0.321569
0.635294 0.207843 0.321569
0.772549 0.200000 0.313725
0.913725 0.200000 0.317647
1.000000 0.200000 0.317647
0.007843 0.345098 0.333333
0.082353 0.356863 0.317647
0.247059 0.352941 0.317647
0.368627 0.352941 0.317647
0.498039 0.352941 0.321569
0.631373 0.356863 0.325490
0.776471 0.360784 0.317647
0.905882 0.356863 0.321569
1.000000 0.356863 0.321569
0.003922 0.494118 0.321569
0.035294 0.494118 0.309804
0.219608 0.498039 0.325490
0.364706 0.494118 0.317647
0.501961 0.498039 0.325490
0.631373 0.498039 0.321569
0.776471 0.498039 0.325490
0.909804 0.501961 0.325490
0.996078 0.501961 0.313725
0.003922 0.639216 0.333333
0.003922 0.643137 0.325490
0.200000 0.650980 0.325490
0.360784 0.647059 0.329412
0.505882 0.643137 0.321569
0.639216 0.647059 0.321569
0.784314 0.639216 0.325490
0.909804 0.643137 0.325490
1.000000 0.635294 0.325490
0.007843 0.768627 0.317647
0.003922 0.772549 0.317647
0.168627 0.772549 0.317647
0.345098 0.780392 0.309804
0.501961 0.772549 0.313725
0.631373 0.780392 0.313725
0.776471 0.780392 0.321569
0.913725 0.772549 0.325490
1.000000 0.768627 0.329412
0.000000 0.905882 0.317647
0.011765 0.905882 0.321569
0.156863 0.909804 0.317647
0.337255 0.909804 0.321569
0.494118 0.909804 0.321569
0.631373 0.905882 0.317647
0.764706 0.905882 0.321569
0.898039 0.909804 0.325490
1.000000 0.898039 0.325490
0.000000 0.996078 0.321569
0.003922 0.996078 0.317647
0.164706 1.000000 0.333333
0.341176 1.000000 0.333333
0.482353 1.000000 0.325490
0.615686 1.000000 0.329412
0.752941 1.000000 0.337255
0.878431 1.000000 0.341176
0.996078 1.000000 0.349020
0.000000 0.000000 0.439216
0.054902 0.000000 0.443137
0.231373 0.003922 0.443137
0.360784 0.000000 0.435294
0.486275 0.000000 0.447059
0.619608 0.000000 0.450980
0.768627 0.003922 0.443137
0.913725 0.003922 0.450980
1.000000 0.000000 0.447059
0.007843 0.070588 0.443137
0.031373 0.074510 0.435294
0.231373 0.058824 0.439216
0.364706 0.027451 0.447059
0.498039 0.003922 0.443137
0.627451 0.000000 0.447059
0.768627 0.000000 0.450980
0.917647 0.000000 0.443137
1.000000 0.007843 0.443137
0.007843 0.211765 0.447059
0.039216 0.203922 0.439216
0.227451 0.203922 0.447059
0.372549 0.200000 0.439216
0.494118 0.203922 0.443137
0.627451 0.196078 0.443137
0.772549 0.180392 0.443137
0.913725 0.164706 0.439216
1.000000 0.160784 0.427451
0.007843 0.349020 0.447059
0.035294 0.349020 0.447059
0.219608 0.356863 0.443137
0.356863 0.349020 0.443137
0.490196 0.349020 0.450980
0.631373 0.349020 0.443137
0.776471 0.349020 0.439216
0.909804 0.345098 0.443137
0.992157 0.345098 0.439216
0.000000 0.501961 0.450980
0.000000 0.494118 0.447059
0.200000 0.498039 0.447059
0.352941 0.494118 0.439216
0.501961 0.494118 0.435294
0.639216 0.498039 0.443137
0.776471 0.494118 0.439216
0.909804 0.494118 0.439216
1.000000 0.486275 0.439216
0.003922 0.647059 0.439216
0.000000 0.647059 0.435294
0.145098 0.647059 0.439216
0.337255 0.643137 0.439216
0.509804 0.643137 0.443137
0.647059 0.647059 0.443137
0.780392 0.643137 0.427451
0.913725 0.639216 0.439216
1.000000 0.627451 0.431373
0.003922 0.768627 0.423529
0.007843 0.788235 0.431373
0.098039 0.780392 0.431373
0.329412 0.776471 0.423529
0.494118 0.780392 0.431373
0.639216 0.780392 0.427451
0.776471 0.776471 0.431373
0.913725 0.772549 0.427451
0.992157 0.768627 0.427451
0.000000 0.905882 0.427451
0.007843 0.905882 0.431373
0.105882 0.913725 0.419608
0.325490 0.913725 0.423529
0.482353 0.905882 0.419608
0.627451 0.901961 0.415686
0.764706 0.905882 0.419608
0.901961 0.909804 0.427451
1.000000 0.898039 0.423529
0.003922 0.996078 0.419608
0.000000 1.000000 0.411765
0.137255 0.996078 0.423529
0.329412 1.000000 0.427451
0.482353 1.000000 0.427451
0.615686 1.000000 0.423529
0.749020 1.000000 0.419608
0.874510 1.000000 0.423529
0.992157 1.000000 0.431373
0.000000 0.000000 0.556863
0.066667 0.000000 0.556863
0.227451 0.007843 0.545098
0.368627 0.000000 0.556863
0.498039 0.000000 0.552941
0.627451 0.000000 0.556863
0.772549 0.000000 0.556863
0.905882 0.003922 0.568627
1.000000 0.003922 0.564706
0.000000 0.058824 0.549020
0.054902 0.054902 0.564706
0.243137 0.043137 0.556863
0.368627 0.003922 0.560784
0.490196 0.003922 0.560784
0.631373 0.003922 0.560784
0.772549 0.000000 0.556863
0.913725 0.000000 0.564706
0.992157 0.003922 0.549020
0.003922 0.203922 0.560784
0.007843 0.200000 0.560784
0.231373 0.196078 0.560784
0.368627 0.200000 0.560784
0.501961 0.192157 0.560784
0.635294 0.180392 0.560784
0.780392 0.168627 0.564706
0.913725 0.152941 0.560784
1.000000 0.141176 0.552941
0.003922 0.345098 0.556863
0.007843 0.349020 0.556863
0.196078 0.341176 0.552941
0.345098 0.345098 0.556863
0.498039 0.337255 0.556863
0.643137 0.341176 0.560784
0.780392 0.337255 0.549020
0.913725 0.329412 0.549020
1.000000 0.329412 0.541176
0.003922 0.494118 0.552941
0.000000 0.498039 0.556863
0.188235 0.498039 0.556863
0.349020 0.494118 0.556863
0.494118 0.501961 0.560784
0.643137 0.494118 0.552941
0.780392 0.490196 0.556863
0.909804 0.486275 0.549020
0.996078 0.494118 0.545098
0.000000 0.647059 0.560784
0.000000 0.650980 0.552941
0.121569 0.647059 0.549020
0.325490 0.647059 0.556863
0.494118 0.643137 0.545098
0.643137 0.643137 0.541176
0.784314 0.635294 0.545098
0.913725 0.639216 0.549020
0.992157 0.639216 0.545098
0.000000 0.784314 0.541176
0.000000 0.784314 0.541176
0.035294 0.780392 0.529412
0.317647 0.780392 0.537255
0.482353 0.780392 0.537255
0.627451 0.780392 0.533333
0.776471 0.776471 0.533333
0.905882 0.772549 0.533333
1.000000 0.768627 0.541176
0.000000 0.917647 0.525490
0.000000 0.905882 0.529412
0.113725 0.909804 0.521569
0.321569 0.909804 0.529412
0.482353 0.913725 0.533333
0.627451 0.905882 0.529412
0.764706 0.905882 0.529412
0.901961 0.901961 0.525490
0.996078 0.898039 0.533333
0.000000 1.000000 0.521569
0.000000 1.000000 0.521569
0.176471 0.996078 0.529412
0.341176 0.996078 0.521569
0.490196 1.000000 0.521569
0.615686 1.000000 0.517647
0.752941 1.000000 0.533333
0.882353 1.000000 0.529412
1.000000 0.996078 0.533333
0.011765 0.000000 0.647059
0.145098 0.000000 0.666667
0.278431 0.000000 0.670588
0.388235 0.000000 0.666667
0.517647 0.000000 0.670588
0.639216 0.000000 0.662745
0.776471 0.000000 0.658824
0.913725 0.007843 0.674510
1.000000 0.003922 0.654902
0.000000 0.039216 0.662745
0.117647 0.031373 0.666667
0.247059 0.007843 0.658824
0.380392 0.000000 0.662745
0.501961 0.003922 0.658824
0.647059 0.000000 0.666667
0.776471 0.000000 0.666667
0.913725 0.000000 0.662745
0.992157 0.003922 0.650980
0.000000 0.200000 0.666667
0.074510 0.192157 0.670588
0.231373 0.196078 0.662745
0.380392 0.184314 0.658824
0.509804 0.180392 0.658824
0.643137 0.172549 0.666667
0.776471 0.156863 0.662745
0.913725 0.141176 0.654902
0.992157 0.133333 0.658824
0.003922 0.341176 0.666667
0.000000 0.345098 0.662745
0.203922 0.329412 0.662745
0.368627 0.337255 0.670588
0.509804 0.333333 0.658824
0.643137 0.333333 0.662745
0.788235 0.325490 0.662745
0.921569 0.329412 0.662745
0.996078 0.329412 0.647059
0.007843 0.486275 0.670588
0.000000 0.498039 0.658824
0.172549 0.490196 0.666667
0.329412 0.490196 0.658824
0.505882 0.482353 0.662745
0.650980 0.482353 0.658824
0.788235 0.486275 0.658824
0.917647 0.490196 0.666667
1.000000 0.490196 0.654902
0.000000 0.639216 0.666667
0.003922 0.643137 0.670588
0.133333 0.639216 0.662745
0.333333 0.643137 0.670588
0.494118 0.639216 0.662745
0.643137 0.635294 0.654902
0.780392 0.639216 0.654902
0.913725 0.639216 0.650980
0.996078 0.635294 0.647059
0.007843 0.776471 0.650980
0.000000 0.780392 0.658824
0.066667 0.780392 0.650980
0.321569 0.780392 0.647059
0.486275 0.780392 0.650980
0.639216 0.776471 0.643137
0.776471 0.772549 0.650980
0.909804 0.772549 0.647059
0.992157 0.772549 0.650980
0.000000 0.909804 0.643137
0.000000 0.909804 0.643137
0.141176 0.901961 0.647059
0.349020 0.905882 0.639216
0.494118 0.905882 0.643137
0.635294 0.905882 0.643137
0.764706 0.901961 0.635294
0.898039 0.901961 0.635294
0.992157 0.901961 0.639216
0.000000 1.000000 0.631373
0.078431 1.000000 0.643137
0.247059 1.000000 0.635294
0.384314 0.996078 0.639216
0.505882 0.996078 0.635294
0.643137 1.000000 0.635294
0.764706 0.996078 0.635294
0.886275 1.000000 0.639216
1.000000 0.996078 0.643137
0.105882 0.000000 0.772549
0.172549 0.003922 0.768627
0.282353 0.007843 0.776471
0.400000 0.000000 0.772549
0.521569 0.000000 0.772549
0.658824 0.000000 0.776471
0.780392 0.000000 0.772549
0.917647 0.003922 0.776471
1.000000 0.000000 0.772549
0.082353 0.000000 0.776471
0.160784 0.000000 0.772549
0.274510 0.000000 0.772549
0.400000 0.000000 0.772549
0.521569 0.000000 0.772549
0.650980 0.000000 0.768627
0.788235 0.000000 0.780392
0.917647 0.003922 0.776471
1.000000 0.000000 0.776471
0.000000 0.188235 0.772549
0.117647 0.184314 0.772549
0.254902 0.180392 0.784314
0.388235 0.172549 0.772549
0.525490 0.168627 0.776471
0.650980 0.152941 0.776471
0.788235 0.137255 0.772549
0.917647 0.117647 0.780392
1.000000 0.125490 0.768627
0.011765 0.329412 0.780392
0.000000 0.325490 0.772549
0.219608 0.325490 0.776471
0.364706 0.333333 0.776471
0.513725 0.329412 0.784314
0.650980 0.325490 0.780392
0.788235 0.321569 0.776471
0.925490 0.321569 0.776471
1.000000 0.321569 0.772549
0.000000 0.482353 0.776471
0.007843 0.482353 0.788235
0.164706 0.486275 0.776471
0.341176 0.482353 0.780392
0.494118 0.478431 0.776471
0.643137 0.478431 0.776471
0.792157 0.474510 0.776471
0.929412 0.474510 0.768627
1.000000 0.490196 0.772549
0.000000 0.631373 0.772549
0.003922 0.635294 0.784314
0.152941 0.627451 0.780392
0.333333 0.627451 0.780392
0.498039 0.631373 0.776471
0.639216 0.635294 0.768627
0.788235 0.631373 0.772549
0.913725 0.635294 0.768627
1.000000 0.639216 0.760784
0.003922 0.776471 0.776471
0.000000 0.772549 0.764706
0.121569 0.776471 0.776471
0.341176 0.780392 0.772549
0.498039 0.780392 0.764706
0.643137 0.776471 0.772549
0.780392 0.776471 0.768627
0.898039 0.776471 0.756863
1.000000 0.776471 0.764706
0.000000 0.905882 0.764706
0.000000 0.905882 0.764706
0.168627 0.901961 0.756863
0.352941 0.901961 0.764706
0.505882 0.901961 0.760784
0.647059 0.905882 0.764706
0.780392 0.901961 0.768627
0.905882 0.905882 0.764706
1.000000 0.890196 0.764706
0.031373 1.000000 0.752941
0.145098 0.996078 0.749020
0.278431 1.000000 0.756863
0.403922 1.000000 0.749020
0.533333 0.996078 0.752941
0.662745 1.000000 0.760784
0.780392 1.000000 0.760784
0.890196 1.000000 0.768627
0.996078 1.000000 0.772549
0.105882 0.000000 0.890196
0.180392 0.000000 0.901961
0.278431 0.000000 0.886275
0.396078 0.000000 0.886275
0.529412 0.000000 0.890196
0.654902 0.000000 0.898039
0.788235 0.000000 0.901961
0.913725 0.000000 0.905882
1.000000 0.003922 0.898039
0.086275 0.003922 0.901961
0.152941 0.000000 0.901961
0.270588 0.003922 0.894118
0.396078 0.000000 0.894118
0.529412 0.000000 0.898039
0.654902 0.000000 0.898039
0.788235 0.000000 0.901961
0.917647 0.000000 0.898039
1.000000 0.000000 0.901961
0.000000 0.180392 0.898039
0.133333 0.180392 0.901961
0.258824 0.172549 0.909804
0.380392 0.168627 0.890196
0.517647 0.164706 0.901961
0.647059 0.152941 0.890196
0.776471 0.137255 0.894118
0.917647 0.121569 0.898039
0.988235 0.098039 0.894118
0.003922 0.325490 0.898039
0.000000 0.329412 0.894118
0.215686 0.325490 0.894118
0.372549 0.325490 0.898039
0.505882 0.329412 0.898039
0.643137 0.321569 0.898039
0.784314 0.321569 0.909804
0.917647 0.313725 0.901961
1.000000 0.313725 0.898039
0.000000 0.478431 0.898039
0.000000 0.482353 0.890196
0.180392 0.470588 0.898039
0.345098 0.470588 0.898039
0.494118 0.470588 0.894118
0.635294 0.470588 0.894118
0.780392 0.470588 0.898039
0.913725 0.470588 0.901961
0.992157 0.478431 0.886275
0.003922 0.623529 0.901961
0.011765 0.619608 0.909804
0.149020 0.619608 0.894118
0.341176 0.615686 0.898039
0.501961 0.619608 0.894118
0.639216 0.631373 0.894118
0.780392 0.623529 0.898039
0.909804 0.623529 0.894118
1.000000 0.635294 0.882353
0.000000 0.760784 0.890196
0.003922 0.764706 0.901961
0.164706 0.756863 0.894118
0.352941 0.768627 0.894118
0.505882 0.764706 0.898039
0.643137 0.772549 0.894118
0.780392 0.776471 0.898039
0.905882 0.772549 0.905882
0.996078 0.780392 0.901961
0.000000 0.901961 0.894118
0.007843 0.898039 0.890196
0.196078 0.901961 0.898039
0.368627 0.901961 0.894118
0.509804 0.901961 0.894118
0.647059 0.901961 0.886275
0.780392 0.905882 0.894118
0.905882 0.901961 0.894118
0.996078 0.898039 0.878431
0.101961 0.996078 0.886275
0.176471 0.992157 0.882353
0.294118 1.000000 0.882353
0.411765 1.000000 0.882353
0.537255 1.000000 0.886275
0.666667 1.000000 0.878431
0.792157 1.000000 0.890196
0.901961 0.996078 0.894118
0.988235 1.000000 0.886275
0.066667 0.000000 0.996078
0.156863 0.000000 0.996078
0.262745 0.007843 1.000000
0.384314 0.003922 1.000000
0.509804 0.003922 0.996078
0.639216 0.000000 1.000000
0.764706 0.000000 0.996078
0.890196 0.000000 1.000000
0.988235 0.003922 1.000000
0.031373 0.003922 1.000000
0.137255 0.000000 1.000000
0.258824 0.003922 1.000000
0.380392 0.000000 0.992157
0.513725 0.000000 1.000000
0.639216 0.000000 1.000000
0.772549 0.000000 1.000000
0.894118 0.003922 1.000000
1.000000 0.000000 0.996078
0.000000 0.168627 0.992157
0.098039 0.176471 1.000000
0.243137 0.172549 0.996078
0.372549 0.164706 0.996078
0.501961 0.164706 1.000000
0.643137 0.152941 1.000000
0.768627 0.145098 0.996078
0.890196 0.133333 0.996078
1.000000 0.125490 0.992157
0.000000 0.321569 1.000000
0.007843 0.321569 1.000000
0.207843 0.325490 1.000000
0.360784 0.321569 1.000000
0.494118 0.321569 1.000000
0.623529 0.317647 1.000000
0.760784 0.321569 1.000000
0.894118 0.321569 1.000000
1.000000 0.321569 0.996078
0.000000 0.474510 1.000000
0.003922 0.466667 1.000000
0.180392 0.462745 0.996078
0.337255 0.470588 0.996078
0.490196 0.466667 1.000000
0.627451 0.470588 1.000000
0.756863 0.470588 1.000000
0.886275 0.470588 0.996078
0.996078 0.474510 0.988235
0.000000 0.615686 0.992157
0.000000 0.607843 1.000000
0.188235 0.611765 1.000000
0.352941 0.607843 1.000000
0.494118 0.619608 1.000000
0.627451 0.619608 1.000000
0.760784 0.619608 0.996078
0.890196 0.627451 1.000000
0.996078 0.631373 0.988235
0.007843 0.756863 1.000000
0.011765 0.752941 1.000000
0.207843 0.752941 1.000000
0.368627 0.752941 1.000000
0.505882 0.756863 1.000000
0.643137 0.760784 0.996078
0.768627 0.768627 1.000000
0.901961 0.760784 1.000000
1.000000 0.768627 1.000000
0.003922 0.886275 0.996078
0.133333 0.890196 0.996078
0.270588 0.882353 1.000000
0.392157 0.882353 1.000000
0.529412 0.886275 1.000000
0.658824 0.894118 1.000000
0.776471 0.894118 0.996078
0.898039 0.898039 0.992157
1.000000 0.898039 0.996078
0.211765 1.000000 1.000000
0.239216 1.000000 1.000000
0.333333 1.000000 0.996078
0.447059 1.000000 1.000000
0.560784 0.996078 1.000000
0.682353 1.000000 1.000000
0.803922 1.000000 0.996078
0.921569 1.000000 1.000000
1.000000 0.996078 1.000000
