lut_library_archive/removed_20260629/50个风景lut/50个风景lut16.cube
# 版权归凌孟成所有，侵权必究
TITLE "Jungle LUT #16"
#LUT size
LUT_3D_SIZE 25
#LUT data points
0.000000 0.000000 0.000000
0.000000 0.000000 0.000000
0.043137 0.000000 0.000000
0.094118 0.000000 0.000000
0.149020 0.000000 0.000000
0.192157 0.000000 0.000000
0.231373 0.003922 0.000000
0.274510 0.000000 0.000000
0.313725 0.000000 0.000000
0.356863 0.000000 0.000000
0.400000 0.003922 0.000000
0.447059 0.000000 0.000000
0.490196 0.000000 0.000000
0.533333 0.003922 0.000000
0.576471 0.000000 0.000000
0.627451 0.000000 0.000000
0.666667 0.003922 0.000000
0.713725 0.003922 0.007843
0.760784 0.000000 0.000000
0.800000 0.003922 0.000000
0.847059 0.003922 0.000000
0.890196 0.000000 0.000000
0.941176 0.003922 0.000000
0.984314 0.000000 0.003922
1.000000 0.007843 0.000000
0.003922 0.003922 0.000000
0.007843 0.007843 0.007843
0.054902 0.015686 0.007843
0.105882 0.007843 0.000000
0.149020 0.011765 0.000000
0.176471 0.003922 0.000000
0.235294 0.000000 0.000000
0.274510 0.000000 0.000000
0.313725 0.000000 0.003922
0.360784 0.003922 0.000000
0.400000 0.003922 0.003922
0.447059 0.000000 0.000000
0.486275 0.000000 0.000000
0.533333 0.003922 0.000000
0.576471 0.000000 0.000000
0.623529 0.000000 0.000000
0.670588 0.000000 0.000000
0.713725 0.003922 0.000000
0.760784 0.000000 0.000000
0.807843 0.003922 0.000000
0.847059 0.003922 0.003922
0.890196 0.000000 0.003922
0.929412 0.000000 0.000000
0.980392 0.003922 0.000000
0.996078 0.000000 0.000000
0.000000 0.062745 0.000000
0.000000 0.054902 0.000000
0.054902 0.058824 0.003922
0.101961 0.047059 0.000000
0.141176 0.054902 0.003922
0.184314 0.054902 0.000000
0.227451 0.039216 0.000000
0.274510 0.047059 0.003922
0.317647 0.043137 0.003922
0.360784 0.039216 0.000000
0.403922 0.035294 0.003922
0.450980 0.031373 0.007843
0.494118 0.027451 0.003922
0.533333 0.019608 0.003922
0.576471 0.007843 0.000000
0.619608 0.003922 0.000000
0.666667 0.003922 0.000000
0.709804 0.000000 0.000000
0.760784 0.000000 0.000000
0.807843 0.003922 0.000000
0.850980 0.000000 0.000000
0.894118 0.003922 0.007843
0.933333 0.003922 0.003922
0.992157 0.000000 0.003922
0.992157 0.011765 0.000000
0.007843 0.094118 0.003922
0.000000 0.094118 0.000000
0.047059 0.101961 0.003922
0.098039 0.098039 0.000000
0.137255 0.098039 0.000000
0.192157 0.090196 0.000000
0.231373 0.090196 0.000000
0.274510 0.094118 0.000000
0.317647 0.094118 0.000000
0.356863 0.090196 0.000000
0.403922 0.090196 0.000000
0.447059 0.086275 0.000000
0.486275 0.086275 0.000000
0.537255 0.078431 0.007843
0.576471 0.074510 0.000000
0.627451 0.066667 0.003922
0.666667 0.062745 0.000000
0.721569 0.047059 0.000000
0.764706 0.039216 0.000000
0.803922 0.019608 0.000000
0.847059 0.003922 0.000000
0.886275 0.003922 0.000000
0.941176 0.000000 0.003922
0.988235 0.003922 0.007843
0.984314 0.003922 0.000000
0.003922 0.133333 0.011765
0.011765 0.137255 0.000000
0.054902 0.141176 0.000000
0.101961 0.141176 0.000000
0.137255 0.137255 0.000000
0.188235 0.137255 0.000000
0.231373 0.137255 0.000000
0.270588 0.137255 0.000000
0.317647 0.137255 0.003922
0.356863 0.137255 0.000000
0.403922 0.137255 0.000000
0.443137 0.133333 0.003922
0.494118 0.133333 0.000000
0.537255 0.129412 0.000000
0.580392 0.125490 0.000000
0.631373 0.125490 0.003922
0.670588 0.117647 0.007843
0.709804 0.113725 0.000000
0.760784 0.105882 0.003922
0.807843 0.101961 0.003922
0.854902 0.086275 0.000000
0.890196 0.074510 0.000000
0.933333 0.050980 0.000000
0.984314 0.027451 0.003922
1.000000 0.003922 0.003922
0.000000 0.184314 0.003922
0.003922 0.184314 0.000000
0.058824 0.180392 0.007843
0.109804 0.184314 0.003922
0.149020 0.180392 0.000000
0.188235 0.180392 0.000000
0.227451 0.176471 0.000000
0.274510 0.180392 0.000000
0.321569 0.176471 0.000000
0.364706 0.180392 0.007843
0.407843 0.180392 0.003922
0.454902 0.176471 0.003922
0.498039 0.172549 0.000000
0.541176 0.180392 0.003922
0.580392 0.172549 0.000000
0.623529 0.176471 0.003922
0.670588 0.164706 0.000000
0.713725 0.164706 0.003922
0.760784 0.152941 0.000000
0.807843 0.149020 0.003922
0.854902 0.149020 0.011765
0.898039 0.137255 0.007843
0.937255 0.129412 0.003922
0.980392 0.121569 0.003922
0.992157 0.101961 0.000000
0.000000 0.227451 0.007843
0.015686 0.227451 0.000000
0.066667 0.219608 0.000000
0.117647 0.215686 0.000000
0.145098 0.219608 0.000000
0.192157 0.219608 0.007843
0.239216 0.219608 0.000000
0.278431 0.219608 0.003922
0.317647 0.219608 0.000000
0.364706 0.219608 0.003922
0.411765 0.219608 0.000000
0.454902 0.215686 0.000000
0.494118 0.215686 0.003922
0.541176 0.219608 0.000000
0.580392 0.219608 0.003922
0.627451 0.215686 0.000000
0.670588 0.211765 0.000000
0.713725 0.211765 0.000000
0.760784 0.207843 0.000000
0.815686 0.207843 0.003922
0.854902 0.200000 0.000000
0.901961 0.188235 0.000000
0.941176 0.192157 0.000000
0.980392 0.180392 0.011765
1.000000 0.164706 0.000000
0.003922 0.254902 0.007843
0.011765 0.266667 0.000000
0.062745 0.262745 0.000000
0.113725 0.270588 0.000000
0.156863 0.258824 0.003922
0.196078 0.254902 0.000000
0.239216 0.266667 0.000000
0.282353 0.262745 0.003922
0.321569 0.262745 0.000000
0.368627 0.262745 0.000000
0.407843 0.262745 0.000000
0.450980 0.266667 0.000000
0.494118 0.262745 0.000000
0.537255 0.258824 0.000000
0.592157 0.258824 0.003922
0.631373 0.258824 0.000000
0.678431 0.258824 0.000000
0.721569 0.254902 0.003922
0.764706 0.250980 0.000000
0.811765 0.250980 0.000000
0.854902 0.247059 0.000000
0.894118 0.247059 0.000000
0.945098 0.239216 0.007843
0.984314 0.235294 0.000000
0.996078 0.227451 0.000000
0.000000 0.305882 0.000000
0.007843 0.309804 0.003922
0.066667 0.301961 0.011765
0.105882 0.305882 0.000000
0.160784 0.305882 0.003922
0.196078 0.305882 0.003922
0.239216 0.305882 0.000000
0.282353 0.309804 0.003922
0.329412 0.305882 0.000000
0.368627 0.305882 0.000000
0.411765 0.305882 0.003922
0.454902 0.301961 0.000000
0.494118 0.301961 0.003922
0.545098 0.305882 0.000000
0.588235 0.301961 0.000000
0.635294 0.298039 0.000000
0.674510 0.301961 0.000000
0.717647 0.298039 0.000000
0.760784 0.294118 0.000000
0.815686 0.294118 0.000000
0.854902 0.294118 0.003922
0.905882 0.286275 0.000000
0.941176 0.282353 0.000000
0.992157 0.278431 0.000000
1.000000 0.270588 0.000000
0.007843 0.345098 0.003922
0.000000 0.349020 0.000000
0.054902 0.352941 0.007843
0.109804 0.345098 0.003922
0.156863 0.345098 0.000000
0.207843 0.349020 0.003922
0.250980 0.345098 0.000000
0.290196 0.345098 0.000000
0.333333 0.345098 0.000000
0.376471 0.349020 0.003922
0.419608 0.341176 0.000000
0.458824 0.341176 0.000000
0.494118 0.349020 0.003922
0.541176 0.345098 0.003922
0.580392 0.341176 0.000000
0.631373 0.341176 0.000000
0.674510 0.337255 0.000000
0.717647 0.337255 0.000000
0.768627 0.337255 0.000000
0.811765 0.333333 0.000000
0.850980 0.333333 0.000000
0.894118 0.333333 0.003922
0.941176 0.329412 0.000000
0.984314 0.325490 0.000000
1.000000 0.317647 0.000000
0.000000 0.392157 0.000000
0.007843 0.388235 0.000000
0.062745 0.392157 0.007843
0.117647 0.392157 0.003922
0.156863 0.392157 0.000000
0.203922 0.392157 0.000000
0.243137 0.392157 0.003922
0.290196 0.392157 0.003922
0.333333 0.392157 0.000000
0.372549 0.392157 0.000000
0.419608 0.388235 0.000000
0.462745 0.384314 0.000000
0.509804 0.384314 0.000000
0.552941 0.388235 0.000000
0.592157 0.380392 0.000000
0.635294 0.384314 0.000000
0.678431 0.384314 0.000000
0.721569 0.388235 0.000000
0.768627 0.384314 0.000000
0.811765 0.384314 0.000000
0.854902 0.380392 0.000000
0.890196 0.372549 0.000000
0.945098 0.372549 0.000000
0.984314 0.372549 0.007843
1.000000 0.368627 0.003922
0.007843 0.427451 0.003922
0.000000 0.439216 0.000000
0.054902 0.431373 0.000000
0.101961 0.439216 0.011765
0.156863 0.439216 0.007843
0.203922 0.431373 0.000000
0.250980 0.431373 0.003922
0.286275 0.435294 0.000000
0.329412 0.431373 0.000000
0.376471 0.431373 0.000000
0.419608 0.435294 0.000000
0.462745 0.431373 0.003922
0.509804 0.427451 0.000000
0.552941 0.427451 0.000000
0.596078 0.431373 0.000000
0.639216 0.427451 0.003922
0.678431 0.427451 0.003922
0.725490 0.427451 0.000000
0.768627 0.423529 0.000000
0.815686 0.419608 0.000000
0.858824 0.427451 0.000000
0.901961 0.423529 0.000000
0.941176 0.415686 0.000000
0.988235 0.415686 0.000000
1.000000 0.411765 0.000000
0.000000 0.482353 0.003922
0.003922 0.478431 0.000000
0.050980 0.474510 0.003922
0.105882 0.478431 0.000000
0.152941 0.470588 0.000000
0.207843 0.482353 0.003922
0.247059 0.474510 0.003922
0.286275 0.474510 0.003922
0.333333 0.470588 0.000000
0.380392 0.474510 0.003922
0.419608 0.474510 0.000000
0.466667 0.470588 0.000000
0.509804 0.470588 0.000000
0.552941 0.466667 0.000000
0.588235 0.470588 0.000000
0.635294 0.470588 0.000000
0.682353 0.466667 0.000000
0.721569 0.466667 0.003922
0.768627 0.470588 0.003922
0.815686 0.466667 0.003922
0.858824 0.462745 0.000000
0.901961 0.462745 0.003922
0.937255 0.466667 0.000000
0.980392 0.462745 0.000000
1.000000 0.454902 0.011765
0.003922 0.517647 0.000000
0.003922 0.517647 0.000000
0.047059 0.513725 0.003922
0.101961 0.517647 0.000000
0.168627 0.521569 0.003922
0.203922 0.513725 0.003922
0.247059 0.521569 0.003922
0.294118 0.517647 0.003922
0.333333 0.517647 0.000000
0.376471 0.517647 0.000000
0.423529 0.513725 0.003922
0.466667 0.509804 0.000000
0.505882 0.509804 0.000000
0.552941 0.513725 0.000000
0.592157 0.509804 0.003922
0.639216 0.509804 0.003922
0.682353 0.513725 0.000000
0.725490 0.509804 0.003922
0.768627 0.505882 0.000000
0.815686 0.505882 0.000000
0.854902 0.505882 0.003922
0.894118 0.505882 0.000000
0.949020 0.505882 0.003922
0.988235 0.494118 0.000000
0.992157 0.501961 0.000000
0.000000 0.560784 0.003922
0.000000 0.568627 0.007843
0.050980 0.556863 0.000000
0.117647 0.552941 0.000000
0.149020 0.560784 0.000000
0.200000 0.556863 0.000000
0.243137 0.564706 0.000000
0.298039 0.560784 0.003922
0.333333 0.556863 0.003922
0.380392 0.552941 0.000000
0.423529 0.560784 0.003922
0.470588 0.560784 0.003922
0.517647 0.552941 0.000000
0.560784 0.556863 0.000000
0.600000 0.549020 0.000000
0.643137 0.552941 0.000000
0.682353 0.552941 0.000000
0.721569 0.552941 0.000000
0.768627 0.552941 0.000000
0.815686 0.552941 0.003922
0.866667 0.549020 0.000000
0.909804 0.545098 0.000000
0.956863 0.541176 0.000000
0.988235 0.537255 0.000000
0.996078 0.533333 0.000000
0.000000 0.603922 0.000000
0.000000 0.603922 0.000000
0.043137 0.603922 0.000000
0.101961 0.607843 0.000000
0.156863 0.607843 0.000000
0.207843 0.603922 0.000000
0.250980 0.600000 0.000000
0.301961 0.600000 0.000000
0.341176 0.603922 0.000000
0.384314 0.603922 0.003922
0.427451 0.603922 0.003922
0.470588 0.600000 0.000000
0.509804 0.600000 0.000000
0.560784 0.603922 0.000000
0.603922 0.600000 0.000000
0.643137 0.600000 0.003922
0.694118 0.600000 0.003922
0.733333 0.600000 0.007843
0.776471 0.600000 0.000000
0.819608 0.596078 0.003922
0.862745 0.588235 0.000000
0.901961 0.592157 0.000000
0.945098 0.588235 0.000000
0.996078 0.588235 0.003922
1.000000 0.576471 0.007843
0.000000 0.650980 0.000000
0.003922 0.647059 0.000000
0.043137 0.647059 0.003922
0.101961 0.643137 0.003922
0.152941 0.643137 0.000000
0.203922 0.647059 0.000000
0.247059 0.650980 0.000000
0.298039 0.643137 0.000000
0.341176 0.647059 0.003922
0.384314 0.647059 0.000000
0.427451 0.643137 0.000000
0.474510 0.639216 0.003922
0.513725 0.639216 0.000000
0.560784 0.643137 0.003922
0.607843 0.639216 0.000000
0.647059 0.639216 0.000000
0.686275 0.639216 0.003922
0.729412 0.635294 0.000000
0.772549 0.635294 0.000000
0.823529 0.635294 0.000000
0.862745 0.635294 0.003922
0.905882 0.635294 0.003922
0.945098 0.635294 0.000000
0.996078 0.631373 0.000000
0.996078 0.631373 0.000000
0.003922 0.678431 0.000000
0.007843 0.682353 0.000000
0.035294 0.682353 0.000000
0.101961 0.690196 0.000000
0.149020 0.682353 0.003922
0.196078 0.682353 0.000000
0.250980 0.682353 0.000000
0.294118 0.682353 0.011765
0.337255 0.682353 0.000000
0.380392 0.686275 0.003922
0.423529 0.686275 0.000000
0.466667 0.690196 0.003922
0.513725 0.686275 0.000000
0.556863 0.682353 0.003922
0.603922 0.682353 0.000000
0.647059 0.678431 0.000000
0.690196 0.678431 0.000000
0.729412 0.678431 0.000000
0.780392 0.678431 0.000000
0.823529 0.678431 0.000000
0.870588 0.674510 0.000000
0.909804 0.674510 0.000000
0.952941 0.670588 0.000000
0.996078 0.670588 0.000000
0.996078 0.666667 0.000000
0.000000 0.725490 0.000000
0.003922 0.725490 0.000000
0.039216 0.721569 0.000000
0.098039 0.725490 0.000000
0.141176 0.729412 0.000000
0.200000 0.725490 0.000000
0.247059 0.721569 0.000000
0.294118 0.725490 0.000000
0.333333 0.725490 0.000000
0.380392 0.725490 0.000000
0.427451 0.725490 0.000000
0.470588 0.721569 0.000000
0.517647 0.717647 0.000000
0.564706 0.721569 0.000000
0.603922 0.721569 0.000000
0.647059 0.717647 0.000000
0.686275 0.717647 0.000000
0.725490 0.717647 0.000000
0.772549 0.717647 0.000000
0.819608 0.717647 0.000000
0.854902 0.713725 0.000000
0.913725 0.717647 0.003922
0.952941 0.717647 0.000000
0.992157 0.709804 0.000000
1.000000 0.709804 0.000000
0.000000 0.756863 0.000000
0.000000 0.764706 0.003922
0.035294 0.760784 0.007843
0.098039 0.756863 0.007843
0.152941 0.760784 0.000000
0.196078 0.768627 0.003922
0.250980 0.760784 0.000000
0.290196 0.764706 0.000000
0.341176 0.760784 0.000000
0.372549 0.764706 0.000000
0.427451 0.764706 0.000000
0.462745 0.760784 0.000000
0.517647 0.756863 0.000000
0.556863 0.756863 0.007843
0.600000 0.752941 0.003922
0.639216 0.756863 0.003922
0.682353 0.760784 0.003922
0.729412 0.756863 0.003922
0.772549 0.756863 0.000000
0.823529 0.756863 0.000000
0.850980 0.756863 0.000000
0.905882 0.752941 0.003922
0.960784 0.752941 0.000000
1.000000 0.752941 0.000000
1.000000 0.749020 0.000000
0.003922 0.807843 0.000000
0.000000 0.803922 0.000000
0.039216 0.803922 0.000000
0.094118 0.800000 0.000000
0.149020 0.803922 0.000000
0.203922 0.803922 0.003922
0.243137 0.803922 0.003922
0.286275 0.800000 0.000000
0.337255 0.803922 0.003922
0.380392 0.800000 0.000000
0.427451 0.800000 0.000000
0.470588 0.803922 0.000000
0.513725 0.800000 0.003922
0.556863 0.803922 0.007843
0.596078 0.796078 0.000000
0.647059 0.800000 0.003922
0.686275 0.800000 0.000000
0.729412 0.796078 0.003922
0.776471 0.796078 0.000000
0.819608 0.800000 0.000000
0.862745 0.796078 0.000000
0.905882 0.792157 0.000000
0.952941 0.792157 0.000000
0.996078 0.796078 0.000000
1.000000 0.796078 0.000000
0.007843 0.839216 0.000000
0.007843 0.835294 0.007843
0.019608 0.843137 0.000000
0.086275 0.839216 0.000000
0.152941 0.843137 0.000000
0.196078 0.839216 0.003922
0.239216 0.839216 0.000000
0.290196 0.843137 0.000000
0.337255 0.843137 0.000000
0.384314 0.839216 0.000000
0.423529 0.843137 0.000000
0.470588 0.843137 0.003922
0.509804 0.835294 0.000000
0.560784 0.835294 0.000000
0.600000 0.839216 0.000000
0.643137 0.835294 0.000000
0.682353 0.835294 0.000000
0.733333 0.835294 0.000000
0.772549 0.835294 0.000000
0.815686 0.831373 0.003922
0.858824 0.831373 0.000000
0.909804 0.831373 0.003922
0.949020 0.831373 0.007843
0.984314 0.831373 0.000000
0.992157 0.831373 0.000000
0.003922 0.878431 0.003922
0.003922 0.878431 0.003922
0.007843 0.878431 0.000000
0.070588 0.878431 0.000000
0.133333 0.878431 0.007843
0.196078 0.874510 0.003922
0.243137 0.878431 0.000000
0.290196 0.878431 0.000000
0.329412 0.882353 0.000000
0.376471 0.878431 0.000000
0.419608 0.874510 0.000000
0.462745 0.878431 0.000000
0.505882 0.878431 0.000000
0.552941 0.874510 0.003922
0.592157 0.874510 0.000000
0.631373 0.874510 0.000000
0.678431 0.874510 0.000000
0.725490 0.874510 0.000000
0.768627 0.870588 0.000000
0.807843 0.870588 0.000000
0.854902 0.870588 0.003922
0.901961 0.870588 0.000000
0.960784 0.866667 0.011765
0.992157 0.862745 0.003922
1.000000 0.866667 0.007843
0.007843 0.917647 0.000000
0.000000 0.909804 0.000000
0.000000 0.913725 0.000000
0.062745 0.913725 0.000000
0.133333 0.909804 0.011765
0.192157 0.917647 0.003922
0.231373 0.917647 0.003922
0.278431 0.913725 0.000000
0.329412 0.913725 0.003922
0.372549 0.913725 0.000000
0.415686 0.917647 0.003922
0.458824 0.913725 0.000000
0.505882 0.909804 0.003922
0.545098 0.913725 0.000000
0.592157 0.913725 0.003922
0.639216 0.909804 0.003922
0.682353 0.909804 0.000000
0.725490 0.905882 0.000000
0.776471 0.901961 0.000000
0.831373 0.905882 0.000000
0.870588 0.898039 0.003922
0.913725 0.905882 0.000000
0.952941 0.905882 0.000000
0.996078 0.901961 0.007843
1.000000 0.890196 0.003922
0.003922 0.956863 0.000000
0.003922 0.945098 0.000000
0.000000 0.949020 0.000000
0.000000 0.956863 0.000000
0.105882 0.949020 0.000000
0.156863 0.956863 0.000000
0.211765 0.952941 0.000000
0.270588 0.949020 0.000000
0.309804 0.949020 0.000000
0.364706 0.941176 0.000000
0.411765 0.952941 0.000000
0.466667 0.949020 0.003922
0.505882 0.952941 0.000000
0.552941 0.949020 0.000000
0.603922 0.949020 0.000000
0.654902 0.949020 0.000000
0.698039 0.945098 0.000000
0.749020 0.941176 0.000000
0.803922 0.941176 0.000000
0.847059 0.937255 0.003922
0.898039 0.941176 0.000000
0.941176 0.937255 0.003922
0.980392 0.933333 0.007843
1.000000 0.925490 0.003922
1.000000 0.921569 0.000000
0.000000 0.000000 0.007843
0.000000 0.000000 0.007843
0.054902 0.000000 0.007843
0.101961 0.000000 0.011765
0.141176 0.000000 0.007843
0.184314 0.003922 0.011765
0.223529 0.003922 0.007843
0.270588 0.003922 0.003922
0.317647 0.003922 0.000000
0.360784 0.000000 0.003922
0.407843 0.000000 0.003922
0.447059 0.000000 0.000000
0.490196 0.000000 0.000000
0.533333 0.003922 0.000000
0.576471 0.000000 0.000000
0.623529 0.000000 0.003922
0.666667 0.003922 0.000000
0.709804 0.000000 0.003922
0.760784 0.000000 0.000000
0.803922 0.007843 0.000000
0.847059 0.003922 0.000000
0.890196 0.000000 0.003922
0.941176 0.000000 0.003922
0.988235 0.003922 0.007843
0.996078 0.000000 0.000000
0.011765 0.011765 0.011765
0.007843 0.011765 0.019608
0.050980 0.011765 0.003922
0.094118 0.011765 0.007843
0.145098 0.011765 0.015686
0.184314 0.011765 0.015686
0.227451 0.011765 0.003922
0.274510 0.000000 0.000000
0.313725 0.000000 0.000000
0.360784 0.003922 0.000000
0.400000 0.003922 0.000000
0.447059 0.000000 0.000000
0.490196 0.000000 0.000000
0.537255 0.000000 0.000000
0.576471 0.000000 0.000000
0.627451 0.003922 0.000000
0.666667 0.003922 0.000000
0.713725 0.003922 0.000000
0.760784 0.000000 0.000000
0.803922 0.000000 0.000000
0.847059 0.003922 0.000000
0.898039 0.000000 0.000000
0.941176 0.003922 0.000000
0.972549 0.007843 0.000000
0.996078 0.000000 0.000000
0.003922 0.058824 0.000000
0.011765 0.054902 0.000000
0.066667 0.054902 0.019608
0.105882 0.058824 0.011765
0.141176 0.047059 0.000000
0.188235 0.058824 0.000000
0.231373 0.047059 0.007843
0.274510 0.054902 0.007843
0.321569 0.047059 0.007843
0.368627 0.047059 0.003922
0.407843 0.039216 0.007843
0.450980 0.031373 0.000000
0.490196 0.027451 0.000000
0.533333 0.023529 0.000000
0.580392 0.003922 0.000000
0.619608 0.003922 0.000000
0.670588 0.000000 0.000000
0.713725 0.003922 0.000000
0.760784 0.000000 0.000000
0.807843 0.003922 0.000000
0.850980 0.000000 0.000000
0.890196 0.000000 0.003922
0.933333 0.003922 0.000000
0.976471 0.000000 0.000000
1.000000 0.007843 0.000000
0.000000 0.094118 0.000000
0.011765 0.105882 0.011765
0.062745 0.098039 0.015686
0.101961 0.101961 0.007843
0.141176 0.098039 0.011765
0.188235 0.101961 0.007843
0.231373 0.094118 0.007843
0.274510 0.094118 0.003922
0.317647 0.090196 0.003922
0.364706 0.090196 0.000000
0.407843 0.094118 0.003922
0.447059 0.086275 0.000000
0.486275 0.086275 0.000000
0.541176 0.078431 0.000000
0.576471 0.074510 0.000000
0.623529 0.062745 0.000000
0.670588 0.050980 0.000000
0.717647 0.043137 0.003922
0.752941 0.023529 0.000000
0.800000 0.015686 0.000000
0.839216 0.003922 0.000000
0.890196 0.000000 0.000000
0.941176 0.000000 0.003922
0.984314 0.000000 0.003922
1.000000 0.007843 0.000000
0.000000 0.129412 0.007843
0.015686 0.137255 0.003922
0.058824 0.137255 0.000000
0.113725 0.141176 0.011765
0.149020 0.137255 0.007843
0.192157 0.141176 0.007843
0.239216 0.137255 0.007843
0.274510 0.141176 0.003922
0.325490 0.133333 0.003922
0.356863 0.137255 0.000000
0.411765 0.137255 0.003922
0.443137 0.133333 0.003922
0.490196 0.137255 0.000000
0.533333 0.129412 0.000000
0.580392 0.125490 0.000000
0.631373 0.125490 0.003922
0.674510 0.113725 0.007843
0.717647 0.109804 0.000000
0.764706 0.101961 0.000000
0.807843 0.098039 0.000000
0.839216 0.086275 0.000000
0.890196 0.074510 0.003922
0.945098 0.047059 0.003922
0.984314 0.019608 0.000000
0.996078 0.000000 0.000000
0.000000 0.180392 0.000000
0.011765 0.180392 0.000000
0.066667 0.180392 0.007843
0.113725 0.180392 0.003922
0.149020 0.180392 0.000000
0.188235 0.180392 0.000000
0.227451 0.180392 0.000000
0.274510 0.180392 0.000000
0.313725 0.180392 0.000000
0.360784 0.176471 0.000000
0.407843 0.180392 0.000000
0.447059 0.180392 0.003922
0.494118 0.176471 0.000000
0.533333 0.176471 0.000000
0.576471 0.176471 0.000000
0.619608 0.172549 0.000000
0.674510 0.168627 0.003922
0.713725 0.164706 0.003922
0.764706 0.156863 0.000000
0.807843 0.152941 0.000000
0.850980 0.149020 0.000000
0.898039 0.137255 0.000000
0.933333 0.125490 0.000000
0.976471 0.117647 0.000000
0.996078 0.109804 0.000000
0.000000 0.223529 0.000000
0.011765 0.223529 0.000000
0.054902 0.227451 0.000000
0.109804 0.223529 0.000000
0.137255 0.219608 0.000000
0.192157 0.223529 0.000000
0.243137 0.223529 0.003922
0.278431 0.219608 0.003922
0.321569 0.215686 0.000000
0.372549 0.219608 0.003922
0.411765 0.219608 0.000000
0.454902 0.215686 0.003922
0.494118 0.215686 0.003922
0.537255 0.215686 0.000000
0.588235 0.215686 0.003922
0.627451 0.215686 0.000000
0.670588 0.211765 0.000000
0.721569 0.207843 0.003922
0.764706 0.203922 0.000000
0.811765 0.200000 0.007843
0.850980 0.196078 0.000000
0.901961 0.188235 0.003922
0.941176 0.180392 0.000000
0.992157 0.172549 0.011765
1.000000 0.168627 0.000000
0.000000 0.266667 0.007843
0.000000 0.270588 0.000000
0.058824 0.266667 0.000000
0.109804 0.262745 0.000000
0.152941 0.266667 0.007843
0.200000 0.262745 0.007843
0.235294 0.262745 0.000000
0.282353 0.262745 0.003922
0.321569 0.262745 0.000000
0.372549 0.266667 0.003922
0.411765 0.266667 0.000000
0.454902 0.262745 0.000000
0.498039 0.262745 0.000000
0.537255 0.258824 0.000000
0.588235 0.254902 0.000000
0.631373 0.258824 0.007843
0.678431 0.254902 0.003922
0.721569 0.254902 0.003922
0.764706 0.250980 0.000000
0.811765 0.250980 0.000000
0.854902 0.247059 0.000000
0.894118 0.247059 0.000000
0.933333 0.235294 0.007843
0.988235 0.223529 0.003922
0.996078 0.219608 0.000000
0.000000 0.301961 0.000000
0.000000 0.305882 0.000000
0.054902 0.305882 0.000000
0.101961 0.309804 0.000000
0.156863 0.309804 0.000000
0.196078 0.305882 0.003922
0.235294 0.309804 0.000000
0.278431 0.305882 0.000000
0.329412 0.305882 0.000000
0.372549 0.305882 0.000000
0.411765 0.305882 0.000000
0.454902 0.301961 0.000000
0.501961 0.298039 0.000000
0.545098 0.305882 0.000000
0.580392 0.298039 0.000000
0.623529 0.298039 0.000000
0.674510 0.298039 0.000000
0.717647 0.298039 0.000000
0.760784 0.294118 0.000000
0.811765 0.290196 0.000000
0.854902 0.286275 0.000000
0.894118 0.290196 0.007843
0.937255 0.278431 0.000000
0.992157 0.274510 0.007843
0.996078 0.274510 0.000000
0.000000 0.345098 0.003922
0.007843 0.345098 0.000000
0.058824 0.349020 0.007843
0.101961 0.345098 0.003922
0.156863 0.345098 0.000000
0.200000 0.352941 0.003922
0.247059 0.349020 0.000000
0.290196 0.345098 0.000000
0.325490 0.349020 0.000000
0.368627 0.349020 0.000000
0.411765 0.345098 0.000000
0.454902 0.349020 0.000000
0.501961 0.345098 0.003922
0.545098 0.341176 0.011765
0.592157 0.341176 0.000000
0.631373 0.341176 0.000000
0.674510 0.337255 0.000000
0.721569 0.341176 0.000000
0.768627 0.337255 0.000000
0.815686 0.337255 0.003922
0.862745 0.329412 0.000000
0.901961 0.329412 0.000000
0.941176 0.329412 0.000000
0.984314 0.325490 0.000000
0.996078 0.321569 0.000000
0.000000 0.388235 0.000000
0.007843 0.392157 0.000000
0.050980 0.396078 0.003922
0.101961 0.396078 0.000000
0.156863 0.392157 0.000000
0.203922 0.388235 0.003922
0.243137 0.392157 0.003922
0.290196 0.392157 0.003922
0.329412 0.384314 0.000000
0.368627 0.388235 0.000000
