lut_library_archive/removed_20260629/50个风景lut/50个风景lut25.cube
# 版权归凌孟成所有，侵权必究
TITLE "Jungle LUT #25"
#LUT size
LUT_3D_SIZE 25
#LUT data points
0.000000 0.000000 0.000000
0.003922 0.000000 0.000000
0.066667 0.003922 0.007843
0.101961 0.000000 0.003922
0.160784 0.000000 0.003922
0.200000 0.003922 0.007843
0.239216 0.011765 0.000000
0.274510 0.027451 0.000000
0.309804 0.043137 0.000000
0.356863 0.050980 0.000000
0.403922 0.070588 0.000000
0.431373 0.074510 0.000000
0.470588 0.086275 0.000000
0.509804 0.101961 0.003922
0.552941 0.117647 0.000000
0.592157 0.125490 0.000000
0.643137 0.141176 0.003922
0.694118 0.152941 0.007843
0.749020 0.172549 0.003922
0.788235 0.188235 0.000000
0.839216 0.200000 0.007843
0.890196 0.215686 0.003922
0.937255 0.223529 0.000000
0.988235 0.247059 0.000000
0.996078 0.254902 0.003922
0.000000 0.027451 0.000000
0.027451 0.015686 0.000000
0.066667 0.023529 0.000000
0.105882 0.023529 0.003922
0.168627 0.031373 0.007843
0.192157 0.035294 0.000000
0.243137 0.050980 0.000000
0.278431 0.054902 0.000000
0.325490 0.062745 0.000000
0.368627 0.074510 0.000000
0.400000 0.082353 0.000000
0.435294 0.098039 0.000000
0.474510 0.105882 0.003922
0.509804 0.121569 0.007843
0.552941 0.125490 0.003922
0.592157 0.141176 0.000000
0.639216 0.149020 0.000000
0.690196 0.164706 0.000000
0.741176 0.184314 0.003922
0.788235 0.196078 0.000000
0.843137 0.211765 0.000000
0.890196 0.223529 0.000000
0.937255 0.231373 0.000000
0.980392 0.250980 0.000000
0.992157 0.262745 0.000000
0.000000 0.066667 0.003922
0.023529 0.074510 0.003922
0.082353 0.070588 0.003922
0.129412 0.062745 0.000000
0.160784 0.074510 0.000000
0.207843 0.066667 0.003922
0.239216 0.070588 0.000000
0.290196 0.086275 0.003922
0.329412 0.090196 0.007843
0.364706 0.101961 0.000000
0.403922 0.109804 0.003922
0.431373 0.113725 0.000000
0.474510 0.129412 0.000000
0.513725 0.125490 0.000000
0.549020 0.141176 0.000000
0.596078 0.152941 0.000000
0.647059 0.164706 0.000000
0.686275 0.176471 0.000000
0.737255 0.192157 0.000000
0.788235 0.203922 0.003922
0.839216 0.219608 0.000000
0.890196 0.231373 0.007843
0.937255 0.247059 0.000000
0.972549 0.266667 0.003922
0.996078 0.266667 0.003922
0.003922 0.117647 0.000000
0.019608 0.109804 0.000000
0.078431 0.113725 0.000000
0.133333 0.113725 0.000000
0.164706 0.109804 0.003922
0.211765 0.113725 0.003922
0.247059 0.113725 0.003922
0.290196 0.121569 0.000000
0.329412 0.121569 0.000000
0.360784 0.133333 0.000000
0.403922 0.137255 0.000000
0.447059 0.141176 0.000000
0.474510 0.145098 0.000000
0.513725 0.152941 0.000000
0.560784 0.164706 0.000000
0.596078 0.172549 0.000000
0.639216 0.184314 0.000000
0.690196 0.196078 0.007843
0.741176 0.211765 0.003922
0.788235 0.219608 0.000000
0.843137 0.231373 0.000000
0.890196 0.243137 0.000000
0.937255 0.250980 0.000000
0.968627 0.282353 0.003922
1.000000 0.278431 0.007843
0.000000 0.160784 0.003922
0.019608 0.164706 0.000000
0.074510 0.164706 0.000000
0.133333 0.152941 0.000000
0.176471 0.156863 0.000000
0.219608 0.149020 0.000000
0.254902 0.145098 0.000000
0.286275 0.156863 0.000000
0.333333 0.164706 0.000000
0.372549 0.164706 0.000000
0.403922 0.164706 0.000000
0.435294 0.172549 0.007843
0.478431 0.176471 0.003922
0.521569 0.180392 0.003922
0.556863 0.188235 0.000000
0.596078 0.200000 0.000000
0.639216 0.203922 0.000000
0.690196 0.219608 0.000000
0.745098 0.227451 0.000000
0.796078 0.243137 0.000000
0.843137 0.250980 0.003922
0.890196 0.258824 0.003922
0.941176 0.274510 0.000000
0.984314 0.286275 0.000000
0.996078 0.301961 0.000000
0.003922 0.200000 0.000000
0.031373 0.203922 0.003922
0.090196 0.200000 0.000000
0.125490 0.203922 0.000000
0.164706 0.203922 0.000000
0.211765 0.200000 0.000000
0.258824 0.196078 0.000000
0.301961 0.196078 0.000000
0.341176 0.200000 0.011765
0.376471 0.196078 0.003922
0.415686 0.196078 0.003922
0.450980 0.203922 0.000000
0.490196 0.211765 0.007843
0.525490 0.215686 0.000000
0.568627 0.219608 0.000000
0.607843 0.231373 0.000000
0.654902 0.239216 0.003922
0.701961 0.250980 0.003922
0.749020 0.254902 0.000000
0.796078 0.270588 0.000000
0.850980 0.278431 0.003922
0.894118 0.286275 0.000000
0.941176 0.294118 0.000000
0.984314 0.305882 0.000000
1.000000 0.321569 0.003922
0.003922 0.239216 0.000000
0.039216 0.239216 0.000000
0.082353 0.247059 0.000000
0.141176 0.243137 0.003922
0.168627 0.239216 0.000000
0.223529 0.247059 0.003922
0.262745 0.247059 0.007843
0.305882 0.231373 0.011765
0.341176 0.227451 0.000000
0.372549 0.231373 0.000000
0.415686 0.235294 0.003922
0.454902 0.243137 0.000000
0.482353 0.243137 0.000000
0.525490 0.247059 0.000000
0.572549 0.254902 0.000000
0.607843 0.258824 0.000000
0.654902 0.266667 0.003922
0.705882 0.274510 0.003922
0.756863 0.286275 0.007843
0.807843 0.290196 0.000000
0.850980 0.305882 0.003922
0.905882 0.313725 0.003922
0.952941 0.321569 0.007843
0.984314 0.337255 0.000000
1.000000 0.337255 0.000000
0.000000 0.290196 0.000000
0.023529 0.290196 0.000000
0.070588 0.290196 0.003922
0.121569 0.286275 0.000000
0.168627 0.286275 0.003922
0.227451 0.278431 0.000000
0.258824 0.282353 0.000000
0.298039 0.282353 0.003922
0.341176 0.274510 0.000000
0.376471 0.270588 0.000000
0.411765 0.266667 0.000000
0.447059 0.274510 0.003922
0.490196 0.278431 0.003922
0.529412 0.278431 0.000000
0.572549 0.282353 0.003922
0.619608 0.290196 0.007843
0.666667 0.301961 0.000000
0.709804 0.305882 0.000000
0.764706 0.313725 0.000000
0.811765 0.329412 0.000000
0.866667 0.333333 0.000000
0.909804 0.341176 0.000000
0.941176 0.349020 0.000000
0.996078 0.368627 0.007843
1.000000 0.368627 0.000000
0.000000 0.329412 0.000000
0.023529 0.325490 0.003922
0.074510 0.321569 0.000000
0.109804 0.325490 0.000000
0.160784 0.325490 0.000000
0.211765 0.325490 0.003922
0.258824 0.325490 0.007843
0.309804 0.321569 0.003922
0.345098 0.317647 0.003922
0.384314 0.309804 0.007843
0.415686 0.301961 0.003922
0.454902 0.301961 0.007843
0.490196 0.309804 0.007843
0.533333 0.317647 0.000000
0.580392 0.317647 0.007843
0.623529 0.325490 0.000000
0.670588 0.333333 0.000000
0.717647 0.337255 0.000000
0.764706 0.345098 0.000000
0.811765 0.352941 0.000000
0.854902 0.360784 0.000000
0.905882 0.372549 0.000000
0.945098 0.380392 0.000000
0.992157 0.384314 0.000000
1.000000 0.392157 0.000000
0.000000 0.364706 0.000000
0.015686 0.364706 0.000000
0.070588 0.364706 0.000000
0.105882 0.368627 0.003922
0.156863 0.364706 0.011765
0.203922 0.360784 0.011765
0.250980 0.364706 0.003922
0.301961 0.368627 0.000000
0.345098 0.356863 0.000000
0.384314 0.356863 0.003922
0.427451 0.349020 0.000000
0.462745 0.337255 0.000000
0.501961 0.345098 0.003922
0.541176 0.345098 0.003922
0.584314 0.352941 0.000000
0.631373 0.360784 0.003922
0.674510 0.364706 0.003922
0.721569 0.372549 0.003922
0.764706 0.380392 0.000000
0.811765 0.388235 0.003922
0.858824 0.400000 0.000000
0.909804 0.403922 0.003922
0.956863 0.415686 0.000000
0.992157 0.419608 0.000000
1.000000 0.427451 0.000000
0.000000 0.411765 0.003922
0.011765 0.415686 0.003922
0.062745 0.403922 0.000000
0.129412 0.407843 0.000000
0.164706 0.411765 0.000000
0.203922 0.411765 0.000000
0.247059 0.407843 0.000000
0.305882 0.403922 0.003922
0.341176 0.407843 0.000000
0.388235 0.407843 0.003922
0.431373 0.403922 0.000000
0.462745 0.392157 0.000000
0.501961 0.388235 0.000000
0.552941 0.384314 0.007843
0.600000 0.388235 0.003922
0.643137 0.392157 0.011765
0.690196 0.411765 0.003922
0.737255 0.411765 0.003922
0.780392 0.419608 0.000000
0.831373 0.431373 0.000000
0.870588 0.435294 0.000000
0.913725 0.439216 0.000000
0.956863 0.454902 0.003922
0.992157 0.454902 0.007843
0.992157 0.462745 0.000000
0.000000 0.450980 0.000000
0.003922 0.454902 0.000000
0.058824 0.443137 0.000000
0.109804 0.447059 0.011765
0.152941 0.454902 0.000000
0.200000 0.450980 0.003922
0.250980 0.447059 0.000000
0.294118 0.450980 0.000000
0.337255 0.450980 0.000000
0.380392 0.447059 0.000000
0.431373 0.447059 0.003922
0.478431 0.450980 0.003922
0.513725 0.435294 0.000000
0.552941 0.427451 0.000000
0.596078 0.431373 0.000000
0.639216 0.435294 0.000000
0.686275 0.447059 0.000000
0.733333 0.454902 0.000000
0.788235 0.454902 0.000000
0.827451 0.466667 0.000000
0.878431 0.466667 0.000000
0.925490 0.478431 0.000000
0.964706 0.478431 0.000000
1.000000 0.486275 0.007843
0.992157 0.486275 0.000000
0.000000 0.498039 0.000000
0.000000 0.486275 0.000000
0.050980 0.490196 0.000000
0.109804 0.498039 0.003922
0.156863 0.494118 0.011765
0.196078 0.494118 0.000000
0.247059 0.490196 0.000000
0.294118 0.490196 0.000000
0.341176 0.494118 0.003922
0.388235 0.490196 0.000000
0.435294 0.490196 0.007843
0.482353 0.490196 0.007843
0.525490 0.486275 0.003922
0.560784 0.482353 0.000000
0.603922 0.466667 0.000000
0.647059 0.474510 0.000000
0.701961 0.482353 0.000000
0.749020 0.494118 0.007843
0.792157 0.498039 0.007843
0.831373 0.498039 0.000000
0.874510 0.501961 0.000000
0.921569 0.509804 0.007843
0.968627 0.513725 0.007843
0.996078 0.513725 0.007843
1.000000 0.521569 0.000000
0.003922 0.537255 0.000000
0.000000 0.541176 0.000000
0.043137 0.541176 0.011765
0.098039 0.537255 0.000000
0.156863 0.541176 0.000000
0.188235 0.545098 0.000000
0.250980 0.541176 0.000000
0.290196 0.541176 0.000000
0.341176 0.541176 0.000000
0.384314 0.545098 0.000000
0.443137 0.537255 0.003922
0.482353 0.537255 0.000000
0.533333 0.537255 0.000000
0.576471 0.545098 0.007843
0.603922 0.525490 0.000000
0.647059 0.513725 0.000000
0.705882 0.521569 0.003922
0.749020 0.525490 0.003922
0.788235 0.529412 0.000000
0.839216 0.533333 0.000000
0.882353 0.537255 0.011765
0.933333 0.545098 0.007843
0.968627 0.549020 0.000000
0.996078 0.549020 0.000000
1.000000 0.556863 0.000000
0.000000 0.588235 0.003922
0.000000 0.592157 0.000000
0.023529 0.596078 0.007843
0.082353 0.592157 0.003922
0.141176 0.592157 0.000000
0.184314 0.596078 0.000000
0.235294 0.588235 0.000000
0.290196 0.588235 0.000000
0.341176 0.588235 0.003922
0.384314 0.592157 0.003922
0.435294 0.592157 0.000000
0.490196 0.592157 0.000000
0.533333 0.592157 0.000000
0.576471 0.588235 0.000000
0.631373 0.588235 0.000000
0.670588 0.576471 0.000000
0.705882 0.564706 0.000000
0.752941 0.564706 0.000000
0.796078 0.568627 0.003922
0.839216 0.572549 0.003922
0.898039 0.580392 0.000000
0.933333 0.580392 0.000000
0.968627 0.588235 0.003922
1.000000 0.584314 0.003922
0.996078 0.588235 0.000000
0.003922 0.647059 0.003922
0.000000 0.654902 0.000000
0.011765 0.654902 0.000000
0.078431 0.654902 0.003922
0.129412 0.647059 0.003922
0.192157 0.647059 0.007843
0.231373 0.650980 0.000000
0.294118 0.650980 0.000000
0.352941 0.647059 0.000000
0.400000 0.647059 0.000000
0.447059 0.647059 0.000000
0.494118 0.647059 0.000000
0.545098 0.643137 0.003922
0.596078 0.647059 0.000000
0.643137 0.647059 0.003922
0.690196 0.643137 0.000000
0.729412 0.635294 0.000000
0.760784 0.623529 0.000000
0.811765 0.615686 0.003922
0.850980 0.615686 0.003922
0.894118 0.619608 0.003922
0.941176 0.627451 0.003922
0.980392 0.627451 0.003922
1.000000 0.623529 0.000000
0.992157 0.631373 0.000000
0.007843 0.690196 0.000000
0.007843 0.686275 0.011765
0.000000 0.701961 0.000000
0.047059 0.694118 0.000000
0.129412 0.694118 0.003922
0.188235 0.701961 0.000000
0.235294 0.694118 0.000000
0.294118 0.698039 0.003922
0.345098 0.698039 0.000000
0.392157 0.694118 0.000000
0.443137 0.694118 0.003922
0.498039 0.694118 0.000000
0.545098 0.690196 0.000000
0.596078 0.690196 0.007843
0.647059 0.698039 0.003922
0.701961 0.690196 0.011765
0.737255 0.686275 0.003922
0.784314 0.674510 0.000000
0.807843 0.666667 0.000000
0.854902 0.654902 0.000000
0.890196 0.662745 0.000000
0.941176 0.654902 0.000000
0.976471 0.658824 0.000000
0.988235 0.666667 0.003922
1.000000 0.666667 0.000000
0.003922 0.741176 0.000000
0.000000 0.745098 0.000000
0.003922 0.749020 0.011765
0.003922 0.737255 0.003922
0.105882 0.741176 0.000000
0.172549 0.745098 0.003922
0.227451 0.745098 0.000000
0.278431 0.745098 0.000000
0.333333 0.745098 0.000000
0.384314 0.741176 0.000000
0.439216 0.741176 0.000000
0.498039 0.741176 0.000000
0.541176 0.741176 0.000000
0.584314 0.737255 0.000000
0.643137 0.741176 0.000000
0.682353 0.741176 0.000000
0.737255 0.741176 0.000000
0.780392 0.737255 0.007843
0.823529 0.721569 0.011765
0.858824 0.705882 0.003922
0.898039 0.698039 0.000000
0.941176 0.694118 0.000000
0.992157 0.694118 0.011765
1.000000 0.701961 0.000000
1.000000 0.701961 0.019608
0.003922 0.788235 0.000000
0.007843 0.788235 0.007843
0.007843 0.784314 0.003922
0.000000 0.796078 0.000000
0.078431 0.792157 0.003922
0.160784 0.780392 0.003922
0.223529 0.788235 0.007843
0.274510 0.788235 0.003922
0.313725 0.796078 0.000000
0.388235 0.788235 0.003922
0.431373 0.788235 0.000000
0.486275 0.788235 0.000000
0.537255 0.788235 0.000000
0.584314 0.784314 0.000000
0.639216 0.788235 0.007843
0.690196 0.784314 0.007843
0.737255 0.780392 0.003922
0.788235 0.772549 0.000000
0.831373 0.776471 0.003922
0.882353 0.772549 0.007843
0.898039 0.749020 0.000000
0.937255 0.737255 0.000000
0.988235 0.741176 0.000000
1.000000 0.737255 0.003922
1.000000 0.733333 0.007843
0.007843 0.839216 0.000000
0.007843 0.827451 0.011765
0.000000 0.831373 0.007843
0.003922 0.827451 0.000000
0.050980 0.827451 0.000000
0.137255 0.835294 0.011765
0.215686 0.835294 0.007843
0.270588 0.835294 0.003922
0.321569 0.831373 0.000000
0.368627 0.835294 0.000000
0.427451 0.831373 0.000000
0.478431 0.831373 0.000000
0.529412 0.827451 0.000000
0.576471 0.827451 0.000000
0.631373 0.827451 0.000000
0.682353 0.823529 0.000000
0.733333 0.819608 0.007843
0.784314 0.823529 0.007843
0.827451 0.819608 0.000000
0.878431 0.823529 0.000000
0.917647 0.807843 0.000000
0.945098 0.796078 0.000000
0.972549 0.780392 0.000000
1.000000 0.772549 0.000000
1.000000 0.776471 0.003922
0.000000 0.882353 0.003922
0.007843 0.878431 0.003922
0.003922 0.878431 0.003922
0.000000 0.882353 0.000000
0.019608 0.886275 0.000000
0.125490 0.882353 0.007843
0.203922 0.878431 0.007843
0.266667 0.878431 0.003922
0.317647 0.874510 0.000000
0.364706 0.874510 0.003922
0.419608 0.882353 0.000000
0.466667 0.874510 0.000000
0.533333 0.878431 0.000000
0.580392 0.878431 0.007843
0.631373 0.874510 0.000000
0.674510 0.870588 0.000000
0.725490 0.874510 0.000000
0.772549 0.870588 0.000000
0.827451 0.866667 0.000000
0.878431 0.870588 0.000000
0.925490 0.870588 0.003922
0.960784 0.858824 0.000000
0.988235 0.835294 0.000000
1.000000 0.823529 0.000000
1.000000 0.811765 0.000000
0.003922 0.917647 0.011765
0.000000 0.921569 0.000000
0.000000 0.913725 0.000000
0.000000 0.929412 0.007843
0.003922 0.917647 0.003922
0.094118 0.913725 0.000000
0.180392 0.917647 0.000000
0.250980 0.917647 0.000000
0.301961 0.921569 0.000000
0.349020 0.921569 0.000000
0.403922 0.921569 0.003922
0.462745 0.917647 0.000000
0.517647 0.917647 0.003922
0.568627 0.917647 0.007843
0.611765 0.917647 0.000000
0.666667 0.909804 0.000000
0.717647 0.909804 0.000000
0.764706 0.913725 0.000000
0.819608 0.905882 0.000000
0.862745 0.909804 0.000000
0.921569 0.905882 0.000000
0.960784 0.905882 0.000000
0.996078 0.901961 0.000000
1.000000 0.874510 0.000000
1.000000 0.854902 0.000000
0.000000 0.956863 0.000000
0.007843 0.960784 0.011765
0.000000 0.952941 0.000000
0.015686 0.952941 0.000000
0.000000 0.952941 0.000000
0.043137 0.956863 0.007843
0.164706 0.952941 0.000000
0.223529 0.956863 0.000000
0.278431 0.960784 0.000000
0.337255 0.956863 0.000000
0.400000 0.952941 0.000000
0.454902 0.956863 0.003922
0.505882 0.952941 0.000000
0.556863 0.952941 0.000000
0.603922 0.949020 0.000000
0.658824 0.952941 0.003922
0.713725 0.952941 0.000000
0.760784 0.949020 0.000000
0.811765 0.941176 0.000000
0.862745 0.945098 0.000000
0.913725 0.945098 0.000000
0.952941 0.945098 0.000000
1.000000 0.941176 0.000000
0.996078 0.937255 0.000000
0.996078 0.909804 0.000000
0.000000 0.996078 0.007843
0.007843 0.992157 0.000000
0.000000 0.988235 0.000000
0.007843 0.996078 0.011765
0.003922 0.996078 0.000000
0.007843 0.992157 0.000000
0.109804 0.992157 0.000000
0.203922 0.992157 0.003922
0.274510 0.988235 0.003922
0.325490 0.996078 0.000000
0.376471 0.992157 0.000000
0.427451 0.996078 0.000000
0.494118 0.992157 0.000000
0.545098 0.984314 0.000000
0.592157 0.988235 0.000000
0.643137 0.984314 0.000000
0.705882 0.992157 0.000000
0.752941 0.984314 0.000000
0.803922 0.980392 0.000000
0.862745 0.984314 0.000000
0.905882 0.980392 0.000000
0.964706 0.972549 0.003922
1.000000 0.968627 0.003922
1.000000 0.968627 0.000000
1.000000 0.960784 0.000000
0.000000 0.996078 0.000000
0.011765 1.000000 0.007843
0.011765 1.000000 0.000000
0.000000 1.000000 0.000000
0.000000 0.996078 0.019608
0.007843 0.992157 0.000000
0.058824 0.996078 0.000000
0.160784 1.000000 0.000000
0.250980 1.000000 0.003922
0.305882 1.000000 0.000000
0.368627 1.000000 0.000000
0.431373 1.000000 0.007843
0.486275 1.000000 0.003922
0.533333 1.000000 0.003922
0.588235 1.000000 0.000000
0.643137 1.000000 0.000000
0.705882 1.000000 0.000000
0.768627 1.000000 0.000000
0.819608 1.000000 0.000000
0.874510 1.000000 0.000000
0.933333 1.000000 0.000000
0.972549 1.000000 0.003922
0.996078 1.000000 0.003922
1.000000 0.996078 0.000000
1.000000 1.000000 0.000000
0.000000 0.000000 0.015686
0.019608 0.000000 0.015686
0.070588 0.003922 0.027451
0.117647 0.000000 0.015686
0.152941 0.000000 0.011765
0.200000 0.019608 0.019608
0.227451 0.035294 0.011765
0.274510 0.043137 0.011765
0.317647 0.054902 0.019608
0.364706 0.066667 0.015686
0.400000 0.074510 0.019608
0.431373 0.086275 0.007843
0.470588 0.094118 0.007843
0.505882 0.109804 0.000000
0.549020 0.121569 0.003922
0.584314 0.129412 0.000000
0.631373 0.149020 0.000000
0.686275 0.156863 0.007843
0.737255 0.168627 0.007843
0.788235 0.184314 0.003922
0.839216 0.200000 0.007843
0.882353 0.211765 0.000000
0.937255 0.231373 0.000000
0.976471 0.243137 0.003922
1.000000 0.254902 0.000000
0.000000 0.019608 0.019608
0.031373 0.023529 0.027451
0.078431 0.035294 0.027451
0.109804 0.027451 0.023529
0.149020 0.043137 0.007843
0.200000 0.050980 0.011765
0.239216 0.054902 0.023529
0.286275 0.066667 0.019608
0.321569 0.074510 0.015686
0.364706 0.078431 0.019608
0.396078 0.090196 0.011765
0.435294 0.098039 0.007843
0.470588 0.113725 0.011765
0.513725 0.125490 0.011765
0.549020 0.133333 0.007843
0.592157 0.141176 0.000000
0.639216 0.156863 0.003922
0.694118 0.168627 0.000000
0.737255 0.180392 0.000000
0.796078 0.196078 0.003922
0.843137 0.211765 0.000000
0.894118 0.227451 0.000000
0.929412 0.235294 0.000000
0.988235 0.243137 0.007843
0.992157 0.270588 0.000000
0.000000 0.066667 0.027451
0.023529 0.078431 0.011765
0.074510 0.074510 0.027451
0.121569 0.074510 0.019608
0.168627 0.078431 0.019608
0.203922 0.082353 0.011765
0.247059 0.086275 0.015686
0.294118 0.094118 0.019608
0.333333 0.094118 0.019608
0.360784 0.101961 0.007843
0.400000 0.109804 0.011765
0.431373 0.121569 0.003922
0.470588 0.133333 0.011765
0.513725 0.141176 0.015686
0.549020 0.149020 0.007843
0.596078 0.156863 0.007843
0.643137 0.168627 0.003922
0.690196 0.180392 0.000000
0.745098 0.188235 0.000000
0.788235 0.207843 0.000000
0.850980 0.223529 0.000000
0.894118 0.227451 0.000000
0.937255 0.250980 0.003922
0.984314 0.250980 0.003922
1.000000 0.278431 0.003922
0.000000 0.113725 0.003922
0.023529 0.117647 0.023529
0.082353 0.113725 0.023529
0.121569 0.117647 0.000000
0.168627 0.113725 0.011765
0.207843 0.113725 0.011765
0.254902 0.121569 0.015686
0.298039 0.121569 0.007843
0.321569 0.129412 0.003922
0.372549 0.125490 0.003922
0.400000 0.129412 0.000000
0.439216 0.145098 0.000000
0.478431 0.149020 0.000000
0.513725 0.156863 0.000000
0.552941 0.164706 0.000000
0.596078 0.172549 0.000000
0.643137 0.188235 0.003922
0.690196 0.196078 0.007843
0.737255 0.203922 0.007843
0.796078 0.219608 0.007843
0.843137 0.231373 0.000000
0.890196 0.243137 0.000000
0.933333 0.254902 0.000000
0.964706 0.274510 0.007843
1.000000 0.278431 0.007843
0.000000 0.160784 0.011765
0.019608 0.164706 0.000000
0.074510 0.160784 0.007843
0.121569 0.164706 0.007843
0.172549 0.160784 0.000000
0.207843 0.152941 0.007843
0.250980 0.152941 0.003922
0.290196 0.156863 0.007843
0.329412 0.160784 0.000000
0.372549 0.164706 0.000000
0.411765 0.172549 0.000000
0.435294 0.164706 0.000000
0.490196 0.172549 0.000000
0.521569 0.176471 0.000000
0.564706 0.188235 0.000000
0.603922 0.200000 0.000000
0.643137 0.207843 0.000000
0.690196 0.215686 0.000000
0.741176 0.231373 0.003922
0.792157 0.243137 0.011765
0.839216 0.254902 0.003922
0.890196 0.258824 0.003922
0.941176 0.274510 0.000000
0.984314 0.286275 0.000000
0.996078 0.301961 0.000000
0.007843 0.203922 0.000000
0.027451 0.200000 0.000000
0.086275 0.203922 0.007843
0.129412 0.207843 0.000000
0.176471 0.203922 0.003922
0.223529 0.200000 0.011765
0.258824 0.196078 0.003922
0.298039 0.196078 0.003922
0.337255 0.196078 0.007843
0.372549 0.192157 0.000000
0.415686 0.196078 0.000000
0.447059 0.200000 0.000000
0.486275 0.207843 0.003922
0.525490 0.211765 0.003922
0.568627 0.219608 0.000000
0.615686 0.227451 0.003922
0.658824 0.235294 0.000000
0.705882 0.243137 0.003922
0.749020 0.254902 0.000000
0.803922 0.270588 0.003922
0.847059 0.274510 0.003922
0.894118 0.286275 0.000000
0.945098 0.298039 0.000000
0.984314 0.309804 0.000000
0.992157 0.325490 0.000000
0.003922 0.239216 0.000000
0.031373 0.247059 0.000000
0.066667 0.247059 0.000000
0.133333 0.250980 0.015686
0.164706 0.243137 0.003922
0.211765 0.243137 0.007843
0.266667 0.243137 0.000000
0.294118 0.227451 0.007843
0.333333 0.231373 0.000000
0.376471 0.235294 0.000000
0.415686 0.235294 0.003922
0.454902 0.235294 0.000000
0.486275 0.235294 0.000000
0.529412 0.239216 0.000000
0.568627 0.250980 0.000000
0.611765 0.254902 0.000000
0.658824 0.262745 0.003922
0.705882 0.274510 0.000000
0.752941 0.286275 0.000000
0.800000 0.294118 0.000000
0.854902 0.301961 0.000000
0.898039 0.317647 0.000000
0.949020 0.321569 0.000000
0.996078 0.329412 0.000000
0.996078 0.349020 0.000000
0.007843 0.282353 0.007843
0.023529 0.290196 0.003922
0.070588 0.290196 0.000000
0.117647 0.282353 0.000000
0.160784 0.286275 0.000000
0.207843 0.294118 0.003922
0.258824 0.282353 0.000000
0.309804 0.282353 0.007843
0.341176 0.274510 0.000000
0.380392 0.274510 0.000000
0.419608 0.266667 0.000000
0.454902 0.270588 0.000000
0.498039 0.274510 0.000000
0.537255 0.274510 0.000000
0.572549 0.282353 0.000000
0.615686 0.286275 0.000000
0.662745 0.298039 0.000000
0.709804 0.305882 0.000000
0.756863 0.313725 0.000000
0.796078 0.325490 0.000000
0.847059 0.329412 0.000000
0.898039 0.345098 0.000000
0.941176 0.356863 0.000000
0.980392 0.356863 0.000000
0.992157 0.364706 0.000000
0.007843 0.329412 0.000000
0.015686 0.325490 0.000000
0.070588 0.325490 0.000000
0.105882 0.321569 0.000000
0.164706 0.329412 0.007843
0.207843 0.321569 0.000000
0.254902 0.321569 0.003922
0.298039 0.329412 0.000000
0.345098 0.317647 0.000000
0.380392 0.313725 0.000000
0.423529 0.298039 0.000000
0.454902 0.301961 0.000000
0.490196 0.313725 0.003922
0.537255 0.313725 0.003922
0.576471 0.313725 0.003922
0.619608 0.321569 0.000000
0.666667 0.329412 0.000000
0.713725 0.341176 0.000000
0.760784 0.349020 0.000000
0.807843 0.356863 0.000000
0.854902 0.360784 0.000000
0.901961 0.368627 0.000000
0.945098 0.380392 0.000000
0.992157 0.392157 0.000000
1.000000 0.392157 0.000000
0.003922 0.356863 0.011765
0.023529 0.360784 0.003922
0.070588 0.356863 0.000000
0.105882 0.364706 0.011765
0.152941 0.364706 0.000000
0.211765 0.364706 0.000000
0.258824 0.364706 0.000000
0.298039 0.364706 0.000000
0.341176 0.360784 0.000000
0.384314 0.356863 0.003922
0.423529 0.345098 0.003922
0.454902 0.349020 0.007843
0.501961 0.345098 0.003922
0.533333 0.349020 0.003922
0.576471 0.352941 0.000000
0.623529 0.360784 0.003922
0.674510 0.364706 0.000000
0.721569 0.372549 0.003922
0.768627 0.384314 0.000000
0.815686 0.388235 0.000000
0.862745 0.396078 0.000000
0.909804 0.403922 0.003922
0.952941 0.411765 0.000000
0.992157 0.419608 0.000000
0.992157 0.431373 0.000000
0.003922 0.403922 0.003922
0.007843 0.411765 0.000000
0.062745 0.407843 0.000000
0.109804 0.411765 0.000000
0.168627 0.407843 0.000000
0.200000 0.407843 0.000000
0.254902 0.407843 0.000000
0.301961 0.407843 0.003922
0.341176 0.400000 0.000000
0.384314 0.403922 0.000000
