lut_library_archive/removed_20260629/50个风景lut/50个风景lut33.cube
# 版权归凌孟成所有，侵权必究
TITLE "Jungle LUT #33"
#LUT size
LUT_3D_SIZE 5
#LUT data points
0.023529 0.023529 0.015686
0.270588 0.019608 0.015686
0.541176 0.019608 0.003922
0.835294 0.007843 0.000000
1.000000 0.003922 0.003922
0.062745 0.250980 0.015686
0.274510 0.258824 0.011765
0.549020 0.274510 0.000000
0.835294 0.278431 0.000000
1.000000 0.266667 0.000000
0.109804 0.545098 0.000000
0.309804 0.549020 0.000000
0.576471 0.549020 0.000000
0.843137 0.541176 0.000000
1.000000 0.533333 0.000000
0.192157 0.811765 0.000000
0.337255 0.803922 0.000000
0.584314 0.800000 0.000000
0.839216 0.796078 0.000000
0.996078 0.776471 0.000000
0.258824 0.996078 0.007843
0.368627 0.992157 0.000000
0.580392 1.000000 0.000000
0.843137 1.000000 0.000000
1.000000 0.996078 0.003922
0.031373 0.019608 0.227451
0.262745 0.027451 0.239216
0.541176 0.000000 0.235294
0.831373 0.007843 0.231373
0.996078 0.003922 0.219608
0.082353 0.250980 0.223529
0.274510 0.262745 0.243137
0.552941 0.258824 0.235294
0.831373 0.262745 0.219608
1.000000 0.250980 0.211765
0.098039 0.541176 0.227451
0.301961 0.545098 0.219608
0.564706 0.541176 0.203922
0.839216 0.533333 0.211765
1.000000 0.521569 0.203922
0.176471 0.807843 0.200000
0.333333 0.800000 0.196078
0.580392 0.803922 0.192157
0.839216 0.803922 0.196078
1.000000 0.780392 0.203922
0.258824 1.000000 0.231373
0.372549 0.996078 0.219608
0.580392 1.000000 0.231373
0.843137 1.000000 0.235294
1.000000 0.996078 0.258824
0.066667 0.023529 0.494118
0.282353 0.015686 0.498039
0.552941 0.000000 0.498039
0.839216 0.000000 0.501961
1.000000 0.000000 0.490196
0.050980 0.250980 0.498039
0.290196 0.258824 0.494118
0.564706 0.250980 0.505882
0.839216 0.243137 0.498039
1.000000 0.258824 0.490196
0.047059 0.541176 0.498039
0.298039 0.541176 0.498039
0.576471 0.537255 0.498039
0.839216 0.533333 0.486275
1.000000 0.525490 0.490196
0.235294 0.800000 0.498039
0.360784 0.800000 0.498039
0.588235 0.800000 0.494118
0.831373 0.796078 0.486275
1.000000 0.780392 0.490196
0.290196 1.000000 0.501961
0.392157 0.996078 0.501961
0.588235 1.000000 0.498039
0.843137 1.000000 0.509804
0.996078 1.000000 0.505882
0.117647 0.011765 0.756863
0.313725 0.003922 0.749020
0.572549 0.003922 0.760784
0.843137 0.000000 0.749020
0.988235 0.003922 0.729412
0.094118 0.254902 0.749020
0.301961 0.254902 0.749020
0.568627 0.250980 0.752941
0.850980 0.235294 0.749020
1.000000 0.266667 0.729412
0.133333 0.533333 0.760784
0.321569 0.537255 0.756863
0.580392 0.541176 0.749020
0.843137 0.541176 0.752941
0.992157 0.556863 0.733333
0.247059 0.803922 0.741176
0.376471 0.800000 0.745098
0.603922 0.803922 0.737255
0.835294 0.796078 0.749020
1.000000 0.792157 0.745098
0.431373 1.000000 0.741176
0.498039 1.000000 0.752941
0.662745 0.996078 0.764706
0.839216 0.996078 0.752941
0.996078 1.000000 0.764706
0.117647 0.000000 0.996078
0.301961 0.000000 0.996078
0.560784 0.000000 1.000000
0.831373 0.000000 0.992157
1.000000 0.000000 0.988235
0.109804 0.262745 1.000000
0.294118 0.258824 1.000000
0.556863 0.258824 0.996078
0.827451 0.258824 1.000000
1.000000 0.278431 1.000000
0.129412 0.529412 0.992157
0.329412 0.545098 1.000000
0.572549 0.545098 0.992157
0.831373 0.545098 0.996078
1.000000 0.556863 1.000000
0.254902 0.800000 1.000000
0.376471 0.796078 1.000000
0.600000 0.803922 1.000000
0.831373 0.803922 1.000000
1.000000 0.803922 0.996078
0.392157 1.000000 1.000000
0.466667 0.996078 1.000000
0.647059 1.000000 1.000000
0.878431 1.000000 1.000000
1.000000 1.000000 1.000000
