lut_library_archive/removed_20260629/50个风景lut/50个风景lut38.cube
# 版权归凌孟成所有，侵权必究
TITLE "Jungle LUT #38"
#LUT size
LUT_3D_SIZE 25
#LUT data points
0.000000 0.000000 0.000000
0.039216 0.000000 0.000000
0.086275 0.003922 0.000000
0.137255 0.003922 0.000000
0.192157 0.003922 0.003922
0.239216 0.000000 0.000000
0.282353 0.003922 0.003922
0.321569 0.003922 0.000000
0.384314 0.000000 0.000000
0.431373 0.000000 0.003922
0.474510 0.000000 0.000000
0.525490 0.000000 0.000000
0.572549 0.003922 0.000000
0.619608 0.003922 0.000000
0.674510 0.003922 0.003922
0.721569 0.000000 0.000000
0.768627 0.003922 0.000000
0.807843 0.003922 0.000000
0.850980 0.007843 0.007843
0.894118 0.003922 0.007843
0.933333 0.003922 0.003922
0.972549 0.003922 0.003922
0.996078 0.000000 0.000000
0.996078 0.000000 0.000000
0.996078 0.000000 0.000000
0.011765 0.043137 0.000000
0.039216 0.047059 0.000000
0.094118 0.047059 0.000000
0.137255 0.050980 0.007843
0.192157 0.043137 0.000000
0.235294 0.047059 0.000000
0.282353 0.050980 0.000000
0.329412 0.047059 0.000000
0.376471 0.047059 0.003922
0.431373 0.047059 0.003922
0.474510 0.043137 0.000000
0.525490 0.047059 0.003922
0.568627 0.043137 0.000000
0.623529 0.043137 0.000000
0.666667 0.043137 0.000000
0.721569 0.047059 0.000000
0.764706 0.047059 0.000000
0.807843 0.043137 0.000000
0.847059 0.043137 0.000000
0.898039 0.043137 0.003922
0.933333 0.039216 0.003922
0.976471 0.043137 0.003922
1.000000 0.043137 0.003922
1.000000 0.039216 0.000000
0.996078 0.043137 0.000000
0.011765 0.086275 0.000000
0.047059 0.094118 0.000000
0.094118 0.090196 0.003922
0.137255 0.090196 0.000000
0.196078 0.094118 0.003922
0.235294 0.094118 0.000000
0.282353 0.094118 0.003922
0.333333 0.098039 0.003922
0.388235 0.098039 0.003922
0.431373 0.094118 0.000000
0.478431 0.098039 0.000000
0.525490 0.094118 0.000000
0.580392 0.094118 0.000000
0.615686 0.094118 0.000000
0.670588 0.094118 0.000000
0.713725 0.098039 0.000000
0.764706 0.094118 0.000000
0.807843 0.098039 0.000000
0.850980 0.094118 0.000000
0.890196 0.094118 0.000000
0.941176 0.094118 0.003922
0.980392 0.094118 0.007843
1.000000 0.090196 0.000000
0.996078 0.094118 0.003922
0.996078 0.094118 0.000000
0.003922 0.137255 0.000000
0.054902 0.129412 0.003922
0.094118 0.137255 0.003922
0.149020 0.137255 0.000000
0.188235 0.137255 0.000000
0.250980 0.137255 0.003922
0.290196 0.141176 0.000000
0.337255 0.141176 0.003922
0.384314 0.137255 0.000000
0.431373 0.141176 0.000000
0.478431 0.145098 0.000000
0.525490 0.141176 0.000000
0.572549 0.141176 0.000000
0.619608 0.141176 0.000000
0.666667 0.141176 0.000000
0.713725 0.145098 0.000000
0.760784 0.141176 0.000000
0.807843 0.141176 0.003922
0.850980 0.141176 0.003922
0.894118 0.145098 0.003922
0.937255 0.137255 0.007843
0.976471 0.129412 0.000000
0.996078 0.141176 0.000000
0.992157 0.137255 0.000000
0.996078 0.141176 0.000000
0.015686 0.180392 0.000000
0.062745 0.188235 0.003922
0.105882 0.180392 0.000000
0.141176 0.188235 0.000000
0.196078 0.188235 0.000000
0.235294 0.188235 0.000000
0.282353 0.188235 0.000000
0.333333 0.192157 0.003922
0.384314 0.184314 0.000000
0.431373 0.188235 0.003922
0.478431 0.192157 0.000000
0.517647 0.188235 0.003922
0.584314 0.192157 0.000000
0.627451 0.188235 0.000000
0.670588 0.188235 0.000000
0.717647 0.196078 0.003922
0.764706 0.192157 0.000000
0.807843 0.192157 0.000000
0.847059 0.192157 0.000000
0.890196 0.188235 0.000000
0.929412 0.188235 0.000000
0.976471 0.184314 0.000000
1.000000 0.188235 0.000000
1.000000 0.188235 0.000000
1.000000 0.184314 0.003922
0.023529 0.235294 0.007843
0.070588 0.231373 0.003922
0.113725 0.227451 0.000000
0.156863 0.231373 0.003922
0.200000 0.231373 0.000000
0.239216 0.231373 0.000000
0.290196 0.235294 0.000000
0.337255 0.235294 0.000000
0.388235 0.239216 0.000000
0.427451 0.239216 0.000000
0.478431 0.239216 0.000000
0.521569 0.243137 0.000000
0.576471 0.239216 0.000000
0.627451 0.243137 0.003922
0.670588 0.243137 0.000000
0.713725 0.239216 0.000000
0.768627 0.235294 0.007843
0.811765 0.239216 0.000000
0.854902 0.239216 0.000000
0.901961 0.235294 0.003922
0.937255 0.231373 0.000000
0.976471 0.231373 0.003922
1.000000 0.227451 0.003922
1.000000 0.231373 0.000000
1.000000 0.231373 0.003922
0.027451 0.274510 0.000000
0.090196 0.274510 0.000000
0.121569 0.286275 0.003922
0.160784 0.278431 0.003922
0.200000 0.278431 0.000000
0.250980 0.278431 0.007843
0.286275 0.274510 0.000000
0.341176 0.274510 0.000000
0.388235 0.286275 0.000000
0.431373 0.282353 0.000000
0.478431 0.282353 0.000000
0.529412 0.286275 0.000000
0.572549 0.282353 0.000000
0.623529 0.286275 0.000000
0.670588 0.286275 0.000000
0.713725 0.282353 0.003922
0.764706 0.286275 0.007843
0.807843 0.282353 0.003922
0.850980 0.278431 0.003922
0.890196 0.282353 0.000000
0.937255 0.278431 0.000000
0.976471 0.278431 0.000000
1.000000 0.278431 0.000000
0.992157 0.270588 0.003922
0.992157 0.278431 0.000000
0.050980 0.317647 0.015686
0.086275 0.329412 0.000000
0.117647 0.329412 0.000000
0.164706 0.329412 0.000000
0.200000 0.325490 0.000000
0.250980 0.325490 0.003922
0.294118 0.325490 0.000000
0.345098 0.325490 0.003922
0.392157 0.329412 0.000000
0.439216 0.329412 0.000000
0.478431 0.329412 0.000000
0.525490 0.329412 0.000000
0.572549 0.329412 0.000000
0.623529 0.333333 0.000000
0.678431 0.333333 0.003922
0.717647 0.333333 0.000000
0.768627 0.329412 0.000000
0.807843 0.329412 0.000000
0.850980 0.329412 0.000000
0.890196 0.329412 0.000000
0.937255 0.325490 0.000000
0.976471 0.325490 0.003922
0.996078 0.321569 0.000000
0.996078 0.313725 0.000000
1.000000 0.325490 0.000000
0.066667 0.368627 0.000000
0.098039 0.376471 0.000000
0.133333 0.372549 0.000000
0.160784 0.372549 0.003922
0.215686 0.372549 0.000000
0.258824 0.376471 0.000000
0.298039 0.376471 0.003922
0.349020 0.376471 0.003922
0.388235 0.376471 0.003922
0.435294 0.380392 0.003922
0.482353 0.380392 0.007843
0.529412 0.380392 0.000000
0.572549 0.376471 0.003922
0.627451 0.376471 0.000000
0.674510 0.376471 0.007843
0.721569 0.376471 0.000000
0.764706 0.380392 0.000000
0.807843 0.376471 0.000000
0.850980 0.376471 0.000000
0.898039 0.372549 0.000000
0.933333 0.368627 0.000000
0.968627 0.376471 0.000000
0.992157 0.364706 0.000000
1.000000 0.360784 0.007843
1.000000 0.356863 0.003922
0.078431 0.419608 0.007843
0.098039 0.419608 0.000000
0.141176 0.423529 0.000000
0.172549 0.411765 0.000000
0.219608 0.423529 0.000000
0.266667 0.419608 0.003922
0.305882 0.419608 0.000000
0.349020 0.423529 0.000000
0.392157 0.419608 0.003922
0.439216 0.423529 0.000000
0.486275 0.423529 0.000000
0.533333 0.423529 0.000000
0.588235 0.427451 0.011765
0.623529 0.423529 0.003922
0.674510 0.423529 0.007843
0.721569 0.423529 0.000000
0.764706 0.419608 0.000000
0.803922 0.419608 0.000000
0.854902 0.419608 0.000000
0.898039 0.419608 0.000000
0.937255 0.415686 0.003922
0.976471 0.411765 0.003922
0.996078 0.407843 0.000000
0.996078 0.407843 0.000000
1.000000 0.400000 0.000000
0.094118 0.466667 0.000000
0.121569 0.466667 0.000000
0.156863 0.466667 0.000000
0.192157 0.470588 0.000000
0.215686 0.462745 0.000000
0.254902 0.466667 0.000000
0.305882 0.466667 0.003922
0.352941 0.466667 0.003922
0.400000 0.470588 0.000000
0.439216 0.470588 0.003922
0.490196 0.470588 0.000000
0.533333 0.470588 0.000000
0.584314 0.470588 0.007843
0.627451 0.466667 0.003922
0.674510 0.470588 0.000000
0.721569 0.466667 0.003922
0.764706 0.474510 0.000000
0.807843 0.470588 0.003922
0.847059 0.470588 0.000000
0.890196 0.462745 0.000000
0.933333 0.462745 0.000000
0.968627 0.458824 0.000000
1.000000 0.450980 0.000000
1.000000 0.450980 0.007843
0.992157 0.450980 0.000000
0.109804 0.513725 0.000000
0.117647 0.521569 0.007843
0.156863 0.513725 0.000000
0.196078 0.517647 0.000000
0.231373 0.517647 0.000000
0.270588 0.517647 0.000000
0.309804 0.517647 0.000000
0.352941 0.513725 0.003922
0.396078 0.517647 0.007843
0.439216 0.517647 0.000000
0.490196 0.517647 0.000000
0.537255 0.521569 0.000000
0.584314 0.517647 0.000000
0.631373 0.513725 0.000000
0.678431 0.521569 0.003922
0.721569 0.513725 0.000000
0.768627 0.517647 0.000000
0.815686 0.513725 0.000000
0.854902 0.513725 0.000000
0.894118 0.505882 0.000000
0.937255 0.505882 0.000000
0.972549 0.498039 0.000000
1.000000 0.494118 0.000000
1.000000 0.490196 0.000000
0.996078 0.486275 0.007843
0.121569 0.568627 0.000000
0.141176 0.568627 0.000000
0.160784 0.556863 0.000000
0.200000 0.564706 0.007843
0.239216 0.560784 0.000000
0.274510 0.568627 0.003922
0.317647 0.568627 0.000000
0.356863 0.564706 0.000000
0.407843 0.560784 0.000000
0.443137 0.568627 0.000000
0.498039 0.564706 0.007843
0.537255 0.564706 0.007843
0.588235 0.560784 0.003922
0.627451 0.560784 0.003922
0.686275 0.564706 0.000000
0.721569 0.560784 0.003922
0.764706 0.556863 0.000000
0.811765 0.556863 0.000000
0.858824 0.556863 0.000000
0.894118 0.552941 0.000000
0.929412 0.549020 0.000000
0.968627 0.541176 0.000000
0.996078 0.533333 0.000000
1.000000 0.537255 0.000000
1.000000 0.533333 0.000000
0.133333 0.607843 0.000000
0.145098 0.611765 0.000000
0.176471 0.611765 0.000000
0.215686 0.611765 0.000000
0.235294 0.607843 0.003922
0.278431 0.615686 0.000000
0.317647 0.611765 0.000000
0.360784 0.611765 0.000000
0.400000 0.611765 0.000000
0.454902 0.607843 0.000000
0.494118 0.611765 0.000000
0.545098 0.603922 0.003922
0.584314 0.603922 0.000000
0.631373 0.607843 0.000000
0.674510 0.611765 0.003922
0.721569 0.607843 0.003922
0.764706 0.603922 0.000000
0.811765 0.600000 0.003922
0.847059 0.600000 0.000000
0.890196 0.596078 0.003922
0.925490 0.592157 0.000000
0.976471 0.584314 0.003922
0.996078 0.588235 0.003922
0.996078 0.576471 0.000000
0.996078 0.576471 0.000000
0.141176 0.662745 0.000000
0.160784 0.658824 0.000000
0.188235 0.654902 0.000000
0.215686 0.658824 0.000000
0.243137 0.654902 0.000000
0.282353 0.658824 0.000000
0.329412 0.654902 0.000000
0.368627 0.654902 0.000000
0.407843 0.654902 0.000000
0.454902 0.654902 0.000000
0.501961 0.654902 0.000000
0.545098 0.658824 0.000000
0.588235 0.654902 0.000000
0.631373 0.654902 0.000000
0.678431 0.650980 0.000000
0.721569 0.654902 0.000000
0.764706 0.650980 0.000000
0.807843 0.643137 0.000000
0.850980 0.643137 0.000000
0.890196 0.643137 0.003922
0.929412 0.643137 0.000000
0.968627 0.635294 0.000000
0.996078 0.627451 0.000000
0.996078 0.623529 0.000000
1.000000 0.619608 0.003922
0.156863 0.701961 0.000000
0.176471 0.698039 0.000000
0.196078 0.701961 0.000000
0.215686 0.705882 0.000000
0.250980 0.701961 0.000000
0.290196 0.701961 0.000000
0.333333 0.698039 0.000000
0.372549 0.698039 0.000000
0.415686 0.701961 0.000000
0.450980 0.698039 0.000000
0.498039 0.698039 0.000000
0.545098 0.698039 0.000000
0.588235 0.694118 0.000000
0.635294 0.694118 0.000000
0.682353 0.694118 0.000000
0.729412 0.690196 0.003922
0.764706 0.701961 0.000000
0.811765 0.698039 0.000000
0.847059 0.694118 0.000000
0.894118 0.686275 0.003922
0.929412 0.678431 0.011765
0.960784 0.670588 0.007843
0.996078 0.666667 0.000000
0.996078 0.670588 0.000000
0.992157 0.662745 0.003922
0.168627 0.733333 0.003922
0.184314 0.741176 0.011765
0.207843 0.741176 0.000000
0.235294 0.741176 0.000000
0.266667 0.737255 0.007843
0.294118 0.745098 0.000000
0.337255 0.737255 0.000000
0.372549 0.745098 0.000000
0.419608 0.741176 0.000000
0.458824 0.741176 0.000000
0.501961 0.741176 0.000000
0.541176 0.741176 0.000000
0.584314 0.737255 0.000000
0.635294 0.741176 0.000000
0.678431 0.737255 0.000000
0.721569 0.741176 0.003922
0.764706 0.733333 0.003922
0.807843 0.729412 0.003922
0.847059 0.729412 0.000000
0.886275 0.721569 0.000000
0.929412 0.717647 0.000000
0.968627 0.717647 0.000000
0.996078 0.713725 0.000000
1.000000 0.705882 0.000000
0.992157 0.698039 0.000000
0.188235 0.776471 0.000000
0.188235 0.776471 0.000000
0.219608 0.776471 0.000000
0.247059 0.780392 0.003922
0.258824 0.784314 0.000000
0.301961 0.780392 0.000000
0.337255 0.784314 0.003922
0.380392 0.780392 0.003922
0.411765 0.780392 0.000000
0.458824 0.776471 0.000000
0.498039 0.780392 0.003922
0.541176 0.780392 0.000000
0.580392 0.780392 0.000000
0.631373 0.772549 0.000000
0.674510 0.780392 0.000000
0.721569 0.776471 0.003922
0.764706 0.772549 0.000000
0.803922 0.772549 0.000000
0.850980 0.776471 0.000000
0.886275 0.768627 0.000000
0.929412 0.760784 0.003922
0.964706 0.756863 0.003922
1.000000 0.752941 0.000000
0.984314 0.749020 0.000000
0.992157 0.741176 0.023529
0.203922 0.823529 0.003922
0.207843 0.819608 0.000000
0.235294 0.819608 0.003922
0.254902 0.811765 0.000000
0.274510 0.823529 0.000000
0.309804 0.815686 0.003922
0.349020 0.815686 0.007843
0.388235 0.815686 0.003922
0.415686 0.815686 0.000000
0.458824 0.819608 0.000000
0.505882 0.819608 0.000000
0.541176 0.815686 0.000000
0.588235 0.815686 0.000000
0.627451 0.815686 0.000000
0.666667 0.815686 0.000000
0.717647 0.819608 0.000000
0.756863 0.819608 0.000000
0.800000 0.815686 0.000000
0.835294 0.811765 0.000000
0.882353 0.811765 0.000000
0.925490 0.803922 0.000000
0.968627 0.800000 0.003922
0.992157 0.792157 0.003922
1.000000 0.788235 0.011765
0.996078 0.784314 0.031373
0.207843 0.854902 0.000000
0.215686 0.850980 0.000000
0.243137 0.858824 0.007843
0.262745 0.847059 0.000000
0.278431 0.854902 0.000000
0.317647 0.854902 0.000000
0.352941 0.850980 0.000000
0.384314 0.850980 0.000000
0.423529 0.850980 0.000000
0.462745 0.858824 0.003922
0.501961 0.854902 0.000000
0.541176 0.850980 0.003922
0.584314 0.854902 0.011765
0.627451 0.850980 0.003922
0.666667 0.850980 0.003922
0.713725 0.850980 0.003922
0.752941 0.850980 0.003922
0.792157 0.850980 0.000000
0.835294 0.850980 0.000000
0.874510 0.850980 0.000000
0.921569 0.847059 0.000000
0.960784 0.839216 0.000000
0.992157 0.835294 0.007843
0.996078 0.831373 0.023529
0.996078 0.827451 0.035294
0.219608 0.898039 0.000000
0.239216 0.890196 0.003922
0.250980 0.886275 0.000000
0.270588 0.890196 0.000000
0.294118 0.890196 0.000000
0.325490 0.894118 0.003922
0.356863 0.894118 0.000000
0.392157 0.894118 0.003922
0.423529 0.886275 0.000000
0.462745 0.886275 0.003922
0.509804 0.890196 0.000000
0.545098 0.894118 0.000000
0.584314 0.890196 0.003922
0.619608 0.886275 0.000000
0.658824 0.890196 0.000000
0.701961 0.886275 0.000000
0.749020 0.886275 0.007843
0.788235 0.886275 0.003922
0.827451 0.886275 0.000000
0.874510 0.886275 0.000000
0.917647 0.882353 0.000000
0.956863 0.882353 0.003922
0.992157 0.878431 0.035294
0.992157 0.874510 0.058824
1.000000 0.854902 0.054902
0.243137 0.921569 0.011765
0.247059 0.929412 0.000000
0.262745 0.925490 0.011765
0.274510 0.933333 0.011765
0.313725 0.925490 0.011765
0.313725 0.925490 0.011765
0.364706 0.921569 0.011765
0.392157 0.925490 0.015686
0.427451 0.921569 0.015686
0.470588 0.925490 0.019608
0.501961 0.921569 0.019608
0.541176 0.921569 0.023529
0.580392 0.929412 0.027451
0.619608 0.929412 0.023529
0.662745 0.925490 0.027451
0.701961 0.925490 0.027451
0.741176 0.925490 0.031373
0.784314 0.921569 0.027451
0.823529 0.921569 0.035294
0.870588 0.917647 0.039216
0.909804 0.917647 0.043137
0.952941 0.921569 0.050980
0.980392 0.917647 0.054902
1.000000 0.905882 0.074510
1.000000 0.913725 0.094118
0.250980 0.949020 0.054902
0.262745 0.960784 0.066667
0.278431 0.964706 0.054902
0.298039 0.956863 0.058824
0.301961 0.964706 0.050980
0.341176 0.956863 0.050980
0.360784 0.960784 0.058824
0.396078 0.956863 0.058824
0.435294 0.956863 0.058824
0.462745 0.960784 0.062745
0.505882 0.956863 0.066667
0.533333 0.956863 0.070588
0.576471 0.956863 0.066667
0.615686 0.952941 0.070588
0.650980 0.956863 0.070588
0.690196 0.956863 0.074510
0.733333 0.956863 0.070588
0.776471 0.952941 0.078431
0.819608 0.952941 0.086275
0.858824 0.952941 0.090196
0.905882 0.952941 0.086275
0.945098 0.949020 0.094118
0.980392 0.949020 0.086275
1.000000 0.949020 0.086275
1.000000 0.945098 0.113725
0.258824 0.992157 0.094118
0.270588 0.988235 0.109804
0.282353 0.992157 0.094118
0.298039 0.996078 0.109804
0.317647 0.988235 0.094118
0.337255 0.988235 0.101961
0.372549 0.992157 0.105882
0.400000 0.992157 0.101961
0.431373 0.988235 0.101961
0.462745 0.992157 0.105882
0.498039 0.992157 0.113725
0.533333 0.988235 0.113725
0.572549 0.988235 0.109804
0.607843 0.992157 0.109804
0.650980 0.988235 0.113725
0.694118 0.988235 0.109804
0.733333 0.984314 0.117647
0.780392 0.980392 0.121569
0.819608 0.984314 0.117647
0.866667 0.984314 0.129412
0.901961 0.976471 0.129412
0.941176 0.980392 0.125490
0.980392 0.984314 0.129412
0.996078 0.976471 0.129412
0.996078 0.976471 0.133333
0.286275 0.996078 0.137255
0.286275 1.000000 0.141176
0.294118 1.000000 0.133333
0.309804 1.000000 0.133333
0.321569 1.000000 0.133333
0.352941 1.000000 0.141176
0.380392 0.996078 0.137255
0.403922 0.996078 0.137255
0.435294 1.000000 0.141176
0.470588 1.000000 0.145098
0.505882 0.996078 0.141176
0.545098 0.996078 0.137255
0.572549 1.000000 0.149020
0.619608 1.000000 0.149020
0.658824 1.000000 0.145098
0.698039 1.000000 0.145098
0.741176 0.996078 0.149020
0.784314 1.000000 0.149020
0.831373 1.000000 0.152941
0.874510 1.000000 0.152941
0.921569 1.000000 0.160784
0.964706 1.000000 0.164706
0.996078 0.996078 0.164706
1.000000 1.000000 0.176471
1.000000 1.000000 0.176471
0.000000 0.000000 0.039216
0.047059 0.000000 0.047059
0.098039 0.000000 0.047059
0.141176 0.000000 0.047059
0.184314 0.000000 0.043137
0.235294 0.000000 0.039216
0.286275 0.000000 0.043137
0.329412 0.003922 0.043137
0.380392 0.000000 0.035294
0.427451 0.000000 0.031373
0.474510 0.000000 0.027451
0.521569 0.003922 0.023529
0.572549 0.003922 0.023529
0.615686 0.003922 0.019608
0.662745 0.007843 0.015686
0.709804 0.003922 0.015686
0.768627 0.000000 0.023529
0.807843 0.000000 0.011765
0.847059 0.003922 0.000000
0.894118 0.003922 0.000000
0.941176 0.003922 0.000000
0.968627 0.000000 0.000000
1.000000 0.003922 0.003922
1.000000 0.003922 0.003922
1.000000 0.003922 0.003922
0.000000 0.050980 0.039216
0.039216 0.035294 0.054902
0.094118 0.047059 0.047059
0.141176 0.039216 0.043137
0.192157 0.043137 0.039216
0.239216 0.043137 0.039216
0.294118 0.043137 0.039216
0.333333 0.047059 0.031373
0.376471 0.043137 0.031373
0.431373 0.050980 0.027451
0.474510 0.047059 0.027451
0.525490 0.043137 0.023529
0.572549 0.043137 0.027451
0.623529 0.050980 0.031373
0.670588 0.047059 0.031373
0.721569 0.043137 0.011765
0.764706 0.043137 0.011765
0.807843 0.039216 0.007843
0.847059 0.050980 0.003922
0.890196 0.047059 0.003922
0.929412 0.047059 0.000000
0.972549 0.050980 0.000000
1.000000 0.050980 0.003922
0.996078 0.047059 0.003922
1.000000 0.043137 0.000000
0.000000 0.094118 0.043137
0.050980 0.094118 0.039216
0.090196 0.094118 0.039216
0.145098 0.090196 0.039216
0.192157 0.086275 0.043137
0.243137 0.094118 0.043137
0.286275 0.094118 0.035294
0.337255 0.094118 0.035294
0.380392 0.101961 0.031373
0.431373 0.098039 0.027451
0.470588 0.098039 0.027451
0.521569 0.098039 0.019608
0.572549 0.101961 0.015686
0.619608 0.101961 0.023529
0.674510 0.094118 0.015686
0.713725 0.094118 0.019608
0.760784 0.094118 0.011765
0.807843 0.094118 0.007843
0.850980 0.094118 0.003922
0.890196 0.094118 0.000000
0.933333 0.098039 0.000000
0.980392 0.098039 0.000000
1.000000 0.098039 0.000000
0.996078 0.094118 0.003922
1.000000 0.086275 0.000000
0.003922 0.137255 0.039216
0.054902 0.133333 0.035294
0.113725 0.133333 0.047059
0.141176 0.137255 0.019608
0.196078 0.141176 0.035294
0.247059 0.141176 0.035294
0.286275 0.141176 0.035294
0.337255 0.141176 0.035294
0.380392 0.141176 0.027451
0.431373 0.145098 0.027451
0.478431 0.145098 0.023529
0.529412 0.141176 0.019608
0.568627 0.141176 0.019608
0.631373 0.145098 0.015686
0.674510 0.141176 0.015686
0.721569 0.141176 0.007843
0.764706 0.145098 0.007843
0.807843 0.141176 0.003922
0.847059 0.145098 0.000000
0.894118 0.145098 0.000000
0.933333 0.145098 0.003922
0.976471 0.137255 0.003922
1.000000 0.141176 0.000000
1.000000 0.137255 0.003922
1.000000 0.133333 0.011765
0.015686 0.180392 0.031373
0.062745 0.180392 0.039216
0.105882 0.184314 0.039216
0.152941 0.184314 0.031373
0.196078 0.180392 0.031373
0.239216 0.184314 0.031373
0.286275 0.188235 0.027451
0.337255 0.192157 0.027451
0.384314 0.192157 0.023529
0.431373 0.192157 0.019608
0.478431 0.188235 0.011765
0.517647 0.188235 0.007843
0.584314 0.188235 0.015686
0.623529 0.188235 0.011765
0.670588 0.192157 0.007843
0.717647 0.192157 0.007843
0.764706 0.192157 0.007843
0.807843 0.188235 0.003922
0.850980 0.188235 0.000000
0.894118 0.192157 0.000000
0.929412 0.188235 0.000000
0.976471 0.184314 0.000000
0.996078 0.180392 0.000000
0.996078 0.180392 0.000000
1.000000 0.176471 0.007843
0.019608 0.227451 0.015686
0.062745 0.231373 0.023529
0.113725 0.231373 0.027451
0.156863 0.235294 0.027451
0.200000 0.235294 0.027451
0.239216 0.235294 0.023529
0.286275 0.235294 0.027451
0.337255 0.239216 0.027451
0.388235 0.235294 0.019608
0.427451 0.231373 0.023529
0.478431 0.231373 0.019608
0.525490 0.231373 0.007843
0.576471 0.239216 0.015686
0.627451 0.239216 0.007843
0.678431 0.239216 0.011765
0.725490 0.239216 0.007843
0.764706 0.239216 0.000000
0.807843 0.239216 0.000000
0.847059 0.239216 0.000000
0.890196 0.235294 0.000000
0.929412 0.235294 0.000000
0.968627 0.235294 0.000000
1.000000 0.231373 0.003922
1.000000 0.231373 0.003922
1.000000 0.223529 0.000000
0.039216 0.282353 0.035294
0.082353 0.278431 0.031373
0.121569 0.274510 0.019608
0.152941 0.278431 0.023529
0.196078 0.282353 0.027451
0.247059 0.282353 0.035294
0.286275 0.282353 0.023529
0.341176 0.282353 0.019608
0.384314 0.278431 0.015686
0.435294 0.282353 0.011765
0.478431 0.282353 0.011765
0.525490 0.282353 0.000000
0.572549 0.282353 0.000000
0.627451 0.290196 0.003922
0.670588 0.286275 0.000000
0.725490 0.286275 0.000000
0.768627 0.290196 0.011765
0.811765 0.286275 0.000000
0.850980 0.278431 0.003922
0.890196 0.282353 0.000000
0.937255 0.278431 0.000000
0.968627 0.282353 0.003922
1.000000 0.270588 0.000000
0.996078 0.274510 0.000000
1.000000 0.270588 0.000000
0.050980 0.317647 0.015686
0.082353 0.329412 0.019608
0.133333 0.321569 0.015686
0.160784 0.329412 0.019608
0.207843 0.317647 0.015686
0.250980 0.325490 0.015686
0.294118 0.321569 0.015686
0.345098 0.321569 0.015686
0.392157 0.325490 0.019608
0.435294 0.329412 0.011765
0.486275 0.325490 0.011765
0.529412 0.329412 0.003922
0.584314 0.329412 0.007843
0.627451 0.333333 0.007843
0.674510 0.333333 0.000000
0.713725 0.333333 0.000000
0.768627 0.333333 0.000000
0.807843 0.329412 0.000000
0.854902 0.333333 0.000000
0.890196 0.329412 0.000000
0.937255 0.325490 0.000000
0.976471 0.325490 0.003922
0.992157 0.321569 0.007843
1.000000 0.309804 0.003922
0.996078 0.313725 0.000000
0.058824 0.372549 0.000000
0.105882 0.376471 0.019608
0.125490 0.372549 0.007843
0.172549 0.368627 0.019608
0.207843 0.380392 0.007843
0.258824 0.372549 0.011765
0.298039 0.372549 0.011765
0.349020 0.376471 0.011765
0.388235 0.376471 0.003922
0.435294 0.372549 0.000000
0.486275 0.376471 0.000000
0.533333 0.376471 0.000000
0.572549 0.376471 0.000000
0.627451 0.384314 0.000000
0.670588 0.380392 0.000000
0.713725 0.376471 0.000000
0.764706 0.380392 0.000000
0.803922 0.380392 0.000000
0.843137 0.372549 0.000000
0.890196 0.372549 0.000000
0.929412 0.376471 0.000000
0.972549 0.368627 0.000000
1.000000 0.364706 0.000000
0.996078 0.368627 0.000000
1.000000 0.356863 0.000000
0.078431 0.427451 0.011765
0.109804 0.419608 0.000000
0.137255 0.423529 0.000000
0.172549 0.419608 0.000000
0.219608 0.423529 0.000000
0.258824 0.423529 0.000000
0.305882 0.419608 0.000000
0.345098 0.419608 0.000000
0.392157 0.419608 0.003922
0.439216 0.423529 0.003922
0.490196 0.423529 0.007843
0.537255 0.427451 0.007843
0.576471 0.427451 0.000000
0.623529 0.423529 0.000000
0.670588 0.427451 0.000000
0.717647 0.427451 0.000000
0.768627 0.423529 0.003922
0.807843 0.423529 0.003922
0.854902 0.419608 0.000000
0.898039 0.415686 0.007843
0.925490 0.419608 0.000000
0.972549 0.415686 0.000000
0.996078 0.407843 0.000000
0.996078 0.407843 0.000000
0.996078 0.407843 0.000000
0.094118 0.466667 0.003922
0.121569 0.462745 0.003922
0.152941 0.470588 0.000000
0.184314 0.474510 0.000000
0.219608 0.466667 0.000000
0.270588 0.470588 0.003922
0.313725 0.466667 0.000000
0.352941 0.466667 0.000000
0.396078 0.466667 0.000000
0.439216 0.470588 0.000000
