lut_library_archive/removed_20260629/50个风景lut/50个风景lut41.cube
# 版权归凌孟成所有，侵权必究
TITLE "Jungle LUT #41"
#LUT size
LUT_3D_SIZE 25
#LUT data points
0.000000 0.003922 0.007843
0.003922 0.000000 0.000000
0.023529 0.000000 0.000000
0.058824 0.003922 0.000000
0.101961 0.000000 0.000000
0.129412 0.000000 0.000000
0.156863 0.000000 0.000000
0.192157 0.003922 0.000000
0.219608 0.003922 0.000000
0.258824 0.000000 0.000000
0.294118 0.003922 0.000000
0.329412 0.000000 0.000000
0.376471 0.000000 0.003922
0.427451 0.003922 0.003922
0.470588 0.000000 0.003922
0.513725 0.000000 0.000000
0.560784 0.000000 0.003922
0.603922 0.000000 0.007843
0.658824 0.003922 0.000000
0.705882 0.003922 0.000000
0.760784 0.000000 0.003922
0.811765 0.000000 0.007843
0.866667 0.000000 0.000000
0.913725 0.000000 0.000000
0.960784 0.000000 0.000000
0.000000 0.000000 0.000000
0.003922 0.000000 0.000000
0.039216 0.007843 0.000000
0.070588 0.000000 0.000000
0.094118 0.000000 0.000000
0.129412 0.003922 0.015686
0.152941 0.003922 0.000000
0.188235 0.000000 0.000000
0.219608 0.007843 0.000000
0.258824 0.007843 0.000000
0.290196 0.011765 0.003922
0.337255 0.007843 0.007843
0.380392 0.003922 0.007843
0.427451 0.003922 0.003922
0.462745 0.000000 0.003922
0.509804 0.000000 0.000000
0.556863 0.003922 0.000000
0.611765 0.000000 0.003922
0.662745 0.000000 0.000000
0.717647 0.000000 0.000000
0.764706 0.000000 0.000000
0.811765 0.000000 0.000000
0.862745 0.003922 0.000000
0.909804 0.003922 0.000000
0.960784 0.003922 0.003922
0.011765 0.043137 0.000000
0.003922 0.031373 0.000000
0.031373 0.035294 0.011765
0.066667 0.031373 0.003922
0.086275 0.035294 0.003922
0.121569 0.027451 0.000000
0.149020 0.031373 0.000000
0.184314 0.035294 0.000000
0.223529 0.035294 0.000000
0.250980 0.039216 0.000000
0.294118 0.043137 0.007843
0.333333 0.043137 0.007843
0.380392 0.039216 0.011765
0.415686 0.035294 0.007843
0.462745 0.031373 0.003922
0.509804 0.027451 0.007843
0.552941 0.019608 0.003922
0.603922 0.011765 0.000000
0.658824 0.003922 0.003922
0.705882 0.000000 0.003922
0.764706 0.003922 0.000000
0.807843 0.000000 0.007843
0.862745 0.003922 0.000000
0.921569 0.007843 0.000000
0.960784 0.007843 0.000000
0.003922 0.070588 0.000000
0.000000 0.066667 0.003922
0.023529 0.066667 0.003922
0.070588 0.062745 0.003922
0.098039 0.062745 0.000000
0.125490 0.054902 0.000000
0.149020 0.062745 0.003922
0.176471 0.070588 0.003922
0.211765 0.074510 0.000000
0.254902 0.074510 0.011765
0.294118 0.078431 0.007843
0.333333 0.074510 0.011765
0.376471 0.070588 0.019608
0.419608 0.074510 0.000000
0.466667 0.070588 0.007843
0.513725 0.070588 0.007843
0.560784 0.066667 0.007843
0.607843 0.066667 0.000000
0.662745 0.062745 0.000000
0.709804 0.054902 0.000000
0.752941 0.050980 0.000000
0.815686 0.039216 0.000000
0.870588 0.039216 0.003922
0.917647 0.035294 0.000000
0.960784 0.023529 0.003922
0.003922 0.098039 0.000000
0.007843 0.094118 0.003922
0.027451 0.098039 0.000000
0.058824 0.098039 0.000000
0.105882 0.098039 0.007843
0.125490 0.098039 0.000000
0.152941 0.098039 0.000000
0.180392 0.094118 0.003922
0.211765 0.101961 0.019608
0.250980 0.101961 0.019608
0.290196 0.101961 0.011765
0.329412 0.109804 0.011765
0.376471 0.109804 0.019608
0.415686 0.109804 0.019608
0.466667 0.113725 0.011765
0.513725 0.117647 0.015686
0.568627 0.117647 0.007843
0.611765 0.113725 0.007843
0.666667 0.113725 0.003922
0.713725 0.117647 0.003922
0.764706 0.109804 0.007843
0.815686 0.113725 0.003922
0.862745 0.109804 0.000000
0.917647 0.105882 0.000000
0.968627 0.109804 0.003922
0.007843 0.129412 0.000000
0.011765 0.125490 0.000000
0.031373 0.129412 0.003922
0.062745 0.129412 0.000000
0.101961 0.129412 0.000000
0.129412 0.129412 0.000000
0.168627 0.133333 0.003922
0.192157 0.129412 0.000000
0.227451 0.129412 0.019608
0.258824 0.137255 0.023529
0.301961 0.141176 0.023529
0.337255 0.145098 0.027451
0.380392 0.149020 0.031373
0.419608 0.149020 0.027451
0.466667 0.152941 0.023529
0.509804 0.156863 0.023529
0.564706 0.160784 0.003922
0.611765 0.156863 0.019608
0.658824 0.156863 0.019608
0.709804 0.156863 0.007843
0.768627 0.164706 0.000000
0.815686 0.160784 0.000000
0.866667 0.160784 0.000000
0.905882 0.160784 0.000000
0.972549 0.160784 0.000000
0.000000 0.164706 0.000000
0.000000 0.160784 0.000000
0.023529 0.172549 0.000000
0.062745 0.168627 0.007843
0.098039 0.164706 0.000000
0.133333 0.160784 0.000000
0.172549 0.164706 0.003922
0.196078 0.168627 0.000000
0.235294 0.164706 0.007843
0.262745 0.164706 0.015686
0.298039 0.164706 0.019608
0.337255 0.172549 0.031373
0.372549 0.176471 0.031373
0.415686 0.184314 0.027451
0.458824 0.188235 0.019608
0.509804 0.192157 0.015686
0.556863 0.196078 0.019608
0.615686 0.200000 0.015686
0.662745 0.200000 0.019608
0.709804 0.203922 0.011765
0.764706 0.203922 0.007843
0.815686 0.207843 0.003922
0.862745 0.207843 0.003922
0.909804 0.207843 0.007843
0.964706 0.207843 0.007843
0.000000 0.200000 0.000000
0.000000 0.192157 0.003922
0.019608 0.200000 0.007843
0.070588 0.200000 0.000000
0.098039 0.203922 0.000000
0.141176 0.196078 0.003922
0.168627 0.200000 0.000000
0.207843 0.200000 0.007843
0.243137 0.203922 0.000000
0.270588 0.203922 0.000000
0.309804 0.200000 0.011765
0.337255 0.203922 0.023529
0.380392 0.211765 0.043137
0.423529 0.223529 0.054902
0.466667 0.231373 0.043137
0.513725 0.231373 0.043137
0.568627 0.231373 0.039216
0.611765 0.235294 0.035294
0.670588 0.243137 0.031373
0.713725 0.247059 0.027451
0.768627 0.250980 0.027451
0.811765 0.258824 0.019608
0.858824 0.254902 0.019608
0.921569 0.254902 0.023529
0.972549 0.258824 0.031373
0.003922 0.239216 0.003922
0.000000 0.243137 0.007843
0.003922 0.239216 0.000000
0.047059 0.243137 0.000000
0.101961 0.243137 0.000000
0.133333 0.247059 0.000000
0.172549 0.243137 0.000000
0.211765 0.247059 0.000000
0.243137 0.243137 0.000000
0.282353 0.243137 0.000000
0.317647 0.239216 0.000000
0.352941 0.243137 0.000000
0.384314 0.250980 0.003922
0.423529 0.258824 0.039216
0.466667 0.258824 0.054902
0.513725 0.266667 0.066667
0.560784 0.278431 0.058824
0.611765 0.274510 0.050980
0.666667 0.282353 0.043137
0.713725 0.286275 0.035294
0.764706 0.290196 0.043137
0.807843 0.294118 0.035294
0.866667 0.298039 0.043137
0.921569 0.298039 0.039216
0.956863 0.305882 0.039216
0.000000 0.274510 0.000000
0.000000 0.278431 0.011765
0.000000 0.282353 0.000000
0.039216 0.282353 0.000000
0.086275 0.282353 0.000000
0.137255 0.282353 0.007843
0.180392 0.282353 0.003922
0.203922 0.282353 0.000000
0.250980 0.278431 0.003922
0.282353 0.290196 0.003922
0.325490 0.286275 0.003922
0.356863 0.286275 0.003922
0.400000 0.294118 0.000000
0.435294 0.290196 0.011765
0.482353 0.298039 0.031373
0.517647 0.301961 0.050980
0.564706 0.305882 0.066667
0.611765 0.317647 0.070588
0.666667 0.325490 0.062745
0.713725 0.325490 0.058824
0.764706 0.333333 0.054902
0.815686 0.337255 0.058824
0.862745 0.337255 0.050980
0.921569 0.341176 0.058824
0.960784 0.352941 0.070588
0.003922 0.325490 0.000000
0.000000 0.329412 0.000000
0.000000 0.321569 0.000000
0.039216 0.325490 0.003922
0.078431 0.317647 0.003922
0.137255 0.321569 0.007843
0.160784 0.325490 0.000000
0.215686 0.329412 0.000000
0.254902 0.333333 0.000000
0.290196 0.325490 0.000000
0.321569 0.329412 0.000000
0.368627 0.329412 0.000000
0.403922 0.333333 0.003922
0.450980 0.333333 0.003922
0.486275 0.337255 0.003922
0.533333 0.345098 0.015686
0.572549 0.352941 0.050980
0.619608 0.360784 0.070588
0.666667 0.360784 0.078431
0.713725 0.360784 0.082353
0.772549 0.372549 0.082353
0.815686 0.380392 0.070588
0.866667 0.384314 0.078431
0.917647 0.392157 0.082353
0.960784 0.392157 0.098039
0.000000 0.372549 0.003922
0.007843 0.360784 0.007843
0.007843 0.364706 0.000000
0.000000 0.372549 0.003922
0.078431 0.368627 0.000000
0.129412 0.368627 0.003922
0.176471 0.368627 0.000000
0.223529 0.368627 0.000000
0.262745 0.368627 0.000000
0.305882 0.372549 0.000000
0.337255 0.376471 0.000000
0.372549 0.380392 0.000000
0.411765 0.380392 0.000000
0.458824 0.380392 0.000000
0.498039 0.380392 0.000000
0.541176 0.388235 0.000000
0.584314 0.388235 0.007843
0.627451 0.396078 0.035294
0.674510 0.400000 0.066667
0.713725 0.407843 0.086275
0.764706 0.419608 0.101961
0.819608 0.423529 0.101961
0.862745 0.431373 0.105882
0.921569 0.427451 0.105882
0.960784 0.443137 0.109804
0.000000 0.419608 0.011765
0.000000 0.423529 0.000000
0.000000 0.415686 0.000000
0.000000 0.419608 0.003922
0.058824 0.415686 0.000000
0.121569 0.415686 0.011765
0.168627 0.415686 0.000000
0.211765 0.419608 0.003922
0.254902 0.419608 0.000000
0.298039 0.423529 0.000000
0.337255 0.423529 0.000000
0.376471 0.423529 0.000000
0.423529 0.419608 0.000000
0.462745 0.419608 0.000000
0.509804 0.427451 0.007843
0.552941 0.427451 0.000000
0.596078 0.431373 0.000000
0.635294 0.439216 0.000000
0.682353 0.443137 0.023529
0.721569 0.450980 0.054902
0.772549 0.458824 0.094118
0.823529 0.466667 0.121569
0.862745 0.470588 0.137255
0.913725 0.478431 0.125490
0.960784 0.486275 0.145098
0.007843 0.458824 0.000000
0.000000 0.466667 0.000000
0.003922 0.462745 0.003922
0.000000 0.466667 0.000000
0.023529 0.466667 0.003922
0.113725 0.470588 0.000000
0.156863 0.466667 0.000000
0.215686 0.470588 0.000000
0.258824 0.466667 0.003922
0.313725 0.474510 0.011765
0.352941 0.466667 0.003922
0.388235 0.462745 0.000000
0.431373 0.466667 0.000000
0.474510 0.466667 0.000000
0.517647 0.470588 0.000000
0.560784 0.474510 0.000000
0.603922 0.478431 0.003922
0.643137 0.478431 0.000000
0.690196 0.490196 0.000000
0.733333 0.494118 0.003922
0.780392 0.494118 0.043137
0.827451 0.501961 0.086275
0.862745 0.509804 0.129412
0.921569 0.517647 0.152941
0.968627 0.525490 0.164706
0.000000 0.513725 0.003922
0.003922 0.513725 0.000000
0.000000 0.509804 0.000000
0.000000 0.513725 0.003922
0.003922 0.521569 0.000000
0.082353 0.509804 0.000000
0.152941 0.509804 0.000000
0.207843 0.521569 0.000000
0.254902 0.513725 0.000000
0.309804 0.517647 0.000000
0.352941 0.517647 0.000000
0.392157 0.513725 0.003922
0.439216 0.517647 0.000000
0.482353 0.521569 0.000000
0.521569 0.521569 0.000000
0.560784 0.521569 0.000000
0.603922 0.525490 0.000000
0.654902 0.529412 0.003922
0.701961 0.529412 0.007843
0.745098 0.533333 0.007843
0.788235 0.541176 0.000000
0.835294 0.541176 0.035294
0.874510 0.552941 0.090196
0.921569 0.552941 0.137255
0.960784 0.560784 0.176471
0.000000 0.564706 0.000000
0.000000 0.564706 0.000000
0.011765 0.568627 0.000000
0.000000 0.572549 0.000000
0.003922 0.564706 0.000000
0.070588 0.556863 0.000000
0.141176 0.568627 0.000000
0.203922 0.564706 0.000000
0.258824 0.568627 0.007843
0.298039 0.568627 0.007843
0.356863 0.564706 0.000000
0.396078 0.568627 0.000000
0.454902 0.564706 0.000000
0.494118 0.572549 0.000000
0.533333 0.568627 0.000000
0.576471 0.572549 0.007843
0.623529 0.564706 0.000000
0.674510 0.580392 0.000000
0.713725 0.580392 0.000000
0.756863 0.584314 0.003922
0.803922 0.584314 0.000000
0.839216 0.592157 0.000000
0.886275 0.592157 0.031373
0.937255 0.592157 0.098039
0.980392 0.607843 0.145098
0.000000 0.611765 0.007843
0.000000 0.607843 0.000000
0.000000 0.615686 0.000000
0.000000 0.615686 0.000000
0.000000 0.615686 0.000000
0.019608 0.611765 0.003922
0.125490 0.615686 0.003922
0.196078 0.615686 0.003922
0.250980 0.615686 0.007843
0.305882 0.619608 0.003922
0.352941 0.615686 0.000000
0.400000 0.615686 0.003922
0.447059 0.627451 0.007843
0.498039 0.619608 0.007843
0.537255 0.615686 0.000000
0.592157 0.619608 0.000000
0.631373 0.619608 0.003922
0.674510 0.619608 0.000000
0.717647 0.623529 0.003922
0.760784 0.627451 0.003922
0.803922 0.631373 0.000000
0.850980 0.635294 0.000000
0.898039 0.635294 0.000000
0.933333 0.639216 0.000000
0.984314 0.647059 0.117647
0.000000 0.662745 0.000000
0.003922 0.666667 0.000000
0.003922 0.658824 0.000000
0.007843 0.662745 0.003922
0.003922 0.666667 0.000000
0.000000 0.670588 0.000000
0.117647 0.662745 0.000000
0.184314 0.666667 0.007843
0.250980 0.666667 0.000000
0.305882 0.666667 0.000000
0.349020 0.670588 0.000000
0.400000 0.670588 0.007843
0.450980 0.670588 0.007843
0.501961 0.662745 0.003922
0.537255 0.666667 0.003922
0.584314 0.670588 0.003922
0.631373 0.666667 0.000000
0.678431 0.670588 0.000000
0.725490 0.670588 0.000000
0.764706 0.670588 0.000000
0.815686 0.674510 0.000000
0.862745 0.674510 0.000000
0.913725 0.670588 0.007843
0.945098 0.690196 0.000000
0.988235 0.690196 0.007843
0.000000 0.721569 0.000000
0.003922 0.713725 0.000000
0.000000 0.721569 0.000000
0.007843 0.721569 0.000000
0.000000 0.713725 0.003922
0.007843 0.717647 0.000000
0.082353 0.713725 0.003922
0.176471 0.713725 0.007843
0.239216 0.713725 0.000000
0.294118 0.717647 0.000000
0.349020 0.725490 0.000000
0.400000 0.721569 0.000000
0.443137 0.717647 0.000000
0.494118 0.721569 0.007843
0.541176 0.721569 0.000000
0.596078 0.721569 0.000000
0.643137 0.721569 0.000000
0.686275 0.717647 0.000000
0.725490 0.721569 0.000000
0.768627 0.725490 0.000000
0.807843 0.721569 0.007843
0.862745 0.721569 0.000000
0.913725 0.725490 0.003922
0.956863 0.725490 0.019608
0.992157 0.725490 0.003922
0.003922 0.768627 0.011765
0.000000 0.764706 0.000000
0.000000 0.768627 0.007843
0.003922 0.760784 0.000000
0.011765 0.760784 0.011765
0.000000 0.768627 0.007843
0.039216 0.768627 0.000000
0.164706 0.760784 0.011765
0.235294 0.764706 0.007843
0.294118 0.772549 0.000000
0.345098 0.768627 0.000000
0.403922 0.768627 0.007843
0.447059 0.768627 0.000000
0.494118 0.768627 0.000000
0.549020 0.768627 0.003922
0.596078 0.764706 0.000000
0.643137 0.768627 0.003922
0.690196 0.768627 0.003922
0.729412 0.772549 0.000000
0.772549 0.776471 0.000000
0.819608 0.772549 0.000000
0.866667 0.776471 0.000000
0.905882 0.776471 0.000000
0.960784 0.772549 0.000000
1.000000 0.776471 0.000000
0.000000 0.807843 0.000000
0.007843 0.823529 0.007843
0.000000 0.807843 0.000000
0.000000 0.819608 0.003922
0.007843 0.811765 0.003922
0.000000 0.815686 0.003922
0.007843 0.815686 0.000000
0.137255 0.823529 0.011765
0.231373 0.811765 0.000000
0.286275 0.815686 0.000000
0.337255 0.823529 0.000000
0.396078 0.819608 0.000000
0.447059 0.823529 0.000000
0.505882 0.819608 0.000000
0.545098 0.819608 0.000000
0.592157 0.819608 0.003922
0.647059 0.819608 0.000000
0.694118 0.819608 0.007843
0.733333 0.819608 0.007843
0.784314 0.823529 0.000000
0.831373 0.827451 0.000000
0.866667 0.819608 0.000000
0.917647 0.823529 0.000000
0.960784 0.827451 0.000000
1.000000 0.819608 0.000000
0.000000 0.862745 0.000000
0.003922 0.866667 0.003922
0.000000 0.858824 0.011765
0.000000 0.866667 0.003922
0.000000 0.870588 0.000000
0.000000 0.862745 0.000000
0.000000 0.870588 0.000000
0.133333 0.858824 0.000000
0.203922 0.866667 0.007843
0.282353 0.870588 0.003922
0.341176 0.866667 0.000000
0.396078 0.866667 0.000000
0.447059 0.870588 0.000000
0.498039 0.870588 0.000000
0.549020 0.870588 0.000000
0.596078 0.870588 0.000000
0.647059 0.874510 0.003922
0.690196 0.870588 0.000000
0.737255 0.874510 0.000000
0.784314 0.870588 0.000000
0.823529 0.870588 0.000000
0.870588 0.870588 0.000000
0.909804 0.870588 0.003922
0.960784 0.866667 0.003922
1.000000 0.866667 0.000000
0.007843 0.901961 0.003922
0.000000 0.905882 0.000000
0.000000 0.913725 0.007843
0.003922 0.909804 0.000000
0.000000 0.913725 0.000000
0.000000 0.909804 0.000000
0.011765 0.909804 0.000000
0.094118 0.913725 0.000000
0.196078 0.913725 0.003922
0.274510 0.913725 0.000000
0.333333 0.909804 0.003922
0.392157 0.913725 0.000000
0.447059 0.913725 0.000000
0.490196 0.913725 0.000000
0.545098 0.909804 0.003922
0.592157 0.913725 0.003922
0.639216 0.909804 0.000000
0.686275 0.913725 0.000000
0.733333 0.913725 0.000000
0.784314 0.917647 0.000000
0.831373 0.917647 0.003922
0.870588 0.917647 0.000000
0.921569 0.921569 0.003922
0.956863 0.917647 0.003922
1.000000 0.909804 0.000000
0.000000 0.960784 0.000000
0.000000 0.960784 0.000000
0.003922 0.945098 0.007843
0.007843 0.960784 0.011765
0.000000 0.960784 0.007843
0.000000 0.960784 0.007843
0.000000 0.956863 0.000000
0.070588 0.960784 0.000000
0.192157 0.956863 0.000000
0.286275 0.956863 0.007843
0.329412 0.960784 0.003922
0.376471 0.964706 0.000000
0.447059 0.960784 0.003922
0.490196 0.952941 0.000000
0.537255 0.960784 0.003922
0.592157 0.960784 0.000000
0.643137 0.960784 0.000000
0.686275 0.952941 0.000000
0.737255 0.952941 0.000000
0.784314 0.956863 0.000000
0.819608 0.952941 0.000000
0.870588 0.952941 0.000000
0.913725 0.952941 0.000000
0.956863 0.956863 0.000000
1.000000 0.952941 0.000000
0.000000 1.000000 0.000000
0.000000 0.996078 0.000000
0.000000 1.000000 0.003922
0.011765 0.996078 0.000000
0.000000 1.000000 0.003922
0.000000 0.996078 0.000000
0.000000 0.996078 0.000000
0.050980 1.000000 0.000000
0.180392 0.996078 0.007843
0.258824 1.000000 0.000000
0.325490 0.996078 0.000000
0.388235 0.996078 0.000000
0.439216 1.000000 0.000000
0.486275 1.000000 0.003922
0.541176 1.000000 0.000000
0.588235 1.000000 0.000000
0.639216 0.996078 0.000000
0.686275 1.000000 0.000000
0.737255 1.000000 0.000000
0.780392 1.000000 0.000000
0.831373 1.000000 0.000000
0.870588 1.000000 0.003922
0.905882 0.996078 0.000000
0.956863 0.996078 0.000000
0.996078 0.996078 0.000000
0.003922 0.000000 0.015686
0.000000 0.000000 0.007843
0.035294 0.000000 0.011765
0.062745 0.000000 0.003922
0.086275 0.000000 0.007843
0.125490 0.000000 0.011765
0.160784 0.003922 0.015686
0.200000 0.000000 0.011765
0.227451 0.000000 0.011765
0.258824 0.000000 0.015686
0.301961 0.000000 0.031373
0.329412 0.007843 0.027451
0.380392 0.000000 0.027451
0.415686 0.007843 0.019608
0.470588 0.007843 0.011765
0.509804 0.003922 0.019608
0.560784 0.003922 0.019608
0.607843 0.003922 0.015686
0.658824 0.000000 0.019608
0.709804 0.003922 0.019608
0.768627 0.000000 0.015686
0.815686 0.003922 0.003922
0.866667 0.000000 0.000000
0.917647 0.000000 0.011765
0.964706 0.003922 0.003922
0.000000 0.000000 0.019608
0.003922 0.003922 0.003922
0.031373 0.007843 0.007843
0.074510 0.003922 0.003922
0.105882 0.000000 0.019608
0.125490 0.011765 0.027451
0.156863 0.007843 0.007843
0.188235 0.015686 0.019608
0.227451 0.007843 0.019608
0.262745 0.003922 0.011765
0.298039 0.000000 0.011765
0.341176 0.000000 0.027451
0.380392 0.000000 0.027451
0.427451 0.000000 0.023529
0.470588 0.003922 0.035294
0.509804 0.003922 0.023529
0.560784 0.003922 0.027451
0.611765 0.000000 0.015686
0.666667 0.000000 0.019608
0.721569 0.000000 0.015686
0.768627 0.000000 0.015686
0.811765 0.000000 0.007843
0.862745 0.000000 0.007843
0.913725 0.007843 0.007843
0.964706 0.000000 0.011765
0.000000 0.039216 0.007843
0.011765 0.039216 0.011765
0.039216 0.035294 0.015686
0.062745 0.031373 0.019608
0.094118 0.035294 0.015686
0.125490 0.031373 0.023529
0.149020 0.039216 0.023529
0.188235 0.039216 0.027451
0.223529 0.035294 0.019608
0.262745 0.035294 0.023529
0.298039 0.031373 0.027451
0.341176 0.027451 0.031373
0.384314 0.023529 0.027451
0.423529 0.027451 0.027451
0.474510 0.011765 0.015686
0.517647 0.007843 0.023529
0.560784 0.003922 0.019608
0.611765 0.000000 0.015686
0.666667 0.000000 0.019608
0.713725 0.000000 0.019608
0.768627 0.000000 0.015686
0.815686 0.000000 0.015686
0.866667 0.000000 0.007843
0.909804 0.007843 0.015686
0.964706 0.000000 0.011765
0.000000 0.066667 0.019608
0.011765 0.066667 0.015686
0.039216 0.070588 0.019608
0.062745 0.066667 0.011765
0.086275 0.070588 0.023529
0.133333 0.062745 0.023529
0.156863 0.062745 0.023529
0.184314 0.066667 0.027451
0.219608 0.070588 0.027451
0.254902 0.066667 0.027451
0.298039 0.070588 0.027451
0.341176 0.066667 0.027451
0.388235 0.062745 0.031373
0.423529 0.058824 0.027451
0.466667 0.066667 0.027451
0.509804 0.062745 0.019608
0.556863 0.058824 0.023529
0.611765 0.050980 0.027451
0.658824 0.047059 0.027451
0.717647 0.039216 0.015686
0.764706 0.035294 0.015686
0.819608 0.023529 0.015686
0.862745 0.011765 0.007843
0.921569 0.003922 0.015686
0.960784 0.003922 0.003922
0.011765 0.098039 0.015686
0.011765 0.098039 0.007843
0.031373 0.098039 0.023529
0.054902 0.101961 0.015686
0.098039 0.098039 0.003922
0.125490 0.101961 0.015686
0.164706 0.098039 0.031373
0.184314 0.094118 0.035294
0.215686 0.101961 0.047059
0.254902 0.109804 0.047059
0.298039 0.105882 0.039216
0.333333 0.109804 0.035294
0.376471 0.105882 0.043137
0.415686 0.105882 0.039216
0.466667 0.109804 0.035294
0.513725 0.113725 0.035294
0.560784 0.109804 0.035294
0.607843 0.105882 0.023529
0.658824 0.109804 0.027451
0.701961 0.105882 0.023529
0.756863 0.098039 0.015686
0.811765 0.098039 0.015686
0.862745 0.094118 0.015686
0.925490 0.094118 0.019608
0.968627 0.098039 0.023529
0.000000 0.133333 0.007843
0.003922 0.133333 0.011765
0.035294 0.125490 0.015686
0.070588 0.129412 0.015686
0.094118 0.129412 0.007843
0.133333 0.129412 0.019608
0.168627 0.129412 0.023529
0.196078 0.133333 0.035294
0.219608 0.133333 0.039216
0.258824 0.133333 0.043137
0.294118 0.137255 0.047059
0.337255 0.141176 0.050980
0.380392 0.145098 0.043137
0.427451 0.149020 0.047059
0.466667 0.149020 0.043137
0.517647 0.149020 0.050980
0.568627 0.149020 0.047059
0.607843 0.149020 0.039216
0.666667 0.152941 0.035294
0.709804 0.152941 0.027451
0.764706 0.152941 0.031373
0.819608 0.152941 0.023529
0.874510 0.152941 0.019608
0.917647 0.156863 0.019608
0.960784 0.152941 0.027451
0.000000 0.164706 0.015686
0.007843 0.164706 0.019608
0.019608 0.168627 0.007843
0.066667 0.164706 0.011765
0.098039 0.160784 0.015686
0.137255 0.160784 0.027451
0.168627 0.168627 0.019608
0.203922 0.168627 0.015686
0.235294 0.164706 0.023529
0.262745 0.168627 0.035294
0.294118 0.172549 0.050980
0.333333 0.172549 0.062745
0.376471 0.176471 0.062745
0.419608 0.184314 0.050980
0.470588 0.184314 0.054902
0.521569 0.192157 0.050980
0.564706 0.188235 0.050980
0.615686 0.192157 0.050980
0.662745 0.196078 0.047059
0.709804 0.196078 0.043137
0.764706 0.196078 0.035294
0.819608 0.203922 0.035294
0.866667 0.207843 0.035294
0.909804 0.211765 0.031373
0.980392 0.211765 0.031373
0.000000 0.203922 0.011765
0.000000 0.200000 0.000000
0.007843 0.200000 0.023529
0.058824 0.200000 0.003922
0.098039 0.207843 0.019608
0.145098 0.200000 0.007843
0.172549 0.203922 0.019608
0.207843 0.203922 0.015686
0.239216 0.207843 0.015686
0.274510 0.211765 0.019608
0.305882 0.200000 0.023529
0.341176 0.203922 0.039216
0.384314 0.215686 0.058824
0.423529 0.219608 0.074510
0.466667 0.223529 0.070588
0.513725 0.227451 0.070588
0.572549 0.231373 0.062745
0.619608 0.235294 0.058824
0.670588 0.235294 0.054902
0.717647 0.239216 0.047059
0.764706 0.243137 0.043137
0.807843 0.247059 0.043137
0.862745 0.250980 0.031373
0.921569 0.243137 0.054902
0.972549 0.254902 0.058824
0.000000 0.235294 0.003922
0.000000 0.250980 0.007843
0.003922 0.231373 0.000000
0.047059 0.239216 0.011765
0.094118 0.243137 0.003922
0.129412 0.239216 0.007843
0.180392 0.239216 0.007843
0.207843 0.243137 0.000000
0.243137 0.243137 0.000000
0.282353 0.250980 0.007843
0.313725 0.250980 0.019608
0.352941 0.247059 0.031373
0.388235 0.247059 0.043137
0.423529 0.258824 0.062745
0.462745 0.258824 0.074510
0.509804 0.266667 0.082353
0.560784 0.274510 0.078431
0.611765 0.278431 0.066667
0.662745 0.282353 0.074510
0.713725 0.286275 0.066667
0.760784 0.286275 0.070588
0.807843 0.290196 0.058824
0.866667 0.294118 0.062745
0.909804 0.301961 0.058824
0.964706 0.313725 0.078431
0.000000 0.278431 0.000000
0.000000 0.282353 0.000000
0.003922 0.286275 0.000000
0.035294 0.282353 0.000000
0.090196 0.286275 0.000000
0.125490 0.282353 0.003922
0.172549 0.278431 0.000000
0.227451 0.278431 0.000000
0.254902 0.282353 0.007843
0.286275 0.286275 0.003922
0.325490 0.290196 0.000000
0.364706 0.290196 0.000000
0.396078 0.290196 0.011765
0.439216 0.294118 0.027451
0.474510 0.298039 0.050980
0.517647 0.301961 0.078431
0.568627 0.305882 0.090196
0.615686 0.317647 0.090196
0.666667 0.321569 0.074510
0.717647 0.329412 0.074510
0.776471 0.329412 0.082353
0.819608 0.337255 0.082353
0.862745 0.341176 0.082353
0.917647 0.345098 0.082353
0.960784 0.349020 0.078431
0.000000 0.325490 0.003922
0.011765 0.321569 0.003922
0.000000 0.325490 0.003922
0.015686 0.325490 0.000000
0.086275 0.329412 0.003922
0.129412 0.321569 0.000000
0.172549 0.325490 0.000000
0.207843 0.333333 0.000000
0.250980 0.325490 0.003922
0.290196 0.325490 0.007843
