lut_library_archive/removed_20260629/50个风景lut/50个风景lut32.cube
# 版权归凌孟成所有，侵权必究
TITLE "Jungle LUT #32"
#LUT size
LUT_3D_SIZE 5
#LUT data points
0.003922 0.000000 0.000000
0.298039 0.000000 0.000000
0.592157 0.000000 0.000000
0.870588 0.003922 0.000000
1.000000 0.035294 0.000000
0.047059 0.298039 0.000000
0.294118 0.298039 0.000000
0.603922 0.301961 0.003922
0.878431 0.294118 0.003922
0.988235 0.286275 0.000000
0.141176 0.588235 0.003922
0.325490 0.584314 0.000000
0.611765 0.584314 0.000000
0.870588 0.564706 0.000000
1.000000 0.541176 0.058824
0.235294 0.831373 0.050980
0.364706 0.827451 0.050980
0.592157 0.827451 0.066667
0.854902 0.823529 0.090196
0.992157 0.792157 0.129412
0.333333 0.996078 0.231373
0.411765 0.992157 0.207843
0.596078 1.000000 0.223529
0.843137 1.000000 0.239216
1.000000 1.000000 0.270588
0.003922 0.000000 0.266667
0.305882 0.003922 0.278431
0.603922 0.003922 0.286275
0.878431 0.078431 0.294118
0.996078 0.133333 0.290196
0.062745 0.301961 0.282353
0.321569 0.301961 0.286275
0.607843 0.305882 0.282353
0.874510 0.309804 0.278431
1.000000 0.309804 0.282353
0.168627 0.596078 0.270588
0.345098 0.592157 0.274510
0.619608 0.592157 0.274510
0.866667 0.580392 0.282353
0.996078 0.552941 0.286275
0.262745 0.839216 0.290196
0.384314 0.827451 0.301961
0.607843 0.835294 0.294118
0.858824 0.831373 0.305882
1.000000 0.796078 0.317647
0.364706 1.000000 0.380392
0.431373 1.000000 0.352941
0.607843 1.000000 0.368627
0.847059 1.000000 0.380392
1.000000 0.996078 0.400000
0.031373 0.000000 0.545098
0.305882 0.007843 0.545098
0.596078 0.015686 0.556863
0.874510 0.090196 0.549020
1.000000 0.200000 0.525490
0.105882 0.298039 0.556863
0.325490 0.309804 0.549020
0.607843 0.309804 0.552941
0.866667 0.329412 0.549020
0.996078 0.372549 0.552941
0.168627 0.600000 0.549020
0.352941 0.588235 0.549020
0.623529 0.592157 0.552941
0.866667 0.592157 0.560784
1.000000 0.584314 0.560784
0.345098 0.835294 0.568627
0.431373 0.827451 0.560784
0.611765 0.827451 0.560784
0.858824 0.827451 0.572549
1.000000 0.807843 0.576471
0.411765 1.000000 0.592157
0.466667 1.000000 0.576471
0.635294 1.000000 0.584314
0.850980 0.996078 0.592157
0.996078 1.000000 0.600000
0.086275 0.039216 0.807843
0.317647 0.058824 0.796078
0.588235 0.086275 0.803922
0.866667 0.129412 0.811765
1.000000 0.231373 0.772549
0.160784 0.309804 0.800000
0.341176 0.317647 0.811765
0.600000 0.325490 0.811765
0.866667 0.337255 0.811765
0.992157 0.392157 0.768627
0.270588 0.588235 0.796078
0.400000 0.596078 0.796078
0.623529 0.596078 0.800000
0.854902 0.603922 0.800000
0.996078 0.623529 0.796078
0.364706 0.843137 0.800000
0.450980 0.831373 0.796078
0.639216 0.835294 0.792157
0.850980 0.835294 0.800000
1.000000 0.819608 0.819608
0.517647 0.996078 0.803922
0.572549 1.000000 0.807843
0.705882 1.000000 0.823529
0.850980 1.000000 0.815686
0.996078 1.000000 0.827451
0.145098 0.113725 0.996078
0.317647 0.129412 1.000000
0.568627 0.156863 1.000000
0.839216 0.207843 1.000000
1.000000 0.258824 1.000000
0.219608 0.329412 1.000000
0.345098 0.329412 1.000000
0.588235 0.349020 1.000000
0.827451 0.372549 0.996078
1.000000 0.403922 1.000000
0.329412 0.592157 1.000000
0.431373 0.600000 1.000000
0.623529 0.603922 0.996078
0.839216 0.615686 0.996078
0.992157 0.627451 0.992157
0.419608 0.819608 1.000000
0.482353 0.819608 1.000000
0.643137 0.827451 1.000000
0.847059 0.835294 1.000000
1.000000 0.835294 1.000000
0.509804 1.000000 1.000000
0.552941 1.000000 1.000000
0.701961 1.000000 1.000000
0.890196 1.000000 0.996078
1.000000 1.000000 1.000000
