lut_library_archive/removed_20260629/50个风景lut/50个风景lut40.cube
# 版权归凌孟成所有，侵权必究
TITLE "Jungle LUT #40"
#LUT size
LUT_3D_SIZE 9
#LUT data points
0.047059 0.050980 0.058824
0.125490 0.047059 0.050980
0.243137 0.047059 0.050980
0.341176 0.043137 0.043137
0.470588 0.058824 0.043137
0.611765 0.070588 0.031373
0.760784 0.074510 0.015686
0.898039 0.082353 0.003922
0.996078 0.090196 0.000000
0.039216 0.141176 0.035294
0.137255 0.137255 0.027451
0.243137 0.141176 0.043137
0.349020 0.137255 0.043137
0.470588 0.141176 0.039216
0.619608 0.152941 0.027451
0.764706 0.160784 0.019608
0.901961 0.164706 0.000000
0.996078 0.172549 0.000000
0.054902 0.243137 0.039216
0.129412 0.239216 0.039216
0.227451 0.243137 0.043137
0.352941 0.247059 0.039216
0.474510 0.254902 0.031373
0.623529 0.266667 0.011765
0.760784 0.274510 0.000000
0.913725 0.278431 0.000000
1.000000 0.282353 0.000000
0.054902 0.360784 0.031373
0.133333 0.360784 0.019608
0.247059 0.364706 0.011765
0.364706 0.364706 0.011765
0.490196 0.380392 0.000000
0.631373 0.388235 0.003922
0.768627 0.396078 0.000000
0.905882 0.400000 0.003922
1.000000 0.400000 0.000000
0.054902 0.505882 0.007843
0.145098 0.505882 0.007843
0.262745 0.505882 0.000000
0.380392 0.509804 0.000000
0.509804 0.513725 0.003922
0.647059 0.517647 0.003922
0.784314 0.521569 0.003922
0.909804 0.525490 0.000000
0.988235 0.525490 0.000000
0.039216 0.650980 0.007843
0.149020 0.650980 0.011765
0.266667 0.654902 0.000000
0.396078 0.650980 0.000000
0.525490 0.654902 0.000000
0.658824 0.654902 0.000000
0.796078 0.650980 0.000000
0.917647 0.654902 0.000000
0.992157 0.662745 0.003922
0.031373 0.784314 0.003922
0.168627 0.788235 0.000000
0.274510 0.788235 0.000000
0.403922 0.788235 0.000000
0.533333 0.784314 0.000000
0.666667 0.788235 0.003922
0.796078 0.784314 0.003922
0.921569 0.780392 0.003922
1.000000 0.772549 0.000000
0.070588 0.905882 0.000000
0.160784 0.913725 0.000000
0.290196 0.905882 0.000000
0.415686 0.917647 0.003922
0.537255 0.913725 0.003922
0.670588 0.913725 0.000000
0.803922 0.913725 0.000000
0.937255 0.913725 0.000000
1.000000 0.905882 0.000000
0.168627 0.996078 0.000000
0.231373 0.996078 0.007843
0.321569 1.000000 0.000000
0.431373 1.000000 0.000000
0.560784 1.000000 0.003922
0.686275 1.000000 0.000000
0.827451 0.996078 0.054902
0.956863 1.000000 0.121569
1.000000 1.000000 0.168627
0.035294 0.054902 0.129412
0.125490 0.039216 0.121569
0.243137 0.050980 0.125490
0.345098 0.062745 0.117647
0.470588 0.066667 0.113725
0.611765 0.066667 0.117647
0.756863 0.062745 0.105882
0.901961 0.058824 0.098039
0.992157 0.058824 0.090196
0.039216 0.137255 0.121569
0.133333 0.137255 0.113725
0.235294 0.137255 0.121569
0.349020 0.141176 0.121569
0.470588 0.145098 0.121569
0.615686 0.145098 0.109804
0.756863 0.149020 0.101961
0.894118 0.152941 0.098039
0.988235 0.149020 0.086275
0.047059 0.247059 0.125490
0.137255 0.243137 0.117647
0.239216 0.243137 0.117647
0.349020 0.247059 0.117647
0.482353 0.254902 0.109804
0.623529 0.258824 0.098039
0.764706 0.266667 0.098039
0.901961 0.266667 0.082353
1.000000 0.274510 0.070588
0.043137 0.360784 0.098039
0.129412 0.368627 0.105882
0.243137 0.364706 0.101961
0.364706 0.368627 0.101961
0.494118 0.376471 0.094118
0.631373 0.388235 0.094118
0.772549 0.392157 0.082353
0.909804 0.400000 0.070588
1.000000 0.400000 0.062745
0.015686 0.498039 0.070588
0.121569 0.505882 0.062745
0.254902 0.505882 0.058824
0.380392 0.509804 0.058824
0.513725 0.509804 0.054902
0.639216 0.517647 0.031373
0.780392 0.525490 0.031373
0.913725 0.525490 0.027451
0.996078 0.525490 0.015686
0.000000 0.654902 0.000000
0.121569 0.650980 0.003922
0.262745 0.647059 0.000000
0.392157 0.647059 0.000000
0.525490 0.654902 0.003922
0.658824 0.647059 0.000000
0.788235 0.654902 0.000000
0.921569 0.650980 0.003922
1.000000 0.650980 0.000000
0.000000 0.780392 0.000000
0.125490 0.792157 0.000000
0.262745 0.780392 0.000000
0.400000 0.784314 0.003922
0.533333 0.784314 0.000000
0.662745 0.784314 0.000000
0.796078 0.792157 0.000000
0.913725 0.784314 0.003922
1.000000 0.780392 0.003922
0.031373 0.913725 0.000000
0.152941 0.917647 0.000000
0.274510 0.917647 0.000000
0.407843 0.913725 0.000000
0.537255 0.913725 0.003922
0.670588 0.913725 0.000000
0.800000 0.917647 0.000000
0.925490 0.909804 0.000000
1.000000 0.909804 0.007843
0.164706 0.996078 0.003922
0.207843 1.000000 0.011765
0.313725 0.996078 0.027451
0.423529 1.000000 0.054902
0.552941 1.000000 0.070588
0.682353 1.000000 0.101961
0.827451 1.000000 0.141176
0.952941 1.000000 0.176471
1.000000 0.996078 0.215686
0.035294 0.039216 0.211765
0.141176 0.039216 0.215686
0.235294 0.050980 0.223529
0.356863 0.054902 0.219608
0.478431 0.043137 0.219608
0.615686 0.003922 0.211765
0.756863 0.003922 0.207843
0.901961 0.003922 0.203922
0.996078 0.000000 0.211765
0.054902 0.137255 0.219608
0.133333 0.125490 0.215686
0.231373 0.133333 0.215686
0.352941 0.137255 0.219608
0.478431 0.129412 0.215686
0.619608 0.117647 0.207843
0.760784 0.113725 0.211765
0.909804 0.101961 0.211765
0.996078 0.101961 0.200000
0.035294 0.239216 0.219608
0.129412 0.243137 0.227451
0.243137 0.243137 0.211765
0.356863 0.243137 0.219608
0.486275 0.250980 0.219608
0.631373 0.250980 0.215686
0.768627 0.250980 0.211765
0.909804 0.254902 0.200000
0.992157 0.250980 0.203922
0.003922 0.364706 0.211765
0.101961 0.368627 0.207843
0.239216 0.364706 0.203922
0.364706 0.368627 0.211765
0.498039 0.372549 0.211765
0.631373 0.376471 0.211765
0.768627 0.384314 0.200000
0.909804 0.388235 0.196078
1.000000 0.388235 0.196078
0.000000 0.501961 0.200000
0.094118 0.501961 0.192157
0.239216 0.509804 0.196078
0.376471 0.505882 0.188235
0.513725 0.509804 0.188235
0.639216 0.513725 0.180392
0.780392 0.513725 0.188235
0.913725 0.521569 0.188235
0.996078 0.513725 0.180392
0.003922 0.650980 0.172549
0.062745 0.658824 0.164706
0.250980 0.647059 0.168627
0.380392 0.654902 0.168627
0.525490 0.650980 0.168627
0.654902 0.650980 0.156863
0.800000 0.650980 0.160784
0.925490 0.650980 0.164706
1.000000 0.650980 0.180392
0.007843 0.776471 0.133333
0.054902 0.784314 0.141176
0.243137 0.784314 0.137255
0.388235 0.784314 0.133333
0.525490 0.780392 0.129412
0.662745 0.784314 0.137255
0.800000 0.788235 0.141176
0.933333 0.784314 0.152941
0.996078 0.776471 0.160784
0.003922 0.913725 0.129412
0.090196 0.921569 0.133333
0.250980 0.909804 0.121569
0.396078 0.913725 0.133333
0.533333 0.917647 0.145098
0.662745 0.913725 0.137255
0.800000 0.909804 0.141176
0.941176 0.913725 0.160784
0.988235 0.901961 0.188235
0.133333 0.996078 0.203922
0.200000 0.992157 0.200000
0.301961 0.996078 0.196078
0.419608 1.000000 0.207843
0.552941 1.000000 0.219608
0.686275 1.000000 0.235294
0.823529 1.000000 0.250980
0.956863 1.000000 0.278431
1.000000 1.000000 0.294118
0.043137 0.043137 0.325490
0.129412 0.043137 0.325490
0.235294 0.050980 0.325490
0.352941 0.047059 0.341176
0.486275 0.027451 0.337255
0.619608 0.000000 0.341176
0.764706 0.000000 0.337255
0.917647 0.003922 0.333333
1.000000 0.000000 0.329412
0.047059 0.133333 0.325490
0.133333 0.121569 0.329412
0.239216 0.129412 0.329412
0.352941 0.125490 0.325490
0.478431 0.125490 0.333333
0.627451 0.094118 0.337255
0.764706 0.054902 0.341176
0.917647 0.003922 0.329412
1.000000 0.003922 0.321569
0.023529 0.235294 0.337255
0.113725 0.239216 0.337255
0.239216 0.239216 0.341176
0.364706 0.231373 0.329412
0.494118 0.239216 0.333333
0.635294 0.227451 0.333333
0.776471 0.219608 0.329412
0.913725 0.215686 0.325490
0.992157 0.203922 0.337255
0.007843 0.364706 0.337255
0.086275 0.364706 0.333333
0.223529 0.368627 0.329412
0.364706 0.364706 0.325490
0.498039 0.368627 0.333333
0.635294 0.368627 0.325490
0.788235 0.372549 0.321569
0.917647 0.368627 0.329412
1.000000 0.364706 0.317647
0.003922 0.509804 0.321569
0.003922 0.509804 0.321569
0.207843 0.513725 0.317647
0.364706 0.505882 0.317647
0.509804 0.509804 0.313725
0.650980 0.509804 0.313725
0.784314 0.517647 0.333333
0.917647 0.509804 0.325490
1.000000 0.509804 0.321569
0.000000 0.650980 0.305882
0.015686 0.647059 0.309804
0.192157 0.654902 0.309804
0.364706 0.654902 0.305882
0.517647 0.654902 0.301961
0.658824 0.654902 0.301961
0.796078 0.650980 0.301961
0.929412 0.647059 0.317647
1.000000 0.643137 0.325490
0.000000 0.792157 0.290196
0.000000 0.788235 0.301961
0.192157 0.788235 0.294118
0.364706 0.792157 0.294118
0.517647 0.788235 0.290196
0.666667 0.784314 0.298039
0.800000 0.784314 0.294118
0.933333 0.784314 0.298039
1.000000 0.776471 0.317647
0.000000 0.917647 0.301961
0.003922 0.917647 0.286275
0.219608 0.913725 0.301961
0.380392 0.917647 0.301961
0.517647 0.913725 0.301961
0.662745 0.913725 0.294118
0.796078 0.913725 0.301961
0.937255 0.909804 0.309804
0.996078 0.901961 0.321569
0.039216 0.996078 0.337255
0.160784 1.000000 0.349020
0.286275 0.996078 0.333333
0.415686 0.996078 0.345098
0.545098 0.996078 0.345098
0.674510 0.996078 0.352941
0.819608 1.000000 0.368627
0.956863 1.000000 0.388235
0.996078 1.000000 0.400000
0.050980 0.047059 0.454902
0.133333 0.043137 0.450980
0.243137 0.043137 0.454902
0.364706 0.027451 0.454902
0.490196 0.007843 0.462745
0.639216 0.000000 0.478431
0.772549 0.000000 0.474510
0.921569 0.000000 0.474510
1.000000 0.003922 0.462745
0.023529 0.121569 0.450980
0.125490 0.129412 0.454902
0.239216 0.125490 0.454902
0.368627 0.117647 0.462745
0.486275 0.109804 0.458824
0.631373 0.082353 0.470588
0.776471 0.023529 0.466667
0.917647 0.003922 0.466667
0.996078 0.000000 0.447059
0.007843 0.227451 0.458824
0.090196 0.231373 0.466667
0.231373 0.227451 0.450980
0.376471 0.227451 0.466667
0.498039 0.223529 0.466667
0.643137 0.215686 0.470588
0.780392 0.207843 0.470588
0.921569 0.196078 0.470588
1.000000 0.188235 0.462745
0.000000 0.364706 0.462745
0.019608 0.360784 0.458824
0.203922 0.360784 0.462745
0.364706 0.352941 0.458824
0.505882 0.352941 0.466667
0.650980 0.360784 0.466667
0.788235 0.356863 0.454902
0.913725 0.360784 0.458824
1.000000 0.349020 0.458824
0.007843 0.505882 0.462745
0.000000 0.509804 0.474510
0.192157 0.505882 0.454902
0.360784 0.509804 0.458824
0.517647 0.509804 0.462745
0.650980 0.505882 0.466667
0.788235 0.505882 0.458824
0.925490 0.509804 0.458824
0.992157 0.494118 0.458824
0.003922 0.650980 0.462745
0.003922 0.650980 0.454902
0.164706 0.647059 0.462745
0.349020 0.654902 0.450980
0.517647 0.650980 0.450980
0.658824 0.650980 0.450980
0.803922 0.647059 0.454902
0.925490 0.647059 0.466667
1.000000 0.643137 0.458824
0.000000 0.788235 0.450980
0.003922 0.788235 0.443137
0.133333 0.792157 0.450980
0.341176 0.788235 0.443137
0.513725 0.788235 0.443137
0.654902 0.788235 0.447059
0.803922 0.788235 0.447059
0.937255 0.780392 0.439216
1.000000 0.776471 0.458824
0.000000 0.913725 0.450980
0.000000 0.921569 0.447059
0.152941 0.917647 0.454902
0.349020 0.917647 0.450980
0.505882 0.917647 0.450980
0.654902 0.921569 0.454902
0.792157 0.913725 0.447059
0.933333 0.905882 0.450980
0.992157 0.905882 0.466667
0.003922 0.992157 0.478431
0.074510 1.000000 0.466667
0.243137 1.000000 0.470588
0.392157 1.000000 0.474510
0.525490 1.000000 0.478431
0.674510 1.000000 0.482353
0.815686 1.000000 0.490196
0.952941 1.000000 0.498039
1.000000 1.000000 0.521569
0.047059 0.035294 0.588235
0.137255 0.027451 0.600000
0.266667 0.023529 0.592157
0.372549 0.003922 0.592157
0.505882 0.000000 0.603922
0.635294 0.000000 0.600000
0.780392 0.000000 0.607843
0.921569 0.003922 0.603922
1.000000 0.003922 0.603922
0.000000 0.109804 0.600000
0.129412 0.113725 0.588235
0.239216 0.113725 0.596078
0.376471 0.094118 0.588235
0.509804 0.074510 0.588235
0.643137 0.039216 0.596078
0.780392 0.000000 0.607843
0.917647 0.000000 0.603922
0.996078 0.000000 0.596078
0.003922 0.219608 0.611765
0.050980 0.227451 0.592157
0.223529 0.223529 0.600000
0.364706 0.219608 0.596078
0.509804 0.211765 0.603922
0.643137 0.203922 0.603922
0.784314 0.192157 0.603922
0.921569 0.184314 0.596078
1.000000 0.172549 0.592157
0.000000 0.360784 0.603922
0.000000 0.356863 0.611765
0.176471 0.345098 0.603922
0.352941 0.349020 0.611765
0.509804 0.345098 0.603922
0.650980 0.341176 0.600000
0.788235 0.349020 0.607843
0.925490 0.345098 0.603922
1.000000 0.356863 0.611765
0.000000 0.505882 0.607843
0.007843 0.498039 0.607843
0.160784 0.501961 0.607843
0.341176 0.498039 0.600000
0.505882 0.494118 0.607843
0.654902 0.498039 0.603922
0.796078 0.498039 0.600000
0.921569 0.505882 0.607843
0.996078 0.509804 0.611765
0.000000 0.647059 0.619608
0.003922 0.650980 0.615686
0.137255 0.658824 0.615686
0.337255 0.658824 0.611765
0.501961 0.647059 0.607843
0.654902 0.647059 0.600000
0.788235 0.643137 0.603922
0.925490 0.643137 0.603922
1.000000 0.639216 0.607843
0.003922 0.784314 0.600000
0.000000 0.788235 0.600000
0.117647 0.792157 0.596078
0.333333 0.788235 0.596078
0.494118 0.792157 0.600000
0.647059 0.788235 0.600000
0.796078 0.788235 0.596078
0.933333 0.784314 0.607843
1.000000 0.780392 0.611765
0.011765 0.913725 0.600000
0.003922 0.917647 0.600000
0.196078 0.917647 0.611765
0.356863 0.917647 0.603922
0.490196 0.917647 0.592157
0.647059 0.917647 0.600000
0.784314 0.913725 0.596078
0.933333 0.913725 0.596078
1.000000 0.909804 0.611765
0.172549 0.996078 0.639216
0.219608 1.000000 0.627451
0.286275 1.000000 0.627451
0.380392 0.996078 0.615686
0.521569 1.000000 0.611765
0.662745 1.000000 0.611765
0.815686 1.000000 0.623529
0.945098 0.996078 0.635294
1.000000 0.996078 0.631373
0.015686 0.007843 0.741176
0.129412 0.003922 0.737255
0.258824 0.000000 0.729412
0.388235 0.000000 0.737255
0.517647 0.000000 0.741176
0.650980 0.000000 0.745098
0.792157 0.000000 0.745098
0.921569 0.003922 0.737255
1.000000 0.000000 0.745098
0.007843 0.105882 0.749020
0.113725 0.105882 0.729412
0.254902 0.105882 0.745098
0.380392 0.078431 0.737255
0.513725 0.047059 0.745098
0.650980 0.007843 0.741176
0.792157 0.000000 0.745098
0.909804 0.000000 0.745098
0.988235 0.003922 0.733333
0.000000 0.219608 0.752941
0.000000 0.215686 0.749020
0.223529 0.215686 0.752941
0.372549 0.207843 0.741176
0.513725 0.196078 0.741176
0.650980 0.184314 0.741176
0.792157 0.160784 0.741176
0.933333 0.156863 0.741176
0.996078 0.172549 0.733333
0.000000 0.345098 0.737255
0.000000 0.337255 0.741176
0.149020 0.341176 0.745098
0.349020 0.345098 0.752941
0.513725 0.333333 0.756863
0.650980 0.333333 0.752941
0.803922 0.325490 0.752941
0.929412 0.337255 0.741176
1.000000 0.341176 0.737255
0.003922 0.494118 0.745098
0.003922 0.498039 0.756863
0.078431 0.490196 0.745098
0.305882 0.494118 0.752941
0.486275 0.490196 0.752941
0.647059 0.486275 0.752941
0.796078 0.478431 0.741176
0.929412 0.490196 0.741176
0.996078 0.505882 0.741176
0.000000 0.643137 0.749020
0.007843 0.647059 0.745098
0.035294 0.647059 0.737255
0.309804 0.650980 0.756863
0.486275 0.639216 0.752941
0.650980 0.639216 0.752941
0.800000 0.643137 0.749020
0.921569 0.650980 0.741176
1.000000 0.647059 0.749020
0.003922 0.800000 0.752941
0.003922 0.792157 0.752941
0.054902 0.792157 0.737255
0.333333 0.792157 0.760784
0.498039 0.796078 0.749020
0.654902 0.784314 0.749020
0.792157 0.780392 0.745098
0.917647 0.784314 0.741176
1.000000 0.784314 0.764706
0.000000 0.909804 0.737255
0.003922 0.913725 0.749020
0.188235 0.909804 0.745098
0.360784 0.913725 0.745098
0.517647 0.913725 0.749020
0.650980 0.913725 0.745098
0.788235 0.909804 0.745098
0.925490 0.913725 0.752941
1.000000 0.909804 0.749020
0.156863 1.000000 0.760784
0.215686 1.000000 0.752941
0.313725 0.996078 0.749020
0.443137 1.000000 0.749020
0.560784 0.996078 0.768627
0.658824 1.000000 0.764706
0.803922 1.000000 0.760784
0.937255 0.996078 0.764706
1.000000 1.000000 0.764706
0.003922 0.000000 0.882353
0.125490 0.000000 0.882353
0.258824 0.000000 0.878431
0.392157 0.000000 0.874510
0.517647 0.000000 0.882353
0.658824 0.000000 0.890196
0.792157 0.007843 0.882353
0.933333 0.000000 0.886275
0.996078 0.003922 0.874510
0.003922 0.086275 0.874510
0.094118 0.082353 0.886275
0.250980 0.074510 0.878431
0.384314 0.047059 0.874510
0.521569 0.003922 0.886275
0.658824 0.000000 0.882353
0.792157 0.000000 0.878431
0.933333 0.000000 0.886275
0.996078 0.003922 0.878431
0.011765 0.200000 0.866667
0.000000 0.207843 0.890196
0.215686 0.207843 0.886275
0.368627 0.196078 0.882353
0.509804 0.184314 0.882353
0.650980 0.176471 0.894118
0.796078 0.152941 0.886275
0.941176 0.121569 0.886275
0.996078 0.121569 0.882353
0.007843 0.333333 0.882353
0.003922 0.337255 0.894118
0.117647 0.333333 0.890196
0.337255 0.341176 0.898039
0.501961 0.325490 0.890196
0.643137 0.325490 0.878431
0.796078 0.317647 0.886275
0.933333 0.317647 0.886275
1.000000 0.329412 0.878431
0.000000 0.490196 0.878431
0.003922 0.486275 0.894118
0.003922 0.474510 0.886275
0.290196 0.474510 0.882353
0.482353 0.474510 0.894118
0.631373 0.478431 0.894118
0.784314 0.478431 0.886275
0.933333 0.474510 0.894118
1.000000 0.482353 0.870588
0.000000 0.639216 0.894118
0.007843 0.639216 0.894118
0.003922 0.635294 0.886275
0.274510 0.631373 0.886275
0.474510 0.627451 0.890196
0.631373 0.635294 0.894118
0.784314 0.631373 0.886275
0.933333 0.635294 0.890196
1.000000 0.643137 0.866667
0.007843 0.780392 0.886275
0.000000 0.784314 0.882353
0.000000 0.788235 0.874510
0.305882 0.788235 0.890196
0.486275 0.772549 0.890196
0.639216 0.776471 0.886275
0.780392 0.780392 0.890196
0.929412 0.776471 0.890196
0.996078 0.784314 0.886275
0.011765 0.921569 0.898039
0.000000 0.929412 0.890196
0.109804 0.921569 0.882353
0.341176 0.921569 0.890196
0.498039 0.917647 0.886275
0.650980 0.913725 0.878431
0.788235 0.909804 0.886275
0.921569 0.909804 0.890196
0.996078 0.913725 0.901961
0.164706 0.996078 0.866667
0.235294 1.000000 0.866667
0.321569 1.000000 0.878431
0.439216 0.996078 0.878431
0.556863 1.000000 0.882353
0.686275 1.000000 0.878431
0.823529 0.996078 0.898039
0.929412 1.000000 0.913725
1.000000 1.000000 0.913725
0.003922 0.000000 0.996078
0.117647 0.000000 1.000000
0.247059 0.000000 1.000000
0.392157 0.003922 0.996078
0.517647 0.003922 0.992157
0.654902 0.000000 1.000000
0.788235 0.000000 0.996078
0.925490 0.000000 1.000000
0.992157 0.000000 1.000000
0.003922 0.070588 1.000000
0.070588 0.058824 0.996078
0.231373 0.054902 0.996078
0.392157 0.019608 1.000000
0.521569 0.000000 1.000000
0.654902 0.000000 1.000000
0.788235 0.000000 1.000000
0.925490 0.003922 1.000000
1.000000 0.003922 0.992157
0.011765 0.200000 1.000000
0.000000 0.200000 1.000000
0.196078 0.200000 1.000000
0.356863 0.184314 0.996078
0.513725 0.180392 1.000000
0.650980 0.160784 1.000000
0.788235 0.149020 1.000000
0.921569 0.125490 0.992157
1.000000 0.113725 0.992157
0.003922 0.329412 1.000000
0.007843 0.329412 1.000000
0.090196 0.325490 1.000000
0.333333 0.325490 0.996078
0.490196 0.325490 1.000000
0.643137 0.313725 1.000000
0.788235 0.317647 1.000000
0.921569 0.317647 1.000000
1.000000 0.309804 1.000000
0.007843 0.470588 1.000000
0.000000 0.466667 1.000000
0.011765 0.462745 1.000000
0.270588 0.474510 1.000000
0.462745 0.474510 0.996078
0.619608 0.470588 1.000000
0.772549 0.466667 1.000000
0.921569 0.466667 0.996078
0.996078 0.474510 1.000000
0.011765 0.619608 1.000000
0.011765 0.611765 1.000000
0.011765 0.619608 1.000000
0.219608 0.619608 1.000000
0.443137 0.615686 0.996078
0.607843 0.619608 1.000000
0.764706 0.619608 0.996078
0.917647 0.619608 1.000000
1.000000 0.631373 1.000000
0.000000 0.772549 0.996078
0.003922 0.764706 1.000000
0.000000 0.768627 1.000000
0.270588 0.772549 0.996078
0.458824 0.768627 0.992157
0.623529 0.764706 1.000000
0.764706 0.764706 1.000000
0.909804 0.772549 1.000000
1.000000 0.768627 1.000000
0.000000 0.909804 0.988235
0.003922 0.909804 1.000000
0.121569 0.905882 1.000000
0.333333 0.905882 1.000000
0.494118 0.901961 0.992157
0.643137 0.901961 0.996078
0.780392 0.905882 1.000000
0.905882 0.905882 1.000000
0.996078 0.921569 1.000000
0.129412 0.996078 0.996078
0.196078 0.992157 1.000000
0.305882 1.000000 1.000000
0.427451 1.000000 1.000000
0.564706 1.000000 1.000000
0.701961 1.000000 1.000000
0.839216 1.000000 1.000000
0.964706 1.000000 1.000000
1.000000 1.000000 0.992157
