lut_library_archive/removed_20260629/50个风景lut/50个风景lut23.cube
# 版权归凌孟成所有，侵权必究
TITLE "Jungle LUT #23"
#LUT size
LUT_3D_SIZE 25
#LUT data points
0.062745 0.058824 0.043137
0.058824 0.054902 0.039216
0.074510 0.062745 0.043137
0.121569 0.050980 0.050980
0.184314 0.043137 0.058824
0.223529 0.031373 0.054902
0.262745 0.031373 0.054902
0.294118 0.031373 0.058824
0.337255 0.043137 0.054902
0.372549 0.054902 0.050980
0.419608 0.070588 0.054902
0.450980 0.078431 0.054902
0.482353 0.090196 0.058824
0.525490 0.105882 0.074510
0.560784 0.121569 0.078431
0.592157 0.129412 0.094118
0.643137 0.141176 0.105882
0.686275 0.156863 0.113725
0.733333 0.172549 0.117647
0.768627 0.184314 0.121569
0.823529 0.200000 0.137255
0.870588 0.215686 0.145098
0.917647 0.235294 0.160784
0.968627 0.247059 0.176471
1.000000 0.254902 0.184314
0.058824 0.062745 0.039216
0.062745 0.058824 0.050980
0.098039 0.058824 0.050980
0.137255 0.062745 0.039216
0.176471 0.070588 0.043137
0.207843 0.070588 0.047059
0.270588 0.058824 0.050980
0.301961 0.070588 0.047059
0.341176 0.078431 0.054902
0.376471 0.086275 0.050980
0.407843 0.094118 0.050980
0.447059 0.101961 0.062745
0.478431 0.109804 0.062745
0.517647 0.117647 0.062745
0.560784 0.133333 0.082353
0.603922 0.149020 0.098039
0.639216 0.156863 0.098039
0.682353 0.168627 0.105882
0.729412 0.188235 0.117647
0.780392 0.196078 0.133333
0.827451 0.211765 0.152941
0.870588 0.227451 0.152941
0.921569 0.239216 0.164706
0.952941 0.254902 0.176471
1.000000 0.262745 0.184314
0.019608 0.101961 0.027451
0.054902 0.098039 0.035294
0.101961 0.105882 0.035294
0.129412 0.101961 0.023529
0.172549 0.098039 0.043137
0.219608 0.094118 0.047059
0.250980 0.098039 0.047059
0.298039 0.105882 0.050980
0.337255 0.113725 0.047059
0.372549 0.117647 0.047059
0.419608 0.121569 0.058824
0.450980 0.133333 0.066667
0.486275 0.141176 0.066667
0.525490 0.145098 0.078431
0.545098 0.160784 0.086275
0.588235 0.160784 0.094118
0.631373 0.172549 0.101961
0.678431 0.188235 0.109804
0.725490 0.200000 0.125490
0.772549 0.215686 0.137255
0.823529 0.227451 0.145098
0.874510 0.239216 0.160784
0.921569 0.254902 0.164706
0.960784 0.270588 0.176471
0.996078 0.278431 0.192157
0.011765 0.141176 0.019608
0.047059 0.137255 0.019608
0.098039 0.141176 0.015686
0.152941 0.141176 0.019608
0.176471 0.141176 0.019608
0.211765 0.145098 0.027451
0.250980 0.145098 0.039216
0.301961 0.145098 0.047059
0.333333 0.149020 0.047059
0.372549 0.149020 0.050980
0.407843 0.156863 0.058824
0.443137 0.160784 0.066667
0.482353 0.168627 0.070588
0.513725 0.172549 0.074510
0.556863 0.180392 0.094118
0.600000 0.188235 0.105882
0.635294 0.196078 0.109804
0.682353 0.207843 0.105882
0.729412 0.219608 0.117647
0.780392 0.231373 0.133333
0.819608 0.239216 0.152941
0.870588 0.254902 0.156863
0.921569 0.266667 0.160784
0.960784 0.286275 0.176471
1.000000 0.294118 0.196078
0.019608 0.184314 0.000000
0.058824 0.180392 0.007843
0.094118 0.184314 0.003922
0.141176 0.188235 0.000000
0.180392 0.188235 0.003922
0.227451 0.184314 0.007843
0.258824 0.176471 0.007843
0.294118 0.180392 0.023529
0.333333 0.184314 0.043137
0.364706 0.184314 0.050980
0.403922 0.192157 0.058824
0.443137 0.188235 0.062745
0.474510 0.196078 0.078431
0.517647 0.200000 0.082353
0.556863 0.207843 0.082353
0.592157 0.219608 0.101961
0.631373 0.227451 0.109804
0.670588 0.235294 0.121569
0.721569 0.250980 0.125490
0.772549 0.262745 0.129412
0.831373 0.262745 0.149020
0.874510 0.278431 0.164706
0.921569 0.290196 0.176471
0.960784 0.309804 0.192157
0.992157 0.317647 0.200000
0.015686 0.227451 0.000000
0.054902 0.223529 0.003922
0.105882 0.227451 0.000000
0.145098 0.227451 0.000000
0.180392 0.223529 0.000000
0.219608 0.223529 0.000000
0.266667 0.223529 0.003922
0.305882 0.223529 0.007843
0.341176 0.223529 0.027451
0.372549 0.219608 0.050980
0.403922 0.227451 0.066667
0.439216 0.231373 0.074510
0.478431 0.235294 0.082353
0.513725 0.239216 0.098039
0.556863 0.243137 0.098039
0.596078 0.250980 0.101961
0.635294 0.258824 0.121569
0.674510 0.266667 0.121569
0.721569 0.278431 0.121569
0.772549 0.290196 0.137255
0.823529 0.294118 0.149020
0.870588 0.305882 0.160784
0.917647 0.317647 0.164706
0.964706 0.321569 0.176471
0.996078 0.337255 0.192157
0.011765 0.266667 0.000000
0.058824 0.262745 0.003922
0.094118 0.270588 0.000000
0.145098 0.266667 0.003922
0.176471 0.262745 0.007843
0.223529 0.262745 0.015686
0.266667 0.262745 0.003922
0.305882 0.266667 0.000000
0.341176 0.258824 0.003922
0.376471 0.258824 0.023529
0.403922 0.258824 0.047059
0.443137 0.262745 0.070588
0.470588 0.266667 0.082353
0.509804 0.270588 0.090196
0.556863 0.278431 0.105882
0.596078 0.278431 0.101961
0.635294 0.286275 0.121569
0.678431 0.298039 0.129412
0.729412 0.309804 0.137255
0.776471 0.317647 0.145098
0.823529 0.325490 0.156863
0.870588 0.333333 0.160784
0.921569 0.345098 0.172549
0.972549 0.349020 0.184314
1.000000 0.360784 0.192157
0.031373 0.298039 0.000000
0.062745 0.301961 0.000000
0.090196 0.301961 0.000000
0.141176 0.301961 0.000000
0.172549 0.298039 0.003922
0.227451 0.298039 0.000000
0.254902 0.298039 0.000000
0.305882 0.298039 0.003922
0.345098 0.298039 0.000000
0.380392 0.294118 0.000000
0.411765 0.294118 0.019608
0.443137 0.294118 0.047059
0.474510 0.301961 0.066667
0.505882 0.305882 0.090196
0.552941 0.309804 0.109804
0.596078 0.313725 0.117647
0.639216 0.317647 0.129412
0.682353 0.329412 0.133333
0.733333 0.341176 0.145098
0.776471 0.349020 0.137255
0.827451 0.360784 0.149020
0.870588 0.368627 0.152941
0.917647 0.372549 0.172549
0.968627 0.384314 0.188235
1.000000 0.400000 0.207843
0.023529 0.337255 0.000000
0.062745 0.337255 0.000000
0.094118 0.337255 0.000000
0.133333 0.337255 0.003922
0.180392 0.337255 0.000000
0.211765 0.337255 0.000000
0.258824 0.337255 0.000000
0.301961 0.341176 0.003922
0.341176 0.333333 0.007843
0.380392 0.333333 0.000000
0.411765 0.333333 0.000000
0.439216 0.329412 0.003922
0.478431 0.329412 0.050980
0.521569 0.333333 0.074510
0.552941 0.341176 0.098039
0.592157 0.349020 0.117647
0.631373 0.360784 0.137255
0.674510 0.364706 0.141176
0.721569 0.376471 0.137255
0.772549 0.380392 0.145098
0.823529 0.392157 0.152941
0.870588 0.400000 0.172549
0.917647 0.407843 0.180392
0.956863 0.415686 0.200000
1.000000 0.427451 0.215686
0.031373 0.364706 0.000000
0.070588 0.372549 0.003922
0.094118 0.372549 0.003922
0.133333 0.372549 0.000000
0.180392 0.360784 0.003922
0.215686 0.368627 0.003922
0.250980 0.372549 0.000000
0.286275 0.372549 0.000000
0.333333 0.372549 0.000000
0.376471 0.364706 0.000000
0.419608 0.368627 0.007843
0.443137 0.360784 0.000000
0.478431 0.364706 0.003922
0.513725 0.364706 0.039216
0.552941 0.364706 0.074510
0.600000 0.376471 0.113725
0.635294 0.380392 0.121569
0.682353 0.396078 0.137255
0.725490 0.407843 0.149020
0.772549 0.415686 0.160784
0.827451 0.423529 0.164706
0.874510 0.431373 0.172549
0.921569 0.439216 0.168627
0.968627 0.447059 0.184314
1.000000 0.458824 0.203922
0.035294 0.407843 0.000000
0.070588 0.403922 0.000000
0.105882 0.400000 0.003922
0.141176 0.407843 0.003922
0.168627 0.407843 0.003922
0.203922 0.403922 0.000000
0.243137 0.403922 0.000000
0.286275 0.407843 0.003922
0.329412 0.400000 0.000000
0.360784 0.403922 0.000000
0.407843 0.400000 0.000000
0.439216 0.403922 0.000000
0.486275 0.400000 0.003922
0.513725 0.400000 0.003922
0.552941 0.400000 0.027451
0.596078 0.411765 0.066667
0.627451 0.423529 0.098039
0.678431 0.431373 0.129412
0.729412 0.439216 0.152941
0.780392 0.450980 0.164706
0.827451 0.462745 0.168627
0.874510 0.466667 0.180392
0.921569 0.474510 0.188235
0.964706 0.486275 0.192157
1.000000 0.498039 0.211765
0.054902 0.439216 0.000000
0.082353 0.431373 0.000000
0.101961 0.439216 0.003922
0.133333 0.439216 0.007843
0.176471 0.439216 0.000000
0.200000 0.443137 0.000000
0.243137 0.439216 0.000000
0.286275 0.443137 0.000000
0.321569 0.439216 0.000000
0.356863 0.435294 0.000000
0.403922 0.443137 0.000000
0.443137 0.435294 0.000000
0.482353 0.443137 0.000000
0.521569 0.435294 0.000000
0.556863 0.439216 0.000000
0.592157 0.443137 0.015686
0.639216 0.454902 0.050980
0.682353 0.462745 0.090196
0.729412 0.474510 0.121569
0.780392 0.482353 0.145098
0.827451 0.494118 0.168627
0.874510 0.501961 0.180392
0.909804 0.509804 0.188235
0.968627 0.517647 0.192157
0.992157 0.529412 0.215686
0.054902 0.478431 0.000000
0.086275 0.470588 0.000000
0.113725 0.470588 0.003922
0.133333 0.478431 0.000000
0.176471 0.470588 0.003922
0.200000 0.482353 0.000000
0.239216 0.470588 0.000000
0.278431 0.474510 0.000000
0.317647 0.474510 0.000000
0.352941 0.478431 0.000000
0.396078 0.474510 0.000000
0.435294 0.470588 0.003922
0.478431 0.470588 0.003922
0.517647 0.470588 0.007843
0.556863 0.470588 0.000000
0.600000 0.478431 0.000000
0.643137 0.486275 0.000000
0.686275 0.494118 0.023529
0.729412 0.501961 0.070588
0.776471 0.509804 0.113725
0.823529 0.525490 0.149020
0.874510 0.537255 0.172549
0.913725 0.549020 0.192157
0.968627 0.556863 0.207843
0.992157 0.560784 0.219608
0.054902 0.505882 0.000000
0.082353 0.517647 0.003922
0.109804 0.509804 0.007843
0.145098 0.505882 0.000000
0.176471 0.509804 0.000000
0.215686 0.509804 0.003922
0.250980 0.513725 0.000000
0.278431 0.513725 0.000000
0.317647 0.513725 0.000000
0.356863 0.513725 0.000000
0.396078 0.509804 0.003922
0.443137 0.509804 0.000000
0.482353 0.509804 0.003922
0.509804 0.513725 0.003922
0.549020 0.513725 0.007843
0.588235 0.517647 0.000000
0.635294 0.525490 0.000000
0.682353 0.529412 0.000000
0.725490 0.537255 0.011765
0.780392 0.549020 0.054902
0.827451 0.556863 0.098039
0.874510 0.568627 0.137255
0.909804 0.580392 0.156863
0.960784 0.596078 0.200000
1.000000 0.600000 0.215686
0.066667 0.552941 0.011765
0.086275 0.549020 0.000000
0.113725 0.549020 0.000000
0.145098 0.556863 0.000000
0.168627 0.556863 0.000000
0.211765 0.552941 0.000000
0.247059 0.549020 0.000000
0.282353 0.552941 0.000000
0.313725 0.552941 0.003922
0.352941 0.552941 0.000000
0.403922 0.556863 0.000000
0.447059 0.560784 0.003922
0.482353 0.552941 0.011765
0.521569 0.552941 0.007843
0.556863 0.552941 0.000000
0.600000 0.556863 0.000000
0.639216 0.556863 0.000000
0.686275 0.568627 0.000000
0.737255 0.572549 0.000000
0.784314 0.580392 0.007843
0.823529 0.596078 0.031373
0.874510 0.600000 0.082353
0.921569 0.607843 0.133333
0.968627 0.615686 0.176471
1.000000 0.627451 0.203922
0.054902 0.600000 0.000000
0.086275 0.596078 0.000000
0.109804 0.596078 0.000000
0.145098 0.600000 0.007843
0.168627 0.596078 0.000000
0.211765 0.600000 0.003922
0.247059 0.596078 0.000000
0.290196 0.600000 0.000000
0.329412 0.600000 0.000000
0.368627 0.600000 0.003922
0.403922 0.603922 0.000000
0.439216 0.600000 0.000000
0.486275 0.603922 0.000000
0.525490 0.600000 0.000000
0.572549 0.596078 0.000000
0.611765 0.596078 0.003922
0.650980 0.600000 0.000000
0.694118 0.603922 0.000000
0.741176 0.611765 0.011765
0.776471 0.619608 0.000000
0.831373 0.627451 0.000000
0.870588 0.639216 0.003922
0.925490 0.643137 0.062745
0.972549 0.650980 0.129412
1.000000 0.658824 0.168627
0.039216 0.643137 0.000000
0.066667 0.639216 0.000000
0.094118 0.647059 0.000000
0.129412 0.650980 0.000000
0.168627 0.643137 0.000000
0.215686 0.639216 0.000000
0.250980 0.647059 0.000000
0.290196 0.643137 0.007843
0.325490 0.643137 0.000000
0.372549 0.650980 0.007843
0.403922 0.643137 0.000000
0.447059 0.647059 0.000000
0.486275 0.647059 0.000000
0.529412 0.650980 0.000000
0.564706 0.647059 0.000000
0.615686 0.650980 0.000000
0.654902 0.647059 0.007843
0.694118 0.647059 0.003922
0.733333 0.650980 0.000000
0.784314 0.658824 0.000000
0.835294 0.662745 0.000000
0.882353 0.674510 0.000000
0.925490 0.678431 0.000000
0.968627 0.678431 0.047059
1.000000 0.690196 0.105882
0.011765 0.694118 0.000000
0.047059 0.690196 0.000000
0.094118 0.694118 0.000000
0.125490 0.686275 0.000000
0.168627 0.694118 0.000000
0.203922 0.690196 0.007843
0.258824 0.690196 0.003922
0.298039 0.690196 0.000000
0.333333 0.686275 0.000000
0.364706 0.690196 0.000000
0.407843 0.694118 0.000000
0.450980 0.698039 0.007843
0.494118 0.690196 0.000000
0.529412 0.686275 0.000000
0.576471 0.694118 0.003922
0.615686 0.694118 0.000000
0.654902 0.698039 0.000000
0.698039 0.694118 0.000000
0.745098 0.694118 0.003922
0.788235 0.698039 0.007843
0.839216 0.701961 0.003922
0.878431 0.701961 0.000000
0.925490 0.713725 0.000000
0.972549 0.721569 0.000000
1.000000 0.729412 0.011765
0.007843 0.745098 0.000000
0.027451 0.733333 0.000000
0.070588 0.749020 0.000000
0.109804 0.741176 0.000000
0.160784 0.733333 0.003922
0.192157 0.733333 0.003922
0.243137 0.737255 0.003922
0.282353 0.737255 0.000000
0.325490 0.737255 0.000000
0.376471 0.737255 0.003922
0.415686 0.737255 0.000000
0.458824 0.741176 0.003922
0.494118 0.737255 0.000000
0.541176 0.737255 0.003922
0.580392 0.737255 0.003922
0.619608 0.741176 0.000000
0.662745 0.737255 0.000000
0.709804 0.733333 0.000000
0.752941 0.737255 0.003922
0.796078 0.745098 0.000000
0.827451 0.745098 0.003922
0.870588 0.752941 0.000000
0.929412 0.756863 0.000000
0.980392 0.756863 0.000000
1.000000 0.760784 0.000000
0.000000 0.788235 0.003922
0.003922 0.788235 0.000000
0.043137 0.776471 0.003922
0.090196 0.780392 0.000000
0.145098 0.780392 0.000000
0.203922 0.784314 0.007843
0.247059 0.788235 0.007843
0.286275 0.788235 0.000000
0.325490 0.788235 0.003922
0.364706 0.788235 0.003922
0.411765 0.792157 0.003922
0.458824 0.788235 0.000000
0.498039 0.784314 0.000000
0.537255 0.788235 0.000000
0.580392 0.788235 0.000000
0.615686 0.788235 0.000000
0.662745 0.792157 0.003922
0.701961 0.792157 0.000000
0.749020 0.792157 0.000000
0.788235 0.792157 0.000000
0.839216 0.788235 0.000000
0.886275 0.796078 0.003922
0.933333 0.796078 0.000000
0.976471 0.800000 0.003922
1.000000 0.803922 0.000000
0.003922 0.831373 0.011765
0.003922 0.831373 0.003922
0.011765 0.831373 0.000000
0.058824 0.839216 0.000000
0.125490 0.831373 0.000000
0.188235 0.839216 0.000000
0.231373 0.839216 0.000000
0.274510 0.835294 0.000000
0.329412 0.835294 0.000000
0.364706 0.835294 0.000000
0.407843 0.835294 0.000000
0.447059 0.835294 0.000000
0.498039 0.835294 0.007843
0.541176 0.839216 0.007843
0.584314 0.835294 0.007843
0.623529 0.835294 0.003922
0.670588 0.839216 0.003922
0.709804 0.839216 0.011765
0.752941 0.843137 0.003922
0.800000 0.843137 0.000000
0.843137 0.839216 0.000000
0.890196 0.835294 0.000000
0.929412 0.839216 0.000000
0.976471 0.847059 0.000000
0.996078 0.843137 0.007843
0.000000 0.886275 0.000000
0.007843 0.882353 0.007843
0.003922 0.874510 0.000000
0.015686 0.886275 0.000000
0.109804 0.874510 0.011765
0.164706 0.882353 0.003922
0.223529 0.882353 0.000000
0.266667 0.878431 0.000000
0.313725 0.882353 0.000000
0.356863 0.886275 0.000000
0.407843 0.886275 0.003922
0.454902 0.878431 0.000000
0.501961 0.886275 0.003922
0.545098 0.882353 0.000000
0.588235 0.886275 0.007843
0.635294 0.878431 0.000000
0.670588 0.886275 0.003922
0.709804 0.886275 0.003922
0.760784 0.890196 0.000000
0.803922 0.886275 0.003922
0.850980 0.882353 0.000000
0.894118 0.886275 0.003922
0.933333 0.886275 0.000000
0.968627 0.894118 0.003922
1.000000 0.886275 0.007843
0.003922 0.925490 0.003922
0.003922 0.929412 0.000000
0.000000 0.937255 0.000000
0.000000 0.933333 0.007843
0.090196 0.929412 0.003922
0.152941 0.929412 0.000000
0.207843 0.929412 0.000000
0.254902 0.933333 0.000000
0.301961 0.929412 0.000000
0.352941 0.929412 0.000000
0.403922 0.929412 0.000000
0.447059 0.929412 0.000000
0.490196 0.933333 0.000000
0.529412 0.933333 0.000000
0.580392 0.929412 0.000000
0.623529 0.925490 0.000000
0.666667 0.929412 0.000000
0.709804 0.933333 0.003922
0.760784 0.929412 0.000000
0.803922 0.933333 0.003922
0.850980 0.929412 0.000000
0.886275 0.925490 0.000000
0.929412 0.925490 0.000000
0.972549 0.929412 0.000000
0.996078 0.937255 0.000000
0.000000 0.964706 0.000000
0.007843 0.968627 0.003922
0.003922 0.964706 0.000000
0.007843 0.968627 0.007843
0.027451 0.968627 0.000000
0.133333 0.972549 0.000000
0.184314 0.976471 0.000000
0.243137 0.972549 0.000000
0.301961 0.976471 0.003922
0.349020 0.968627 0.000000
0.396078 0.968627 0.000000
0.447059 0.972549 0.003922
0.486275 0.972549 0.000000
0.537255 0.968627 0.000000
0.580392 0.972549 0.000000
0.619608 0.972549 0.000000
0.666667 0.976471 0.000000
0.713725 0.972549 0.000000
0.756863 0.972549 0.000000
0.796078 0.968627 0.000000
0.839216 0.972549 0.011765
0.898039 0.968627 0.003922
0.925490 0.964706 0.000000
0.972549 0.972549 0.007843
1.000000 0.972549 0.000000
0.000000 1.000000 0.000000
0.000000 1.000000 0.000000
0.000000 1.000000 0.003922
0.000000 0.996078 0.000000
0.000000 1.000000 0.000000
0.090196 1.000000 0.003922
0.180392 0.996078 0.007843
0.239216 0.992157 0.000000
0.298039 0.996078 0.000000
0.345098 1.000000 0.000000
0.388235 0.996078 0.000000
0.439216 1.000000 0.000000
0.490196 1.000000 0.000000
0.529412 1.000000 0.000000
0.572549 1.000000 0.003922
0.619608 1.000000 0.000000
0.662745 0.996078 0.000000
0.713725 1.000000 0.000000
0.756863 1.000000 0.000000
0.800000 0.996078 0.000000
0.839216 1.000000 0.003922
0.886275 1.000000 0.007843
0.933333 1.000000 0.000000
0.968627 1.000000 0.000000
1.000000 1.000000 0.003922
0.058824 0.058824 0.050980
0.062745 0.058824 0.043137
0.078431 0.058824 0.043137
0.129412 0.050980 0.047059
0.180392 0.039216 0.047059
0.219608 0.039216 0.047059
0.258824 0.047059 0.054902
0.298039 0.054902 0.066667
0.337255 0.062745 0.066667
0.376471 0.070588 0.062745
0.415686 0.082353 0.062745
0.447059 0.090196 0.078431
0.486275 0.098039 0.086275
0.517647 0.113725 0.086275
0.556863 0.129412 0.101961
0.588235 0.141176 0.109804
0.639216 0.160784 0.125490
0.682353 0.164706 0.125490
0.725490 0.180392 0.129412
0.776471 0.192157 0.145098
0.827451 0.203922 0.152941
0.874510 0.219608 0.164706
0.917647 0.231373 0.172549
0.968627 0.243137 0.196078
0.996078 0.258824 0.192157
0.066667 0.062745 0.047059
0.058824 0.054902 0.047059
0.109804 0.066667 0.050980
0.133333 0.066667 0.039216
0.176471 0.058824 0.050980
0.223529 0.078431 0.054902
0.258824 0.086275 0.050980
0.298039 0.086275 0.054902
0.333333 0.086275 0.058824
0.376471 0.101961 0.074510
0.411765 0.101961 0.074510
0.447059 0.117647 0.086275
0.474510 0.121569 0.086275
0.521569 0.137255 0.094118
0.560784 0.145098 0.101961
0.596078 0.156863 0.101961
0.635294 0.168627 0.113725
0.682353 0.184314 0.125490
0.721569 0.192157 0.137255
0.772549 0.203922 0.152941
0.819608 0.219608 0.160784
0.870588 0.231373 0.164706
0.917647 0.243137 0.172549
0.964706 0.254902 0.180392
1.000000 0.270588 0.192157
0.019608 0.101961 0.043137
0.070588 0.101961 0.043137
0.098039 0.101961 0.039216
0.145098 0.098039 0.050980
0.176471 0.098039 0.062745
0.219608 0.109804 0.058824
0.254902 0.105882 0.054902
0.301961 0.113725 0.066667
0.345098 0.117647 0.070588
0.380392 0.121569 0.066667
0.415686 0.129412 0.074510
0.447059 0.137255 0.086275
0.482353 0.145098 0.086275
0.517647 0.152941 0.094118
0.549020 0.160784 0.098039
0.592157 0.172549 0.109804
0.639216 0.180392 0.113725
0.682353 0.188235 0.129412
0.733333 0.207843 0.141176
0.776471 0.215686 0.145098
0.827451 0.231373 0.149020
0.874510 0.239216 0.160784
0.917647 0.247059 0.180392
0.972549 0.266667 0.176471
0.996078 0.282353 0.200000
0.015686 0.145098 0.039216
0.054902 0.145098 0.035294
0.109804 0.145098 0.039216
0.145098 0.137255 0.039216
0.176471 0.149020 0.039216
0.227451 0.141176 0.058824
0.266667 0.145098 0.066667
0.305882 0.149020 0.058824
0.341176 0.152941 0.066667
0.372549 0.152941 0.070588
0.400000 0.156863 0.074510
0.443137 0.164706 0.086275
0.474510 0.168627 0.090196
0.513725 0.176471 0.094118
0.552941 0.180392 0.094118
0.592157 0.192157 0.101961
0.635294 0.200000 0.121569
0.674510 0.211765 0.133333
0.725490 0.223529 0.149020
0.776471 0.235294 0.152941
0.819608 0.247059 0.149020
0.870588 0.262745 0.160784
0.921569 0.270588 0.176471
0.964706 0.282353 0.200000
1.000000 0.294118 0.196078
0.023529 0.180392 0.039216
0.058824 0.184314 0.023529
0.101961 0.180392 0.031373
0.145098 0.184314 0.039216
0.188235 0.180392 0.027451
0.223529 0.188235 0.035294
0.262745 0.184314 0.047059
0.301961 0.188235 0.062745
0.345098 0.192157 0.078431
0.372549 0.188235 0.078431
0.407843 0.192157 0.074510
0.439216 0.200000 0.086275
0.470588 0.207843 0.101961
0.509804 0.207843 0.098039
0.549020 0.215686 0.105882
0.592157 0.223529 0.113725
0.635294 0.227451 0.121569
0.678431 0.243137 0.137255
0.725490 0.250980 0.145098
0.772549 0.258824 0.149020
0.823529 0.270588 0.160784
0.870588 0.278431 0.172549
0.917647 0.294118 0.180392
0.956863 0.305882 0.188235
1.000000 0.313725 0.200000
0.031373 0.219608 0.031373
0.066667 0.223529 0.027451
0.101961 0.227451 0.031373
0.145098 0.223529 0.015686
0.184314 0.223529 0.015686
0.227451 0.227451 0.023529
0.270588 0.223529 0.035294
0.309804 0.215686 0.035294
0.337255 0.223529 0.058824
0.372549 0.223529 0.078431
0.403922 0.223529 0.090196
0.439216 0.235294 0.090196
0.482353 0.235294 0.098039
0.509804 0.239216 0.109804
0.549020 0.250980 0.117647
0.592157 0.258824 0.109804
0.635294 0.258824 0.125490
0.678431 0.270588 0.141176
0.729412 0.282353 0.149020
0.776471 0.290196 0.149020
0.823529 0.298039 0.160784
0.870588 0.305882 0.172549
0.921569 0.317647 0.184314
0.972549 0.329412 0.192157
1.000000 0.341176 0.200000
0.023529 0.258824 0.023529
0.066667 0.270588 0.019608
0.105882 0.270588 0.011765
0.141176 0.266667 0.011765
0.180392 0.266667 0.023529
0.223529 0.254902 0.019608
0.262745 0.266667 0.003922
0.301961 0.266667 0.011765
0.341176 0.262745 0.027451
0.372549 0.254902 0.043137
0.407843 0.258824 0.074510
0.443137 0.258824 0.094118
0.474510 0.266667 0.109804
0.509804 0.266667 0.113725
0.560784 0.278431 0.121569
0.592157 0.282353 0.121569
0.639216 0.298039 0.137255
0.686275 0.305882 0.141176
0.729412 0.309804 0.145098
0.776471 0.317647 0.149020
0.823529 0.325490 0.164706
0.874510 0.337255 0.172549
0.921569 0.345098 0.184314
0.968627 0.352941 0.184314
1.000000 0.368627 0.188235
0.027451 0.301961 0.015686
0.062745 0.298039 0.007843
0.098039 0.301961 0.007843
0.141176 0.301961 0.000000
0.180392 0.305882 0.011765
0.215686 0.305882 0.000000
0.254902 0.305882 0.000000
0.298039 0.301961 0.003922
0.345098 0.298039 0.007843
0.372549 0.294118 0.015686
0.411765 0.290196 0.039216
0.439216 0.294118 0.078431
0.470588 0.301961 0.105882
0.505882 0.301961 0.117647
0.545098 0.309804 0.121569
0.592157 0.313725 0.133333
0.639216 0.321569 0.145098
0.678431 0.333333 0.152941
0.725490 0.341176 0.156863
0.768627 0.349020 0.152941
0.819608 0.356863 0.168627
0.870588 0.368627 0.184314
0.917647 0.372549 0.188235
0.968627 0.384314 0.188235
0.992157 0.392157 0.200000
0.027451 0.337255 0.011765
0.066667 0.341176 0.003922
0.094118 0.337255 0.000000
0.137255 0.341176 0.007843
0.172549 0.337255 0.000000
0.207843 0.341176 0.000000
0.250980 0.341176 0.000000
0.298039 0.337255 0.000000
0.341176 0.329412 0.011765
0.376471 0.329412 0.007843
0.415686 0.333333 0.007843
0.447059 0.333333 0.035294
0.482353 0.329412 0.074510
0.509804 0.337255 0.101961
0.549020 0.345098 0.121569
0.588235 0.349020 0.137255
0.631373 0.360784 0.145098
0.674510 0.364706 0.141176
0.725490 0.372549 0.145098
0.776471 0.384314 0.152941
0.827451 0.388235 0.168627
0.870588 0.403922 0.184314
0.917647 0.407843 0.180392
0.960784 0.419608 0.196078
1.000000 0.423529 0.211765
0.039216 0.376471 0.000000
0.070588 0.372549 0.003922
0.098039 0.372549 0.000000
0.141176 0.364706 0.000000
0.172549 0.372549 0.007843
0.211765 0.372549 0.003922
0.247059 0.368627 0.000000
0.278431 0.372549 0.000000
0.329412 0.372549 0.003922
0.372549 0.368627 0.007843
0.415686 0.364706 0.003922
0.443137 0.360784 0.003922
0.470588 0.364706 0.023529
0.513725 0.360784 0.058824
0.556863 0.364706 0.101961
0.592157 0.376471 0.125490
0.635294 0.384314 0.141176
0.678431 0.400000 0.149020
0.721569 0.411765 0.152941
0.772549 0.423529 0.172549
0.823529 0.427451 0.176471
0.870588 0.435294 0.184314
0.925490 0.443137 0.188235
0.964706 0.450980 0.192157
0.996078 0.458824 0.215686
0.035294 0.407843 0.000000
0.070588 0.403922 0.000000
0.105882 0.403922 0.007843
0.137255 0.403922 0.000000
0.180392 0.400000 0.003922
0.215686 0.396078 0.000000
0.254902 0.407843 0.000000
0.282353 0.403922 0.000000
0.321569 0.403922 0.000000
0.360784 0.403922 0.000000
