lut_library_archive/removed_20260629/50个风景lut/50个风景lut39.cube
# 版权归凌孟成所有，侵权必究
TITLE "Jungle LUT #39"
#LUT size
LUT_3D_SIZE 25
#LUT data points
0.003922 0.000000 0.000000
0.003922 0.003922 0.003922
0.058824 0.003922 0.003922
0.109804 0.000000 0.000000
0.149020 0.000000 0.000000
0.180392 0.007843 0.003922
0.231373 0.003922 0.000000
0.270588 0.003922 0.003922
0.313725 0.000000 0.011765
0.352941 0.000000 0.000000
0.400000 0.003922 0.003922
0.439216 0.003922 0.000000
0.486275 0.000000 0.007843
0.533333 0.000000 0.007843
0.576471 0.000000 0.011765
0.615686 0.000000 0.015686
0.666667 0.000000 0.003922
0.709804 0.003922 0.019608
0.768627 0.003922 0.035294
0.811765 0.000000 0.031373
0.858824 0.000000 0.047059
0.898039 0.007843 0.047059
0.945098 0.023529 0.058824
0.996078 0.035294 0.066667
1.000000 0.054902 0.082353
0.007843 0.015686 0.003922
0.019608 0.015686 0.000000
0.062745 0.027451 0.007843
0.098039 0.023529 0.007843
0.141176 0.019608 0.000000
0.180392 0.023529 0.000000
0.227451 0.031373 0.003922
0.262745 0.031373 0.000000
0.305882 0.031373 0.000000
0.356863 0.031373 0.000000
0.396078 0.031373 0.003922
0.439216 0.027451 0.011765
0.482353 0.031373 0.011765
0.529412 0.031373 0.007843
0.568627 0.035294 0.011765
0.623529 0.035294 0.011765
0.674510 0.035294 0.023529
0.713725 0.035294 0.019608
0.768627 0.043137 0.027451
0.811765 0.047059 0.031373
0.858824 0.050980 0.058824
0.901961 0.058824 0.058824
0.949020 0.066667 0.066667
0.996078 0.074510 0.078431
0.988235 0.086275 0.094118
0.003922 0.058824 0.000000
0.011765 0.062745 0.000000
0.062745 0.066667 0.000000
0.105882 0.062745 0.000000
0.141176 0.054902 0.000000
0.172549 0.070588 0.011765
0.219608 0.066667 0.000000
0.262745 0.070588 0.003922
0.313725 0.074510 0.003922
0.352941 0.074510 0.003922
0.400000 0.074510 0.011765
0.443137 0.078431 0.019608
0.490196 0.074510 0.019608
0.537255 0.074510 0.027451
0.576471 0.078431 0.011765
0.623529 0.086275 0.023529
0.666667 0.082353 0.019608
0.717647 0.086275 0.023529
0.764706 0.086275 0.031373
0.811765 0.094118 0.039216
0.854902 0.098039 0.047059
0.898039 0.098039 0.062745
0.945098 0.105882 0.074510
0.988235 0.117647 0.074510
1.000000 0.121569 0.090196
0.000000 0.101961 0.003922
0.015686 0.109804 0.007843
0.066667 0.105882 0.003922
0.105882 0.105882 0.000000
0.145098 0.101961 0.000000
0.180392 0.113725 0.011765
0.219608 0.109804 0.015686
0.266667 0.109804 0.019608
0.305882 0.109804 0.011765
0.341176 0.117647 0.011765
0.392157 0.117647 0.019608
0.447059 0.117647 0.023529
0.490196 0.121569 0.023529
0.533333 0.117647 0.031373
0.580392 0.125490 0.035294
0.623529 0.129412 0.031373
0.662745 0.133333 0.027451
0.709804 0.133333 0.035294
0.764706 0.137255 0.050980
0.807843 0.133333 0.054902
0.854902 0.133333 0.054902
0.901961 0.141176 0.062745
0.945098 0.145098 0.070588
0.992157 0.152941 0.082353
0.992157 0.164706 0.105882
0.003922 0.145098 0.000000
0.011765 0.152941 0.000000
0.066667 0.145098 0.000000
0.117647 0.145098 0.011765
0.145098 0.145098 0.000000
0.196078 0.145098 0.007843
0.219608 0.149020 0.007843
0.262745 0.149020 0.015686
0.313725 0.152941 0.035294
0.349020 0.156863 0.031373
0.400000 0.152941 0.023529
0.435294 0.160784 0.027451
0.490196 0.164706 0.031373
0.529412 0.164706 0.035294
0.576471 0.168627 0.039216
0.623529 0.176471 0.043137
0.666667 0.172549 0.043137
0.709804 0.176471 0.050980
0.764706 0.180392 0.062745
0.811765 0.180392 0.070588
0.858824 0.184314 0.058824
0.898039 0.188235 0.074510
0.945098 0.188235 0.082353
0.988235 0.200000 0.098039
1.000000 0.203922 0.105882
0.000000 0.192157 0.003922
0.015686 0.188235 0.000000
0.050980 0.192157 0.003922
0.105882 0.192157 0.000000
0.145098 0.192157 0.000000
0.188235 0.196078 0.003922
0.235294 0.188235 0.000000
0.282353 0.188235 0.000000
0.305882 0.196078 0.007843
0.349020 0.196078 0.027451
0.403922 0.200000 0.047059
0.447059 0.203922 0.050980
0.494118 0.211765 0.054902
0.533333 0.211765 0.058824
0.580392 0.215686 0.054902
0.623529 0.219608 0.058824
0.682353 0.215686 0.058824
0.725490 0.219608 0.066667
0.768627 0.223529 0.078431
0.811765 0.227451 0.070588
0.862745 0.231373 0.078431
0.905882 0.235294 0.086275
0.949020 0.239216 0.094118
0.992157 0.239216 0.109804
1.000000 0.243137 0.125490
0.000000 0.239216 0.000000
0.015686 0.235294 0.000000
0.050980 0.239216 0.003922
0.101961 0.235294 0.000000
0.152941 0.239216 0.000000
0.192157 0.235294 0.000000
0.219608 0.235294 0.000000
0.278431 0.235294 0.000000
0.321569 0.235294 0.003922
0.360784 0.239216 0.019608
0.400000 0.243137 0.043137
0.447059 0.247059 0.062745
0.490196 0.250980 0.070588
0.537255 0.254902 0.074510
0.580392 0.258824 0.074510
0.623529 0.262745 0.086275
0.674510 0.266667 0.082353
0.725490 0.270588 0.086275
0.768627 0.274510 0.086275
0.811765 0.270588 0.086275
0.858824 0.278431 0.098039
0.901961 0.282353 0.098039
0.945098 0.286275 0.101961
0.984314 0.286275 0.105882
1.000000 0.282353 0.133333
0.000000 0.274510 0.000000
0.000000 0.274510 0.000000
0.050980 0.278431 0.000000
0.101961 0.278431 0.007843
0.149020 0.278431 0.000000
0.192157 0.278431 0.000000
0.235294 0.278431 0.003922
0.274510 0.278431 0.003922
0.325490 0.278431 0.000000
0.356863 0.278431 0.000000
0.403922 0.282353 0.019608
0.443137 0.286275 0.043137
0.494118 0.298039 0.066667
0.533333 0.301961 0.082353
0.584314 0.309804 0.105882
0.627451 0.309804 0.101961
0.674510 0.313725 0.098039
0.725490 0.313725 0.098039
0.772549 0.313725 0.105882
0.815686 0.317647 0.117647
0.862745 0.317647 0.117647
0.905882 0.321569 0.121569
0.949020 0.325490 0.129412
0.988235 0.333333 0.129412
0.996078 0.333333 0.141176
0.000000 0.321569 0.000000
0.007843 0.317647 0.000000
0.027451 0.321569 0.000000
0.098039 0.321569 0.003922
0.149020 0.321569 0.011765
0.188235 0.317647 0.000000
0.235294 0.321569 0.000000
0.286275 0.321569 0.000000
0.325490 0.321569 0.000000
0.364706 0.321569 0.000000
0.403922 0.325490 0.000000
0.447059 0.325490 0.003922
0.486275 0.333333 0.031373
0.537255 0.337255 0.078431
0.584314 0.345098 0.098039
0.631373 0.349020 0.121569
0.678431 0.356863 0.137255
0.721569 0.360784 0.129412
0.772549 0.364706 0.125490
0.815686 0.360784 0.121569
0.862745 0.368627 0.137255
0.901961 0.376471 0.145098
0.949020 0.368627 0.141176
0.984314 0.372549 0.152941
1.000000 0.368627 0.160784
0.000000 0.364706 0.000000
0.000000 0.364706 0.003922
0.007843 0.364706 0.000000
0.078431 0.368627 0.000000
0.141176 0.364706 0.000000
0.196078 0.364706 0.003922
0.231373 0.372549 0.000000
0.274510 0.368627 0.000000
0.325490 0.368627 0.000000
0.356863 0.372549 0.000000
0.396078 0.372549 0.003922
0.450980 0.368627 0.003922
0.490196 0.380392 0.000000
0.537255 0.380392 0.035294
0.584314 0.384314 0.066667
0.635294 0.392157 0.105882
0.682353 0.396078 0.129412
0.729412 0.403922 0.145098
0.772549 0.407843 0.137255
0.819608 0.415686 0.145098
0.858824 0.415686 0.156863
0.901961 0.419608 0.156863
0.949020 0.419608 0.164706
0.992157 0.423529 0.176471
1.000000 0.427451 0.184314
0.000000 0.419608 0.000000
0.000000 0.411765 0.000000
0.000000 0.415686 0.000000
0.070588 0.411765 0.000000
0.133333 0.419608 0.007843
0.184314 0.411765 0.007843
0.231373 0.415686 0.000000
0.274510 0.415686 0.000000
0.325490 0.415686 0.007843
0.364706 0.415686 0.003922
0.411765 0.415686 0.007843
0.450980 0.415686 0.003922
0.494118 0.419608 0.007843
0.545098 0.423529 0.007843
0.588235 0.423529 0.023529
0.639216 0.431373 0.062745
0.682353 0.439216 0.105882
0.733333 0.447059 0.137255
0.776471 0.454902 0.156863
0.819608 0.458824 0.164706
0.862745 0.462745 0.172549
0.901961 0.462745 0.176471
0.952941 0.466667 0.192157
0.996078 0.470588 0.200000
1.000000 0.466667 0.207843
0.000000 0.462745 0.000000
0.000000 0.454902 0.007843
0.011765 0.454902 0.000000
0.058824 0.462745 0.011765
0.125490 0.450980 0.000000
0.168627 0.462745 0.000000
0.231373 0.462745 0.007843
0.274510 0.458824 0.000000
0.313725 0.462745 0.000000
0.364706 0.462745 0.000000
0.403922 0.462745 0.000000
0.450980 0.462745 0.003922
0.498039 0.462745 0.003922
0.545098 0.462745 0.003922
0.592157 0.462745 0.011765
0.635294 0.478431 0.000000
0.682353 0.474510 0.058824
0.729412 0.478431 0.105882
0.780392 0.490196 0.141176
0.827451 0.494118 0.172549
0.870588 0.505882 0.196078
0.905882 0.509804 0.196078
0.941176 0.513725 0.219608
0.984314 0.517647 0.211765
1.000000 0.517647 0.215686
0.000000 0.501961 0.000000
0.007843 0.501961 0.000000
0.000000 0.505882 0.011765
0.027451 0.501961 0.000000
0.113725 0.509804 0.007843
0.168627 0.505882 0.007843
0.223529 0.505882 0.011765
0.266667 0.501961 0.007843
0.313725 0.505882 0.003922
0.360784 0.505882 0.000000
0.407843 0.505882 0.003922
0.447059 0.505882 0.000000
0.498039 0.509804 0.003922
0.541176 0.505882 0.000000
0.588235 0.505882 0.007843
0.627451 0.509804 0.000000
0.674510 0.517647 0.000000
0.725490 0.521569 0.050980
0.776471 0.525490 0.101961
0.819608 0.533333 0.129412
0.866667 0.541176 0.164706
0.913725 0.545098 0.203922
0.945098 0.560784 0.227451
0.992157 0.556863 0.247059
0.996078 0.560784 0.250980
0.000000 0.552941 0.000000
0.000000 0.549020 0.000000
0.000000 0.552941 0.011765
0.000000 0.549020 0.000000
0.109804 0.552941 0.003922
0.164706 0.552941 0.000000
0.219608 0.549020 0.003922
0.266667 0.549020 0.007843
0.305882 0.552941 0.000000
0.364706 0.556863 0.003922
0.407843 0.552941 0.003922
0.454902 0.549020 0.000000
0.494118 0.552941 0.000000
0.537255 0.556863 0.000000
0.580392 0.552941 0.000000
0.631373 0.549020 0.000000
0.682353 0.556863 0.000000
0.729412 0.560784 0.007843
0.772549 0.568627 0.039216
0.819608 0.568627 0.094118
0.862745 0.572549 0.145098
0.901961 0.584314 0.180392
0.956863 0.592157 0.227451
0.984314 0.592157 0.247059
1.000000 0.611765 0.266667
0.003922 0.592157 0.000000
0.007843 0.596078 0.000000
0.000000 0.592157 0.000000
0.000000 0.596078 0.000000
0.070588 0.603922 0.000000
0.141176 0.596078 0.003922
0.219608 0.596078 0.003922
0.262745 0.600000 0.007843
0.309804 0.596078 0.000000
0.364706 0.596078 0.000000
0.407843 0.600000 0.000000
0.454902 0.596078 0.000000
0.498039 0.596078 0.000000
0.541176 0.600000 0.000000
0.584314 0.596078 0.000000
0.623529 0.596078 0.000000
0.674510 0.600000 0.003922
0.721569 0.600000 0.003922
0.772549 0.600000 0.007843
0.819608 0.607843 0.011765
0.862745 0.611765 0.098039
0.909804 0.619608 0.137255
0.952941 0.627451 0.180392
0.984314 0.635294 0.235294
1.000000 0.639216 0.258824
0.000000 0.643137 0.000000
0.000000 0.647059 0.003922
0.007843 0.647059 0.015686
0.003922 0.647059 0.003922
0.047059 0.643137 0.003922
0.149020 0.643137 0.011765
0.192157 0.650980 0.000000
0.247059 0.650980 0.000000
0.313725 0.647059 0.000000
0.352941 0.647059 0.007843
0.403922 0.647059 0.007843
0.447059 0.647059 0.000000
0.498039 0.643137 0.000000
0.545098 0.643137 0.000000
0.592157 0.643137 0.000000
0.639216 0.647059 0.007843
0.678431 0.643137 0.000000
0.721569 0.647059 0.000000
0.772549 0.650980 0.000000
0.815686 0.647059 0.000000
0.866667 0.654902 0.027451
0.901961 0.658824 0.082353
0.941176 0.666667 0.152941
0.980392 0.666667 0.200000
1.000000 0.674510 0.235294
0.003922 0.682353 0.007843
0.003922 0.686275 0.000000
0.003922 0.686275 0.000000
0.000000 0.694118 0.011765
0.007843 0.698039 0.000000
0.113725 0.690196 0.000000
0.192157 0.686275 0.011765
0.250980 0.694118 0.003922
0.298039 0.690196 0.000000
0.349020 0.690196 0.000000
0.403922 0.690196 0.000000
0.454902 0.690196 0.000000
0.501961 0.694118 0.000000
0.541176 0.686275 0.000000
0.584314 0.690196 0.000000
0.635294 0.686275 0.000000
0.678431 0.690196 0.003922
0.725490 0.686275 0.000000
0.772549 0.690196 0.003922
0.811765 0.690196 0.000000
0.854902 0.698039 0.000000
0.898039 0.698039 0.003922
0.949020 0.698039 0.074510
0.984314 0.698039 0.156863
1.000000 0.713725 0.211765
0.007843 0.737255 0.003922
0.000000 0.729412 0.003922
0.011765 0.733333 0.003922
0.007843 0.737255 0.000000
0.000000 0.741176 0.000000
0.105882 0.733333 0.011765
0.180392 0.729412 0.000000
0.239216 0.733333 0.000000
0.301961 0.733333 0.000000
0.352941 0.729412 0.000000
0.400000 0.729412 0.000000
0.450980 0.733333 0.000000
0.494118 0.737255 0.000000
0.537255 0.733333 0.000000
0.588235 0.729412 0.000000
0.627451 0.733333 0.000000
0.674510 0.733333 0.000000
0.717647 0.737255 0.000000
0.764706 0.729412 0.011765
0.807843 0.729412 0.003922
0.850980 0.733333 0.003922
0.890196 0.733333 0.003922
0.945098 0.737255 0.000000
0.992157 0.741176 0.086275
0.996078 0.745098 0.152941
0.000000 0.776471 0.000000
0.000000 0.776471 0.000000
0.000000 0.780392 0.000000
0.003922 0.776471 0.007843
0.007843 0.776471 0.000000
0.086275 0.776471 0.003922
0.164706 0.776471 0.000000
0.239216 0.780392 0.000000
0.286275 0.784314 0.000000
0.345098 0.784314 0.007843
0.388235 0.780392 0.007843
0.439216 0.776471 0.000000
0.498039 0.772549 0.000000
0.545098 0.772549 0.000000
0.588235 0.776471 0.000000
0.631373 0.772549 0.000000
0.674510 0.780392 0.000000
0.721569 0.776471 0.000000
0.760784 0.776471 0.000000
0.807843 0.776471 0.003922
0.847059 0.776471 0.007843
0.898039 0.772549 0.003922
0.945098 0.776471 0.000000
0.972549 0.780392 0.003922
1.000000 0.776471 0.074510
0.000000 0.815686 0.003922
0.003922 0.819608 0.000000
0.000000 0.823529 0.000000
0.003922 0.815686 0.015686
0.011765 0.815686 0.000000
0.054902 0.819608 0.000000
0.152941 0.815686 0.000000
0.235294 0.819608 0.003922
0.282353 0.823529 0.000000
0.337255 0.823529 0.000000
0.380392 0.819608 0.000000
0.431373 0.823529 0.000000
0.490196 0.819608 0.000000
0.533333 0.823529 0.003922
0.576471 0.819608 0.000000
0.623529 0.819608 0.000000
0.666667 0.815686 0.003922
0.717647 0.815686 0.003922
0.760784 0.815686 0.000000
0.803922 0.819608 0.000000
0.854902 0.815686 0.000000
0.890196 0.823529 0.000000
0.941176 0.815686 0.000000
0.984314 0.819608 0.003922
1.000000 0.819608 0.000000
0.003922 0.866667 0.003922
0.011765 0.858824 0.007843
0.000000 0.858824 0.000000
0.003922 0.866667 0.003922
0.003922 0.866667 0.000000
0.031373 0.870588 0.000000
0.152941 0.862745 0.000000
0.227451 0.866667 0.007843
0.286275 0.858824 0.000000
0.329412 0.858824 0.000000
0.388235 0.862745 0.003922
0.435294 0.866667 0.000000
0.482353 0.862745 0.003922
0.529412 0.862745 0.007843
0.572549 0.862745 0.003922
0.619608 0.858824 0.000000
0.674510 0.858824 0.000000
0.713725 0.858824 0.000000
0.756863 0.862745 0.003922
0.800000 0.862745 0.000000
0.847059 0.862745 0.003922
0.894118 0.862745 0.000000
0.937255 0.858824 0.000000
0.988235 0.858824 0.000000
1.000000 0.858824 0.003922
0.000000 0.894118 0.000000
0.000000 0.905882 0.000000
0.007843 0.898039 0.000000
0.000000 0.905882 0.003922
0.000000 0.905882 0.000000
0.000000 0.905882 0.003922
0.133333 0.905882 0.003922
0.223529 0.901961 0.000000
0.270588 0.901961 0.000000
0.329412 0.905882 0.003922
0.380392 0.901961 0.000000
0.427451 0.901961 0.003922
0.478431 0.905882 0.000000
0.525490 0.905882 0.000000
0.568627 0.909804 0.003922
0.619608 0.905882 0.000000
0.654902 0.905882 0.000000
0.705882 0.898039 0.000000
0.756863 0.901961 0.000000
0.800000 0.901961 0.000000
0.839216 0.901961 0.000000
0.886275 0.898039 0.007843
0.929412 0.901961 0.000000
0.980392 0.898039 0.000000
0.996078 0.901961 0.000000
0.003922 0.941176 0.000000
0.003922 0.945098 0.000000
0.000000 0.945098 0.000000
0.003922 0.945098 0.007843
0.000000 0.945098 0.000000
0.003922 0.945098 0.000000
0.137255 0.945098 0.000000
0.192157 0.949020 0.003922
0.258824 0.949020 0.003922
0.317647 0.949020 0.000000
0.376471 0.945098 0.000000
0.423529 0.945098 0.000000
0.478431 0.945098 0.000000
0.517647 0.945098 0.000000
0.560784 0.945098 0.000000
0.607843 0.937255 0.003922
0.654902 0.941176 0.003922
0.705882 0.945098 0.000000
0.752941 0.937255 0.000000
0.800000 0.937255 0.000000
0.847059 0.937255 0.000000
0.886275 0.937255 0.000000
0.925490 0.937255 0.007843
0.972549 0.937255 0.000000
0.992157 0.941176 0.015686
0.007843 0.980392 0.000000
0.011765 0.980392 0.011765
0.000000 0.976471 0.000000
0.015686 0.980392 0.000000
0.000000 0.988235 0.000000
0.003922 0.984314 0.003922
0.098039 0.984314 0.003922
0.192157 0.984314 0.000000
0.262745 0.976471 0.000000
0.325490 0.976471 0.003922
0.372549 0.976471 0.003922
0.423529 0.980392 0.000000
0.470588 0.980392 0.000000
0.517647 0.984314 0.003922
0.568627 0.984314 0.003922
0.607843 0.984314 0.003922
0.650980 0.984314 0.000000
0.698039 0.980392 0.000000
0.745098 0.984314 0.000000
0.788235 0.980392 0.000000
0.831373 0.972549 0.000000
0.878431 0.976471 0.000000
0.925490 0.972549 0.000000
0.968627 0.976471 0.000000
0.996078 0.972549 0.007843
0.007843 1.000000 0.000000
0.000000 0.996078 0.000000
0.000000 1.000000 0.003922
0.007843 0.996078 0.003922
0.000000 1.000000 0.000000
0.015686 1.000000 0.000000
0.101961 1.000000 0.000000
0.192157 0.996078 0.000000
0.250980 1.000000 0.003922
0.309804 0.996078 0.000000
0.364706 0.996078 0.000000
0.419608 0.996078 0.000000
0.470588 1.000000 0.007843
0.517647 1.000000 0.003922
0.560784 0.996078 0.000000
0.603922 1.000000 0.000000
0.647059 1.000000 0.000000
0.698039 1.000000 0.003922
0.741176 0.996078 0.000000
0.784314 1.000000 0.003922
0.831373 1.000000 0.000000
0.870588 1.000000 0.003922
0.917647 0.996078 0.000000
0.968627 0.996078 0.000000
0.992157 0.996078 0.000000
0.000000 0.003922 0.019608
0.011765 0.003922 0.023529
0.074510 0.000000 0.031373
0.101961 0.003922 0.019608
0.137255 0.000000 0.023529
0.188235 0.003922 0.035294
0.239216 0.000000 0.031373
0.266667 0.003922 0.039216
0.313725 0.000000 0.043137
0.352941 0.003922 0.031373
0.400000 0.003922 0.035294
0.443137 0.000000 0.031373
0.490196 0.000000 0.039216
0.533333 0.003922 0.039216
0.580392 0.003922 0.047059
0.619608 0.000000 0.054902
0.666667 0.003922 0.047059
0.713725 0.000000 0.058824
0.760784 0.000000 0.062745
0.815686 0.000000 0.062745
0.862745 0.000000 0.070588
0.898039 0.003922 0.078431
0.941176 0.011765 0.082353
0.988235 0.035294 0.090196
0.996078 0.047059 0.101961
0.003922 0.023529 0.039216
0.023529 0.023529 0.031373
0.066667 0.027451 0.031373
0.098039 0.023529 0.031373
0.137255 0.027451 0.023529
0.192157 0.019608 0.023529
0.223529 0.023529 0.019608
0.270588 0.027451 0.031373
0.313725 0.019608 0.031373
0.356863 0.027451 0.035294
0.400000 0.023529 0.039216
0.450980 0.023529 0.047059
0.494118 0.027451 0.050980
0.537255 0.023529 0.047059
0.580392 0.019608 0.054902
0.619608 0.023529 0.050980
0.666667 0.031373 0.054902
0.717647 0.031373 0.066667
0.760784 0.031373 0.082353
0.807843 0.035294 0.074510
0.854902 0.043137 0.082353
0.901961 0.050980 0.086275
0.949020 0.062745 0.086275
0.984314 0.074510 0.090196
1.000000 0.082353 0.117647
0.003922 0.066667 0.023529
0.015686 0.066667 0.031373
0.058824 0.074510 0.019608
0.109804 0.054902 0.043137
0.141176 0.066667 0.043137
0.180392 0.066667 0.035294
0.223529 0.070588 0.043137
0.262745 0.070588 0.043137
0.317647 0.070588 0.043137
0.356863 0.070588 0.043137
0.400000 0.074510 0.050980
0.443137 0.070588 0.047059
0.494118 0.074510 0.050980
0.533333 0.074510 0.054902
0.580392 0.074510 0.062745
0.623529 0.078431 0.066667
0.670588 0.082353 0.058824
0.709804 0.082353 0.058824
0.760784 0.082353 0.058824
0.807843 0.090196 0.066667
0.858824 0.094118 0.086275
0.898039 0.090196 0.098039
0.949020 0.105882 0.094118
0.976471 0.109804 0.098039
1.000000 0.117647 0.109804
0.000000 0.109804 0.031373
0.019608 0.105882 0.023529
0.074510 0.109804 0.035294
0.105882 0.101961 0.031373
0.149020 0.101961 0.039216
0.176471 0.109804 0.043137
0.231373 0.105882 0.058824
0.274510 0.109804 0.054902
0.305882 0.113725 0.047059
0.349020 0.117647 0.047059
0.396078 0.117647 0.054902
0.439216 0.121569 0.054902
0.486275 0.121569 0.054902
0.529412 0.125490 0.058824
0.576471 0.121569 0.062745
0.623529 0.125490 0.066667
0.670588 0.125490 0.066667
0.717647 0.125490 0.062745
0.764706 0.129412 0.078431
0.815686 0.137255 0.082353
0.858824 0.141176 0.090196
0.894118 0.137255 0.086275
0.945098 0.149020 0.094118
0.980392 0.149020 0.101961
0.996078 0.156863 0.117647
0.003922 0.137255 0.031373
0.015686 0.152941 0.027451
0.054902 0.152941 0.027451
0.109804 0.145098 0.031373
0.152941 0.149020 0.031373
0.184314 0.149020 0.035294
0.223529 0.145098 0.039216
0.258824 0.149020 0.054902
0.309804 0.152941 0.062745
0.352941 0.152941 0.070588
0.388235 0.164706 0.066667
0.443137 0.160784 0.066667
0.486275 0.164706 0.070588
0.525490 0.168627 0.066667
0.576471 0.168627 0.070588
0.627451 0.172549 0.074510
0.670588 0.172549 0.074510
0.713725 0.176471 0.074510
0.764706 0.176471 0.078431
0.807843 0.180392 0.086275
0.858824 0.180392 0.082353
0.898039 0.188235 0.090196
0.945098 0.188235 0.098039
0.980392 0.196078 0.105882
1.000000 0.200000 0.125490
0.000000 0.188235 0.023529
0.011765 0.196078 0.023529
0.050980 0.188235 0.023529
0.109804 0.192157 0.023529
0.149020 0.192157 0.023529
0.184314 0.196078 0.027451
0.239216 0.192157 0.035294
0.282353 0.192157 0.031373
0.309804 0.200000 0.054902
0.349020 0.196078 0.074510
0.400000 0.200000 0.086275
0.439216 0.200000 0.078431
0.486275 0.211765 0.082353
0.537255 0.211765 0.094118
0.580392 0.215686 0.086275
0.623529 0.223529 0.082353
0.670588 0.215686 0.086275
0.721569 0.215686 0.094118
0.768627 0.219608 0.090196
0.811765 0.223529 0.094118
0.862745 0.227451 0.098039
0.901961 0.235294 0.105882
0.945098 0.235294 0.121569
0.988235 0.239216 0.129412
0.992157 0.250980 0.137255
0.000000 0.227451 0.015686
0.000000 0.231373 0.019608
0.050980 0.235294 0.023529
0.101961 0.235294 0.027451
0.152941 0.235294 0.015686
0.192157 0.235294 0.015686
0.235294 0.235294 0.023529
0.278431 0.235294 0.015686
0.313725 0.235294 0.027451
0.360784 0.239216 0.054902
0.396078 0.243137 0.074510
0.439216 0.247059 0.090196
0.482353 0.250980 0.101961
0.533333 0.250980 0.094118
0.580392 0.258824 0.101961
0.631373 0.266667 0.098039
0.674510 0.270588 0.109804
0.717647 0.266667 0.105882
0.768627 0.270588 0.109804
0.815686 0.270588 0.109804
0.862745 0.282353 0.109804
0.905882 0.278431 0.113725
0.945098 0.274510 0.137255
0.988235 0.286275 0.129412
0.992157 0.294118 0.152941
0.003922 0.282353 0.023529
0.000000 0.282353 0.011765
0.039216 0.274510 0.023529
0.098039 0.282353 0.015686
0.141176 0.278431 0.011765
0.188235 0.274510 0.019608
0.231373 0.282353 0.011765
0.274510 0.278431 0.011765
0.321569 0.282353 0.011765
0.360784 0.278431 0.023529
0.403922 0.278431 0.047059
0.443137 0.290196 0.074510
0.494118 0.298039 0.101961
0.537255 0.298039 0.125490
0.580392 0.305882 0.105882
0.623529 0.309804 0.117647
0.670588 0.309804 0.117647
0.717647 0.313725 0.121569
0.768627 0.313725 0.121569
0.815686 0.313725 0.129412
0.858824 0.317647 0.133333
0.901961 0.321569 0.133333
0.949020 0.321569 0.149020
0.984314 0.325490 0.141176
1.000000 0.337255 0.145098
0.000000 0.325490 0.011765
0.000000 0.321569 0.007843
0.015686 0.325490 0.007843
0.090196 0.321569 0.007843
0.137255 0.329412 0.011765
0.188235 0.325490 0.003922
0.227451 0.325490 0.000000
0.278431 0.325490 0.003922
0.317647 0.321569 0.007843
0.356863 0.325490 0.007843
0.403922 0.321569 0.011765
0.458824 0.325490 0.043137
0.490196 0.329412 0.070588
0.537255 0.341176 0.101961
0.580392 0.345098 0.117647
0.631373 0.352941 0.141176
0.678431 0.360784 0.145098
0.721569 0.360784 0.137255
0.764706 0.364706 0.137255
0.815686 0.368627 0.133333
0.862745 0.368627 0.141176
0.905882 0.368627 0.156863
0.949020 0.376471 0.152941
0.976471 0.380392 0.164706
0.996078 0.376471 0.152941
0.003922 0.368627 0.011765
0.000000 0.360784 0.000000
0.011765 0.368627 0.003922
0.074510 0.360784 0.003922
0.133333 0.364706 0.003922
0.188235 0.364706 0.007843
0.227451 0.372549 0.000000
0.270588 0.368627 0.000000
0.325490 0.368627 0.000000
0.356863 0.372549 0.000000
0.396078 0.372549 0.000000
0.450980 0.368627 0.003922
0.494118 0.380392 0.023529
0.537255 0.376471 0.062745
0.584314 0.380392 0.094118
0.639216 0.388235 0.137255
0.686275 0.396078 0.156863
0.729412 0.400000 0.156863
0.776471 0.407843 0.164706
0.823529 0.415686 0.176471
0.862745 0.415686 0.168627
0.905882 0.419608 0.176471
0.956863 0.419608 0.184314
0.992157 0.419608 0.188235
1.000000 0.419608 0.184314
0.000000 0.419608 0.003922
0.000000 0.411765 0.000000
0.000000 0.419608 0.000000
0.066667 0.415686 0.000000
0.129412 0.415686 0.003922
0.188235 0.415686 0.011765
0.227451 0.419608 0.000000
0.274510 0.419608 0.003922
0.321569 0.411765 0.000000
0.364706 0.415686 0.003922
