lut_library_archive/removed_20260629/50个风景lut/50个风景lut50.cube
# 版权归凌孟成所有，侵权必究
TITLE "Jungle LUT #50"
#LUT size
LUT_3D_SIZE 25
#LUT data points
0.054902 0.054902 0.062745
0.054902 0.054902 0.054902
0.082353 0.050980 0.043137
0.121569 0.043137 0.050980
0.160784 0.043137 0.050980
0.188235 0.047059 0.054902
0.223529 0.043137 0.054902
0.258824 0.043137 0.027451
0.290196 0.047059 0.050980
0.333333 0.047059 0.031373
0.364706 0.054902 0.039216
0.396078 0.054902 0.035294
0.439216 0.070588 0.039216
0.482353 0.058824 0.050980
0.521569 0.074510 0.043137
0.560784 0.074510 0.043137
0.603922 0.078431 0.035294
0.650980 0.082353 0.039216
0.705882 0.078431 0.039216
0.752941 0.078431 0.031373
0.784314 0.082353 0.023529
0.835294 0.086275 0.015686
0.886275 0.086275 0.011765
0.929412 0.094118 0.000000
0.984314 0.078431 0.007843
0.039216 0.074510 0.062745
0.062745 0.066667 0.047059
0.090196 0.070588 0.054902
0.129412 0.074510 0.039216
0.164706 0.070588 0.062745
0.184314 0.070588 0.047059
0.227451 0.070588 0.043137
0.266667 0.066667 0.047059
0.294118 0.070588 0.043137
0.313725 0.078431 0.039216
0.372549 0.066667 0.050980
0.396078 0.082353 0.039216
0.443137 0.078431 0.047059
0.478431 0.086275 0.054902
0.521569 0.094118 0.043137
0.568627 0.090196 0.047059
0.603922 0.098039 0.043137
0.650980 0.098039 0.031373
0.701961 0.101961 0.039216
0.741176 0.098039 0.031373
0.784314 0.109804 0.023529
0.835294 0.105882 0.015686
0.890196 0.105882 0.015686
0.921569 0.109804 0.007843
0.972549 0.109804 0.000000
0.003922 0.105882 0.070588
0.015686 0.101961 0.054902
0.082353 0.098039 0.039216
0.129412 0.094118 0.035294
0.152941 0.098039 0.047059
0.200000 0.098039 0.043137
0.223529 0.094118 0.035294
0.262745 0.098039 0.043137
0.298039 0.094118 0.039216
0.325490 0.101961 0.043137
0.364706 0.101961 0.039216
0.403922 0.098039 0.047059
0.447059 0.101961 0.054902
0.482353 0.109804 0.039216
0.525490 0.105882 0.035294
0.560784 0.117647 0.047059
0.603922 0.113725 0.035294
0.647059 0.121569 0.039216
0.698039 0.121569 0.023529
0.752941 0.125490 0.031373
0.792157 0.129412 0.023529
0.835294 0.133333 0.023529
0.870588 0.129412 0.011765
0.933333 0.133333 0.003922
0.972549 0.129412 0.000000
0.000000 0.133333 0.070588
0.003922 0.137255 0.070588
0.000000 0.125490 0.035294
0.101961 0.133333 0.035294
0.156863 0.129412 0.027451
0.196078 0.129412 0.050980
0.231373 0.125490 0.043137
0.270588 0.129412 0.043137
0.286275 0.125490 0.047059
0.333333 0.129412 0.043137
0.368627 0.129412 0.058824
0.411765 0.137255 0.047059
0.431373 0.133333 0.043137
0.486275 0.133333 0.039216
0.521569 0.141176 0.043137
0.564706 0.145098 0.043137
0.603922 0.145098 0.039216
0.650980 0.141176 0.039216
0.698039 0.152941 0.031373
0.733333 0.160784 0.027451
0.780392 0.152941 0.019608
0.827451 0.156863 0.015686
0.878431 0.152941 0.003922
0.925490 0.164706 0.000000
0.976471 0.164706 0.003922
0.003922 0.152941 0.086275
0.000000 0.164706 0.078431
0.007843 0.164706 0.062745
0.015686 0.172549 0.039216
0.137255 0.152941 0.047059
0.196078 0.160784 0.039216
0.219608 0.160784 0.047059
0.254902 0.164706 0.043137
0.286275 0.164706 0.054902
0.329412 0.160784 0.035294
0.364706 0.164706 0.043137
0.400000 0.164706 0.031373
0.439216 0.168627 0.047059
0.482353 0.176471 0.035294
0.517647 0.168627 0.043137
0.564706 0.180392 0.043137
0.607843 0.176471 0.031373
0.650980 0.184314 0.035294
0.694118 0.180392 0.027451
0.733333 0.184314 0.023529
0.788235 0.188235 0.027451
0.831373 0.188235 0.011765
0.878431 0.188235 0.003922
0.925490 0.192157 0.000000
0.972549 0.192157 0.000000
0.003922 0.200000 0.101961
0.003922 0.192157 0.098039
0.000000 0.196078 0.082353
0.000000 0.196078 0.043137
0.054902 0.200000 0.031373
0.156863 0.200000 0.043137
0.227451 0.196078 0.043137
0.262745 0.203922 0.043137
0.294118 0.203922 0.039216
0.325490 0.196078 0.035294
0.372549 0.200000 0.054902
0.407843 0.203922 0.047059
0.450980 0.203922 0.043137
0.498039 0.203922 0.050980
0.537255 0.203922 0.043137
0.572549 0.207843 0.039216
0.619608 0.211765 0.027451
0.658824 0.219608 0.031373
0.701961 0.219608 0.027451
0.752941 0.219608 0.023529
0.796078 0.219608 0.007843
0.839216 0.227451 0.007843
0.890196 0.219608 0.007843
0.937255 0.219608 0.015686
0.984314 0.231373 0.007843
0.000000 0.223529 0.105882
0.007843 0.223529 0.101961
0.007843 0.231373 0.105882
0.003922 0.223529 0.086275
0.003922 0.235294 0.023529
0.082353 0.231373 0.039216
0.176471 0.231373 0.039216
0.254902 0.231373 0.035294
0.298039 0.235294 0.043137
0.337255 0.227451 0.039216
0.368627 0.243137 0.043137
0.407843 0.239216 0.035294
0.439216 0.243137 0.047059
0.490196 0.231373 0.027451
0.529412 0.250980 0.039216
0.568627 0.247059 0.027451
0.615686 0.243137 0.023529
0.654902 0.254902 0.027451
0.705882 0.250980 0.011765
0.749020 0.258824 0.007843
0.784314 0.262745 0.003922
0.835294 0.262745 0.000000
0.886275 0.262745 0.003922
0.925490 0.262745 0.000000
0.976471 0.270588 0.007843
0.000000 0.254902 0.137255
0.000000 0.258824 0.117647
0.000000 0.258824 0.121569
0.000000 0.258824 0.101961
0.003922 0.258824 0.039216
0.007843 0.254902 0.031373
0.109804 0.266667 0.023529
0.211765 0.270588 0.047059
0.298039 0.274510 0.039216
0.333333 0.266667 0.047059
0.368627 0.270588 0.043137
0.415686 0.274510 0.039216
0.450980 0.274510 0.027451
0.486275 0.274510 0.039216
0.533333 0.282353 0.039216
0.568627 0.278431 0.031373
0.619608 0.294118 0.019608
0.666667 0.286275 0.019608
0.709804 0.294118 0.007843
0.745098 0.290196 0.003922
0.800000 0.294118 0.000000
0.843137 0.298039 0.011765
0.882353 0.298039 0.000000
0.941176 0.301961 0.007843
0.976471 0.305882 0.000000
0.000000 0.294118 0.145098
0.000000 0.294118 0.141176
0.003922 0.298039 0.145098
0.003922 0.286275 0.137255
0.007843 0.298039 0.098039
0.000000 0.298039 0.015686
0.003922 0.301961 0.019608
0.137255 0.305882 0.023529
0.243137 0.305882 0.019608
0.325490 0.309804 0.031373
0.372549 0.317647 0.031373
0.411765 0.309804 0.015686
0.454902 0.309804 0.031373
0.490196 0.317647 0.039216
0.541176 0.317647 0.039216
0.576471 0.317647 0.011765
0.615686 0.329412 0.027451
0.662745 0.321569 0.003922
0.705882 0.325490 0.007843
0.749020 0.325490 0.011765
0.796078 0.325490 0.000000
0.831373 0.337255 0.003922
0.886275 0.329412 0.000000
0.933333 0.341176 0.000000
0.972549 0.341176 0.000000
0.000000 0.325490 0.152941
0.000000 0.317647 0.141176
0.000000 0.317647 0.141176
0.000000 0.321569 0.141176
0.000000 0.325490 0.113725
0.003922 0.337255 0.074510
0.007843 0.329412 0.000000
0.003922 0.337255 0.003922
0.172549 0.337255 0.007843
0.270588 0.349020 0.015686
0.364706 0.345098 0.023529
0.423529 0.341176 0.031373
0.454902 0.352941 0.023529
0.498039 0.349020 0.015686
0.533333 0.352941 0.015686
0.576471 0.360784 0.007843
0.615686 0.360784 0.007843
0.658824 0.360784 0.000000
0.705882 0.356863 0.000000
0.749020 0.372549 0.003922
0.796078 0.364706 0.000000
0.843137 0.372549 0.000000
0.886275 0.376471 0.000000
0.933333 0.376471 0.007843
0.976471 0.372549 0.000000
0.000000 0.364706 0.168627
0.000000 0.356863 0.164706
0.003922 0.364706 0.180392
0.000000 0.360784 0.160784
0.000000 0.364706 0.152941
0.000000 0.368627 0.109804
0.000000 0.372549 0.023529
0.000000 0.380392 0.000000
0.000000 0.376471 0.003922
0.203922 0.388235 0.003922
0.301961 0.380392 0.000000
0.407843 0.392157 0.011765
0.466667 0.396078 0.011765
0.494118 0.400000 0.007843
0.549020 0.396078 0.000000
0.588235 0.396078 0.000000
0.643137 0.400000 0.011765
0.674510 0.403922 0.000000
0.709804 0.403922 0.000000
0.752941 0.411765 0.000000
0.800000 0.415686 0.000000
0.847059 0.411765 0.000000
0.886275 0.415686 0.000000
0.941176 0.423529 0.000000
0.976471 0.419608 0.000000
0.000000 0.403922 0.196078
0.000000 0.392157 0.180392
0.007843 0.384314 0.188235
0.000000 0.396078 0.180392
0.000000 0.392157 0.180392
0.000000 0.396078 0.141176
0.000000 0.407843 0.086275
0.003922 0.403922 0.003922
0.000000 0.419608 0.000000
0.035294 0.415686 0.000000
0.239216 0.415686 0.003922
0.349020 0.423529 0.003922
0.435294 0.435294 0.000000
0.521569 0.435294 0.000000
0.556863 0.431373 0.003922
0.572549 0.443137 0.000000
0.627451 0.439216 0.007843
0.666667 0.443137 0.000000
0.721569 0.443137 0.000000
0.764706 0.447059 0.000000
0.811765 0.447059 0.003922
0.850980 0.454902 0.007843
0.894118 0.454902 0.000000
0.945098 0.454902 0.007843
0.992157 0.458824 0.000000
0.011765 0.423529 0.203922
0.015686 0.427451 0.207843
0.000000 0.427451 0.196078
0.000000 0.427451 0.203922
0.003922 0.427451 0.192157
0.000000 0.431373 0.184314
0.007843 0.431373 0.137255
0.000000 0.439216 0.054902
0.000000 0.439216 0.000000
0.000000 0.450980 0.000000
0.101961 0.447059 0.007843
0.266667 0.450980 0.000000
0.372549 0.466667 0.000000
0.466667 0.470588 0.000000
0.556863 0.470588 0.000000
0.600000 0.482353 0.011765
0.639216 0.474510 0.000000
0.674510 0.486275 0.000000
0.717647 0.482353 0.003922
0.760784 0.486275 0.011765
0.803922 0.486275 0.000000
0.850980 0.494118 0.000000
0.898039 0.494118 0.000000
0.945098 0.501961 0.000000
0.988235 0.498039 0.003922
0.003922 0.454902 0.215686
0.000000 0.462745 0.227451
0.000000 0.462745 0.203922
0.000000 0.466667 0.219608
0.000000 0.462745 0.211765
0.007843 0.458824 0.196078
0.007843 0.462745 0.176471
0.003922 0.466667 0.129412
0.000000 0.470588 0.000000
0.000000 0.486275 0.007843
0.003922 0.482353 0.000000
0.152941 0.490196 0.007843
0.301961 0.501961 0.000000
0.407843 0.505882 0.000000
0.509804 0.509804 0.000000
0.592157 0.521569 0.000000
0.635294 0.517647 0.000000
0.678431 0.521569 0.007843
0.721569 0.525490 0.003922
0.760784 0.525490 0.007843
0.803922 0.529412 0.011765
0.854902 0.525490 0.000000
0.898039 0.533333 0.000000
0.937255 0.533333 0.000000
1.000000 0.537255 0.003922
0.000000 0.498039 0.239216
0.000000 0.501961 0.243137
0.000000 0.498039 0.235294
0.003922 0.494118 0.227451
0.000000 0.498039 0.227451
0.007843 0.486275 0.223529
0.000000 0.498039 0.203922
0.000000 0.498039 0.176471
0.000000 0.501961 0.078431
0.003922 0.517647 0.000000
0.003922 0.525490 0.003922
0.000000 0.529412 0.000000
0.180392 0.537255 0.000000
0.341176 0.537255 0.007843
0.439216 0.545098 0.000000
0.545098 0.549020 0.007843
0.643137 0.552941 0.003922
0.674510 0.564706 0.000000
0.721569 0.560784 0.003922
0.768627 0.560784 0.003922
0.807843 0.568627 0.011765
0.862745 0.568627 0.000000
0.901961 0.572549 0.000000
0.941176 0.580392 0.003922
0.988235 0.580392 0.003922
0.003922 0.549020 0.270588
0.003922 0.549020 0.262745
0.000000 0.545098 0.258824
0.003922 0.545098 0.250980
0.003922 0.541176 0.258824
0.007843 0.541176 0.258824
0.007843 0.545098 0.231373
0.003922 0.545098 0.211765
0.007843 0.549020 0.145098
0.000000 0.560784 0.000000
0.007843 0.572549 0.000000
0.003922 0.572549 0.011765
0.000000 0.576471 0.003922
0.231373 0.584314 0.000000
0.372549 0.592157 0.000000
0.494118 0.596078 0.000000
0.584314 0.603922 0.000000
0.686275 0.611765 0.007843
0.745098 0.607843 0.003922
0.772549 0.615686 0.000000
0.811765 0.615686 0.000000
0.862745 0.615686 0.000000
0.909804 0.619608 0.003922
0.949020 0.619608 0.000000
1.000000 0.623529 0.011765
0.000000 0.576471 0.270588
0.000000 0.576471 0.270588
0.000000 0.588235 0.270588
0.000000 0.584314 0.266667
0.000000 0.584314 0.266667
0.003922 0.580392 0.266667
0.000000 0.580392 0.262745
0.003922 0.584314 0.247059
0.000000 0.576471 0.200000
0.000000 0.592157 0.109804
0.007843 0.596078 0.000000
0.000000 0.611765 0.007843
0.003922 0.611765 0.000000
0.003922 0.615686 0.011765
0.262745 0.635294 0.000000
0.411765 0.627451 0.000000
0.537255 0.639216 0.007843
0.615686 0.635294 0.000000
0.729412 0.654902 0.003922
0.780392 0.650980 0.003922
0.823529 0.654902 0.000000
0.866667 0.654902 0.000000
0.909804 0.666667 0.003922
0.952941 0.662745 0.007843
1.000000 0.662745 0.000000
0.000000 0.619608 0.298039
0.000000 0.627451 0.294118
0.000000 0.623529 0.301961
0.000000 0.623529 0.294118
0.000000 0.623529 0.294118
0.000000 0.619608 0.278431
0.000000 0.619608 0.286275
0.000000 0.615686 0.274510
0.011765 0.619608 0.243137
0.000000 0.627451 0.172549
0.003922 0.639216 0.039216
0.011765 0.650980 0.000000
0.000000 0.654902 0.000000
0.007843 0.650980 0.000000
0.003922 0.666667 0.000000
0.305882 0.674510 0.000000
0.447059 0.674510 0.000000
0.568627 0.678431 0.000000
0.670588 0.686275 0.003922
0.749020 0.701961 0.000000
0.827451 0.698039 0.011765
0.870588 0.690196 0.007843
0.913725 0.698039 0.000000
0.952941 0.698039 0.000000
1.000000 0.698039 0.019608
0.003922 0.662745 0.317647
0.007843 0.666667 0.321569
0.000000 0.666667 0.309804
0.003922 0.666667 0.309804
0.003922 0.666667 0.309804
0.000000 0.670588 0.301961
0.003922 0.666667 0.301961
0.000000 0.658824 0.294118
0.007843 0.674510 0.286275
0.000000 0.666667 0.219608
0.000000 0.686275 0.156863
0.000000 0.690196 0.000000
0.003922 0.694118 0.003922
0.000000 0.701961 0.000000
0.000000 0.701961 0.000000
0.070588 0.709804 0.015686
0.349020 0.717647 0.000000
0.486275 0.713725 0.000000
0.600000 0.725490 0.000000
0.705882 0.729412 0.000000
0.800000 0.741176 0.000000
0.858824 0.741176 0.000000
0.917647 0.741176 0.000000
0.952941 0.737255 0.000000
1.000000 0.741176 0.007843
0.000000 0.709804 0.345098
0.007843 0.709804 0.341176
0.000000 0.709804 0.337255
0.003922 0.713725 0.333333
0.007843 0.713725 0.325490
0.000000 0.713725 0.329412
0.007843 0.713725 0.325490
0.000000 0.713725 0.317647
0.011765 0.705882 0.317647
0.000000 0.709804 0.274510
0.000000 0.721569 0.203922
0.000000 0.729412 0.098039
0.007843 0.737255 0.000000
0.000000 0.745098 0.007843
0.007843 0.741176 0.007843
0.000000 0.756863 0.003922
0.149020 0.756863 0.003922
0.392157 0.756863 0.000000
0.525490 0.768627 0.003922
0.643137 0.776471 0.000000
0.737255 0.780392 0.003922
0.854902 0.784314 0.007843
0.925490 0.784314 0.000000
0.956863 0.788235 0.000000
1.000000 0.780392 0.003922
0.011765 0.772549 0.364706
0.000000 0.776471 0.364706
0.000000 0.780392 0.360784
0.000000 0.772549 0.360784
0.000000 0.772549 0.356863
0.000000 0.776471 0.356863
0.000000 0.772549 0.360784
0.000000 0.776471 0.341176
0.003922 0.764706 0.345098
0.000000 0.764706 0.325490
0.003922 0.772549 0.286275
0.000000 0.780392 0.180392
0.003922 0.788235 0.000000
0.003922 0.800000 0.000000
0.003922 0.800000 0.000000
0.007843 0.800000 0.007843
0.007843 0.811765 0.000000
0.211765 0.819608 0.007843
0.427451 0.815686 0.003922
0.576471 0.819608 0.000000
0.690196 0.819608 0.000000
0.792157 0.823529 0.003922
0.894118 0.831373 0.003922
0.972549 0.835294 0.000000
1.000000 0.827451 0.003922
0.000000 0.819608 0.392157
0.000000 0.827451 0.392157
0.000000 0.815686 0.388235
0.000000 0.819608 0.388235
0.003922 0.823529 0.392157
0.015686 0.811765 0.380392
0.000000 0.827451 0.356863
0.000000 0.819608 0.360784
0.000000 0.823529 0.372549
0.011765 0.811765 0.352941
0.000000 0.823529 0.341176
0.007843 0.835294 0.262745
0.000000 0.835294 0.160784
0.000000 0.847059 0.000000
0.000000 0.850980 0.000000
0.007843 0.858824 0.000000
0.007843 0.854902 0.011765
0.003922 0.866667 0.003922
0.278431 0.862745 0.007843
0.466667 0.874510 0.000000
0.627451 0.870588 0.003922
0.733333 0.866667 0.000000
0.831373 0.874510 0.000000
0.929412 0.878431 0.000000
1.000000 0.886275 0.007843
0.007843 0.870588 0.423529
0.000000 0.882353 0.411765
0.011765 0.870588 0.431373
0.000000 0.886275 0.411765
0.000000 0.874510 0.415686
0.003922 0.878431 0.411765
0.003922 0.878431 0.411765
0.000000 0.878431 0.392157
0.000000 0.882353 0.392157
0.000000 0.882353 0.396078
0.000000 0.878431 0.380392
0.000000 0.886275 0.333333
0.000000 0.894118 0.239216
0.003922 0.894118 0.086275
0.000000 0.905882 0.003922
0.000000 0.909804 0.000000
0.000000 0.913725 0.000000
0.007843 0.905882 0.000000
0.003922 0.909804 0.000000
0.352941 0.913725 0.011765
0.537255 0.921569 0.000000
0.670588 0.913725 0.000000
0.788235 0.913725 0.000000
0.890196 0.925490 0.000000
0.964706 0.929412 0.000000
0.003922 0.933333 0.454902
0.000000 0.937255 0.447059
0.007843 0.937255 0.443137
0.011765 0.941176 0.462745
0.000000 0.949020 0.443137
0.000000 0.941176 0.443137
0.000000 0.937255 0.439216
0.003922 0.937255 0.431373
0.003922 0.937255 0.419608
0.003922 0.937255 0.427451
0.000000 0.949020 0.415686
0.000000 0.952941 0.388235
0.007843 0.949020 0.309804
0.003922 0.952941 0.215686
0.003922 0.956863 0.007843
0.000000 0.976471 0.003922
0.000000 0.968627 0.000000
0.000000 0.968627 0.003922
0.007843 0.964706 0.000000
0.109804 0.972549 0.003922
0.443137 0.968627 0.000000
0.615686 0.968627 0.000000
0.737255 0.964706 0.003922
0.850980 0.968627 0.003922
0.929412 0.960784 0.000000
0.003922 1.000000 0.478431
0.000000 1.000000 0.478431
0.000000 1.000000 0.482353
0.000000 1.000000 0.482353
0.011765 0.992157 0.490196
0.000000 1.000000 0.474510
0.000000 1.000000 0.474510
0.000000 1.000000 0.470588
0.003922 0.996078 0.458824
0.000000 1.000000 0.443137
0.000000 1.000000 0.450980
0.003922 1.000000 0.443137
0.000000 0.996078 0.384314
0.011765 0.996078 0.278431
0.007843 1.000000 0.094118
0.000000 1.000000 0.000000
0.003922 0.992157 0.000000
0.007843 0.996078 0.003922
0.003922 1.000000 0.007843
0.000000 1.000000 0.003922
0.439216 1.000000 0.000000
0.607843 1.000000 0.000000
0.760784 1.000000 0.000000
0.862745 1.000000 0.000000
0.949020 1.000000 0.000000
0.054902 0.058824 0.066667
0.062745 0.054902 0.066667
0.094118 0.050980 0.066667
0.125490 0.043137 0.070588
0.160784 0.039216 0.058824
0.192157 0.050980 0.058824
0.223529 0.047059 0.074510
0.258824 0.054902 0.062745
0.294118 0.050980 0.070588
0.317647 0.058824 0.058824
0.376471 0.058824 0.078431
0.400000 0.070588 0.078431
0.435294 0.066667 0.058824
0.490196 0.062745 0.074510
0.533333 0.070588 0.074510
0.560784 0.074510 0.074510
0.607843 0.082353 0.054902
0.650980 0.078431 0.050980
0.694118 0.082353 0.062745
0.737255 0.086275 0.062745
0.788235 0.082353 0.054902
0.827451 0.082353 0.043137
0.878431 0.078431 0.043137
0.929412 0.086275 0.043137
0.968627 0.090196 0.023529
0.043137 0.062745 0.074510
0.070588 0.062745 0.074510
0.101961 0.070588 0.062745
0.129412 0.074510 0.062745
0.152941 0.070588 0.066667
0.180392 0.078431 0.074510
0.223529 0.074510 0.070588
0.266667 0.070588 0.074510
0.301961 0.074510 0.070588
0.317647 0.086275 0.062745
0.360784 0.082353 0.066667
0.400000 0.082353 0.066667
0.439216 0.082353 0.062745
0.482353 0.086275 0.070588
0.521569 0.086275 0.070588
0.560784 0.098039 0.058824
0.615686 0.094118 0.066667
0.654902 0.094118 0.062745
0.694118 0.098039 0.054902
0.745098 0.105882 0.054902
0.788235 0.101961 0.043137
0.843137 0.109804 0.043137
0.874510 0.113725 0.047059
0.921569 0.105882 0.027451
0.972549 0.101961 0.027451
0.027451 0.105882 0.070588
0.039216 0.098039 0.070588
0.090196 0.101961 0.058824
0.133333 0.101961 0.062745
0.152941 0.101961 0.066667
0.196078 0.098039 0.078431
0.227451 0.098039 0.062745
0.258824 0.101961 0.074510
0.298039 0.101961 0.058824
0.329412 0.105882 0.070588
0.368627 0.109804 0.062745
0.403922 0.101961 0.062745
0.439216 0.109804 0.066667
0.478431 0.109804 0.062745
0.521569 0.113725 0.070588
0.568627 0.105882 0.066667
0.611765 0.117647 0.062745
0.643137 0.117647 0.050980
0.698039 0.121569 0.050980
0.741176 0.125490 0.058824
0.796078 0.125490 0.054902
0.839216 0.125490 0.039216
0.882353 0.133333 0.031373
0.917647 0.129412 0.031373
0.972549 0.129412 0.027451
0.007843 0.141176 0.086275
0.000000 0.121569 0.090196
0.039216 0.133333 0.078431
0.098039 0.133333 0.066667
0.164706 0.129412 0.070588
0.192157 0.129412 0.070588
0.219608 0.137255 0.070588
0.266667 0.125490 0.062745
0.290196 0.129412 0.062745
0.325490 0.133333 0.066667
0.360784 0.137255 0.070588
0.400000 0.141176 0.054902
0.443137 0.133333 0.082353
0.482353 0.145098 0.047059
0.521569 0.141176 0.066667
0.552941 0.137255 0.054902
0.607843 0.152941 0.062745
0.647059 0.145098 0.054902
0.701961 0.152941 0.054902
0.741176 0.156863 0.047059
0.784314 0.152941 0.050980
0.827451 0.152941 0.035294
0.878431 0.156863 0.031373
0.921569 0.156863 0.007843
0.984314 0.152941 0.027451
0.000000 0.160784 0.094118
0.003922 0.164706 0.101961
0.007843 0.160784 0.078431
0.031373 0.164706 0.066667
0.141176 0.160784 0.066667
0.192157 0.164706 0.062745
0.223529 0.160784 0.062745
0.270588 0.168627 0.078431
0.298039 0.164706 0.066667
0.329412 0.164706 0.070588
0.364706 0.160784 0.066667
0.396078 0.172549 0.074510
0.439216 0.176471 0.062745
0.482353 0.160784 0.066667
0.525490 0.176471 0.050980
0.556863 0.180392 0.054902
0.607843 0.176471 0.070588
0.647059 0.180392 0.062745
0.694118 0.176471 0.047059
0.737255 0.180392 0.054902
0.788235 0.184314 0.050980
0.843137 0.184314 0.039216
0.882353 0.188235 0.027451
0.925490 0.192157 0.023529
0.984314 0.184314 0.015686
0.000000 0.192157 0.109804
0.000000 0.192157 0.109804
0.000000 0.200000 0.109804
0.003922 0.196078 0.078431
0.062745 0.196078 0.058824
0.160784 0.200000 0.062745
0.227451 0.192157 0.062745
0.270588 0.200000 0.058824
0.301961 0.200000 0.078431
0.321569 0.211765 0.066667
0.364706 0.196078 0.062745
0.403922 0.196078 0.062745
0.439216 0.211765 0.066667
0.482353 0.207843 0.066667
0.521569 0.211765 0.054902
0.580392 0.207843 0.058824
0.615686 0.211765 0.054902
0.650980 0.215686 0.047059
0.701961 0.215686 0.050980
0.752941 0.215686 0.043137
0.796078 0.215686 0.035294
0.839216 0.223529 0.031373
0.882353 0.227451 0.031373
0.925490 0.231373 0.027451
0.980392 0.227451 0.011765
0.003922 0.223529 0.109804
0.007843 0.227451 0.121569
0.000000 0.231373 0.121569
0.003922 0.231373 0.082353
0.000000 0.231373 0.058824
0.082353 0.235294 0.062745
0.203922 0.231373 0.066667
0.274510 0.231373 0.062745
0.286275 0.235294 0.058824
0.333333 0.239216 0.066667
0.364706 0.235294 0.066667
0.407843 0.235294 0.058824
0.443137 0.243137 0.058824
0.482353 0.235294 0.058824
0.533333 0.243137 0.066667
0.584314 0.243137 0.066667
0.603922 0.250980 0.054902
0.666667 0.254902 0.047059
0.694118 0.250980 0.039216
0.752941 0.250980 0.035294
0.792157 0.250980 0.027451
0.831373 0.262745 0.015686
0.886275 0.262745 0.015686
0.929412 0.258824 0.015686
0.984314 0.258824 0.015686
0.000000 0.254902 0.129412
0.000000 0.254902 0.137255
0.003922 0.258824 0.141176
0.000000 0.258824 0.117647
0.000000 0.258824 0.070588
0.000000 0.262745 0.050980
0.113725 0.266667 0.050980
0.215686 0.270588 0.062745
0.298039 0.270588 0.058824
0.333333 0.266667 0.054902
0.372549 0.270588 0.078431
0.403922 0.274510 0.058824
0.458824 0.274510 0.070588
0.494118 0.278431 0.058824
0.533333 0.278431 0.058824
0.572549 0.278431 0.054902
0.615686 0.286275 0.043137
0.647059 0.290196 0.047059
0.701961 0.290196 0.031373
0.741176 0.290196 0.035294
0.784314 0.298039 0.023529
0.839216 0.298039 0.023529
0.882353 0.294118 0.015686
0.929412 0.294118 0.000000
0.968627 0.305882 0.003922
0.000000 0.290196 0.137255
0.000000 0.290196 0.152941
0.000000 0.286275 0.125490
0.000000 0.294118 0.133333
0.000000 0.298039 0.117647
0.003922 0.298039 0.027451
0.000000 0.294118 0.039216
0.145098 0.313725 0.043137
0.243137 0.298039 0.054902
0.333333 0.313725 0.047059
0.376471 0.305882 0.054902
0.411765 0.313725 0.054902
0.450980 0.313725 0.047059
0.490196 0.313725 0.050980
0.529412 0.321569 0.062745
0.580392 0.317647 0.039216
0.619608 0.317647 0.050980
0.662745 0.321569 0.043137
0.690196 0.325490 0.023529
0.756863 0.329412 0.027451
0.792157 0.333333 0.019608
0.835294 0.333333 0.015686
0.890196 0.333333 0.003922
0.929412 0.341176 0.000000
0.968627 0.341176 0.011765
0.000000 0.325490 0.152941
0.003922 0.321569 0.160784
0.003922 0.321569 0.160784
0.003922 0.329412 0.149020
0.000000 0.325490 0.137255
0.000000 0.337255 0.090196
0.000000 0.333333 0.007843
0.000000 0.341176 0.011765
0.176471 0.337255 0.023529
0.274510 0.337255 0.043137
0.368627 0.345098 0.039216
0.419608 0.352941 0.047059
0.454902 0.349020 0.047059
0.486275 0.356863 0.039216
0.529412 0.352941 0.043137
0.576471 0.352941 0.050980
0.623529 0.356863 0.031373
0.658824 0.352941 0.023529
0.713725 0.360784 0.023529
0.756863 0.356863 0.023529
0.796078 0.368627 0.003922
0.843137 0.372549 0.003922
0.890196 0.372549 0.000000
0.941176 0.376471 0.000000
0.980392 0.376471 0.000000
0.003922 0.364706 0.172549
0.000000 0.360784 0.168627
0.003922 0.364706 0.172549
0.003922 0.364706 0.164706
0.003922 0.368627 0.156863
0.000000 0.368627 0.125490
0.000000 0.372549 0.050980
0.003922 0.376471 0.015686
0.000000 0.380392 0.000000
0.207843 0.380392 0.000000
