lut_library_archive/removed_20260629/50个风景lut/50个风景lut22.cube
# 版权归凌孟成所有，侵权必究
TITLE "Jungle LUT #22"
#LUT size
LUT_3D_SIZE 25
#LUT data points
0.000000 0.000000 0.000000
0.023529 0.000000 0.000000
0.066667 0.003922 0.003922
0.101961 0.000000 0.000000
0.149020 0.007843 0.007843
0.192157 0.011765 0.011765
0.239216 0.011765 0.007843
0.274510 0.015686 0.015686
0.325490 0.019608 0.003922
0.364706 0.019608 0.011765
0.407843 0.019608 0.007843
0.450980 0.023529 0.011765
0.498039 0.023529 0.011765
0.545098 0.031373 0.023529
0.588235 0.035294 0.027451
0.631373 0.039216 0.035294
0.674510 0.050980 0.035294
0.717647 0.062745 0.058824
0.768627 0.074510 0.066667
0.811765 0.086275 0.070588
0.854902 0.098039 0.078431
0.894118 0.113725 0.094118
0.937255 0.129412 0.105882
0.988235 0.141176 0.129412
1.000000 0.164706 0.149020
0.000000 0.035294 0.000000
0.023529 0.047059 0.007843
0.074510 0.043137 0.003922
0.109804 0.043137 0.015686
0.156863 0.054902 0.000000
0.192157 0.050980 0.003922
0.239216 0.058824 0.007843
0.274510 0.054902 0.003922
0.321569 0.054902 0.011765
0.364706 0.058824 0.007843
0.411765 0.062745 0.007843
0.450980 0.062745 0.011765
0.498039 0.058824 0.011765
0.545098 0.066667 0.015686
0.592157 0.074510 0.023529
0.635294 0.078431 0.039216
0.678431 0.082353 0.047059
0.717647 0.090196 0.050980
0.760784 0.101961 0.062745
0.811765 0.113725 0.074510
0.850980 0.125490 0.086275
0.898039 0.137255 0.098039
0.941176 0.141176 0.113725
0.980392 0.156863 0.121569
0.996078 0.172549 0.137255
0.000000 0.078431 0.003922
0.031373 0.082353 0.003922
0.074510 0.078431 0.007843
0.113725 0.082353 0.003922
0.152941 0.086275 0.007843
0.192157 0.086275 0.003922
0.235294 0.086275 0.003922
0.278431 0.090196 0.003922
0.329412 0.090196 0.007843
0.372549 0.098039 0.007843
0.415686 0.094118 0.007843
0.458824 0.098039 0.015686
0.501961 0.101961 0.015686
0.545098 0.105882 0.027451
0.588235 0.109804 0.027451
0.631373 0.113725 0.035294
0.674510 0.113725 0.043137
0.717647 0.117647 0.054902
0.764706 0.133333 0.070588
0.800000 0.141176 0.070588
0.850980 0.149020 0.090196
0.894118 0.160784 0.109804
0.937255 0.164706 0.101961
0.988235 0.184314 0.141176
0.996078 0.196078 0.129412
0.000000 0.129412 0.015686
0.039216 0.117647 0.003922
0.070588 0.121569 0.003922
0.109804 0.121569 0.007843
0.160784 0.125490 0.003922
0.196078 0.133333 0.003922
0.235294 0.133333 0.011765
0.274510 0.133333 0.007843
0.321569 0.129412 0.003922
0.368627 0.129412 0.007843
0.411765 0.137255 0.007843
0.462745 0.137255 0.019608
0.505882 0.137255 0.027451
0.549020 0.145098 0.027451
0.592157 0.145098 0.035294
0.631373 0.145098 0.043137
0.674510 0.152941 0.054902
0.721569 0.160784 0.058824
0.760784 0.160784 0.066667
0.807843 0.168627 0.078431
0.850980 0.176471 0.098039
0.886275 0.192157 0.098039
0.929412 0.196078 0.105882
0.980392 0.203922 0.129412
0.996078 0.227451 0.141176
0.015686 0.156863 0.007843
0.027451 0.172549 0.003922
0.082353 0.172549 0.007843
0.121569 0.164706 0.000000
0.149020 0.168627 0.007843
0.192157 0.172549 0.015686
0.243137 0.176471 0.007843
0.282353 0.176471 0.007843
0.329412 0.176471 0.015686
0.368627 0.176471 0.015686
0.407843 0.176471 0.011765
0.450980 0.180392 0.019608
0.501961 0.180392 0.023529
0.545098 0.184314 0.031373
0.588235 0.188235 0.039216
0.631373 0.192157 0.047059
0.674510 0.188235 0.054902
0.713725 0.196078 0.066667
0.760784 0.203922 0.070588
0.803922 0.207843 0.086275
0.847059 0.211765 0.098039
0.890196 0.215686 0.105882
0.933333 0.231373 0.113725
0.972549 0.239216 0.133333
1.000000 0.247059 0.149020
0.000000 0.211765 0.007843
0.023529 0.215686 0.000000
0.070588 0.215686 0.011765
0.121569 0.215686 0.011765
0.160784 0.215686 0.007843
0.203922 0.223529 0.011765
0.247059 0.219608 0.007843
0.286275 0.223529 0.019608
0.329412 0.223529 0.023529
0.376471 0.219608 0.027451
0.419608 0.223529 0.027451
0.466667 0.223529 0.039216
0.513725 0.231373 0.043137
0.552941 0.231373 0.047059
0.600000 0.231373 0.050980
0.643137 0.235294 0.058824
0.686275 0.239216 0.066667
0.725490 0.239216 0.074510
0.768627 0.239216 0.082353
0.811765 0.250980 0.086275
0.858824 0.258824 0.105882
0.898039 0.266667 0.113725
0.937255 0.266667 0.125490
0.980392 0.274510 0.137255
1.000000 0.286275 0.160784
0.000000 0.250980 0.011765
0.023529 0.250980 0.019608
0.074510 0.266667 0.011765
0.109804 0.262745 0.007843
0.168627 0.254902 0.003922
0.207843 0.262745 0.019608
0.239216 0.262745 0.011765
0.298039 0.266667 0.015686
0.337255 0.266667 0.023529
0.380392 0.262745 0.027451
0.423529 0.266667 0.035294
0.466667 0.266667 0.043137
0.509804 0.270588 0.054902
0.556863 0.270588 0.062745
0.600000 0.274510 0.070588
0.647059 0.270588 0.070588
0.690196 0.274510 0.078431
0.725490 0.282353 0.086275
0.772549 0.290196 0.090196
0.815686 0.294118 0.101961
0.854902 0.298039 0.109804
0.901961 0.305882 0.113725
0.937255 0.309804 0.129412
0.976471 0.313725 0.152941
1.000000 0.321569 0.164706
0.000000 0.294118 0.023529
0.015686 0.305882 0.011765
0.066667 0.301961 0.019608
0.113725 0.309804 0.023529
0.160784 0.301961 0.011765
0.203922 0.305882 0.019608
0.243137 0.305882 0.019608
0.290196 0.313725 0.031373
0.341176 0.313725 0.039216
0.380392 0.313725 0.043137
0.423529 0.309804 0.043137
0.466667 0.313725 0.050980
0.509804 0.317647 0.058824
0.552941 0.321569 0.070588
0.600000 0.321569 0.078431
0.643137 0.321569 0.086275
0.682353 0.321569 0.090196
0.725490 0.325490 0.094118
0.776471 0.325490 0.101961
0.811765 0.333333 0.109804
0.854902 0.337255 0.117647
0.901961 0.345098 0.133333
0.941176 0.349020 0.149020
0.972549 0.356863 0.164706
1.000000 0.360784 0.160784
0.003922 0.349020 0.019608
0.003922 0.352941 0.031373
0.062745 0.349020 0.031373
0.109804 0.352941 0.027451
0.164706 0.349020 0.027451
0.215686 0.352941 0.031373
0.258824 0.356863 0.039216
0.298039 0.356863 0.039216
0.341176 0.356863 0.054902
0.388235 0.360784 0.054902
0.431373 0.356863 0.058824
0.470588 0.356863 0.058824
0.513725 0.356863 0.074510
0.556863 0.360784 0.082353
0.600000 0.364706 0.090196
0.639216 0.364706 0.094118
0.682353 0.368627 0.098039
0.733333 0.368627 0.105882
0.764706 0.372549 0.105882
0.807843 0.376471 0.113725
0.850980 0.376471 0.121569
0.901961 0.376471 0.145098
0.937255 0.388235 0.164706
0.968627 0.388235 0.168627
0.988235 0.400000 0.172549
0.000000 0.396078 0.047059
0.011765 0.400000 0.043137
0.066667 0.392157 0.039216
0.109804 0.396078 0.047059
0.164706 0.396078 0.043137
0.207843 0.396078 0.050980
0.258824 0.400000 0.054902
0.298039 0.400000 0.050980
0.349020 0.396078 0.058824
0.392157 0.400000 0.070588
0.439216 0.400000 0.066667
0.482353 0.400000 0.074510
0.521569 0.400000 0.078431
0.560784 0.400000 0.086275
0.603922 0.403922 0.094118
0.643137 0.403922 0.098039
0.686275 0.403922 0.113725
0.725490 0.403922 0.113725
0.764706 0.411765 0.133333
0.807843 0.415686 0.133333
0.850980 0.419608 0.141176
0.894118 0.423529 0.149020
0.933333 0.427451 0.164706
0.968627 0.431373 0.180392
0.996078 0.431373 0.188235
0.003922 0.450980 0.058824
0.027451 0.450980 0.054902
0.078431 0.454902 0.066667
0.125490 0.454902 0.070588
0.168627 0.450980 0.062745
0.211765 0.447059 0.062745
0.262745 0.447059 0.062745
0.309804 0.454902 0.078431
0.349020 0.454902 0.074510
0.396078 0.454902 0.082353
0.439216 0.454902 0.082353
0.482353 0.458824 0.090196
0.533333 0.458824 0.098039
0.572549 0.458824 0.101961
0.615686 0.454902 0.101961
0.654902 0.454902 0.105882
0.694118 0.458824 0.121569
0.737255 0.458824 0.137255
0.776471 0.458824 0.133333
0.819608 0.462745 0.149020
0.862745 0.466667 0.152941
0.894118 0.466667 0.172549
0.937255 0.470588 0.180392
0.984314 0.474510 0.200000
1.000000 0.478431 0.215686
0.007843 0.486275 0.082353
0.035294 0.494118 0.074510
0.082353 0.478431 0.062745
0.133333 0.494118 0.090196
0.176471 0.494118 0.082353
0.211765 0.498039 0.086275
0.270588 0.498039 0.098039
0.309804 0.494118 0.086275
0.352941 0.498039 0.094118
0.396078 0.494118 0.094118
0.439216 0.498039 0.101961
0.490196 0.498039 0.109804
0.529412 0.498039 0.109804
0.576471 0.498039 0.117647
0.615686 0.498039 0.121569
0.654902 0.498039 0.117647
0.694118 0.501961 0.133333
0.737255 0.498039 0.141176
0.776471 0.505882 0.149020
0.823529 0.501961 0.164706
0.862745 0.509804 0.180392
0.901961 0.505882 0.184314
0.945098 0.509804 0.200000
0.976471 0.517647 0.207843
1.000000 0.517647 0.223529
0.015686 0.541176 0.090196
0.062745 0.521569 0.101961
0.098039 0.541176 0.078431
0.133333 0.537255 0.109804
0.184314 0.537255 0.090196
0.227451 0.537255 0.109804
0.270588 0.537255 0.094118
0.313725 0.541176 0.101961
0.356863 0.537255 0.109804
0.396078 0.537255 0.105882
0.443137 0.533333 0.109804
0.490196 0.533333 0.121569
0.533333 0.541176 0.121569
0.572549 0.537255 0.125490
0.615686 0.541176 0.129412
0.654902 0.541176 0.133333
0.694118 0.541176 0.137255
0.737255 0.541176 0.152941
0.776471 0.541176 0.156863
0.819608 0.545098 0.172549
0.862745 0.549020 0.184314
0.901961 0.545098 0.196078
0.929412 0.549020 0.207843
0.988235 0.552941 0.211765
1.000000 0.560784 0.239216
0.047059 0.572549 0.121569
0.082353 0.584314 0.109804
0.113725 0.572549 0.113725
0.156863 0.576471 0.113725
0.200000 0.580392 0.129412
0.235294 0.576471 0.125490
0.278431 0.580392 0.125490
0.317647 0.580392 0.129412
0.356863 0.580392 0.121569
0.407843 0.580392 0.129412
0.447059 0.584314 0.121569
0.490196 0.580392 0.125490
0.529412 0.580392 0.129412
0.580392 0.580392 0.141176
0.623529 0.580392 0.156863
0.662745 0.580392 0.152941
0.701961 0.580392 0.164706
0.745098 0.584314 0.168627
0.784314 0.580392 0.180392
0.823529 0.580392 0.184314
0.858824 0.584314 0.200000
0.898039 0.588235 0.223529
0.937255 0.588235 0.227451
0.976471 0.588235 0.231373
1.000000 0.592157 0.254902
0.074510 0.615686 0.129412
0.098039 0.623529 0.133333
0.133333 0.619608 0.129412
0.172549 0.627451 0.129412
0.211765 0.619608 0.137255
0.247059 0.619608 0.141176
0.286275 0.623529 0.141176
0.321569 0.615686 0.141176
0.360784 0.619608 0.137255
0.407843 0.623529 0.152941
0.450980 0.627451 0.152941
0.494118 0.627451 0.156863
0.529412 0.623529 0.152941
0.572549 0.623529 0.168627
0.619608 0.623529 0.164706
0.662745 0.623529 0.172549
0.701961 0.623529 0.172549
0.741176 0.623529 0.184314
0.780392 0.623529 0.180392
0.819608 0.619608 0.192157
0.854902 0.627451 0.207843
0.905882 0.623529 0.223529
0.937255 0.631373 0.239216
0.976471 0.627451 0.258824
1.000000 0.627451 0.274510
0.129412 0.674510 0.164706
0.145098 0.674510 0.168627
0.172549 0.678431 0.172549
0.200000 0.674510 0.160784
0.223529 0.674510 0.160784
0.262745 0.674510 0.168627
0.301961 0.674510 0.164706
0.345098 0.678431 0.172549
0.380392 0.674510 0.168627
0.419608 0.674510 0.172549
0.466667 0.670588 0.168627
0.505882 0.670588 0.176471
0.549020 0.674510 0.184314
0.588235 0.674510 0.188235
0.627451 0.674510 0.188235
0.666667 0.670588 0.200000
0.709804 0.670588 0.196078
0.752941 0.674510 0.200000
0.792157 0.670588 0.215686
0.831373 0.670588 0.215686
0.870588 0.670588 0.243137
0.898039 0.670588 0.239216
0.937255 0.666667 0.262745
0.976471 0.674510 0.274510
1.000000 0.674510 0.298039
0.152941 0.709804 0.168627
0.152941 0.705882 0.184314
0.188235 0.721569 0.188235
0.207843 0.709804 0.172549
0.239216 0.709804 0.188235
0.274510 0.713725 0.172549
0.309804 0.717647 0.172549
0.349020 0.713725 0.184314
0.388235 0.713725 0.188235
0.427451 0.713725 0.184314
0.466667 0.713725 0.192157
0.505882 0.713725 0.196078
0.545098 0.713725 0.200000
0.588235 0.717647 0.207843
0.627451 0.713725 0.215686
0.670588 0.713725 0.211765
0.709804 0.713725 0.215686
0.749020 0.709804 0.223529
0.788235 0.709804 0.235294
0.831373 0.713725 0.243137
0.866667 0.713725 0.254902
0.905882 0.713725 0.258824
0.945098 0.709804 0.270588
0.972549 0.709804 0.290196
0.996078 0.713725 0.321569
0.168627 0.752941 0.188235
0.192157 0.752941 0.196078
0.211765 0.752941 0.215686
0.227451 0.752941 0.207843
0.270588 0.749020 0.203922
0.278431 0.752941 0.200000
0.325490 0.749020 0.207843
0.356863 0.752941 0.211765
0.396078 0.752941 0.207843
0.427451 0.749020 0.207843
0.470588 0.752941 0.211765
0.509804 0.752941 0.215686
0.549020 0.752941 0.215686
0.588235 0.752941 0.219608
0.631373 0.749020 0.223529
0.670588 0.749020 0.227451
0.705882 0.749020 0.235294
0.745098 0.749020 0.239216
0.788235 0.752941 0.254902
0.823529 0.752941 0.258824
0.862745 0.752941 0.262745
0.894118 0.752941 0.274510
0.945098 0.745098 0.294118
0.964706 0.745098 0.301961
1.000000 0.749020 0.337255
0.203922 0.796078 0.219608
0.223529 0.792157 0.223529
0.227451 0.792157 0.215686
0.254902 0.792157 0.227451
0.278431 0.796078 0.227451
0.301961 0.792157 0.227451
0.341176 0.792157 0.231373
0.368627 0.788235 0.223529
0.407843 0.796078 0.239216
0.447059 0.796078 0.231373
0.474510 0.792157 0.247059
0.513725 0.792157 0.243137
0.549020 0.788235 0.243137
0.592157 0.792157 0.247059
0.631373 0.792157 0.250980
0.670588 0.788235 0.262745
0.709804 0.792157 0.254902
0.749020 0.788235 0.274510
0.784314 0.784314 0.266667
0.823529 0.788235 0.282353
0.862745 0.788235 0.286275
0.905882 0.792157 0.294118
0.937255 0.788235 0.301961
0.964706 0.792157 0.313725
1.000000 0.780392 0.345098
0.235294 0.827451 0.243137
0.254902 0.823529 0.262745
0.258824 0.827451 0.258824
0.266667 0.823529 0.250980
0.290196 0.831373 0.254902
0.321569 0.827451 0.258824
0.349020 0.827451 0.258824
0.384314 0.831373 0.254902
0.419608 0.831373 0.258824
0.447059 0.831373 0.262745
0.482353 0.823529 0.262745
0.517647 0.827451 0.266667
0.560784 0.831373 0.274510
0.596078 0.827451 0.270588
0.635294 0.823529 0.282353
0.670588 0.819608 0.274510
0.709804 0.819608 0.286275
0.741176 0.823529 0.286275
0.784314 0.823529 0.301961
0.827451 0.827451 0.309804
0.866667 0.827451 0.301961
0.905882 0.827451 0.313725
0.933333 0.823529 0.325490
0.972549 0.819608 0.345098
1.000000 0.823529 0.364706
0.274510 0.878431 0.298039
0.282353 0.874510 0.290196
0.294118 0.874510 0.294118
0.305882 0.870588 0.286275
0.325490 0.870588 0.294118
0.345098 0.874510 0.298039
0.380392 0.870588 0.298039
0.407843 0.870588 0.298039
0.423529 0.866667 0.301961
0.462745 0.866667 0.305882
0.501961 0.866667 0.305882
0.533333 0.866667 0.305882
0.572549 0.866667 0.301961
0.600000 0.862745 0.305882
0.643137 0.866667 0.313725
0.674510 0.866667 0.313725
0.709804 0.870588 0.321569
0.749020 0.870588 0.333333
0.784314 0.866667 0.329412
0.819608 0.866667 0.341176
0.862745 0.870588 0.341176
0.898039 0.862745 0.356863
0.933333 0.866667 0.352941
0.976471 0.866667 0.376471
1.000000 0.858824 0.400000
0.294118 0.901961 0.321569
0.321569 0.901961 0.321569
0.313725 0.894118 0.313725
0.337255 0.901961 0.325490
0.352941 0.909804 0.337255
0.376471 0.901961 0.325490
0.403922 0.894118 0.321569
0.419608 0.901961 0.333333
0.450980 0.901961 0.333333
0.490196 0.901961 0.329412
0.513725 0.901961 0.333333
0.541176 0.898039 0.341176
0.572549 0.898039 0.341176
0.607843 0.901961 0.337255
0.647059 0.898039 0.349020
0.674510 0.898039 0.345098
0.713725 0.898039 0.356863
0.756863 0.898039 0.364706
0.788235 0.898039 0.364706
0.827451 0.898039 0.372549
0.858824 0.898039 0.376471
0.898039 0.901961 0.392157
0.937255 0.901961 0.396078
0.972549 0.894118 0.411765
1.000000 0.901961 0.435294
0.337255 0.929412 0.360784
0.349020 0.933333 0.360784
0.352941 0.941176 0.349020
0.368627 0.933333 0.356863
0.364706 0.949020 0.352941
0.403922 0.933333 0.360784
0.411765 0.937255 0.360784
0.447059 0.937255 0.364706
0.474510 0.937255 0.364706
0.494118 0.933333 0.360784
0.529412 0.933333 0.372549
0.552941 0.933333 0.380392
0.588235 0.933333 0.384314
0.615686 0.933333 0.388235
0.650980 0.937255 0.384314
0.682353 0.933333 0.384314
0.721569 0.933333 0.392157
0.752941 0.937255 0.396078
0.788235 0.929412 0.403922
0.823529 0.929412 0.407843
0.866667 0.933333 0.423529
0.898039 0.933333 0.427451
0.933333 0.925490 0.443137
0.972549 0.933333 0.450980
0.996078 0.941176 0.450980
0.376471 0.968627 0.400000
0.376471 0.968627 0.400000
0.400000 0.968627 0.392157
0.392157 0.968627 0.407843
0.407843 0.968627 0.411765
0.415686 0.968627 0.407843
0.447059 0.968627 0.407843
0.466667 0.964706 0.411765
0.490196 0.968627 0.400000
0.521569 0.968627 0.419608
0.545098 0.972549 0.411765
0.572549 0.968627 0.427451
0.611765 0.968627 0.423529
0.627451 0.968627 0.419608
0.662745 0.968627 0.431373
0.698039 0.964706 0.427451
0.725490 0.964706 0.447059
0.756863 0.964706 0.439216
0.784314 0.960784 0.454902
0.823529 0.968627 0.454902
0.854902 0.968627 0.466667
0.901961 0.968627 0.466667
0.929412 0.968627 0.490196
0.964706 0.968627 0.509804
0.992157 0.964706 0.509804
0.423529 0.996078 0.458824
0.439216 0.996078 0.447059
0.443137 1.000000 0.450980
0.443137 1.000000 0.458824
0.447059 1.000000 0.450980
0.478431 0.996078 0.454902
0.494118 0.996078 0.458824
0.513725 0.996078 0.466667
0.525490 0.996078 0.470588
0.545098 1.000000 0.478431
0.576471 0.996078 0.478431
0.607843 1.000000 0.482353
0.619608 1.000000 0.474510
0.650980 1.000000 0.486275
0.686275 1.000000 0.478431
0.717647 1.000000 0.498039
0.745098 1.000000 0.498039
0.772549 1.000000 0.517647
0.803922 1.000000 0.517647
0.839216 1.000000 0.529412
0.862745 1.000000 0.545098
0.901961 0.996078 0.549020
0.933333 1.000000 0.560784
0.968627 1.000000 0.572549
0.996078 1.000000 0.592157
0.007843 0.003922 0.035294
0.027451 0.000000 0.031373
0.070588 0.003922 0.035294
0.113725 0.000000 0.035294
0.152941 0.007843 0.039216
0.192157 0.007843 0.039216
0.239216 0.003922 0.035294
0.278431 0.015686 0.043137
0.329412 0.019608 0.035294
0.368627 0.019608 0.043137
0.411765 0.023529 0.043137
0.454902 0.027451 0.050980
0.494118 0.027451 0.050980
0.541176 0.035294 0.062745
0.584314 0.043137 0.070588
0.627451 0.047059 0.078431
0.674510 0.054902 0.074510
0.721569 0.062745 0.082353
0.764706 0.074510 0.094118
0.811765 0.090196 0.098039
0.854902 0.101961 0.113725
0.886275 0.113725 0.109804
0.937255 0.133333 0.129412
0.988235 0.149020 0.149020
0.996078 0.168627 0.156863
0.007843 0.031373 0.031373
0.031373 0.039216 0.035294
0.074510 0.043137 0.031373
0.117647 0.039216 0.043137
0.137255 0.039216 0.023529
0.184314 0.050980 0.047059
0.235294 0.047059 0.031373
0.282353 0.054902 0.043137
0.321569 0.054902 0.043137
0.364706 0.058824 0.043137
0.411765 0.062745 0.047059
0.454902 0.066667 0.054902
0.498039 0.070588 0.058824
0.545098 0.070588 0.066667
0.588235 0.074510 0.066667
0.631373 0.078431 0.070588
0.674510 0.090196 0.082353
0.721569 0.098039 0.086275
0.756863 0.105882 0.090196
0.803922 0.113725 0.094118
0.850980 0.129412 0.105882
0.894118 0.137255 0.117647
0.941176 0.145098 0.129412
0.984314 0.160784 0.141176
1.000000 0.184314 0.152941
0.000000 0.082353 0.035294
0.035294 0.074510 0.031373
0.074510 0.082353 0.031373
0.117647 0.086275 0.043137
0.152941 0.074510 0.039216
0.196078 0.086275 0.043137
0.239216 0.090196 0.039216
0.282353 0.094118 0.047059
0.325490 0.098039 0.050980
0.364706 0.098039 0.047059
0.407843 0.094118 0.050980
0.450980 0.101961 0.054902
0.501961 0.101961 0.054902
0.545098 0.105882 0.062745
0.588235 0.109804 0.074510
0.631373 0.113725 0.074510
0.674510 0.117647 0.078431
0.713725 0.125490 0.090196
0.760784 0.133333 0.094118
0.807843 0.145098 0.101961
0.854902 0.149020 0.113725
0.898039 0.160784 0.125490
0.929412 0.176471 0.125490
0.980392 0.172549 0.141176
1.000000 0.196078 0.152941
0.000000 0.125490 0.043137
0.031373 0.125490 0.039216
0.078431 0.121569 0.054902
0.117647 0.125490 0.035294
0.160784 0.129412 0.047059
0.200000 0.129412 0.050980
0.239216 0.125490 0.054902
0.278431 0.129412 0.047059
0.321569 0.133333 0.054902
0.360784 0.133333 0.047059
0.411765 0.133333 0.062745
0.454902 0.137255 0.054902
0.498039 0.141176 0.070588
0.545098 0.145098 0.066667
0.584314 0.141176 0.070588
0.627451 0.145098 0.082353
0.674510 0.156863 0.078431
0.717647 0.156863 0.086275
0.760784 0.164706 0.090196
0.811765 0.172549 0.105882
0.854902 0.176471 0.113725
0.894118 0.184314 0.125490
0.929412 0.196078 0.129412
0.972549 0.211765 0.145098
0.984314 0.223529 0.156863
0.007843 0.168627 0.043137
0.023529 0.168627 0.039216
0.074510 0.168627 0.043137
0.117647 0.172549 0.035294
0.160784 0.164706 0.043137
0.203922 0.168627 0.054902
0.247059 0.172549 0.054902
0.282353 0.180392 0.058824
0.329412 0.176471 0.054902
0.376471 0.176471 0.054902
0.415686 0.176471 0.062745
0.454902 0.176471 0.058824
0.501961 0.184314 0.070588
0.541176 0.184314 0.078431
0.588235 0.180392 0.082353
0.631373 0.184314 0.074510
0.674510 0.188235 0.090196
0.717647 0.196078 0.090196
0.764706 0.203922 0.101961
0.807843 0.207843 0.113725
0.847059 0.215686 0.113725
0.894118 0.223529 0.125490
0.925490 0.231373 0.137255
0.972549 0.239216 0.149020
0.996078 0.243137 0.160784
0.000000 0.215686 0.039216
0.027451 0.211765 0.039216
0.074510 0.219608 0.047059
0.117647 0.215686 0.050980
0.168627 0.219608 0.050980
0.207843 0.215686 0.058824
0.247059 0.219608 0.054902
0.290196 0.219608 0.062745
0.329412 0.223529 0.062745
0.372549 0.223529 0.070588
0.415686 0.223529 0.066667
0.466667 0.223529 0.070588
0.513725 0.223529 0.078431
0.556863 0.227451 0.078431
0.603922 0.227451 0.090196
0.647059 0.231373 0.098039
0.678431 0.239216 0.094118
0.721569 0.243137 0.105882
0.768627 0.243137 0.105882
0.807843 0.250980 0.117647
0.850980 0.258824 0.121569
0.898039 0.262745 0.141176
0.937255 0.270588 0.141176
0.984314 0.274510 0.160784
1.000000 0.290196 0.184314
0.000000 0.250980 0.043137
0.027451 0.262745 0.050980
0.074510 0.258824 0.054902
0.113725 0.254902 0.058824
0.168627 0.262745 0.058824
0.203922 0.258824 0.050980
0.250980 0.262745 0.054902
0.294118 0.266667 0.062745
0.333333 0.262745 0.066667
0.384314 0.266667 0.070588
0.423529 0.266667 0.066667
0.466667 0.270588 0.074510
0.505882 0.270588 0.082353
0.552941 0.270588 0.082353
0.600000 0.278431 0.094118
0.643137 0.274510 0.094118
0.686275 0.278431 0.101961
0.729412 0.282353 0.109804
0.768627 0.286275 0.121569
0.811765 0.290196 0.121569
0.847059 0.298039 0.129412
0.894118 0.305882 0.137255
0.937255 0.305882 0.152941
0.976471 0.321569 0.164706
0.996078 0.325490 0.184314
0.000000 0.298039 0.054902
0.011765 0.301961 0.054902
0.070588 0.305882 0.062745
0.105882 0.301961 0.062745
0.164706 0.305882 0.054902
0.200000 0.313725 0.062745
0.250980 0.305882 0.062745
0.294118 0.309804 0.070588
0.345098 0.313725 0.070588
0.384314 0.313725 0.070588
0.427451 0.309804 0.074510
0.470588 0.313725 0.082353
0.513725 0.313725 0.090196
0.556863 0.317647 0.101961
0.600000 0.317647 0.098039
0.643137 0.317647 0.105882
0.686275 0.321569 0.117647
0.725490 0.321569 0.113725
0.768627 0.325490 0.121569
0.811765 0.329412 0.129412
0.850980 0.333333 0.141176
0.894118 0.337255 0.149020
0.941176 0.345098 0.152941
0.984314 0.345098 0.176471
0.996078 0.360784 0.176471
0.000000 0.349020 0.058824
0.011765 0.349020 0.070588
0.062745 0.341176 0.066667
0.113725 0.356863 0.070588
0.156863 0.352941 0.066667
0.207843 0.349020 0.066667
0.250980 0.352941 0.074510
0.298039 0.360784 0.078431
0.337255 0.360784 0.078431
0.388235 0.360784 0.086275
0.431373 0.360784 0.078431
0.470588 0.360784 0.082353
0.509804 0.356863 0.086275
0.552941 0.360784 0.101961
0.592157 0.356863 0.113725
0.639216 0.360784 0.117647
0.682353 0.360784 0.125490
0.725490 0.368627 0.125490
0.764706 0.364706 0.137255
0.811765 0.372549 0.145098
0.850980 0.372549 0.156863
0.898039 0.380392 0.156863
0.925490 0.384314 0.160784
0.972549 0.392157 0.180392
1.000000 0.400000 0.188235
0.000000 0.396078 0.078431
0.015686 0.396078 0.074510
0.070588 0.396078 0.074510
0.109804 0.396078 0.078431
0.172549 0.396078 0.078431
0.211765 0.396078 0.074510
0.250980 0.396078 0.082353
0.294118 0.400000 0.082353
0.341176 0.396078 0.086275
0.384314 0.403922 0.090196
0.431373 0.403922 0.098039
0.474510 0.407843 0.101961
0.525490 0.400000 0.105882
0.556863 0.400000 0.117647
0.603922 0.400000 0.113725
0.650980 0.407843 0.125490
0.690196 0.407843 0.125490
0.725490 0.411765 0.141176
0.768627 0.415686 0.141176
0.811765 0.419608 0.152941
0.854902 0.423529 0.160784
0.898039 0.423529 0.176471
0.937255 0.427451 0.184314
0.972549 0.435294 0.192157
1.000000 0.431373 0.207843
0.000000 0.443137 0.090196
0.019608 0.447059 0.090196
0.074510 0.450980 0.098039
0.121569 0.454902 0.098039
0.168627 0.454902 0.098039
0.219608 0.450980 0.098039
0.270588 0.450980 0.098039
0.309804 0.450980 0.098039
0.352941 0.447059 0.101961
0.400000 0.447059 0.109804
