lut_library_archive/removed_20260629/50个风景lut/50个风景lut05.cube
# 版权归凌孟成所有，侵权必究
TITLE "Jungle LUT #5"
#LUT size
LUT_3D_SIZE 5
#LUT data points
0.000000 0.000000 0.000000
0.243137 0.003922 0.000000
0.509804 0.000000 0.000000
0.760784 0.000000 0.000000
0.992157 0.000000 0.003922
0.000000 0.254902 0.000000
0.239216 0.258824 0.000000
0.501961 0.250980 0.000000
0.760784 0.247059 0.003922
1.000000 0.239216 0.000000
0.000000 0.521569 0.007843
0.207843 0.529412 0.003922
0.509804 0.521569 0.007843
0.760784 0.509804 0.000000
0.992157 0.501961 0.007843
0.000000 0.776471 0.000000
0.129412 0.768627 0.011765
0.474510 0.776471 0.000000
0.741176 0.764706 0.003922
0.996078 0.760784 0.000000
0.000000 1.000000 0.000000
0.000000 1.000000 0.000000
0.443137 1.000000 0.003922
0.717647 1.000000 0.000000
0.976471 1.000000 0.000000
0.003922 0.003922 0.286275
0.247059 0.000000 0.278431
0.513725 0.000000 0.282353
0.764706 0.000000 0.278431
0.996078 0.003922 0.286275
0.007843 0.250980 0.294118
0.223529 0.247059 0.294118
0.505882 0.243137 0.282353
0.764706 0.227451 0.274510
0.996078 0.215686 0.266667
0.003922 0.513725 0.270588
0.149020 0.521569 0.262745
0.498039 0.517647 0.266667
0.760784 0.501961 0.274510
1.000000 0.498039 0.270588
0.003922 0.772549 0.239216
0.003922 0.772549 0.231373
0.458824 0.764706 0.227451
0.752941 0.768627 0.227451
0.996078 0.760784 0.235294
0.007843 1.000000 0.196078
0.000000 1.000000 0.192157
0.435294 1.000000 0.172549
0.713725 0.996078 0.180392
0.980392 1.000000 0.184314
0.000000 0.003922 0.568627
0.250980 0.000000 0.568627
0.517647 0.000000 0.572549
0.764706 0.000000 0.564706
0.996078 0.000000 0.556863
0.000000 0.219608 0.560784
0.196078 0.211765 0.568627
0.501961 0.207843 0.572549
0.768627 0.203922 0.556863
1.000000 0.184314 0.549020
0.007843 0.513725 0.568627
0.062745 0.517647 0.576471
0.478431 0.498039 0.572549
0.756863 0.505882 0.568627
0.992157 0.505882 0.560784
0.000000 0.768627 0.549020
0.003922 0.772549 0.545098
0.443137 0.772549 0.529412
0.745098 0.768627 0.525490
1.000000 0.772549 0.533333
0.000000 1.000000 0.490196
0.000000 1.000000 0.490196
0.427451 0.996078 0.482353
0.721569 1.000000 0.490196
0.980392 1.000000 0.498039
0.000000 0.003922 0.811765
0.207843 0.003922 0.811765
0.486275 0.000000 0.815686
0.737255 0.003922 0.815686
1.000000 0.000000 0.839216
0.000000 0.192157 0.827451
0.176471 0.196078 0.807843
0.470588 0.188235 0.819608
0.733333 0.156863 0.815686
1.000000 0.086275 0.823529
0.000000 0.470588 0.800000
0.000000 0.470588 0.815686
0.439216 0.466667 0.819608
0.721569 0.462745 0.815686
0.992157 0.458824 0.819608
0.000000 0.745098 0.819608
0.007843 0.745098 0.823529
0.427451 0.749020 0.803922
0.741176 0.752941 0.811765
1.000000 0.768627 0.807843
0.000000 0.996078 0.780392
0.003922 1.000000 0.776471
0.384314 1.000000 0.768627
0.760784 0.996078 0.784314
0.984314 1.000000 0.784314
0.003922 0.000000 0.996078
0.188235 0.003922 1.000000
0.454902 0.003922 1.000000
0.698039 0.000000 0.996078
0.945098 0.000000 0.996078
0.003922 0.180392 1.000000
0.152941 0.180392 1.000000
0.447059 0.172549 1.000000
0.694118 0.160784 1.000000
0.941176 0.137255 0.988235
0.000000 0.450980 1.000000
0.003922 0.439216 0.984314
0.427451 0.435294 1.000000
0.690196 0.435294 1.000000
0.941176 0.435294 0.992157
0.000000 0.721569 1.000000
0.152941 0.709804 1.000000
0.458824 0.721569 0.996078
0.713725 0.725490 1.000000
0.956863 0.733333 1.000000
0.000000 1.000000 0.992157
0.003922 1.000000 1.000000
0.447059 1.000000 1.000000
0.784314 1.000000 1.000000
1.000000 0.996078 1.000000
