lut_library_archive/removed_20260629/50个风景lut/50个风景lut01.cube
# 版权归凌孟成所有，侵权必究
TITLE "Jungle LUT #1"
#LUT size
LUT_3D_SIZE 5
#LUT data points
0.000000 0.003922 0.000000
0.235294 0.000000 0.000000
0.505882 0.003922 0.000000
0.772549 0.000000 0.000000
0.996078 0.000000 0.000000
0.000000 0.235294 0.000000
0.239216 0.239216 0.003922
0.501961 0.243137 0.003922
0.780392 0.243137 0.000000
1.000000 0.231373 0.000000
0.000000 0.513725 0.011765
0.243137 0.517647 0.000000
0.517647 0.517647 0.000000
0.788235 0.517647 0.003922
1.000000 0.509804 0.000000
0.003922 0.788235 0.000000
0.207843 0.788235 0.011765
0.509804 0.788235 0.000000
0.788235 0.780392 0.000000
1.000000 0.768627 0.000000
0.000000 1.000000 0.000000
0.113725 0.996078 0.000000
0.478431 1.000000 0.000000
0.752941 1.000000 0.000000
0.988235 1.000000 0.000000
0.027451 0.003922 0.192157
0.243137 0.007843 0.207843
0.505882 0.000000 0.192157
0.788235 0.000000 0.176471
1.000000 0.000000 0.149020
0.000000 0.243137 0.200000
0.250980 0.235294 0.192157
0.505882 0.231373 0.192157
0.788235 0.219608 0.168627
1.000000 0.207843 0.137255
0.000000 0.525490 0.133333
0.207843 0.521569 0.141176
0.525490 0.513725 0.133333
0.796078 0.509804 0.141176
0.996078 0.501961 0.133333
0.003922 0.792157 0.078431
0.137255 0.788235 0.082353
0.494118 0.792157 0.070588
0.792157 0.788235 0.082353
0.996078 0.772549 0.086275
0.000000 0.996078 0.141176
0.007843 1.000000 0.129412
0.454902 1.000000 0.141176
0.745098 0.996078 0.168627
0.992157 1.000000 0.196078
0.011765 0.003922 0.576471
0.176471 0.003922 0.580392
0.486275 0.000000 0.588235
0.780392 0.000000 0.588235
1.000000 0.000000 0.580392
0.000000 0.215686 0.580392
0.125490 0.215686 0.584314
0.490196 0.196078 0.600000
0.780392 0.184314 0.588235
1.000000 0.152941 0.572549
0.000000 0.517647 0.603922
0.000000 0.521569 0.619608
0.482353 0.513725 0.603922
0.776471 0.509804 0.607843
1.000000 0.490196 0.592157
0.000000 0.796078 0.588235
0.000000 0.796078 0.580392
0.431373 0.796078 0.580392
0.772549 0.792157 0.580392
1.000000 0.768627 0.580392
0.000000 1.000000 0.572549
0.000000 1.000000 0.572549
0.396078 1.000000 0.576471
0.721569 1.000000 0.584314
0.988235 1.000000 0.588235
0.000000 0.000000 0.882353
0.003922 0.000000 0.882353
0.462745 0.000000 0.878431
0.756863 0.000000 0.882353
1.000000 0.000000 0.882353
0.000000 0.192157 0.878431
0.000000 0.188235 0.886275
0.443137 0.168627 0.890196
0.760784 0.121569 0.886275
1.000000 0.078431 0.858824
0.003922 0.486275 0.894118
0.000000 0.486275 0.894118
0.411765 0.478431 0.890196
0.772549 0.470588 0.886275
1.000000 0.474510 0.874510
0.000000 0.784314 0.882353
0.003922 0.788235 0.878431
0.407843 0.792157 0.882353
0.752941 0.784314 0.874510
0.992157 0.788235 0.874510
0.000000 1.000000 0.843137
0.000000 1.000000 0.843137
0.427451 1.000000 0.854902
0.733333 1.000000 0.847059
0.980392 0.996078 0.850980
0.000000 0.003922 0.996078
0.184314 0.000000 1.000000
0.478431 0.003922 0.996078
0.752941 0.003922 1.000000
1.000000 0.000000 1.000000
0.000000 0.180392 1.000000
0.125490 0.172549 0.988235
0.470588 0.152941 1.000000
0.752941 0.117647 1.000000
0.992157 0.023529 0.992157
0.000000 0.454902 1.000000
0.011765 0.447059 1.000000
0.454902 0.450980 1.000000
0.745098 0.454902 1.000000
0.996078 0.443137 0.992157
0.007843 0.737255 1.000000
0.000000 0.741176 1.000000
0.454902 0.749020 1.000000
0.756863 0.756863 1.000000
1.000000 0.756863 1.000000
0.000000 1.000000 0.988235
0.160784 1.000000 1.000000
0.513725 1.000000 1.000000
0.788235 1.000000 1.000000
1.000000 0.996078 1.000000
