lut_library_archive/removed_20260629/50个风景lut/50个风景lut21.cube
# 版权归凌孟成所有，侵权必究
TITLE "Jungle LUT #21"
#LUT size
LUT_3D_SIZE 5
#LUT data points
0.000000 0.003922 0.000000
0.243137 0.003922 0.000000
0.549020 0.000000 0.000000
0.886275 0.003922 0.003922
0.996078 0.000000 0.000000
0.000000 0.247059 0.000000
0.243137 0.243137 0.000000
0.552941 0.258824 0.000000
0.882353 0.270588 0.000000
1.000000 0.231373 0.003922
0.000000 0.572549 0.000000
0.250980 0.572549 0.000000
0.572549 0.564706 0.000000
0.870588 0.564706 0.000000
0.996078 0.529412 0.000000
0.003922 0.850980 0.000000
0.129412 0.854902 0.003922
0.521569 0.850980 0.000000
0.835294 0.835294 0.003922
1.000000 0.788235 0.000000
0.000000 1.000000 0.000000
0.007843 0.996078 0.003922
0.411765 0.996078 0.000000
0.737255 1.000000 0.000000
0.992157 0.996078 0.000000
0.000000 0.000000 0.258824
0.243137 0.000000 0.247059
0.545098 0.000000 0.262745
0.882353 0.003922 0.211765
0.996078 0.000000 0.172549
0.000000 0.231373 0.247059
0.235294 0.243137 0.239216
0.560784 0.223529 0.235294
0.874510 0.192157 0.188235
1.000000 0.152941 0.141176
0.000000 0.568627 0.172549
0.168627 0.564706 0.156863
0.560784 0.556863 0.141176
0.866667 0.545098 0.113725
0.996078 0.505882 0.011765
0.000000 0.843137 0.000000
0.007843 0.850980 0.000000
0.505882 0.835294 0.003922
0.831373 0.831373 0.007843
0.996078 0.788235 0.007843
0.007843 1.000000 0.000000
0.000000 1.000000 0.003922
0.376471 1.000000 0.000000
0.725490 1.000000 0.000000
1.000000 1.000000 0.003922
0.000000 0.003922 0.580392
0.286275 0.003922 0.584314
0.572549 0.000000 0.588235
0.890196 0.000000 0.560784
1.000000 0.000000 0.509804
0.000000 0.223529 0.580392
0.215686 0.219608 0.584314
0.572549 0.180392 0.572549
0.886275 0.082353 0.556863
1.000000 0.003922 0.513725
0.000000 0.560784 0.564706
0.011765 0.564706 0.568627
0.549020 0.549020 0.541176
0.866667 0.533333 0.525490
0.996078 0.505882 0.498039
0.000000 0.854902 0.494118
0.000000 0.854902 0.494118
0.490196 0.843137 0.490196
0.831373 0.835294 0.470588
0.996078 0.784314 0.447059
0.000000 1.000000 0.380392
0.007843 0.996078 0.380392
0.360784 0.996078 0.349020
0.713725 1.000000 0.305882
1.000000 0.996078 0.188235
0.003922 0.000000 0.854902
0.254902 0.003922 0.866667
0.556863 0.003922 0.866667
0.858824 0.000000 0.854902
0.996078 0.000000 0.823529
0.003922 0.188235 0.870588
0.180392 0.180392 0.858824
0.533333 0.141176 0.862745
0.847059 0.007843 0.847059
1.000000 0.000000 0.823529
0.000000 0.521569 0.854902
0.007843 0.517647 0.850980
0.513725 0.513725 0.850980
0.843137 0.505882 0.847059
1.000000 0.509804 0.800000
0.007843 0.827451 0.843137
0.003922 0.831373 0.843137
0.509804 0.827451 0.831373
0.823529 0.823529 0.831373
0.996078 0.815686 0.815686
0.000000 0.996078 0.760784
0.141176 1.000000 0.764706
0.541176 1.000000 0.776471
0.784314 0.996078 0.792157
0.996078 0.996078 0.760784
0.000000 0.003922 0.996078
0.211765 0.007843 0.992157
0.498039 0.000000 1.000000
0.772549 0.000000 1.000000
1.000000 0.003922 1.000000
0.000000 0.180392 1.000000
0.164706 0.164706 0.996078
0.490196 0.129412 1.000000
0.764706 0.047059 0.996078
1.000000 0.000000 1.000000
0.000000 0.490196 0.992157
0.156863 0.478431 1.000000
0.490196 0.486275 0.992157
0.764706 0.486275 1.000000
1.000000 0.486275 1.000000
0.000000 0.756863 1.000000
0.223529 0.760784 0.996078
0.560784 0.784314 1.000000
0.803922 0.803922 1.000000
1.000000 0.807843 1.000000
0.003922 1.000000 0.996078
0.262745 0.996078 1.000000
0.568627 1.000000 0.996078
0.811765 1.000000 0.992157
1.000000 1.000000 1.000000
