lut_library_archive/removed_20260629/50个风景lut/50个风景lut09.cube
# 版权归凌孟成所有，侵权必究
TITLE "Jungle LUT #9"
#LUT size
LUT_3D_SIZE 25
#LUT data points
0.000000 0.003922 0.000000
0.023529 0.000000 0.000000
0.074510 0.003922 0.003922
0.117647 0.000000 0.000000
0.172549 0.000000 0.003922
0.219608 0.000000 0.003922
0.270588 0.003922 0.000000
0.313725 0.000000 0.003922
0.360784 0.003922 0.000000
0.407843 0.000000 0.000000
0.462745 0.000000 0.000000
0.509804 0.003922 0.000000
0.568627 0.000000 0.000000
0.627451 0.000000 0.000000
0.682353 0.000000 0.003922
0.729412 0.003922 0.003922
0.784314 0.003922 0.000000
0.827451 0.000000 0.000000
0.882353 0.003922 0.007843
0.921569 0.003922 0.019608
0.964706 0.000000 0.031373
0.996078 0.003922 0.054902
0.996078 0.000000 0.070588
1.000000 0.000000 0.086275
0.992157 0.007843 0.105882
0.003922 0.023529 0.000000
0.031373 0.027451 0.007843
0.078431 0.027451 0.000000
0.121569 0.027451 0.000000
0.176471 0.023529 0.003922
0.223529 0.027451 0.000000
0.262745 0.023529 0.003922
0.321569 0.015686 0.000000
0.364706 0.015686 0.007843
0.415686 0.011765 0.000000
0.462745 0.011765 0.000000
0.517647 0.003922 0.000000
0.564706 0.000000 0.000000
0.627451 0.003922 0.000000
0.674510 0.003922 0.003922
0.733333 0.007843 0.000000
0.784314 0.003922 0.000000
0.827451 0.000000 0.000000
0.886275 0.003922 0.003922
0.925490 0.000000 0.015686
0.964706 0.003922 0.035294
1.000000 0.000000 0.054902
1.000000 0.000000 0.074510
1.000000 0.007843 0.082353
0.992157 0.043137 0.098039
0.011765 0.066667 0.000000
0.035294 0.070588 0.000000
0.082353 0.070588 0.000000
0.133333 0.066667 0.000000
0.172549 0.066667 0.000000
0.219608 0.066667 0.000000
0.270588 0.070588 0.003922
0.313725 0.066667 0.000000
0.368627 0.066667 0.003922
0.411765 0.062745 0.000000
0.470588 0.054902 0.000000
0.521569 0.054902 0.000000
0.576471 0.054902 0.003922
0.627451 0.047059 0.000000
0.678431 0.043137 0.003922
0.725490 0.035294 0.003922
0.784314 0.027451 0.000000
0.827451 0.027451 0.000000
0.874510 0.027451 0.007843
0.917647 0.031373 0.015686
0.956863 0.035294 0.023529
1.000000 0.047059 0.039216
0.996078 0.054902 0.058824
0.996078 0.070588 0.086275
0.996078 0.090196 0.098039
0.011765 0.113725 0.000000
0.039216 0.113725 0.000000
0.082353 0.117647 0.011765
0.141176 0.113725 0.003922
0.180392 0.117647 0.000000
0.227451 0.113725 0.000000
0.274510 0.113725 0.003922
0.325490 0.117647 0.000000
0.368627 0.113725 0.003922
0.423529 0.109804 0.003922
0.466667 0.109804 0.003922
0.517647 0.105882 0.000000
0.568627 0.109804 0.003922
0.623529 0.109804 0.000000
0.674510 0.105882 0.000000
0.729412 0.101961 0.000000
0.780392 0.101961 0.003922
0.827451 0.101961 0.000000
0.874510 0.101961 0.000000
0.917647 0.105882 0.003922
0.956863 0.105882 0.007843
0.996078 0.109804 0.031373
0.996078 0.117647 0.047059
0.996078 0.125490 0.082353
1.000000 0.129412 0.094118
0.015686 0.156863 0.000000
0.062745 0.160784 0.003922
0.105882 0.152941 0.003922
0.149020 0.156863 0.000000
0.188235 0.156863 0.003922
0.231373 0.160784 0.003922
0.274510 0.160784 0.003922
0.321569 0.156863 0.000000
0.372549 0.156863 0.003922
0.423529 0.156863 0.003922
0.466667 0.156863 0.000000
0.513725 0.156863 0.000000
0.576471 0.156863 0.000000
0.623529 0.156863 0.000000
0.678431 0.156863 0.000000
0.729412 0.160784 0.000000
0.780392 0.156863 0.000000
0.827451 0.156863 0.007843
0.874510 0.156863 0.003922
0.917647 0.160784 0.007843
0.952941 0.156863 0.000000
1.000000 0.160784 0.019608
0.996078 0.164706 0.039216
0.996078 0.168627 0.062745
1.000000 0.176471 0.090196
0.050980 0.200000 0.000000
0.074510 0.203922 0.000000
0.109804 0.203922 0.000000
0.149020 0.203922 0.000000
0.192157 0.203922 0.000000
0.231373 0.203922 0.000000
0.282353 0.203922 0.000000
0.329412 0.203922 0.003922
0.384314 0.203922 0.003922
0.427451 0.203922 0.003922
0.478431 0.203922 0.000000
0.521569 0.203922 0.000000
0.580392 0.207843 0.000000
0.635294 0.207843 0.000000
0.686275 0.207843 0.000000
0.737255 0.207843 0.000000
0.784314 0.207843 0.003922
0.827451 0.207843 0.000000
0.878431 0.207843 0.000000
0.921569 0.207843 0.000000
0.972549 0.207843 0.000000
1.000000 0.211765 0.007843
0.992157 0.211765 0.019608
0.996078 0.211765 0.039216
0.996078 0.219608 0.074510
0.058824 0.247059 0.003922
0.090196 0.247059 0.000000
0.125490 0.250980 0.000000
0.152941 0.250980 0.000000
0.203922 0.243137 0.003922
0.243137 0.243137 0.000000
0.290196 0.243137 0.007843
0.329412 0.254902 0.000000
0.372549 0.250980 0.000000
0.423529 0.247059 0.000000
0.474510 0.247059 0.000000
0.529412 0.250980 0.007843
0.576471 0.247059 0.003922
0.635294 0.250980 0.003922
0.682353 0.254902 0.003922
0.729412 0.254902 0.000000
0.780392 0.258824 0.000000
0.827451 0.258824 0.003922
0.882353 0.258824 0.003922
0.921569 0.258824 0.003922
0.960784 0.258824 0.000000
0.992157 0.262745 0.000000
0.992157 0.262745 0.000000
0.992157 0.258824 0.027451
1.000000 0.262745 0.066667
0.074510 0.294118 0.000000
0.109804 0.290196 0.007843
0.141176 0.290196 0.003922
0.168627 0.298039 0.000000
0.211765 0.301961 0.000000
0.247059 0.294118 0.000000
0.298039 0.290196 0.000000
0.341176 0.294118 0.003922
0.388235 0.298039 0.000000
0.439216 0.298039 0.000000
0.482353 0.294118 0.000000
0.529412 0.298039 0.007843
0.584314 0.298039 0.000000
0.627451 0.298039 0.011765
0.686275 0.305882 0.000000
0.729412 0.301961 0.000000
0.780392 0.305882 0.000000
0.819608 0.305882 0.000000
0.866667 0.305882 0.000000
0.909804 0.305882 0.000000
0.960784 0.305882 0.007843
1.000000 0.301961 0.011765
0.992157 0.309804 0.000000
1.000000 0.305882 0.003922
1.000000 0.309804 0.043137
0.101961 0.333333 0.003922
0.125490 0.341176 0.015686
0.145098 0.337255 0.007843
0.176471 0.341176 0.003922
0.219608 0.345098 0.007843
0.254902 0.345098 0.000000
0.298039 0.349020 0.003922
0.345098 0.345098 0.000000
0.388235 0.345098 0.000000
0.439216 0.345098 0.007843
0.486275 0.345098 0.007843
0.529412 0.345098 0.000000
0.580392 0.345098 0.007843
0.631373 0.352941 0.000000
0.678431 0.349020 0.000000
0.725490 0.345098 0.000000
0.780392 0.352941 0.000000
0.823529 0.349020 0.000000
0.866667 0.352941 0.000000
0.909804 0.352941 0.000000
0.956863 0.349020 0.003922
1.000000 0.352941 0.003922
0.996078 0.341176 0.000000
0.996078 0.345098 0.007843
0.996078 0.341176 0.000000
0.105882 0.388235 0.000000
0.129412 0.388235 0.000000
0.156863 0.392157 0.000000
0.184314 0.388235 0.000000
0.227451 0.392157 0.000000
0.266667 0.392157 0.003922
0.309804 0.388235 0.000000
0.352941 0.392157 0.003922
0.400000 0.392157 0.000000
0.443137 0.396078 0.003922
0.490196 0.392157 0.000000
0.529412 0.392157 0.000000
0.584314 0.396078 0.003922
0.627451 0.396078 0.003922
0.678431 0.396078 0.003922
0.721569 0.392157 0.003922
0.772549 0.388235 0.000000
0.815686 0.392157 0.000000
0.862745 0.396078 0.000000
0.909804 0.396078 0.000000
0.952941 0.392157 0.000000
0.992157 0.392157 0.000000
1.000000 0.392157 0.000000
0.996078 0.396078 0.000000
1.000000 0.400000 0.003922
0.117647 0.447059 0.000000
0.137255 0.443137 0.000000
0.164706 0.450980 0.000000
0.196078 0.450980 0.000000
0.235294 0.447059 0.000000
0.274510 0.447059 0.000000
0.317647 0.447059 0.000000
0.368627 0.447059 0.003922
0.407843 0.447059 0.000000
0.447059 0.447059 0.007843
0.494118 0.450980 0.000000
0.537255 0.447059 0.000000
0.592157 0.450980 0.003922
0.639216 0.454902 0.000000
0.686275 0.454902 0.000000
0.729412 0.450980 0.000000
0.776471 0.450980 0.000000
0.819608 0.447059 0.000000
0.862745 0.443137 0.000000
0.905882 0.439216 0.000000
0.956863 0.435294 0.000000
0.984314 0.439216 0.000000
0.996078 0.443137 0.000000
0.996078 0.439216 0.007843
1.000000 0.439216 0.007843
0.113725 0.501961 0.000000
0.137255 0.498039 0.007843
0.160784 0.498039 0.000000
0.196078 0.494118 0.000000
0.243137 0.498039 0.003922
0.270588 0.505882 0.000000
0.309804 0.505882 0.000000
0.360784 0.498039 0.000000
0.411765 0.498039 0.000000
0.454902 0.498039 0.000000
0.498039 0.494118 0.000000
0.549020 0.498039 0.000000
0.592157 0.501961 0.000000
0.643137 0.494118 0.000000
0.690196 0.498039 0.000000
0.733333 0.494118 0.000000
0.784314 0.498039 0.000000
0.823529 0.498039 0.000000
0.862745 0.490196 0.003922
0.909804 0.486275 0.000000
0.952941 0.482353 0.000000
0.992157 0.486275 0.000000
0.996078 0.482353 0.000000
0.996078 0.482353 0.000000
1.000000 0.474510 0.000000
0.125490 0.552941 0.000000
0.145098 0.545098 0.003922
0.168627 0.549020 0.003922
0.200000 0.556863 0.003922
0.239216 0.545098 0.007843
0.294118 0.545098 0.000000
0.321569 0.549020 0.003922
0.364706 0.549020 0.000000
0.411765 0.545098 0.000000
0.454902 0.549020 0.000000
0.498039 0.549020 0.000000
0.545098 0.549020 0.000000
0.592157 0.549020 0.000000
0.635294 0.545098 0.003922
0.686275 0.549020 0.000000
0.729412 0.545098 0.000000
0.784314 0.545098 0.000000
0.819608 0.541176 0.000000
0.862745 0.537255 0.000000
0.909804 0.533333 0.000000
0.949020 0.533333 0.000000
0.980392 0.529412 0.000000
0.988235 0.525490 0.000000
0.992157 0.529412 0.003922
1.000000 0.521569 0.000000
0.117647 0.600000 0.000000
0.145098 0.596078 0.000000
0.180392 0.596078 0.007843
0.203922 0.600000 0.000000
0.243137 0.596078 0.007843
0.286275 0.603922 0.000000
0.325490 0.600000 0.007843
0.368627 0.600000 0.000000
0.403922 0.596078 0.000000
0.454902 0.596078 0.000000
0.501961 0.600000 0.000000
0.545098 0.596078 0.000000
0.584314 0.596078 0.000000
0.647059 0.592157 0.000000
0.686275 0.592157 0.000000
0.729412 0.592157 0.000000
0.772549 0.596078 0.000000
0.815686 0.592157 0.000000
0.862745 0.588235 0.000000
0.901961 0.584314 0.000000
0.949020 0.580392 0.000000
0.992157 0.568627 0.000000
1.000000 0.572549 0.000000
1.000000 0.564706 0.000000
1.000000 0.564706 0.003922
0.125490 0.643137 0.000000
0.145098 0.647059 0.007843
0.180392 0.643137 0.007843
0.200000 0.650980 0.011765
0.235294 0.647059 0.000000
0.274510 0.647059 0.000000
0.321569 0.647059 0.000000
0.364706 0.650980 0.000000
0.407843 0.647059 0.000000
0.458824 0.647059 0.003922
0.501961 0.647059 0.000000
0.545098 0.643137 0.000000
0.592157 0.643137 0.000000
0.639216 0.643137 0.000000
0.686275 0.643137 0.000000
0.733333 0.643137 0.000000
0.776471 0.639216 0.000000
0.815686 0.639216 0.000000
0.858824 0.631373 0.000000
0.901961 0.631373 0.000000
0.952941 0.631373 0.000000
0.988235 0.619608 0.000000
1.000000 0.619608 0.003922
1.000000 0.607843 0.000000
0.996078 0.603922 0.000000
0.133333 0.698039 0.007843
0.156863 0.701961 0.000000
0.180392 0.701961 0.000000
0.211765 0.701961 0.000000
0.247059 0.694118 0.003922
0.286275 0.694118 0.000000
0.325490 0.698039 0.000000
0.372549 0.698039 0.007843
0.411765 0.698039 0.000000
0.458824 0.698039 0.000000
0.505882 0.698039 0.000000
0.545098 0.690196 0.000000
0.596078 0.690196 0.000000
0.643137 0.694118 0.000000
0.690196 0.690196 0.000000
0.733333 0.690196 0.000000
0.784314 0.694118 0.003922
0.831373 0.690196 0.007843
0.866667 0.686275 0.007843
0.901961 0.682353 0.003922
0.949020 0.674510 0.003922
0.988235 0.674510 0.000000
0.996078 0.670588 0.000000
1.000000 0.662745 0.000000
0.996078 0.654902 0.007843
0.125490 0.741176 0.000000
0.149020 0.741176 0.000000
0.188235 0.745098 0.000000
0.211765 0.737255 0.003922
0.243137 0.737255 0.011765
0.282353 0.737255 0.000000
0.341176 0.741176 0.000000
0.368627 0.741176 0.000000
0.419608 0.741176 0.003922
0.462745 0.737255 0.003922
0.501961 0.741176 0.000000
0.549020 0.741176 0.000000
0.588235 0.741176 0.007843
0.635294 0.741176 0.000000
0.678431 0.737255 0.000000
0.733333 0.737255 0.000000
0.776471 0.737255 0.007843
0.811765 0.737255 0.000000
0.854902 0.733333 0.003922
0.905882 0.725490 0.003922
0.949020 0.721569 0.000000
0.992157 0.709804 0.000000
1.000000 0.709804 0.000000
1.000000 0.698039 0.000000
1.000000 0.698039 0.000000
0.129412 0.788235 0.000000
0.160784 0.788235 0.000000
0.184314 0.788235 0.003922
0.203922 0.784314 0.007843
0.247059 0.788235 0.000000
0.286275 0.784314 0.000000
0.321569 0.784314 0.000000
0.360784 0.784314 0.000000
0.403922 0.784314 0.000000
0.454902 0.784314 0.000000
0.498039 0.780392 0.003922
0.541176 0.780392 0.000000
0.592157 0.780392 0.003922
0.631373 0.772549 0.000000
0.682353 0.776471 0.000000
0.729412 0.776471 0.000000
0.776471 0.780392 0.000000
0.815686 0.780392 0.000000
0.862745 0.776471 0.003922
0.905882 0.772549 0.003922
0.949020 0.764706 0.003922
0.980392 0.756863 0.000000
1.000000 0.749020 0.000000
1.000000 0.745098 0.000000
0.988235 0.741176 0.000000
0.141176 0.831373 0.000000
0.152941 0.827451 0.000000
0.176471 0.827451 0.000000
0.200000 0.827451 0.000000
0.243137 0.823529 0.000000
0.282353 0.831373 0.003922
0.321569 0.823529 0.000000
0.360784 0.823529 0.000000
0.411765 0.827451 0.003922
0.454902 0.831373 0.003922
0.498039 0.827451 0.003922
0.541176 0.823529 0.000000
0.588235 0.823529 0.000000
0.631373 0.819608 0.000000
0.674510 0.823529 0.003922
0.721569 0.823529 0.003922
0.764706 0.819608 0.000000
0.807843 0.815686 0.000000
0.850980 0.819608 0.007843
0.901961 0.815686 0.003922
0.937255 0.811765 0.003922
0.984314 0.800000 0.000000
0.996078 0.796078 0.000000
0.992157 0.792157 0.003922
0.988235 0.784314 0.003922
0.133333 0.862745 0.000000
0.152941 0.862745 0.000000
0.172549 0.866667 0.000000
0.203922 0.858824 0.000000
0.239216 0.866667 0.000000
0.278431 0.866667 0.000000
0.325490 0.862745 0.000000
0.364706 0.862745 0.000000
0.403922 0.862745 0.000000
0.447059 0.866667 0.003922
0.490196 0.866667 0.000000
0.533333 0.862745 0.000000
0.584314 0.862745 0.000000
0.623529 0.862745 0.003922
0.674510 0.858824 0.003922
0.713725 0.858824 0.000000
0.756863 0.858824 0.000000
0.803922 0.858824 0.000000
0.854902 0.858824 0.003922
0.898039 0.858824 0.000000
0.945098 0.854902 0.011765
0.980392 0.843137 0.003922
1.000000 0.847059 0.003922
0.996078 0.835294 0.000000
1.000000 0.827451 0.000000
0.129412 0.909804 0.003922
0.152941 0.909804 0.003922
0.176471 0.913725 0.000000
0.207843 0.909804 0.000000
0.243137 0.905882 0.000000
0.274510 0.909804 0.000000
0.313725 0.909804 0.000000
0.352941 0.909804 0.000000
0.403922 0.901961 0.000000
0.443137 0.901961 0.003922
0.490196 0.905882 0.003922
0.529412 0.905882 0.000000
0.576471 0.901961 0.000000
0.619608 0.905882 0.000000
0.662745 0.905882 0.000000
0.709804 0.901961 0.003922
0.749020 0.901961 0.000000
0.796078 0.905882 0.000000
0.839216 0.901961 0.000000
0.886275 0.898039 0.000000
0.941176 0.898039 0.000000
0.984314 0.894118 0.000000
1.000000 0.886275 0.000000
1.000000 0.878431 0.003922
1.000000 0.862745 0.007843
0.113725 0.937255 0.000000
0.152941 0.949020 0.003922
0.176471 0.945098 0.000000
0.196078 0.945098 0.000000
0.239216 0.941176 0.000000
0.278431 0.945098 0.007843
0.298039 0.941176 0.003922
0.345098 0.945098 0.000000
0.396078 0.945098 0.007843
0.439216 0.945098 0.003922
0.478431 0.945098 0.003922
0.521569 0.941176 0.000000
0.560784 0.941176 0.000000
0.615686 0.941176 0.000000
0.654902 0.941176 0.000000
0.705882 0.937255 0.000000
0.749020 0.941176 0.000000
0.788235 0.933333 0.000000
0.835294 0.933333 0.000000
0.882353 0.933333 0.000000
0.929412 0.929412 0.000000
0.976471 0.933333 0.000000
0.988235 0.937255 0.003922
1.000000 0.921569 0.000000
1.000000 0.917647 0.011765
0.113725 0.976471 0.000000
0.145098 0.976471 0.000000
0.172549 0.980392 0.000000
0.196078 0.980392 0.003922
0.223529 0.976471 0.000000
0.262745 0.972549 0.003922
0.309804 0.976471 0.007843
0.349020 0.976471 0.003922
0.392157 0.972549 0.000000
0.431373 0.976471 0.000000
0.470588 0.976471 0.000000
0.521569 0.976471 0.007843
0.568627 0.980392 0.000000
0.607843 0.976471 0.003922
0.650980 0.972549 0.000000
0.694118 0.968627 0.000000
0.749020 0.968627 0.000000
0.788235 0.968627 0.000000
0.831373 0.964706 0.000000
0.882353 0.968627 0.003922
0.921569 0.968627 0.000000
0.956863 0.964706 0.000000
1.000000 0.960784 0.000000
1.000000 0.956863 0.000000
1.000000 0.949020 0.011765
0.101961 0.996078 0.003922
0.129412 0.996078 0.000000
0.149020 1.000000 0.003922
0.188235 1.000000 0.000000
0.215686 1.000000 0.007843
0.262745 1.000000 0.007843
0.298039 0.996078 0.000000
0.341176 0.996078 0.000000
0.384314 1.000000 0.000000
0.423529 1.000000 0.003922
0.462745 1.000000 0.003922
0.509804 1.000000 0.003922
0.556863 1.000000 0.000000
0.588235 1.000000 0.000000
0.639216 1.000000 0.000000
0.686275 1.000000 0.000000
0.737255 1.000000 0.000000
0.776471 0.996078 0.000000
0.831373 1.000000 0.000000
0.874510 0.996078 0.000000
0.913725 1.000000 0.000000
0.956863 0.992157 0.007843
0.992157 0.992157 0.000000
0.992157 0.988235 0.003922
1.000000 0.980392 0.003922
0.090196 0.996078 0.000000
0.113725 0.996078 0.000000
0.133333 1.000000 0.000000
0.176471 1.000000 0.000000
0.203922 1.000000 0.000000
0.247059 1.000000 0.007843
0.290196 1.000000 0.000000
0.329412 1.000000 0.000000
0.368627 1.000000 0.003922
0.415686 1.000000 0.003922
0.462745 1.000000 0.000000
0.505882 0.996078 0.000000
0.545098 1.000000 0.000000
0.588235 1.000000 0.000000
0.643137 1.000000 0.000000
0.690196 1.000000 0.003922
0.737255 1.000000 0.000000
0.784314 1.000000 0.003922
0.831373 1.000000 0.000000
0.878431 1.000000 0.003922
0.929412 0.996078 0.000000
0.968627 0.996078 0.003922
0.992157 1.000000 0.003922
0.996078 1.000000 0.003922
1.000000 1.000000 0.003922
0.000000 0.000000 0.019608
0.027451 0.000000 0.027451
0.078431 0.003922 0.027451
0.121569 0.000000 0.023529
0.176471 0.000000 0.035294
0.219608 0.000000 0.031373
0.270588 0.000000 0.035294
0.317647 0.000000 0.035294
0.368627 0.003922 0.035294
0.415686 0.003922 0.039216
0.470588 0.003922 0.035294
0.517647 0.003922 0.035294
0.572549 0.000000 0.035294
0.623529 0.003922 0.031373
0.678431 0.000000 0.035294
0.729412 0.003922 0.035294
0.788235 0.000000 0.043137
0.831373 0.000000 0.050980
0.874510 0.000000 0.058824
0.917647 0.000000 0.066667
0.968627 0.000000 0.074510
0.996078 0.003922 0.086275
1.000000 0.000000 0.101961
1.000000 0.000000 0.109804
1.000000 0.007843 0.117647
0.003922 0.027451 0.027451
0.023529 0.023529 0.023529
0.082353 0.027451 0.027451
0.125490 0.031373 0.023529
0.172549 0.035294 0.027451
0.219608 0.023529 0.019608
0.274510 0.023529 0.027451
0.317647 0.019608 0.027451
0.364706 0.015686 0.031373
0.423529 0.011765 0.031373
0.462745 0.007843 0.027451
0.517647 0.000000 0.023529
0.572549 0.000000 0.027451
0.627451 0.000000 0.027451
0.686275 0.000000 0.035294
0.733333 0.000000 0.043137
0.780392 0.000000 0.043137
0.831373 0.003922 0.047059
0.882353 0.000000 0.050980
0.925490 0.000000 0.066667
0.956863 0.000000 0.070588
1.000000 0.000000 0.086275
1.000000 0.000000 0.094118
1.000000 0.023529 0.109804
0.992157 0.050980 0.125490
0.007843 0.070588 0.027451
0.035294 0.074510 0.039216
0.086275 0.070588 0.023529
0.137255 0.066667 0.011765
0.184314 0.066667 0.035294
0.227451 0.074510 0.023529
0.274510 0.070588 0.019608
0.317647 0.066667 0.027451
0.368627 0.070588 0.019608
0.415686 0.062745 0.027451
0.466667 0.058824 0.023529
0.517647 0.058824 0.023529
0.568627 0.058824 0.027451
0.615686 0.054902 0.023529
0.674510 0.047059 0.023529
0.725490 0.039216 0.027451
0.780392 0.039216 0.027451
0.823529 0.035294 0.035294
0.874510 0.035294 0.050980
0.921569 0.039216 0.062745
0.964706 0.043137 0.070588
1.000000 0.050980 0.078431
1.000000 0.066667 0.098039
1.000000 0.082353 0.098039
0.996078 0.086275 0.109804
0.000000 0.113725 0.011765
0.047059 0.117647 0.023529
0.094118 0.117647 0.015686
0.141176 0.109804 0.019608
0.184314 0.113725 0.019608
0.231373 0.113725 0.011765
0.270588 0.113725 0.015686
0.317647 0.117647 0.011765
0.364706 0.113725 0.015686
0.415686 0.109804 0.019608
0.466667 0.113725 0.019608
0.521569 0.113725 0.023529
0.560784 0.105882 0.015686
0.623529 0.105882 0.015686
0.670588 0.105882 0.023529
0.725490 0.105882 0.023529
0.780392 0.105882 0.035294
0.823529 0.101961 0.039216
0.874510 0.101961 0.047059
0.921569 0.101961 0.050980
0.964706 0.105882 0.058824
0.996078 0.113725 0.074510
1.000000 0.117647 0.082353
1.000000 0.117647 0.101961
1.000000 0.133333 0.105882
0.019608 0.152941 0.015686
0.058824 0.160784 0.007843
0.098039 0.152941 0.011765
0.152941 0.152941 0.019608
0.192157 0.152941 0.011765
0.235294 0.156863 0.011765
0.282353 0.156863 0.007843
0.325490 0.152941 0.007843
0.372549 0.156863 0.007843
0.423529 0.156863 0.011765
0.466667 0.156863 0.000000
0.517647 0.156863 0.003922
0.580392 0.149020 0.003922
0.623529 0.156863 0.007843
0.678431 0.156863 0.003922
0.725490 0.156863 0.003922
0.776471 0.156863 0.011765
0.823529 0.156863 0.019608
0.878431 0.156863 0.031373
0.921569 0.156863 0.039216
0.952941 0.160784 0.043137
0.996078 0.160784 0.058824
1.000000 0.168627 0.074510
1.000000 0.168627 0.086275
1.000000 0.176471 0.109804
0.047059 0.203922 0.000000
0.074510 0.200000 0.003922
0.117647 0.207843 0.003922
0.156863 0.203922 0.007843
0.203922 0.203922 0.007843
0.243137 0.203922 0.003922
0.290196 0.203922 0.007843
0.333333 0.200000 0.011765
0.372549 0.203922 0.000000
0.419608 0.200000 0.000000
0.474510 0.200000 0.000000
0.521569 0.203922 0.000000
0.576471 0.200000 0.000000
0.635294 0.207843 0.000000
0.686275 0.211765 0.003922
0.733333 0.211765 0.003922
0.776471 0.207843 0.000000
0.819608 0.203922 0.000000
0.870588 0.211765 0.000000
0.913725 0.211765 0.011765
0.964706 0.211765 0.027451
0.996078 0.219608 0.047059
0.996078 0.215686 0.070588
0.996078 0.219608 0.086275
0.988235 0.227451 0.098039
0.058824 0.247059 0.011765
0.094118 0.247059 0.000000
0.129412 0.247059 0.000000
0.156863 0.254902 0.000000
0.203922 0.243137 0.007843
0.247059 0.239216 0.000000
0.286275 0.250980 0.000000
0.333333 0.250980 0.000000
0.380392 0.247059 0.000000
0.427451 0.250980 0.000000
0.474510 0.247059 0.000000
0.521569 0.250980 0.000000
0.572549 0.254902 0.000000
0.627451 0.254902 0.003922
0.678431 0.254902 0.003922
0.733333 0.262745 0.000000
0.784314 0.262745 0.000000
0.827451 0.258824 0.000000
0.878431 0.254902 0.000000
0.921569 0.258824 0.003922
0.952941 0.258824 0.015686
0.996078 0.258824 0.039216
1.000000 0.262745 0.047059
0.992157 0.258824 0.066667
1.000000 0.262745 0.086275
0.070588 0.294118 0.000000
0.105882 0.294118 0.000000
0.133333 0.290196 0.003922
0.172549 0.298039 0.000000
0.207843 0.294118 0.000000
0.254902 0.298039 0.000000
0.294118 0.298039 0.000000
0.341176 0.294118 0.000000
0.388235 0.298039 0.000000
0.427451 0.298039 0.000000
0.482353 0.294118 0.003922
0.529412 0.298039 0.007843
0.580392 0.298039 0.000000
0.623529 0.294118 0.007843
0.682353 0.301961 0.000000
0.729412 0.301961 0.000000
0.780392 0.305882 0.000000
0.819608 0.305882 0.000000
0.866667 0.305882 0.000000
0.909804 0.305882 0.000000
0.956863 0.301961 0.000000
0.996078 0.301961 0.000000
0.988235 0.298039 0.031373
1.000000 0.301961 0.050980
1.000000 0.313725 0.066667
0.090196 0.333333 0.000000
0.125490 0.345098 0.000000
0.145098 0.337255 0.011765
0.180392 0.337255 0.000000
0.227451 0.345098 0.000000
0.266667 0.341176 0.000000
0.305882 0.337255 0.000000
0.349020 0.341176 0.000000
0.396078 0.341176 0.000000
0.435294 0.341176 0.000000
0.482353 0.341176 0.000000
0.529412 0.345098 0.000000
0.568627 0.345098 0.000000
0.627451 0.349020 0.000000
0.674510 0.345098 0.000000
0.725490 0.345098 0.000000
0.776471 0.349020 0.000000
0.823529 0.349020 0.000000
0.866667 0.345098 0.000000
0.917647 0.349020 0.000000
0.956863 0.349020 0.000000
0.996078 0.349020 0.000000
0.996078 0.341176 0.000000
0.996078 0.356863 0.023529
1.000000 0.345098 0.039216
0.090196 0.396078 0.000000
0.117647 0.392157 0.007843
0.152941 0.396078 0.007843
0.188235 0.392157 0.000000
0.227451 0.392157 0.000000
0.266667 0.392157 0.003922
0.309804 0.388235 0.000000
0.352941 0.392157 0.003922
0.400000 0.392157 0.000000
0.439216 0.392157 0.000000
0.486275 0.396078 0.000000
0.529412 0.392157 0.000000
0.580392 0.396078 0.000000
0.627451 0.396078 0.003922
0.678431 0.396078 0.003922
0.725490 0.396078 0.007843
0.776471 0.392157 0.003922
0.819608 0.396078 0.003922
0.862745 0.396078 0.000000
0.905882 0.392157 0.000000
0.949020 0.396078 0.003922
0.988235 0.396078 0.000000
0.996078 0.396078 0.000000
0.996078 0.396078 0.000000
0.996078 0.392157 0.007843
0.105882 0.447059 0.003922
0.133333 0.447059 0.003922
0.164706 0.450980 0.000000
0.196078 0.447059 0.000000
0.235294 0.447059 0.000000
0.274510 0.447059 0.000000
0.317647 0.447059 0.000000
0.368627 0.447059 0.003922
0.403922 0.443137 0.000000
0.450980 0.443137 0.000000
