lut_library_archive/removed_20260629/50个风景lut/50个风景lut04.cube
# 版权归凌孟成所有，侵权必究
TITLE "Jungle LUT #4"
#LUT size
LUT_3D_SIZE 9
#LUT data points
0.000000 0.000000 0.000000
0.101961 0.000000 0.003922
0.235294 0.000000 0.000000
0.360784 0.000000 0.003922
0.509804 0.000000 0.000000
0.654902 0.000000 0.000000
0.800000 0.000000 0.003922
0.949020 0.003922 0.000000
0.996078 0.003922 0.000000
0.007843 0.101961 0.015686
0.101961 0.101961 0.007843
0.235294 0.101961 0.000000
0.372549 0.098039 0.000000
0.501961 0.094118 0.000000
0.654902 0.082353 0.000000
0.796078 0.062745 0.003922
0.941176 0.043137 0.000000
1.000000 0.027451 0.000000
0.000000 0.235294 0.003922
0.113725 0.231373 0.000000
0.235294 0.235294 0.000000
0.376471 0.235294 0.000000
0.513725 0.239216 0.003922
0.670588 0.239216 0.000000
0.811765 0.239216 0.000000
0.952941 0.243137 0.003922
1.000000 0.239216 0.000000
0.000000 0.372549 0.000000
0.082353 0.380392 0.000000
0.239216 0.380392 0.000000
0.384314 0.372549 0.000000
0.529412 0.380392 0.000000
0.666667 0.384314 0.000000
0.800000 0.388235 0.000000
0.949020 0.388235 0.000000
0.996078 0.388235 0.003922
0.000000 0.529412 0.003922
0.058824 0.517647 0.000000
0.231373 0.529412 0.000000
0.392157 0.525490 0.000000
0.533333 0.525490 0.000000
0.670588 0.525490 0.003922
0.811765 0.529412 0.003922
0.952941 0.529412 0.003922
1.000000 0.541176 0.000000
0.000000 0.682353 0.000000
0.019608 0.678431 0.000000
0.250980 0.682353 0.000000
0.396078 0.678431 0.003922
0.537255 0.682353 0.000000
0.678431 0.678431 0.000000
0.815686 0.674510 0.000000
0.956863 0.674510 0.000000
1.000000 0.670588 0.003922
0.003922 0.819608 0.003922
0.000000 0.815686 0.000000
0.219608 0.823529 0.000000
0.384314 0.823529 0.000000
0.529412 0.811765 0.000000
0.678431 0.815686 0.000000
0.815686 0.815686 0.000000
0.964706 0.807843 0.000000
1.000000 0.811765 0.000000
0.000000 0.952941 0.000000
0.000000 0.960784 0.000000
0.207843 0.949020 0.000000
0.372549 0.956863 0.000000
0.529412 0.956863 0.003922
0.674510 0.952941 0.000000
0.815686 0.952941 0.000000
0.956863 0.949020 0.000000
0.992157 0.952941 0.000000
0.000000 1.000000 0.000000
0.000000 1.000000 0.000000
0.203922 0.996078 0.007843
0.368627 1.000000 0.003922
0.505882 0.996078 0.000000
0.643137 1.000000 0.000000
0.764706 1.000000 0.003922
0.901961 1.000000 0.000000
0.984314 0.996078 0.000000
0.000000 0.000000 0.086275
0.101961 0.003922 0.090196
0.235294 0.003922 0.090196
0.372549 0.000000 0.086275
0.517647 0.003922 0.074510
0.654902 0.003922 0.066667
0.800000 0.003922 0.050980
0.949020 0.000000 0.015686
0.996078 0.000000 0.000000
0.000000 0.101961 0.082353
0.105882 0.101961 0.086275
0.243137 0.094118 0.090196
0.376471 0.090196 0.074510
0.509804 0.070588 0.078431
0.654902 0.050980 0.058824
0.796078 0.023529 0.031373
0.949020 0.003922 0.000000
0.996078 0.000000 0.007843
0.000000 0.227451 0.070588
0.098039 0.235294 0.078431
0.243137 0.235294 0.074510
0.376471 0.231373 0.058824
0.517647 0.235294 0.054902
0.666667 0.227451 0.031373
0.807843 0.231373 0.019608
0.949020 0.227451 0.000000
1.000000 0.227451 0.000000
0.000000 0.372549 0.023529
0.078431 0.376471 0.023529
0.239216 0.376471 0.007843
0.380392 0.376471 0.011765
0.517647 0.376471 0.000000
0.662745 0.380392 0.000000
0.807843 0.384314 0.000000
0.952941 0.384314 0.000000
1.000000 0.380392 0.000000
0.000000 0.525490 0.011765
0.019608 0.529412 0.003922
0.231373 0.529412 0.000000
0.380392 0.521569 0.000000
0.533333 0.525490 0.000000
0.666667 0.525490 0.000000
0.811765 0.529412 0.000000
0.952941 0.529412 0.003922
1.000000 0.537255 0.011765
0.000000 0.674510 0.000000
0.000000 0.678431 0.000000
0.235294 0.674510 0.000000
0.384314 0.670588 0.003922
0.533333 0.674510 0.000000
0.674510 0.674510 0.000000
0.811765 0.670588 0.000000
0.956863 0.674510 0.000000
0.996078 0.678431 0.000000
0.000000 0.815686 0.000000
0.003922 0.807843 0.000000
0.211765 0.811765 0.003922
0.372549 0.811765 0.000000
0.529412 0.811765 0.003922
0.674510 0.811765 0.000000
0.815686 0.815686 0.000000
0.956863 0.815686 0.000000
0.996078 0.807843 0.007843
0.007843 0.960784 0.011765
0.000000 0.960784 0.000000
0.192157 0.956863 0.000000
0.372549 0.956863 0.007843
0.525490 0.952941 0.000000
0.674510 0.952941 0.003922
0.815686 0.952941 0.003922
0.952941 0.949020 0.000000
0.996078 0.949020 0.000000
0.000000 1.000000 0.000000
0.000000 0.996078 0.000000
0.184314 0.996078 0.000000
0.364706 0.996078 0.000000
0.501961 1.000000 0.000000
0.635294 1.000000 0.000000
0.768627 1.000000 0.007843
0.898039 1.000000 0.000000
0.996078 1.000000 0.003922
0.000000 0.000000 0.211765
0.117647 0.003922 0.215686
0.239216 0.003922 0.207843
0.372549 0.003922 0.215686
0.521569 0.000000 0.215686
0.662745 0.003922 0.207843
0.807843 0.003922 0.203922
0.956863 0.003922 0.200000
0.996078 0.003922 0.188235
0.003922 0.094118 0.215686
0.105882 0.094118 0.215686
0.250980 0.090196 0.207843
0.376471 0.074510 0.207843
0.533333 0.054902 0.215686
0.654902 0.007843 0.203922
0.803922 0.000000 0.207843
0.952941 0.000000 0.196078
0.996078 0.000000 0.180392
0.000000 0.235294 0.215686
0.098039 0.235294 0.219608
0.243137 0.231373 0.203922
0.384314 0.231373 0.211765
0.517647 0.231373 0.215686
0.666667 0.223529 0.207843
0.803922 0.219608 0.196078
0.956863 0.215686 0.192157
0.996078 0.211765 0.180392
0.007843 0.368627 0.207843
0.039216 0.380392 0.203922
0.239216 0.380392 0.200000
0.380392 0.376471 0.196078
0.529412 0.380392 0.196078
0.662745 0.380392 0.200000
0.811765 0.380392 0.188235
0.956863 0.380392 0.180392
1.000000 0.368627 0.176471
0.000000 0.521569 0.172549
0.007843 0.529412 0.180392
0.223529 0.529412 0.184314
0.384314 0.525490 0.180392
0.529412 0.525490 0.172549
0.666667 0.521569 0.176471
0.815686 0.525490 0.176471
0.952941 0.525490 0.168627
0.988235 0.533333 0.160784
0.003922 0.678431 0.168627
0.011765 0.670588 0.164706
0.207843 0.674510 0.164706
0.380392 0.674510 0.160784
0.533333 0.674510 0.156863
0.666667 0.674510 0.152941
0.815686 0.670588 0.149020
0.956863 0.666667 0.137255
0.996078 0.666667 0.141176
0.007843 0.811765 0.133333
0.000000 0.811765 0.129412
0.192157 0.811765 0.133333
0.368627 0.815686 0.125490
0.521569 0.811765 0.117647
0.662745 0.807843 0.109804
0.819608 0.815686 0.109804
0.956863 0.815686 0.101961
1.000000 0.807843 0.101961
0.007843 0.952941 0.094118
0.003922 0.949020 0.090196
0.164706 0.960784 0.094118
0.352941 0.956863 0.086275
0.517647 0.956863 0.086275
0.658824 0.952941 0.070588
0.807843 0.952941 0.062745
0.949020 0.952941 0.066667
1.000000 0.949020 0.062745
0.003922 0.996078 0.094118
0.007843 1.000000 0.094118
0.164706 1.000000 0.109804
0.352941 0.996078 0.101961
0.501961 1.000000 0.109804
0.639216 1.000000 0.125490
0.772549 0.996078 0.141176
0.894118 1.000000 0.152941
1.000000 0.996078 0.184314
0.000000 0.000000 0.360784
0.117647 0.003922 0.364706
0.250980 0.003922 0.368627
0.376471 0.000000 0.360784
0.521569 0.000000 0.364706
0.662745 0.000000 0.372549
0.807843 0.000000 0.360784
0.960784 0.003922 0.364706
1.000000 0.003922 0.360784
0.000000 0.090196 0.372549
0.101961 0.078431 0.352941
0.247059 0.074510 0.368627
0.388235 0.058824 0.364706
0.521569 0.031373 0.360784
0.662745 0.000000 0.356863
0.803922 0.000000 0.364706
0.949020 0.000000 0.368627
1.000000 0.000000 0.345098
0.000000 0.235294 0.372549
0.074510 0.231373 0.368627
0.243137 0.227451 0.372549
0.384314 0.219608 0.364706
0.525490 0.223529 0.364706
0.670588 0.215686 0.368627
0.807843 0.203922 0.360784
0.960784 0.192157 0.356863
0.996078 0.180392 0.345098
0.000000 0.376471 0.364706
0.027451 0.376471 0.360784
0.223529 0.384314 0.360784
0.388235 0.372549 0.360784
0.525490 0.372549 0.352941
0.666667 0.372549 0.352941
0.807843 0.372549 0.356863
0.956863 0.364706 0.352941
1.000000 0.364706 0.345098
0.000000 0.525490 0.364706
0.000000 0.525490 0.364706
0.211765 0.529412 0.360784
0.376471 0.529412 0.352941
0.533333 0.521569 0.345098
0.670588 0.525490 0.352941
0.811765 0.521569 0.352941
0.956863 0.521569 0.352941
0.996078 0.517647 0.341176
0.000000 0.674510 0.352941
0.000000 0.674510 0.345098
0.180392 0.682353 0.349020
0.364706 0.674510 0.345098
0.529412 0.678431 0.352941
0.678431 0.674510 0.352941
0.815686 0.666667 0.333333
0.960784 0.670588 0.333333
1.000000 0.662745 0.337255
0.000000 0.815686 0.337255
0.007843 0.811765 0.329412
0.141176 0.811765 0.341176
0.349020 0.819608 0.333333
0.521569 0.811765 0.329412
0.674510 0.815686 0.329412
0.811765 0.811765 0.325490
0.960784 0.811765 0.325490
1.000000 0.811765 0.325490
0.000000 0.952941 0.325490
0.000000 0.960784 0.329412
0.098039 0.960784 0.325490
0.337255 0.952941 0.321569
0.513725 0.952941 0.317647
0.666667 0.949020 0.313725
0.807843 0.949020 0.313725
0.952941 0.956863 0.317647
1.000000 0.952941 0.317647
0.000000 0.996078 0.313725
0.000000 1.000000 0.329412
0.137255 0.996078 0.321569
0.341176 0.996078 0.329412
0.498039 0.996078 0.333333
0.635294 1.000000 0.337255
0.760784 1.000000 0.333333
0.894118 1.000000 0.345098
1.000000 1.000000 0.349020
0.003922 0.003922 0.513725
0.105882 0.000000 0.513725
0.239216 0.000000 0.513725
0.380392 0.000000 0.513725
0.525490 0.003922 0.517647
0.662745 0.003922 0.517647
0.811765 0.000000 0.517647
0.952941 0.000000 0.517647
1.000000 0.003922 0.529412
0.000000 0.078431 0.517647
0.066667 0.078431 0.521569
0.227451 0.070588 0.509804
0.380392 0.047059 0.521569
0.521569 0.000000 0.513725
0.670588 0.000000 0.517647
0.807843 0.003922 0.525490
0.949020 0.003922 0.525490
1.000000 0.000000 0.517647
0.000000 0.227451 0.513725
0.015686 0.223529 0.529412
0.231373 0.215686 0.505882
0.384314 0.219608 0.517647
0.537255 0.211765 0.525490
0.670588 0.207843 0.513725
0.811765 0.196078 0.513725
0.960784 0.176471 0.521569
1.000000 0.160784 0.505882
0.000000 0.372549 0.521569
0.003922 0.380392 0.517647
0.215686 0.364706 0.509804
0.372549 0.372549 0.513725
0.525490 0.364706 0.521569
0.674510 0.368627 0.521569
0.819608 0.364706 0.509804
0.956863 0.352941 0.509804
1.000000 0.349020 0.505882
0.003922 0.521569 0.509804
0.000000 0.533333 0.517647
0.196078 0.525490 0.525490
0.364706 0.521569 0.517647
0.537255 0.521569 0.517647
0.670588 0.521569 0.517647
0.815686 0.521569 0.509804
0.960784 0.513725 0.513725
0.984314 0.509804 0.505882
0.003922 0.678431 0.513725
0.007843 0.674510 0.521569
0.149020 0.670588 0.517647
0.341176 0.674510 0.509804
0.513725 0.674510 0.501961
0.674510 0.666667 0.505882
0.819608 0.674510 0.509804
0.956863 0.670588 0.513725
1.000000 0.662745 0.513725
0.000000 0.819608 0.494118
0.000000 0.823529 0.498039
0.039216 0.827451 0.498039
0.325490 0.815686 0.494118
0.501961 0.819608 0.501961
0.662745 0.815686 0.490196
0.815686 0.811765 0.490196
0.964706 0.803922 0.490196
1.000000 0.807843 0.498039
0.003922 0.956863 0.494118
0.003922 0.952941 0.501961
0.000000 0.952941 0.490196
0.325490 0.952941 0.498039
0.498039 0.960784 0.490196
0.658824 0.952941 0.486275
0.800000 0.956863 0.478431
0.949020 0.949020 0.478431
0.992157 0.952941 0.478431
0.000000 1.000000 0.482353
0.000000 1.000000 0.482353
0.149020 1.000000 0.486275
0.349020 1.000000 0.490196
0.501961 1.000000 0.486275
0.639216 1.000000 0.486275
0.776471 1.000000 0.490196
0.898039 0.996078 0.498039
0.996078 0.996078 0.509804
0.003922 0.000000 0.658824
0.070588 0.000000 0.662745
0.239216 0.000000 0.666667
0.384314 0.003922 0.666667
0.529412 0.000000 0.662745
0.670588 0.000000 0.662745
0.803922 0.003922 0.666667
0.952941 0.000000 0.658824
0.988235 0.007843 0.650980
0.000000 0.066667 0.662745
0.043137 0.062745 0.662745
0.227451 0.039216 0.670588
0.388235 0.007843 0.654902
0.529412 0.000000 0.662745
0.674510 0.003922 0.666667
0.811765 0.000000 0.666667
0.949020 0.003922 0.666667
1.000000 0.003922 0.666667
0.000000 0.215686 0.678431
0.000000 0.215686 0.670588
0.223529 0.207843 0.678431
0.380392 0.203922 0.662745
0.533333 0.200000 0.674510
0.678431 0.184314 0.674510
0.811765 0.176471 0.666667
0.952941 0.168627 0.658824
1.000000 0.141176 0.643137
0.003922 0.372549 0.654902
0.003922 0.368627 0.662745
0.192157 0.360784 0.670588
0.364706 0.360784 0.666667
0.525490 0.356863 0.666667
0.674510 0.356863 0.666667
0.815686 0.352941 0.658824
0.964706 0.349020 0.658824
1.000000 0.345098 0.658824
0.000000 0.521569 0.666667
0.007843 0.513725 0.666667
0.156863 0.525490 0.666667
0.349020 0.513725 0.662745
0.517647 0.513725 0.670588
0.674510 0.509804 0.666667
0.815686 0.509804 0.666667
0.964706 0.513725 0.674510
1.000000 0.505882 0.650980
0.007843 0.674510 0.670588
0.000000 0.678431 0.674510
0.141176 0.674510 0.666667
0.337255 0.674510 0.670588
0.505882 0.670588 0.666667
0.662745 0.670588 0.666667
0.815686 0.666667 0.662745
0.952941 0.666667 0.650980
0.996078 0.662745 0.654902
0.003922 0.811765 0.658824
0.003922 0.819608 0.662745
0.000000 0.815686 0.643137
0.313725 0.807843 0.650980
0.498039 0.819608 0.658824
0.662745 0.815686 0.643137
0.819608 0.811765 0.650980
0.960784 0.811765 0.658824
1.000000 0.796078 0.662745
0.003922 0.952941 0.654902
0.003922 0.952941 0.654902
0.003922 0.952941 0.643137
0.313725 0.956863 0.650980
0.494118 0.952941 0.647059
0.654902 0.956863 0.650980
0.800000 0.952941 0.639216
0.956863 0.949020 0.647059
0.996078 0.945098 0.639216
0.007843 0.992157 0.643137
0.000000 1.000000 0.643137
0.235294 0.996078 0.647059
0.396078 1.000000 0.647059
0.529412 1.000000 0.658824
0.662745 1.000000 0.658824
0.780392 1.000000 0.650980
0.898039 1.000000 0.658824
0.992157 1.000000 0.662745
0.000000 0.003922 0.811765
0.050980 0.003922 0.819608
0.243137 0.000000 0.811765
0.392157 0.003922 0.815686
0.529412 0.000000 0.807843
0.662745 0.000000 0.811765
0.811765 0.000000 0.807843
0.952941 0.000000 0.807843
0.996078 0.000000 0.800000
0.007843 0.031373 0.803922
0.000000 0.039216 0.796078
0.223529 0.007843 0.811765
0.384314 0.000000 0.811765
0.525490 0.003922 0.807843
0.678431 0.000000 0.807843
0.811765 0.000000 0.811765
0.960784 0.000000 0.819608
1.000000 0.000000 0.823529
0.000000 0.207843 0.803922
0.007843 0.207843 0.807843
0.207843 0.203922 0.811765
0.380392 0.203922 0.811765
0.533333 0.192157 0.815686
0.674510 0.180392 0.811765
0.815686 0.160784 0.815686
0.960784 0.141176 0.811765
1.000000 0.129412 0.815686
0.000000 0.356863 0.815686
0.000000 0.356863 0.807843
0.172549 0.356863 0.811765
0.364706 0.352941 0.811765
0.517647 0.360784 0.807843
0.666667 0.349020 0.819608
0.815686 0.341176 0.807843
0.964706 0.341176 0.815686
1.000000 0.341176 0.815686
0.007843 0.513725 0.819608
0.000000 0.509804 0.823529
0.105882 0.509804 0.819608
0.337255 0.505882 0.815686
0.509804 0.498039 0.815686
0.662745 0.501961 0.815686
0.819608 0.501961 0.819608
0.964706 0.498039 0.811765
1.000000 0.501961 0.811765
0.003922 0.658824 0.815686
0.003922 0.662745 0.807843
0.035294 0.658824 0.811765
0.321569 0.662745 0.823529
0.501961 0.654902 0.815686
0.662745 0.658824 0.815686
0.807843 0.658824 0.811765
0.956863 0.658824 0.800000
1.000000 0.662745 0.807843
0.000000 0.827451 0.811765
0.003922 0.807843 0.811765
0.003922 0.811765 0.803922
0.317647 0.811765 0.800000
0.498039 0.819608 0.811765
0.658824 0.815686 0.815686
0.807843 0.807843 0.807843
0.952941 0.811765 0.819608
1.000000 0.811765 0.823529
0.011765 0.952941 0.807843
0.007843 0.952941 0.807843
0.000000 0.956863 0.803922
0.301961 0.952941 0.803922
0.494118 0.956863 0.800000
0.654902 0.952941 0.800000
0.803922 0.952941 0.800000
0.949020 0.949020 0.800000
1.000000 0.941176 0.807843
0.003922 1.000000 0.784314
0.027451 1.000000 0.784314
0.254902 1.000000 0.780392
0.415686 0.996078 0.792157
0.568627 1.000000 0.792157
0.701961 1.000000 0.807843
0.811765 1.000000 0.803922
0.909804 1.000000 0.815686
1.000000 0.996078 0.823529
0.015686 0.000000 0.952941
0.000000 0.000000 0.949020
0.239216 0.000000 0.952941
0.384314 0.000000 0.952941
0.529412 0.000000 0.949020
0.666667 0.000000 0.945098
0.811765 0.003922 0.952941
0.956863 0.003922 0.952941
0.996078 0.003922 0.949020
0.000000 0.003922 0.952941
0.003922 0.000000 0.952941
0.231373 0.000000 0.956863
0.384314 0.000000 0.952941
0.525490 0.003922 0.956863
0.670588 0.000000 0.949020
0.807843 0.003922 0.956863
0.956863 0.003922 0.952941
0.996078 0.003922 0.949020
0.011765 0.196078 0.949020
0.003922 0.200000 0.964706
0.203922 0.200000 0.945098
0.368627 0.188235 0.949020
0.525490 0.180392 0.956863
0.670588 0.168627 0.956863
0.815686 0.152941 0.956863
0.952941 0.129412 0.956863
1.000000 0.098039 0.952941
0.000000 0.349020 0.952941
0.000000 0.352941 0.952941
0.164706 0.345098 0.960784
0.360784 0.345098 0.960784
0.517647 0.345098 0.960784
0.666667 0.337255 0.952941
0.807843 0.341176 0.952941
0.960784 0.325490 0.956863
0.992157 0.325490 0.956863
0.003922 0.501961 0.945098
0.003922 0.505882 0.956863
0.062745 0.498039 0.949020
0.321569 0.498039 0.956863
0.498039 0.494118 0.960784
0.654902 0.494118 0.956863
0.807843 0.490196 0.960784
0.956863 0.490196 0.960784
0.996078 0.490196 0.956863
0.007843 0.654902 0.952941
0.000000 0.662745 0.956863
0.000000 0.654902 0.960784
0.309804 0.650980 0.952941
0.498039 0.650980 0.952941
0.654902 0.650980 0.949020
0.800000 0.650980 0.952941
0.952941 0.654902 0.949020
0.984314 0.658824 0.949020
0.007843 0.792157 0.952941
0.003922 0.800000 0.949020
0.000000 0.800000 0.945098
0.305882 0.796078 0.945098
0.494118 0.800000 0.941176
0.650980 0.807843 0.949020
0.807843 0.807843 0.956863
0.956863 0.811765 0.952941
0.996078 0.807843 0.960784
0.003922 0.949020 0.945098
0.003922 0.949020 0.952941
0.000000 0.952941 0.952941
0.305882 0.949020 0.952941
0.486275 0.949020 0.949020
0.650980 0.949020 0.949020
0.800000 0.949020 0.949020
0.949020 0.949020 0.949020
1.000000 0.945098 0.941176
0.015686 0.996078 0.917647
0.149020 1.000000 0.925490
0.305882 1.000000 0.929412
0.423529 1.000000 0.909804
0.580392 1.000000 0.913725
0.729412 1.000000 0.925490
0.866667 1.000000 0.937255
0.952941 1.000000 0.960784
0.996078 1.000000 0.960784
0.000000 0.000000 0.996078
0.000000 0.000000 0.996078
0.223529 0.000000 0.992157
0.376471 0.000000 1.000000
0.513725 0.000000 1.000000
0.650980 0.003922 1.000000
0.788235 0.000000 1.000000
0.921569 0.000000 1.000000
0.992157 0.007843 1.000000
0.007843 0.000000 0.996078
0.000000 0.000000 0.996078
0.219608 0.000000 1.000000
0.376471 0.000000 1.000000
0.513725 0.000000 0.996078
0.654902 0.000000 1.000000
0.780392 0.003922 1.000000
0.917647 0.007843 0.996078
0.992157 0.003922 0.996078
0.000000 0.196078 1.000000
0.003922 0.192157 1.000000
0.203922 0.196078 1.000000
0.360784 0.188235 1.000000
0.509804 0.180392 1.000000
0.647059 0.176471 1.000000
0.788235 0.168627 0.996078
0.921569 0.160784 0.988235
0.996078 0.149020 0.992157
0.000000 0.349020 1.000000
0.003922 0.352941 1.000000
0.172549 0.345098 1.000000
0.352941 0.345098 1.000000
0.505882 0.345098 0.996078
0.643137 0.341176 0.992157
0.780392 0.345098 0.996078
0.917647 0.341176 1.000000
1.000000 0.337255 1.000000
0.003922 0.490196 1.000000
0.003922 0.498039 1.000000
0.156863 0.490196 0.988235
0.341176 0.494118 1.000000
0.494118 0.490196 0.996078
0.639216 0.494118 1.000000
0.776471 0.494118 0.996078
0.917647 0.501961 1.000000
0.996078 0.501961 0.996078
0.003922 0.631373 1.000000
0.007843 0.635294 1.000000
0.172549 0.639216 1.000000
0.364706 0.643137 1.000000
0.505882 0.643137 0.996078
0.643137 0.647059 1.000000
0.784314 0.647059 1.000000
0.909804 0.650980 1.000000
1.000000 0.654902 1.000000
0.011765 0.776471 0.996078
0.023529 0.768627 1.000000
0.243137 0.768627 1.000000
0.396078 0.772549 1.000000
0.545098 0.776471 0.996078
0.674510 0.792157 1.000000
0.796078 0.803922 1.000000
0.909804 0.803922 1.000000
1.000000 0.811765 1.000000
0.168627 0.894118 1.000000
0.223529 0.894118 1.000000
0.325490 0.894118 1.000000
0.450980 0.898039 1.000000
0.584314 0.901961 1.000000
0.709804 0.913725 0.996078
0.839216 0.921569 0.996078
0.945098 0.941176 0.996078
0.992157 0.960784 1.000000
0.345098 1.000000 1.000000
0.364706 0.996078 0.996078
0.443137 0.996078 1.000000
0.529412 1.000000 0.996078
0.647059 0.996078 1.000000
0.768627 0.996078 1.000000
0.898039 1.000000 0.996078
0.996078 1.000000 1.000000
1.000000 1.000000 1.000000
