lut_library_archive/removed_20260629/50个风景lut/50个风景lut31.cube
# 版权归凌孟成所有，侵权必究
TITLE "Jungle LUT #31"
#LUT size
LUT_3D_SIZE 9
#LUT data points
0.054902 0.058824 0.039216
0.125490 0.054902 0.047059
0.254902 0.035294 0.054902
0.364706 0.050980 0.062745
0.474510 0.094118 0.070588
0.576471 0.129412 0.090196
0.694118 0.168627 0.125490
0.827451 0.211765 0.145098
0.972549 0.262745 0.196078
0.003922 0.141176 0.023529
0.137255 0.141176 0.019608
0.258824 0.141176 0.047059
0.368627 0.149020 0.058824
0.474510 0.160784 0.070588
0.576471 0.184314 0.094118
0.698039 0.219608 0.129412
0.827451 0.250980 0.152941
0.964706 0.286275 0.192157
0.015686 0.270588 0.003922
0.133333 0.258824 0.003922
0.250980 0.262745 0.000000
0.372549 0.250980 0.027451
0.466667 0.258824 0.086275
0.576471 0.274510 0.109804
0.698039 0.301961 0.137255
0.835294 0.321569 0.168627
0.976471 0.360784 0.200000
0.035294 0.360784 0.000000
0.145098 0.360784 0.000000
0.250980 0.364706 0.000000
0.364706 0.360784 0.000000
0.462745 0.356863 0.007843
0.564706 0.364706 0.109804
0.686275 0.392157 0.145098
0.839216 0.415686 0.180392
0.972549 0.447059 0.207843
0.062745 0.470588 0.000000
0.137255 0.462745 0.000000
0.243137 0.458824 0.000000
0.345098 0.458824 0.000000
0.462745 0.458824 0.003922
0.576471 0.462745 0.000000
0.698039 0.478431 0.098039
0.835294 0.517647 0.168627
0.976471 0.545098 0.219608
0.078431 0.580392 0.003922
0.149020 0.580392 0.000000
0.247059 0.576471 0.000000
0.352941 0.580392 0.003922
0.466667 0.576471 0.000000
0.580392 0.576471 0.011765
0.701961 0.584314 0.003922
0.847059 0.611765 0.031373
0.976471 0.639216 0.164706
0.027451 0.705882 0.000000
0.125490 0.709804 0.000000
0.243137 0.709804 0.003922
0.368627 0.709804 0.007843
0.474510 0.713725 0.003922
0.592157 0.705882 0.000000
0.717647 0.709804 0.000000
0.843137 0.717647 0.007843
0.976471 0.737255 0.000000
0.003922 0.847059 0.000000
0.074510 0.854902 0.003922
0.215686 0.850980 0.000000
0.360784 0.850980 0.000000
0.482353 0.850980 0.000000
0.611765 0.850980 0.000000
0.733333 0.854902 0.000000
0.866667 0.854902 0.000000
0.992157 0.862745 0.003922
0.003922 0.996078 0.000000
0.000000 0.996078 0.000000
0.180392 0.988235 0.007843
0.329412 1.000000 0.003922
0.478431 1.000000 0.000000
0.607843 1.000000 0.000000
0.741176 1.000000 0.000000
0.878431 1.000000 0.003922
0.992157 1.000000 0.000000
0.035294 0.058824 0.105882
0.137255 0.039216 0.113725
0.274510 0.031373 0.121569
0.368627 0.082353 0.125490
0.474510 0.129412 0.133333
0.584314 0.160784 0.160784
0.698039 0.192157 0.172549
0.831373 0.227451 0.203922
0.976471 0.262745 0.219608
0.039216 0.137255 0.113725
0.145098 0.145098 0.113725
0.262745 0.149020 0.117647
0.372549 0.160784 0.121569
0.466667 0.184314 0.137255
0.572549 0.203922 0.156863
0.690196 0.231373 0.172549
0.839216 0.254902 0.200000
0.976471 0.294118 0.219608
0.035294 0.258824 0.082353
0.141176 0.266667 0.105882
0.266667 0.258824 0.098039
0.364706 0.250980 0.117647
0.462745 0.270588 0.152941
0.568627 0.282353 0.156863
0.694118 0.305882 0.184314
0.831373 0.329412 0.192157
0.964706 0.352941 0.223529
0.054902 0.360784 0.066667
0.141176 0.368627 0.070588
0.243137 0.364706 0.062745
0.368627 0.360784 0.066667
0.466667 0.356863 0.117647
0.568627 0.372549 0.164706
0.694118 0.400000 0.184314
0.835294 0.415686 0.203922
0.972549 0.443137 0.227451
0.078431 0.458824 0.039216
0.152941 0.454902 0.039216
0.239216 0.454902 0.047059
0.356863 0.466667 0.035294
0.466667 0.454902 0.035294
0.572549 0.458824 0.058824
0.698039 0.486275 0.149020
0.839216 0.521569 0.211765
0.968627 0.549020 0.235294
0.090196 0.572549 0.003922
0.149020 0.572549 0.000000
0.243137 0.580392 0.000000
0.356863 0.572549 0.000000
0.462745 0.572549 0.000000
0.576471 0.576471 0.003922
0.705882 0.584314 0.000000
0.843137 0.607843 0.090196
0.972549 0.647059 0.207843
0.019608 0.705882 0.003922
0.121569 0.713725 0.003922
0.239216 0.698039 0.003922
0.356863 0.705882 0.000000
0.474510 0.705882 0.000000
0.592157 0.709804 0.000000
0.713725 0.713725 0.000000
0.839216 0.713725 0.000000
0.980392 0.741176 0.000000
0.007843 0.850980 0.000000
0.031373 0.858824 0.000000
0.203922 0.858824 0.000000
0.345098 0.850980 0.000000
0.478431 0.850980 0.000000
0.603922 0.854902 0.000000
0.725490 0.858824 0.000000
0.862745 0.850980 0.000000
0.992157 0.854902 0.007843
0.000000 1.000000 0.000000
0.003922 0.984314 0.003922
0.141176 0.996078 0.000000
0.325490 0.996078 0.000000
0.474510 0.996078 0.000000
0.607843 1.000000 0.000000
0.741176 1.000000 0.000000
0.874510 0.996078 0.000000
1.000000 1.000000 0.007843
0.019608 0.050980 0.203922
0.152941 0.027451 0.219608
0.270588 0.019608 0.215686
0.384314 0.023529 0.207843
0.486275 0.101961 0.207843
0.584314 0.168627 0.219608
0.709804 0.211765 0.247059
0.835294 0.239216 0.258824
0.976471 0.270588 0.274510
0.074510 0.133333 0.207843
0.145098 0.133333 0.207843
0.266667 0.137255 0.219608
0.380392 0.141176 0.203922
0.478431 0.184314 0.203922
0.580392 0.227451 0.235294
0.694118 0.247059 0.247059
0.843137 0.266667 0.258824
0.984314 0.290196 0.290196
0.058824 0.262745 0.215686
0.145098 0.266667 0.207843
0.270588 0.254902 0.207843
0.372549 0.270588 0.211765
0.466667 0.278431 0.223529
0.568627 0.298039 0.235294
0.694118 0.313725 0.247059
0.839216 0.337255 0.262745
0.980392 0.360784 0.278431
0.086275 0.368627 0.184314
0.156863 0.364706 0.184314
0.258824 0.360784 0.176471
0.372549 0.360784 0.184314
0.462745 0.364706 0.207843
0.560784 0.380392 0.239216
0.701961 0.396078 0.247059
0.843137 0.423529 0.266667
0.972549 0.450980 0.290196
0.109804 0.462745 0.172549
0.164706 0.450980 0.164706
0.254902 0.466667 0.172549
0.356863 0.458824 0.164706
0.466667 0.458824 0.164706
0.572549 0.462745 0.176471
0.705882 0.490196 0.235294
0.839216 0.521569 0.266667
0.968627 0.545098 0.294118
0.098039 0.576471 0.149020
0.149020 0.572549 0.137255
0.250980 0.572549 0.137255
0.352941 0.576471 0.133333
0.470588 0.572549 0.141176
0.580392 0.576471 0.121569
0.709804 0.580392 0.129412
0.854902 0.615686 0.200000
0.972549 0.647059 0.278431
0.000000 0.705882 0.070588
0.094118 0.713725 0.070588
0.231373 0.713725 0.054902
0.349020 0.705882 0.047059
0.474510 0.709804 0.019608
0.596078 0.709804 0.003922
0.717647 0.717647 0.003922
0.843137 0.721569 0.000000
0.992157 0.745098 0.145098
0.003922 0.850980 0.000000
0.003922 0.850980 0.000000
0.180392 0.850980 0.003922
0.337255 0.850980 0.000000
0.466667 0.854902 0.003922
0.600000 0.854902 0.000000
0.729412 0.850980 0.000000
0.866667 0.854902 0.000000
0.992157 0.866667 0.000000
0.007843 0.996078 0.003922
0.007843 0.996078 0.011765
0.062745 0.996078 0.000000
0.301961 0.996078 0.000000
0.450980 1.000000 0.000000
0.600000 0.996078 0.000000
0.741176 1.000000 0.000000
0.878431 1.000000 0.003922
1.000000 1.000000 0.000000
0.094118 0.027451 0.301961
0.156863 0.027451 0.305882
0.266667 0.035294 0.301961
0.380392 0.027451 0.301961
0.486275 0.047059 0.305882
0.580392 0.101961 0.301961
0.698039 0.168627 0.305882
0.839216 0.211765 0.329412
0.992157 0.247059 0.364706
0.117647 0.129412 0.305882
0.164706 0.129412 0.313725
0.254902 0.125490 0.301961
0.380392 0.125490 0.298039
0.482353 0.137255 0.301961
0.580392 0.176471 0.290196
0.701961 0.223529 0.313725
0.847059 0.247059 0.325490
0.992157 0.286275 0.368627
0.113725 0.243137 0.301961
0.168627 0.243137 0.305882
0.270588 0.247059 0.294118
0.376471 0.250980 0.301961
0.474510 0.247059 0.294118
0.576471 0.282353 0.294118
0.705882 0.305882 0.321569
0.847059 0.329412 0.341176
0.980392 0.352941 0.360784
0.121569 0.364706 0.305882
0.176471 0.360784 0.298039
0.270588 0.360784 0.290196
0.364706 0.356863 0.298039
0.462745 0.376471 0.294118
0.572549 0.380392 0.313725
0.705882 0.396078 0.329412
0.854902 0.419608 0.345098
0.984314 0.443137 0.364706
0.137255 0.458824 0.270588
0.176471 0.466667 0.274510
0.266667 0.458824 0.274510
0.356863 0.458824 0.270588
0.470588 0.454902 0.270588
0.580392 0.466667 0.294118
0.709804 0.498039 0.325490
0.847059 0.521569 0.349020
0.976471 0.552941 0.372549
0.035294 0.580392 0.254902
0.117647 0.580392 0.250980
0.231373 0.576471 0.239216
0.349020 0.576471 0.247059
0.470588 0.580392 0.247059
0.584314 0.576471 0.243137
0.713725 0.588235 0.254902
0.858824 0.615686 0.321569
0.972549 0.658824 0.388235
0.003922 0.709804 0.211765
0.007843 0.713725 0.215686
0.172549 0.705882 0.203922
0.321569 0.713725 0.196078
0.466667 0.709804 0.211765
0.588235 0.713725 0.192157
0.721569 0.713725 0.180392
0.866667 0.717647 0.180392
0.988235 0.745098 0.286275
0.000000 0.850980 0.125490
0.007843 0.854902 0.121569
0.027451 0.850980 0.117647
0.298039 0.854902 0.117647
0.443137 0.854902 0.105882
0.592157 0.854902 0.090196
0.725490 0.850980 0.070588
0.866667 0.858824 0.039216
0.992157 0.866667 0.000000
0.000000 1.000000 0.011765
0.003922 0.996078 0.000000
0.003922 0.996078 0.000000
0.231373 0.996078 0.000000
0.435294 0.992157 0.003922
0.580392 1.000000 0.003922
0.733333 0.996078 0.000000
0.870588 1.000000 0.003922
0.996078 1.000000 0.003922
0.129412 0.039216 0.396078
0.176471 0.039216 0.392157
0.262745 0.043137 0.392157
0.364706 0.050980 0.392157
0.478431 0.047059 0.388235
0.576471 0.070588 0.396078
0.694118 0.082353 0.380392
0.835294 0.125490 0.411765
0.984314 0.168627 0.435294
0.137255 0.129412 0.384314
0.188235 0.129412 0.392157
0.274510 0.129412 0.392157
0.368627 0.137255 0.403922
0.474510 0.133333 0.400000
0.584314 0.145098 0.396078
0.694118 0.152941 0.388235
0.835294 0.180392 0.411765
0.988235 0.207843 0.439216
0.149020 0.239216 0.400000
0.192157 0.247059 0.392157
0.270588 0.235294 0.403922
0.376471 0.243137 0.388235
0.474510 0.239216 0.388235
0.580392 0.247059 0.380392
0.698039 0.250980 0.392157
0.843137 0.270588 0.415686
0.984314 0.305882 0.443137
0.156863 0.345098 0.392157
0.196078 0.352941 0.388235
0.270588 0.349020 0.392157
0.360784 0.349020 0.384314
0.474510 0.345098 0.388235
0.580392 0.345098 0.384314
0.717647 0.364706 0.403922
0.858824 0.388235 0.435294
0.988235 0.435294 0.458824
0.149020 0.458824 0.376471
0.196078 0.466667 0.392157
0.270588 0.454902 0.384314
0.356863 0.462745 0.388235
0.466667 0.454902 0.380392
0.584314 0.474510 0.392157
0.721569 0.498039 0.423529
0.854902 0.521569 0.443137
0.992157 0.556863 0.490196
0.047059 0.576471 0.380392
0.117647 0.580392 0.376471
0.215686 0.580392 0.368627
0.329412 0.576471 0.368627
0.450980 0.580392 0.356863
0.588235 0.580392 0.356863
0.725490 0.596078 0.388235
0.858824 0.635294 0.458824
0.988235 0.662745 0.490196
0.003922 0.709804 0.352941
0.000000 0.713725 0.349020
0.000000 0.713725 0.321569
0.254902 0.709804 0.321569
0.435294 0.717647 0.329412
0.580392 0.717647 0.317647
0.725490 0.709804 0.317647
0.862745 0.725490 0.333333
1.000000 0.756863 0.439216
0.000000 0.858824 0.286275
0.000000 0.854902 0.282353
0.003922 0.858824 0.278431
0.176471 0.862745 0.286275
0.407843 0.862745 0.274510
0.572549 0.862745 0.270588
0.721569 0.854902 0.270588
0.874510 0.862745 0.258824
0.992157 0.858824 0.274510
0.003922 1.000000 0.207843
0.000000 1.000000 0.215686
0.000000 1.000000 0.215686
0.007843 1.000000 0.203922
0.372549 1.000000 0.200000
0.556863 1.000000 0.200000
0.713725 1.000000 0.196078
0.866667 1.000000 0.184314
1.000000 1.000000 0.176471
0.152941 0.047059 0.498039
0.200000 0.047059 0.505882
0.278431 0.047059 0.501961
0.376471 0.050980 0.505882
0.478431 0.050980 0.509804
0.580392 0.054902 0.498039
0.701961 0.050980 0.513725
0.831373 0.003922 0.517647
0.976471 0.000000 0.541176
0.149020 0.125490 0.501961
0.188235 0.129412 0.501961
0.270588 0.125490 0.501961
0.360784 0.141176 0.498039
0.474510 0.125490 0.494118
0.588235 0.129412 0.505882
0.701961 0.133333 0.513725
0.831373 0.094118 0.533333
0.984314 0.047059 0.525490
0.160784 0.235294 0.501961
0.203922 0.239216 0.509804
0.278431 0.235294 0.494118
0.376471 0.239216 0.505882
0.478431 0.231373 0.509804
0.592157 0.227451 0.501961
0.705882 0.223529 0.498039
0.835294 0.196078 0.513725
0.984314 0.203922 0.529412
0.152941 0.345098 0.505882
0.192157 0.345098 0.505882
0.250980 0.341176 0.505882
0.364706 0.337255 0.501961
0.478431 0.329412 0.513725
0.588235 0.333333 0.505882
0.717647 0.317647 0.505882
0.847059 0.309804 0.521569
0.996078 0.349020 0.549020
0.113725 0.450980 0.494118
0.164706 0.450980 0.505882
0.258824 0.450980 0.517647
0.345098 0.447059 0.505882
0.466667 0.439216 0.509804
0.596078 0.431373 0.509804
0.721569 0.427451 0.505882
0.862745 0.470588 0.521569
1.000000 0.513725 0.568627
0.000000 0.580392 0.517647
0.070588 0.572549 0.505882
0.207843 0.576471 0.505882
0.313725 0.576471 0.509804
0.447059 0.576471 0.501961
0.592157 0.568627 0.505882
0.725490 0.603922 0.525490
0.866667 0.635294 0.564706
0.996078 0.670588 0.607843
0.003922 0.709804 0.494118
0.007843 0.713725 0.498039
0.007843 0.713725 0.498039
0.231373 0.713725 0.490196
0.403922 0.713725 0.486275
0.568627 0.717647 0.478431
0.729412 0.713725 0.474510
0.878431 0.737255 0.533333
0.992157 0.776471 0.623529
0.000000 0.862745 0.478431
0.000000 0.862745 0.470588
0.000000 0.858824 0.466667
0.011765 0.858824 0.454902
0.337255 0.870588 0.447059
0.541176 0.862745 0.439216
0.717647 0.854902 0.447059
0.870588 0.858824 0.439216
0.988235 0.862745 0.478431
0.007843 1.000000 0.431373
0.003922 0.996078 0.427451
0.003922 0.996078 0.419608
0.000000 0.992157 0.415686
0.298039 1.000000 0.400000
0.521569 1.000000 0.415686
0.701961 1.000000 0.403922
0.858824 1.000000 0.411765
1.000000 1.000000 0.403922
0.164706 0.035294 0.635294
0.211765 0.043137 0.647059
0.282353 0.031373 0.650980
0.384314 0.027451 0.650980
0.490196 0.019608 0.647059
0.611765 0.000000 0.643137
0.717647 0.003922 0.643137
0.839216 0.000000 0.650980
0.984314 0.000000 0.682353
0.156863 0.117647 0.639216
0.192157 0.121569 0.650980
0.294118 0.133333 0.650980
0.376471 0.117647 0.643137
0.494118 0.109804 0.654902
0.600000 0.113725 0.654902
0.713725 0.086275 0.643137
0.839216 0.035294 0.650980
0.984314 0.000000 0.666667
0.145098 0.235294 0.650980
0.192157 0.239216 0.639216
0.278431 0.227451 0.650980
0.376471 0.227451 0.654902
0.490196 0.223529 0.650980
0.600000 0.211765 0.639216
0.721569 0.200000 0.650980
0.847059 0.176471 0.662745
0.992157 0.117647 0.654902
0.074510 0.345098 0.650980
0.145098 0.325490 0.650980
0.247059 0.329412 0.654902
0.356863 0.325490 0.650980
0.478431 0.325490 0.650980
0.603922 0.313725 0.654902
0.725490 0.298039 0.654902
0.862745 0.286275 0.662745
0.996078 0.258824 0.662745
0.000000 0.454902 0.654902
0.047059 0.443137 0.654902
0.188235 0.443137 0.662745
0.321569 0.435294 0.662745
0.447059 0.427451 0.654902
0.592157 0.419608 0.658824
0.729412 0.415686 0.662745
0.866667 0.400000 0.658824
1.000000 0.392157 0.650980
0.000000 0.580392 0.650980
0.003922 0.576471 0.666667
0.078431 0.572549 0.658824
0.266667 0.564706 0.658824
0.415686 0.560784 0.662745
0.572549 0.545098 0.666667
0.725490 0.552941 0.658824
0.870588 0.549020 0.647059
1.000000 0.603922 0.674510
0.000000 0.713725 0.654902
0.007843 0.709804 0.662745
0.003922 0.717647 0.666667
0.188235 0.713725 0.654902
0.400000 0.713725 0.662745
0.556863 0.717647 0.662745
0.721569 0.709804 0.650980
0.874510 0.760784 0.705882
0.996078 0.784314 0.737255
0.003922 0.858824 0.662745
0.003922 0.866667 0.662745
0.000000 0.862745 0.650980
0.000000 0.866667 0.635294
0.329412 0.862745 0.643137
0.525490 0.858824 0.627451
0.698039 0.858824 0.631373
0.866667 0.858824 0.635294
1.000000 0.862745 0.698039
0.000000 1.000000 0.631373
0.000000 1.000000 0.631373
0.000000 1.000000 0.631373
0.007843 0.996078 0.623529
0.243137 1.000000 0.603922
0.498039 0.996078 0.607843
0.686275 1.000000 0.603922
0.858824 1.000000 0.615686
1.000000 1.000000 0.607843
0.137255 0.011765 0.815686
0.188235 0.011765 0.811765
0.282353 0.000000 0.807843
0.384314 0.000000 0.807843
0.498039 0.000000 0.807843
0.623529 0.000000 0.827451
0.737255 0.003922 0.807843
0.862745 0.003922 0.811765
0.992157 0.000000 0.803922
0.129412 0.109804 0.807843
0.184314 0.109804 0.811765
0.278431 0.101961 0.811765
0.384314 0.109804 0.800000
0.490196 0.094118 0.807843
0.615686 0.070588 0.811765
0.741176 0.007843 0.811765
0.862745 0.000000 0.815686
0.988235 0.003922 0.823529
0.090196 0.223529 0.815686
0.160784 0.227451 0.815686
0.250980 0.227451 0.807843
0.388235 0.211765 0.811765
0.486275 0.207843 0.811765
0.607843 0.200000 0.823529
0.729412 0.172549 0.815686
0.866667 0.129412 0.815686
0.976471 0.047059 0.807843
0.003922 0.321569 0.811765
0.039216 0.317647 0.811765
0.207843 0.321569 0.819608
0.349020 0.313725 0.811765
0.470588 0.309804 0.811765
0.596078 0.301961 0.815686
0.737255 0.278431 0.827451
0.858824 0.250980 0.819608
0.996078 0.227451 0.823529
0.000000 0.435294 0.815686
0.000000 0.435294 0.823529
0.003922 0.423529 0.823529
0.262745 0.415686 0.811765
0.435294 0.411765 0.827451
0.584314 0.403922 0.827451
0.721569 0.392157 0.827451
0.866667 0.380392 0.827451
0.984314 0.364706 0.815686
0.000000 0.568627 0.815686
0.003922 0.572549 0.819608
0.000000 0.568627 0.823529
0.184314 0.552941 0.827451
0.372549 0.545098 0.831373
0.549020 0.533333 0.823529
0.721569 0.533333 0.831373
0.870588 0.529412 0.835294
1.000000 0.521569 0.815686
0.000000 0.705882 0.827451
0.000000 0.713725 0.827451
0.000000 0.709804 0.823529
0.000000 0.717647 0.819608
0.349020 0.705882 0.819608
0.541176 0.694118 0.823529
0.701961 0.694118 0.839216
0.870588 0.698039 0.835294
0.996078 0.694118 0.827451
0.000000 0.850980 0.835294
0.000000 0.862745 0.831373
0.007843 0.850980 0.819608
0.000000 0.854902 0.831373
0.290196 0.858824 0.823529
0.517647 0.854902 0.835294
0.694118 0.862745 0.827451
0.858824 0.858824 0.827451
1.000000 0.894118 0.886275
0.003922 1.000000 0.819608
0.007843 1.000000 0.819608
0.000000 1.000000 0.827451
0.003922 0.992157 0.823529
0.207843 1.000000 0.811765
0.486275 1.000000 0.811765
0.674510 1.000000 0.811765
0.847059 0.996078 0.811765
1.000000 0.996078 0.807843
0.047059 0.000000 0.988235
0.137255 0.003922 0.972549
0.254902 0.000000 0.980392
0.360784 0.000000 0.976471
0.490196 0.000000 0.980392
0.623529 0.000000 0.988235
0.741176 0.003922 0.984314
0.870588 0.000000 0.984314
0.996078 0.000000 0.984314
0.019608 0.094118 0.980392
0.117647 0.094118 0.964706
0.254902 0.086275 0.976471
0.372549 0.074510 0.984314
0.494118 0.047059 0.980392
0.611765 0.000000 0.976471
0.737255 0.000000 0.980392
0.862745 0.000000 0.980392
1.000000 0.000000 0.984314
0.015686 0.207843 0.984314
0.066667 0.215686 0.988235
0.227451 0.203922 0.980392
0.349020 0.200000 0.988235
0.490196 0.188235 0.988235
0.615686 0.168627 0.996078
0.737255 0.137255 0.980392
0.866667 0.050980 0.984314
1.000000 0.000000 0.980392
0.003922 0.305882 0.988235
0.000000 0.313725 0.992157
0.125490 0.313725 0.980392
0.313725 0.301961 0.988235
0.462745 0.294118 0.988235
0.603922 0.278431 0.984314
0.725490 0.254902 0.980392
0.866667 0.227451 0.992157
0.996078 0.184314 0.984314
0.000000 0.411765 0.992157
0.000000 0.415686 0.984314
0.003922 0.407843 0.992157
0.203922 0.396078 0.992157
0.400000 0.400000 0.988235
0.568627 0.384314 0.988235
0.713725 0.372549 0.992157
0.858824 0.356863 0.996078
1.000000 0.337255 1.000000
0.007843 0.552941 0.988235
0.007843 0.552941 0.996078
0.007843 0.545098 0.992157
0.000000 0.545098 0.988235
0.329412 0.517647 1.000000
0.521569 0.521569 1.000000
0.694118 0.517647 0.992157
0.862745 0.509804 0.996078
1.000000 0.501961 0.992157
0.003922 0.705882 1.000000
0.000000 0.698039 0.988235
0.003922 0.701961 0.992157
0.007843 0.690196 1.000000
0.266667 0.682353 1.000000
0.490196 0.670588 1.000000
0.678431 0.670588 1.000000
0.847059 0.670588 1.000000
1.000000 0.674510 1.000000
0.000000 0.847059 1.000000
0.000000 0.850980 1.000000
0.000000 0.843137 0.992157
0.000000 0.847059 1.000000
0.180392 0.843137 1.000000
0.470588 0.843137 1.000000
0.662745 0.839216 0.992157
0.843137 0.839216 1.000000
0.996078 0.835294 1.000000
0.000000 0.996078 0.988235
0.000000 1.000000 1.000000
0.000000 0.992157 1.000000
0.000000 0.996078 0.996078
0.070588 1.000000 0.992157
0.458824 0.996078 1.000000
0.654902 1.000000 1.000000
0.843137 1.000000 1.000000
0.996078 0.996078 1.000000
