lut_library_archive/removed_20260629/50个风景lut/50个风景lut31.cube
# 版权归凌孟成所有，侵权必究
TITLE "Jungle LUT #31"
#LUT size
LUT_3D_SIZE 5
#LUT data points
0.054902 0.058824 0.039216
0.254902 0.035294 0.054902
0.474510 0.094118 0.070588
0.694118 0.168627 0.125490
0.972549 0.262745 0.196078
0.015686 0.270588 0.003922
0.250980 0.262745 0.000000
0.466667 0.258824 0.086275
0.698039 0.301961 0.137255
0.976471 0.360784 0.200000
0.062745 0.470588 0.000000
0.243137 0.458824 0.000000
0.462745 0.458824 0.003922
0.698039 0.478431 0.098039
0.976471 0.545098 0.219608
0.027451 0.705882 0.000000
0.243137 0.709804 0.003922
0.474510 0.713725 0.003922
0.717647 0.709804 0.000000
0.976471 0.737255 0.000000
0.003922 0.996078 0.000000
0.180392 0.988235 0.007843
0.478431 1.000000 0.000000
0.741176 1.000000 0.000000
0.992157 1.000000 0.000000
0.019608 0.050980 0.203922
0.270588 0.019608 0.215686
0.486275 0.101961 0.207843
0.709804 0.211765 0.247059
0.976471 0.270588 0.274510
0.058824 0.262745 0.215686
0.270588 0.254902 0.207843
0.466667 0.278431 0.223529
0.694118 0.313725 0.247059
0.980392 0.360784 0.278431
0.109804 0.462745 0.172549
0.254902 0.466667 0.172549
0.466667 0.458824 0.164706
0.705882 0.490196 0.235294
0.968627 0.545098 0.294118
0.000000 0.705882 0.070588
0.231373 0.713725 0.054902
0.474510 0.709804 0.019608
0.717647 0.717647 0.003922
0.992157 0.745098 0.145098
0.007843 0.996078 0.003922
0.062745 0.996078 0.000000
0.450980 1.000000 0.000000
0.741176 1.000000 0.000000
1.000000 1.000000 0.000000
0.129412 0.039216 0.396078
0.262745 0.043137 0.392157
0.478431 0.047059 0.388235
0.694118 0.082353 0.380392
0.984314 0.168627 0.435294
0.149020 0.239216 0.400000
0.270588 0.235294 0.403922
0.474510 0.239216 0.388235
0.698039 0.250980 0.392157
0.984314 0.305882 0.443137
0.149020 0.458824 0.376471
0.270588 0.454902 0.384314
0.466667 0.454902 0.380392
0.721569 0.498039 0.423529
0.992157 0.556863 0.490196
0.003922 0.709804 0.352941
0.000000 0.713725 0.321569
0.435294 0.717647 0.329412
0.725490 0.709804 0.317647
1.000000 0.756863 0.439216
0.003922 1.000000 0.207843
0.000000 1.000000 0.215686
0.372549 1.000000 0.200000
0.713725 1.000000 0.196078
1.000000 1.000000 0.176471
0.164706 0.035294 0.635294
0.282353 0.031373 0.650980
0.490196 0.019608 0.647059
0.717647 0.003922 0.643137
0.984314 0.000000 0.682353
0.145098 0.235294 0.650980
0.278431 0.227451 0.650980
0.490196 0.223529 0.650980
0.721569 0.200000 0.650980
0.992157 0.117647 0.654902
0.000000 0.454902 0.654902
0.188235 0.443137 0.662745
0.447059 0.427451 0.654902
0.729412 0.415686 0.662745
1.000000 0.392157 0.650980
0.000000 0.713725 0.654902
0.003922 0.717647 0.666667
0.400000 0.713725 0.662745
0.721569 0.709804 0.650980
0.996078 0.784314 0.737255
0.000000 1.000000 0.631373
0.000000 1.000000 0.631373
0.243137 1.000000 0.603922
0.686275 1.000000 0.603922
1.000000 1.000000 0.607843
0.047059 0.000000 0.988235
0.254902 0.000000 0.980392
0.490196 0.000000 0.980392
0.741176 0.003922 0.984314
0.996078 0.000000 0.984314
0.015686 0.207843 0.984314
0.227451 0.203922 0.980392
0.490196 0.188235 0.988235
0.737255 0.137255 0.980392
1.000000 0.000000 0.980392
0.000000 0.411765 0.992157
0.003922 0.407843 0.992157
0.400000 0.400000 0.988235
0.713725 0.372549 0.992157
1.000000 0.337255 1.000000
0.003922 0.705882 1.000000
0.003922 0.701961 0.992157
0.266667 0.682353 1.000000
0.678431 0.670588 1.000000
1.000000 0.674510 1.000000
0.000000 0.996078 0.988235
0.000000 0.992157 1.000000
0.070588 1.000000 0.992157
0.654902 1.000000 1.000000
0.996078 0.996078 1.000000
