lut_library_archive/removed_20260629/50个风景lut/50个风景lut24.cube
# 版权归凌孟成所有，侵权必究
TITLE "Jungle LUT #24"
#LUT size
LUT_3D_SIZE 25
#LUT data points
0.000000 0.003922 0.000000
0.019608 0.000000 0.000000
0.058824 0.003922 0.000000
0.101961 0.000000 0.003922
0.149020 0.000000 0.000000
0.192157 0.003922 0.003922
0.235294 0.000000 0.000000
0.278431 0.000000 0.000000
0.325490 0.000000 0.000000
0.368627 0.000000 0.000000
0.423529 0.000000 0.000000
0.470588 0.000000 0.003922
0.513725 0.000000 0.000000
0.568627 0.000000 0.000000
0.615686 0.000000 0.000000
0.666667 0.000000 0.003922
0.717647 0.000000 0.003922
0.764706 0.000000 0.000000
0.811765 0.000000 0.000000
0.862745 0.003922 0.000000
0.905882 0.000000 0.000000
0.949020 0.003922 0.007843
0.988235 0.000000 0.027451
1.000000 0.000000 0.039216
1.000000 0.000000 0.062745
0.000000 0.019608 0.000000
0.015686 0.019608 0.000000
0.062745 0.019608 0.000000
0.109804 0.019608 0.000000
0.156863 0.019608 0.003922
0.192157 0.023529 0.000000
0.247059 0.023529 0.000000
0.282353 0.015686 0.003922
0.325490 0.015686 0.000000
0.368627 0.011765 0.000000
0.415686 0.011765 0.000000
0.466667 0.003922 0.003922
0.513725 0.000000 0.000000
0.564706 0.000000 0.000000
0.607843 0.000000 0.000000
0.666667 0.003922 0.000000
0.713725 0.003922 0.000000
0.768627 0.003922 0.000000
0.815686 0.003922 0.003922
0.862745 0.003922 0.000000
0.905882 0.000000 0.000000
0.956863 0.000000 0.007843
1.000000 0.003922 0.015686
1.000000 0.000000 0.039216
1.000000 0.003922 0.043137
0.000000 0.058824 0.007843
0.039216 0.054902 0.000000
0.062745 0.054902 0.000000
0.109804 0.062745 0.000000
0.164706 0.054902 0.003922
0.196078 0.054902 0.000000
0.235294 0.054902 0.000000
0.282353 0.058824 0.000000
0.325490 0.054902 0.000000
0.376471 0.054902 0.000000
0.419608 0.050980 0.003922
0.470588 0.047059 0.000000
0.521569 0.043137 0.000000
0.564706 0.039216 0.000000
0.611765 0.031373 0.000000
0.662745 0.023529 0.003922
0.709804 0.019608 0.000000
0.764706 0.007843 0.000000
0.811765 0.000000 0.000000
0.862745 0.003922 0.000000
0.905882 0.000000 0.000000
0.945098 0.000000 0.003922
0.988235 0.000000 0.027451
0.996078 0.007843 0.027451
0.992157 0.027451 0.039216
0.003922 0.098039 0.000000
0.039216 0.101961 0.000000
0.078431 0.101961 0.000000
0.109804 0.101961 0.003922
0.152941 0.098039 0.000000
0.200000 0.098039 0.000000
0.239216 0.098039 0.000000
0.286275 0.101961 0.000000
0.329412 0.094118 0.000000
0.376471 0.094118 0.000000
0.419608 0.098039 0.003922
0.470588 0.094118 0.000000
0.513725 0.094118 0.000000
0.568627 0.098039 0.003922
0.607843 0.090196 0.003922
0.662745 0.090196 0.000000
0.713725 0.086275 0.000000
0.760784 0.078431 0.000000
0.807843 0.078431 0.000000
0.862745 0.078431 0.000000
0.905882 0.074510 0.000000
0.945098 0.074510 0.000000
0.988235 0.078431 0.007843
0.996078 0.082353 0.027451
0.996078 0.090196 0.031373
0.011765 0.133333 0.000000
0.058824 0.137255 0.000000
0.090196 0.133333 0.000000
0.129412 0.133333 0.000000
0.156863 0.133333 0.000000
0.203922 0.141176 0.007843
0.250980 0.137255 0.003922
0.286275 0.137255 0.000000
0.333333 0.137255 0.000000
0.376471 0.141176 0.000000
0.423529 0.141176 0.000000
0.466667 0.137255 0.003922
0.525490 0.141176 0.003922
0.564706 0.133333 0.000000
0.615686 0.137255 0.000000
0.666667 0.141176 0.003922
0.709804 0.137255 0.003922
0.756863 0.137255 0.000000
0.803922 0.133333 0.000000
0.854902 0.133333 0.000000
0.898039 0.129412 0.000000
0.937255 0.129412 0.003922
0.976471 0.129412 0.000000
1.000000 0.137255 0.011765
1.000000 0.141176 0.023529
0.039216 0.180392 0.000000
0.070588 0.176471 0.000000
0.105882 0.180392 0.003922
0.133333 0.180392 0.000000
0.172549 0.176471 0.003922
0.211765 0.180392 0.000000
0.250980 0.180392 0.000000
0.301961 0.180392 0.000000
0.341176 0.180392 0.000000
0.384314 0.180392 0.000000
0.427451 0.184314 0.000000
0.474510 0.184314 0.000000
0.525490 0.188235 0.003922
0.568627 0.184314 0.000000
0.619608 0.188235 0.000000
0.666667 0.188235 0.003922
0.721569 0.188235 0.000000
0.764706 0.184314 0.000000
0.807843 0.184314 0.000000
0.858824 0.184314 0.003922
0.901961 0.180392 0.000000
0.945098 0.188235 0.000000
0.984314 0.188235 0.000000
1.000000 0.188235 0.000000
0.992157 0.192157 0.023529
0.058824 0.219608 0.000000
0.078431 0.223529 0.011765
0.105882 0.219608 0.000000
0.141176 0.215686 0.000000
0.184314 0.219608 0.000000
0.219608 0.223529 0.000000
0.258824 0.223529 0.007843
0.298039 0.215686 0.000000
0.341176 0.219608 0.000000
0.384314 0.219608 0.000000
0.427451 0.223529 0.000000
0.478431 0.223529 0.003922
0.525490 0.227451 0.003922
0.572549 0.223529 0.003922
0.615686 0.227451 0.003922
0.666667 0.227451 0.000000
0.717647 0.231373 0.000000
0.764706 0.231373 0.003922
0.811765 0.231373 0.003922
0.858824 0.231373 0.000000
0.905882 0.235294 0.000000
0.945098 0.235294 0.000000
0.984314 0.235294 0.000000
0.996078 0.235294 0.003922
0.996078 0.235294 0.003922
0.066667 0.266667 0.000000
0.090196 0.254902 0.000000
0.121569 0.266667 0.000000
0.156863 0.258824 0.011765
0.184314 0.266667 0.000000
0.219608 0.262745 0.000000
0.262745 0.258824 0.000000
0.301961 0.258824 0.000000
0.345098 0.262745 0.000000
0.384314 0.262745 0.000000
0.431373 0.262745 0.000000
0.474510 0.266667 0.007843
0.521569 0.266667 0.000000
0.568627 0.266667 0.003922
0.623529 0.270588 0.000000
0.670588 0.266667 0.000000
0.717647 0.270588 0.000000
0.760784 0.274510 0.000000
0.811765 0.278431 0.003922
0.858824 0.278431 0.003922
0.905882 0.278431 0.003922
0.945098 0.278431 0.003922
0.992157 0.278431 0.000000
0.996078 0.282353 0.000000
0.996078 0.274510 0.007843
0.082353 0.309804 0.007843
0.113725 0.301961 0.003922
0.137255 0.301961 0.003922
0.160784 0.305882 0.000000
0.200000 0.313725 0.000000
0.235294 0.309804 0.000000
0.270588 0.301961 0.000000
0.313725 0.305882 0.003922
0.349020 0.305882 0.000000
0.396078 0.305882 0.000000
0.435294 0.305882 0.000000
0.478431 0.309804 0.000000
0.525490 0.305882 0.003922
0.572549 0.309804 0.000000
0.615686 0.305882 0.003922
0.666667 0.309804 0.000000
0.717647 0.313725 0.003922
0.768627 0.317647 0.003922
0.803922 0.317647 0.000000
0.854902 0.321569 0.000000
0.894118 0.317647 0.003922
0.941176 0.321569 0.011765
0.980392 0.321569 0.003922
1.000000 0.325490 0.000000
0.996078 0.321569 0.000000
0.094118 0.352941 0.003922
0.109804 0.345098 0.000000
0.141176 0.349020 0.000000
0.156863 0.356863 0.000000
0.207843 0.349020 0.003922
0.250980 0.352941 0.011765
0.286275 0.349020 0.003922
0.317647 0.352941 0.003922
0.364706 0.349020 0.000000
0.403922 0.349020 0.000000
0.443137 0.349020 0.003922
0.482353 0.349020 0.000000
0.525490 0.352941 0.003922
0.568627 0.352941 0.000000
0.615686 0.352941 0.000000
0.666667 0.356863 0.003922
0.709804 0.352941 0.003922
0.752941 0.356863 0.003922
0.803922 0.360784 0.007843
0.850980 0.360784 0.007843
0.890196 0.360784 0.000000
0.929412 0.364706 0.000000
0.972549 0.360784 0.000000
0.996078 0.360784 0.003922
0.996078 0.360784 0.003922
0.101961 0.400000 0.003922
0.125490 0.403922 0.003922
0.149020 0.403922 0.003922
0.180392 0.403922 0.000000
0.211765 0.400000 0.000000
0.243137 0.403922 0.003922
0.286275 0.407843 0.003922
0.325490 0.407843 0.003922
0.372549 0.403922 0.000000
0.411765 0.396078 0.003922
0.450980 0.400000 0.000000
0.498039 0.400000 0.000000
0.537255 0.400000 0.000000
0.588235 0.403922 0.000000
0.627451 0.403922 0.000000
0.674510 0.403922 0.000000
0.717647 0.411765 0.000000
0.764706 0.407843 0.000000
0.807843 0.403922 0.000000
0.854902 0.403922 0.000000
0.905882 0.407843 0.003922
0.945098 0.407843 0.000000
0.992157 0.407843 0.000000
1.000000 0.411765 0.003922
1.000000 0.411765 0.003922
0.113725 0.443137 0.000000
0.133333 0.447059 0.003922
0.156863 0.447059 0.000000
0.184314 0.454902 0.000000
0.215686 0.450980 0.003922
0.250980 0.447059 0.003922
0.286275 0.454902 0.003922
0.329412 0.447059 0.000000
0.372549 0.443137 0.003922
0.411765 0.447059 0.000000
0.450980 0.443137 0.000000
0.498039 0.447059 0.000000
0.537255 0.447059 0.000000
0.588235 0.447059 0.000000
0.631373 0.454902 0.003922
0.674510 0.450980 0.000000
0.725490 0.450980 0.003922
0.768627 0.450980 0.000000
0.807843 0.450980 0.000000
0.854902 0.450980 0.000000
0.901961 0.450980 0.000000
0.941176 0.450980 0.003922
0.980392 0.450980 0.000000
1.000000 0.447059 0.000000
1.000000 0.458824 0.003922
0.117647 0.486275 0.000000
0.133333 0.494118 0.000000
0.149020 0.498039 0.003922
0.188235 0.498039 0.000000
0.203922 0.498039 0.000000
0.254902 0.498039 0.000000
0.298039 0.494118 0.003922
0.337255 0.494118 0.003922
0.372549 0.490196 0.000000
0.411765 0.494118 0.000000
0.450980 0.490196 0.000000
0.498039 0.494118 0.000000
0.545098 0.490196 0.000000
0.592157 0.494118 0.000000
0.635294 0.498039 0.003922
0.674510 0.498039 0.000000
0.725490 0.498039 0.003922
0.764706 0.501961 0.000000
0.811765 0.501961 0.000000
0.850980 0.501961 0.000000
0.901961 0.498039 0.000000
0.945098 0.494118 0.003922
0.980392 0.490196 0.000000
0.992157 0.498039 0.000000
1.000000 0.494118 0.015686
0.117647 0.541176 0.000000
0.137255 0.541176 0.011765
0.149020 0.545098 0.000000
0.184314 0.545098 0.000000
0.227451 0.545098 0.000000
0.262745 0.545098 0.003922
0.298039 0.541176 0.003922
0.341176 0.541176 0.003922
0.376471 0.541176 0.000000
0.415686 0.545098 0.000000
0.454902 0.545098 0.000000
0.494118 0.545098 0.000000
0.541176 0.545098 0.003922
0.588235 0.545098 0.000000
0.627451 0.541176 0.000000
0.674510 0.545098 0.000000
0.725490 0.545098 0.000000
0.768627 0.541176 0.007843
0.807843 0.545098 0.003922
0.850980 0.541176 0.003922
0.890196 0.541176 0.007843
0.941176 0.533333 0.003922
0.976471 0.541176 0.000000
1.000000 0.533333 0.000000
1.000000 0.533333 0.011765
0.121569 0.584314 0.003922
0.129412 0.596078 0.000000
0.160784 0.592157 0.007843
0.196078 0.588235 0.000000
0.227451 0.592157 0.000000
0.266667 0.592157 0.003922
0.301961 0.588235 0.000000
0.337255 0.592157 0.000000
0.376471 0.588235 0.000000
0.415686 0.588235 0.000000
0.458824 0.588235 0.000000
0.501961 0.592157 0.003922
0.549020 0.588235 0.000000
0.592157 0.588235 0.000000
0.631373 0.588235 0.000000
0.682353 0.588235 0.000000
0.721569 0.588235 0.000000
0.768627 0.592157 0.000000
0.811765 0.588235 0.000000
0.850980 0.588235 0.000000
0.886275 0.584314 0.003922
0.933333 0.580392 0.000000
0.976471 0.576471 0.000000
0.996078 0.572549 0.003922
1.000000 0.572549 0.003922
0.113725 0.650980 0.000000
0.137255 0.650980 0.000000
0.160784 0.650980 0.000000
0.192157 0.650980 0.000000
0.227451 0.647059 0.000000
0.262745 0.650980 0.000000
0.301961 0.650980 0.000000
0.345098 0.654902 0.000000
0.388235 0.650980 0.003922
0.427451 0.650980 0.003922
0.470588 0.647059 0.000000
0.509804 0.647059 0.000000
0.556863 0.643137 0.003922
0.596078 0.647059 0.000000
0.639216 0.643137 0.000000
0.682353 0.647059 0.000000
0.729412 0.647059 0.000000
0.772549 0.643137 0.003922
0.811765 0.643137 0.000000
0.862745 0.635294 0.000000
0.901961 0.639216 0.000000
0.941176 0.631373 0.000000
0.980392 0.631373 0.000000
0.996078 0.627451 0.000000
0.996078 0.631373 0.000000
0.109804 0.690196 0.000000
0.133333 0.694118 0.003922
0.152941 0.690196 0.000000
0.188235 0.690196 0.003922
0.219608 0.690196 0.003922
0.262745 0.694118 0.000000
0.301961 0.694118 0.000000
0.341176 0.694118 0.000000
0.380392 0.694118 0.000000
0.423529 0.694118 0.000000
0.466667 0.690196 0.000000
0.509804 0.694118 0.000000
0.556863 0.694118 0.000000
0.600000 0.690196 0.000000
0.639216 0.690196 0.000000
0.690196 0.690196 0.007843
0.729412 0.690196 0.003922
0.772549 0.690196 0.003922
0.811765 0.690196 0.000000
0.854902 0.686275 0.000000
0.898039 0.678431 0.000000
0.937255 0.682353 0.000000
0.980392 0.678431 0.000000
0.996078 0.670588 0.000000
1.000000 0.670588 0.003922
0.105882 0.733333 0.000000
0.129412 0.733333 0.000000
0.156863 0.741176 0.000000
0.184314 0.737255 0.000000
0.227451 0.733333 0.000000
0.262745 0.733333 0.003922
0.301961 0.733333 0.000000
0.341176 0.733333 0.000000
0.380392 0.733333 0.000000
0.419608 0.733333 0.000000
0.462745 0.737255 0.003922
0.505882 0.745098 0.003922
0.545098 0.737255 0.000000
0.592157 0.733333 0.000000
0.643137 0.729412 0.000000
0.686275 0.733333 0.003922
0.729412 0.737255 0.003922
0.764706 0.733333 0.000000
0.811765 0.733333 0.007843
0.850980 0.733333 0.003922
0.890196 0.729412 0.000000
0.937255 0.725490 0.003922
0.980392 0.721569 0.000000
0.996078 0.713725 0.000000
1.000000 0.709804 0.000000
0.090196 0.784314 0.000000
0.113725 0.792157 0.000000
0.152941 0.780392 0.000000
0.184314 0.772549 0.000000
0.223529 0.780392 0.000000
0.247059 0.780392 0.000000
0.294118 0.780392 0.003922
0.337255 0.784314 0.003922
0.380392 0.780392 0.003922
0.419608 0.780392 0.000000
0.462745 0.780392 0.000000
0.509804 0.776471 0.000000
0.552941 0.780392 0.003922
0.596078 0.776471 0.003922
0.635294 0.776471 0.000000
0.686275 0.780392 0.003922
0.729412 0.776471 0.000000
0.768627 0.776471 0.000000
0.807843 0.780392 0.000000
0.854902 0.780392 0.000000
0.886275 0.772549 0.000000
0.933333 0.768627 0.000000
0.968627 0.756863 0.000000
0.996078 0.760784 0.007843
1.000000 0.756863 0.000000
0.094118 0.819608 0.000000
0.113725 0.819608 0.000000
0.137255 0.823529 0.003922
0.172549 0.819608 0.011765
0.203922 0.823529 0.000000
0.247059 0.827451 0.003922
0.282353 0.823529 0.000000
0.333333 0.827451 0.000000
0.376471 0.823529 0.000000
0.415686 0.823529 0.003922
0.462745 0.823529 0.003922
0.509804 0.823529 0.003922
0.549020 0.823529 0.000000
0.592157 0.819608 0.003922
0.631373 0.819608 0.000000
0.682353 0.819608 0.003922
0.721569 0.815686 0.000000
0.764706 0.819608 0.000000
0.807843 0.815686 0.000000
0.854902 0.815686 0.000000
0.894118 0.815686 0.000000
0.933333 0.807843 0.000000
0.980392 0.803922 0.000000
1.000000 0.800000 0.000000
0.996078 0.796078 0.000000
0.082353 0.870588 0.000000
0.105882 0.874510 0.003922
0.137255 0.874510 0.000000
0.168627 0.874510 0.000000
0.215686 0.870588 0.000000
0.254902 0.870588 0.003922
0.298039 0.870588 0.000000
0.337255 0.870588 0.000000
0.368627 0.870588 0.000000
0.411765 0.870588 0.003922
0.458824 0.874510 0.003922
0.501961 0.870588 0.003922
0.549020 0.866667 0.007843
0.592157 0.866667 0.003922
0.639216 0.866667 0.000000
0.682353 0.866667 0.003922
0.725490 0.866667 0.000000
0.768627 0.862745 0.000000
0.807843 0.862745 0.000000
0.858824 0.862745 0.007843
0.901961 0.862745 0.003922
0.937255 0.858824 0.000000
0.984314 0.854902 0.003922
0.992157 0.858824 0.000000
1.000000 0.847059 0.003922
0.050980 0.901961 0.000000
0.078431 0.905882 0.000000
0.121569 0.909804 0.003922
0.160784 0.913725 0.000000
0.196078 0.909804 0.000000
0.239216 0.913725 0.000000
0.282353 0.905882 0.000000
0.329412 0.913725 0.003922
0.372549 0.913725 0.000000
0.415686 0.909804 0.000000
0.458824 0.913725 0.000000
0.505882 0.909804 0.003922
0.545098 0.909804 0.003922
0.588235 0.909804 0.000000
0.639216 0.909804 0.003922
0.678431 0.909804 0.000000
0.721569 0.909804 0.000000
0.764706 0.905882 0.000000
0.803922 0.905882 0.000000
0.858824 0.905882 0.003922
0.898039 0.905882 0.000000
0.945098 0.901961 0.000000
0.984314 0.901961 0.003922
0.992157 0.898039 0.000000
0.992157 0.898039 0.000000
0.019608 0.945098 0.000000
0.062745 0.949020 0.000000
0.090196 0.949020 0.007843
0.137255 0.956863 0.011765
0.188235 0.945098 0.000000
0.231373 0.956863 0.003922
0.274510 0.952941 0.003922
0.321569 0.952941 0.000000
0.360784 0.945098 0.000000
0.403922 0.949020 0.000000
0.450980 0.949020 0.003922
0.498039 0.949020 0.003922
0.537255 0.941176 0.000000
0.576471 0.941176 0.000000
0.619608 0.945098 0.000000
0.670588 0.949020 0.003922
0.717647 0.945098 0.000000
0.764706 0.941176 0.000000
0.807843 0.937255 0.000000
0.850980 0.945098 0.000000
0.898039 0.941176 0.000000
0.941176 0.937255 0.000000
0.972549 0.937255 0.000000
1.000000 0.937255 0.000000
1.000000 0.937255 0.007843
0.000000 0.984314 0.000000
0.015686 0.980392 0.000000
0.074510 0.984314 0.000000
0.125490 0.992157 0.000000
0.172549 0.988235 0.003922
0.215686 0.984314 0.000000
0.262745 0.988235 0.000000
0.309804 0.984314 0.000000
0.352941 0.984314 0.000000
0.400000 0.984314 0.003922
0.439216 0.984314 0.000000
0.490196 0.980392 0.000000
0.529412 0.976471 0.003922
0.572549 0.984314 0.000000
0.623529 0.984314 0.007843
0.666667 0.980392 0.003922
0.709804 0.980392 0.003922
0.760784 0.976471 0.000000
0.800000 0.976471 0.000000
0.850980 0.976471 0.000000
0.894118 0.972549 0.003922
0.941176 0.964706 0.000000
0.984314 0.968627 0.000000
1.000000 0.968627 0.000000
1.000000 0.968627 0.015686
0.000000 0.996078 0.000000
0.000000 1.000000 0.003922
0.023529 0.996078 0.000000
0.094118 1.000000 0.003922
0.152941 0.996078 0.000000
0.196078 1.000000 0.000000
0.243137 1.000000 0.000000
0.290196 1.000000 0.000000
0.341176 1.000000 0.000000
0.384314 1.000000 0.000000
0.439216 1.000000 0.000000
0.478431 1.000000 0.000000
0.529412 1.000000 0.000000
0.576471 0.996078 0.000000
0.623529 0.996078 0.000000
0.674510 1.000000 0.003922
0.717647 0.996078 0.000000
0.764706 1.000000 0.003922
0.815686 1.000000 0.003922
0.862745 1.000000 0.003922
0.909804 1.000000 0.000000
0.952941 1.000000 0.000000
0.988235 1.000000 0.000000
1.000000 0.996078 0.003922
1.000000 0.996078 0.003922
0.000000 0.000000 0.019608
0.023529 0.000000 0.023529
0.062745 0.003922 0.023529
0.101961 0.003922 0.019608
0.145098 0.000000 0.027451
0.192157 0.000000 0.023529
0.235294 0.003922 0.019608
0.282353 0.003922 0.027451
0.333333 0.000000 0.019608
0.376471 0.003922 0.027451
0.419608 0.000000 0.023529
0.466667 0.000000 0.023529
0.513725 0.000000 0.023529
0.560784 0.003922 0.027451
0.615686 0.000000 0.027451
0.658824 0.007843 0.031373
0.717647 0.000000 0.039216
0.764706 0.000000 0.035294
0.811765 0.000000 0.039216
0.858824 0.003922 0.039216
0.909804 0.003922 0.047059
0.949020 0.000000 0.054902
0.992157 0.000000 0.058824
1.000000 0.000000 0.074510
1.000000 0.000000 0.086275
0.000000 0.019608 0.031373
0.019608 0.019608 0.027451
0.066667 0.019608 0.019608
0.101961 0.023529 0.019608
0.145098 0.019608 0.023529
0.188235 0.023529 0.027451
0.243137 0.023529 0.027451
0.278431 0.019608 0.027451
0.325490 0.015686 0.027451
0.372549 0.011765 0.023529
0.419608 0.011765 0.023529
0.466667 0.000000 0.023529
0.513725 0.000000 0.023529
0.568627 0.000000 0.027451
0.615686 0.000000 0.027451
0.666667 0.000000 0.019608
0.713725 0.000000 0.027451
0.764706 0.000000 0.031373
0.807843 0.000000 0.035294
0.854902 0.000000 0.043137
0.898039 0.000000 0.043137
0.949020 0.000000 0.054902
0.992157 0.003922 0.062745
1.000000 0.003922 0.078431
0.996078 0.007843 0.074510
0.000000 0.058824 0.031373
0.031373 0.050980 0.023529
0.074510 0.066667 0.015686
0.113725 0.058824 0.023529
0.160784 0.054902 0.011765
0.203922 0.058824 0.027451
0.243137 0.058824 0.027451
0.286275 0.054902 0.023529
0.329412 0.054902 0.023529
0.376471 0.050980 0.019608
0.419608 0.047059 0.023529
0.470588 0.043137 0.023529
0.513725 0.043137 0.019608
0.564706 0.043137 0.023529
0.615686 0.031373 0.023529
0.666667 0.023529 0.019608
0.713725 0.019608 0.027451
0.760784 0.007843 0.019608
0.815686 0.007843 0.027451
0.858824 0.003922 0.031373
0.909804 0.003922 0.043137
0.949020 0.003922 0.047059
0.996078 0.000000 0.062745
0.996078 0.007843 0.066667
0.992157 0.023529 0.074510
0.003922 0.098039 0.011765
0.043137 0.094118 0.015686
0.086275 0.094118 0.011765
0.121569 0.101961 0.027451
0.156863 0.101961 0.000000
0.203922 0.101961 0.011765
0.247059 0.098039 0.015686
0.286275 0.098039 0.011765
0.329412 0.090196 0.007843
0.376471 0.094118 0.007843
0.415686 0.094118 0.007843
0.462745 0.090196 0.011765
0.505882 0.094118 0.011765
0.564706 0.094118 0.007843
0.607843 0.090196 0.011765
0.658824 0.082353 0.011765
0.705882 0.086275 0.011765
0.756863 0.078431 0.015686
0.800000 0.078431 0.015686
0.854902 0.074510 0.015686
0.905882 0.074510 0.027451
0.949020 0.070588 0.039216
0.988235 0.078431 0.047059
1.000000 0.082353 0.070588
0.988235 0.090196 0.070588
0.023529 0.137255 0.019608
0.047059 0.141176 0.007843
0.090196 0.133333 0.007843
0.125490 0.141176 0.011765
0.172549 0.137255 0.015686
0.211765 0.137255 0.011765
0.250980 0.137255 0.011765
0.294118 0.137255 0.007843
0.341176 0.133333 0.007843
0.384314 0.137255 0.007843
0.427451 0.137255 0.007843
0.470588 0.133333 0.003922
0.521569 0.133333 0.003922
0.564706 0.133333 0.003922
0.615686 0.133333 0.003922
0.662745 0.137255 0.000000
0.705882 0.133333 0.003922
0.756863 0.133333 0.007843
0.807843 0.137255 0.000000
0.847059 0.133333 0.007843
0.894118 0.121569 0.015686
0.933333 0.129412 0.015686
0.976471 0.133333 0.023529
0.996078 0.133333 0.039216
1.000000 0.137255 0.050980
0.039216 0.176471 0.007843
0.066667 0.180392 0.007843
0.098039 0.184314 0.003922
0.133333 0.180392 0.000000
0.172549 0.176471 0.003922
0.211765 0.180392 0.000000
0.250980 0.180392 0.000000
0.301961 0.180392 0.000000
0.345098 0.180392 0.000000
0.384314 0.176471 0.003922
0.427451 0.176471 0.000000
0.470588 0.180392 0.003922
0.521569 0.176471 0.000000
0.568627 0.184314 0.000000
0.623529 0.184314 0.003922
0.666667 0.188235 0.003922
0.713725 0.180392 0.000000
0.760784 0.180392 0.000000
0.811765 0.188235 0.000000
0.858824 0.188235 0.000000
0.905882 0.188235 0.000000
0.949020 0.188235 0.007843
0.988235 0.188235 0.023529
1.000000 0.188235 0.031373
0.996078 0.192157 0.039216
0.050980 0.219608 0.000000
0.078431 0.227451 0.003922
0.113725 0.223529 0.000000
0.141176 0.215686 0.000000
0.184314 0.219608 0.003922
0.219608 0.223529 0.000000
0.266667 0.219608 0.000000
0.301961 0.219608 0.000000
0.345098 0.219608 0.000000
0.384314 0.219608 0.000000
0.427451 0.223529 0.000000
0.474510 0.219608 0.000000
0.517647 0.223529 0.000000
0.564706 0.227451 0.003922
0.615686 0.227451 0.003922
0.674510 0.227451 0.000000
0.717647 0.231373 0.000000
0.764706 0.231373 0.003922
0.807843 0.227451 0.000000
0.858824 0.231373 0.003922
0.901961 0.231373 0.000000
0.945098 0.235294 0.000000
0.984314 0.235294 0.000000
1.000000 0.235294 0.015686
1.000000 0.235294 0.023529
0.050980 0.266667 0.000000
0.086275 0.262745 0.000000
0.117647 0.262745 0.000000
0.156863 0.262745 0.000000
0.184314 0.258824 0.000000
0.227451 0.266667 0.000000
0.262745 0.258824 0.000000
0.305882 0.262745 0.003922
0.352941 0.262745 0.000000
0.392157 0.262745 0.000000
0.435294 0.266667 0.000000
0.478431 0.262745 0.000000
0.529412 0.266667 0.000000
0.572549 0.270588 0.007843
0.619608 0.266667 0.000000
0.662745 0.270588 0.003922
0.717647 0.266667 0.003922
0.764706 0.270588 0.000000
0.815686 0.274510 0.000000
0.858824 0.278431 0.003922
0.901961 0.274510 0.000000
0.941176 0.274510 0.000000
0.992157 0.278431 0.000000
1.000000 0.278431 0.000000
1.000000 0.274510 0.003922
0.066667 0.313725 0.003922
0.101961 0.309804 0.003922
0.133333 0.305882 0.000000
0.156863 0.309804 0.000000
0.196078 0.305882 0.007843
0.235294 0.309804 0.000000
0.274510 0.305882 0.003922
0.313725 0.305882 0.003922
0.352941 0.309804 0.000000
0.396078 0.305882 0.000000
0.439216 0.309804 0.000000
0.486275 0.309804 0.000000
0.525490 0.305882 0.003922
0.572549 0.309804 0.000000
0.611765 0.309804 0.003922
0.666667 0.309804 0.000000
0.709804 0.313725 0.000000
0.756863 0.313725 0.000000
0.800000 0.313725 0.000000
0.850980 0.313725 0.000000
0.894118 0.317647 0.011765
0.933333 0.313725 0.000000
0.980392 0.321569 0.003922
1.000000 0.317647 0.000000
1.000000 0.317647 0.000000
0.078431 0.349020 0.000000
0.109804 0.364706 0.003922
0.137255 0.352941 0.000000
0.168627 0.349020 0.000000
0.200000 0.352941 0.003922
0.235294 0.345098 0.003922
0.274510 0.349020 0.000000
0.309804 0.349020 0.000000
0.352941 0.349020 0.000000
0.392157 0.349020 0.000000
0.443137 0.349020 0.000000
0.482353 0.349020 0.000000
0.533333 0.356863 0.000000
0.568627 0.352941 0.000000
0.615686 0.352941 0.000000
0.666667 0.356863 0.000000
0.709804 0.352941 0.003922
0.752941 0.356863 0.003922
0.807843 0.356863 0.007843
0.847059 0.356863 0.003922
0.890196 0.352941 0.000000
0.929412 0.352941 0.000000
0.968627 0.356863 0.000000
0.996078 0.360784 0.003922
0.996078 0.360784 0.003922
0.098039 0.403922 0.003922
0.117647 0.400000 0.000000
0.149020 0.403922 0.003922
0.180392 0.403922 0.000000
0.215686 0.396078 0.000000
0.250980 0.400000 0.000000
0.282353 0.403922 0.000000
0.321569 0.403922 0.000000
0.360784 0.403922 0.003922
0.407843 0.400000 0.003922
