lut_library_archive/removed_20260629/50个风景lut/50个风景lut36.cube
# 版权归凌孟成所有，侵权必究
TITLE "Jungle LUT #36"
#LUT size
LUT_3D_SIZE 25
#LUT data points
0.000000 0.000000 0.007843
0.003922 0.000000 0.000000
0.070588 0.000000 0.000000
0.105882 0.003922 0.000000
0.156863 0.000000 0.000000
0.211765 0.000000 0.000000
0.243137 0.003922 0.000000
0.290196 0.000000 0.003922
0.329412 0.000000 0.000000
0.368627 0.000000 0.000000
0.415686 0.003922 0.000000
0.454902 0.003922 0.000000
0.494118 0.000000 0.003922
0.533333 0.000000 0.007843
0.572549 0.000000 0.011765
0.611765 0.000000 0.015686
0.654902 0.003922 0.027451
0.694118 0.000000 0.031373
0.741176 0.000000 0.039216
0.792157 0.003922 0.047059
0.831373 0.000000 0.058824
0.874510 0.003922 0.070588
0.917647 0.000000 0.074510
0.960784 0.003922 0.082353
1.000000 0.000000 0.086275
0.000000 0.015686 0.000000
0.015686 0.019608 0.000000
0.074510 0.011765 0.011765
0.109804 0.007843 0.003922
0.160784 0.003922 0.003922
0.200000 0.000000 0.000000
0.250980 0.000000 0.000000
0.290196 0.000000 0.003922
0.333333 0.003922 0.003922
0.372549 0.003922 0.003922
0.407843 0.000000 0.000000
0.454902 0.000000 0.003922
0.486275 0.000000 0.000000
0.533333 0.000000 0.007843
0.572549 0.000000 0.011765
0.611765 0.000000 0.023529
0.654902 0.000000 0.031373
0.698039 0.000000 0.039216
0.741176 0.000000 0.047059
0.788235 0.000000 0.050980
0.831373 0.000000 0.058824
0.870588 0.000000 0.066667
0.917647 0.000000 0.074510
0.960784 0.003922 0.082353
1.000000 0.000000 0.086275
0.000000 0.054902 0.003922
0.035294 0.050980 0.000000
0.078431 0.047059 0.003922
0.117647 0.050980 0.000000
0.168627 0.039216 0.003922
0.196078 0.039216 0.000000
0.247059 0.035294 0.000000
0.286275 0.035294 0.000000
0.333333 0.023529 0.000000
0.372549 0.023529 0.000000
0.415686 0.019608 0.003922
0.450980 0.015686 0.007843
0.498039 0.011765 0.011765
0.537255 0.011765 0.015686
0.572549 0.000000 0.019608
0.611765 0.000000 0.023529
0.654902 0.000000 0.031373
0.694118 0.000000 0.039216
0.741176 0.000000 0.047059
0.784314 0.003922 0.062745
0.831373 0.000000 0.058824
0.870588 0.000000 0.066667
0.917647 0.000000 0.074510
0.956863 0.003922 0.082353
1.000000 0.000000 0.094118
0.003922 0.098039 0.003922
0.039216 0.094118 0.003922
0.090196 0.086275 0.000000
0.133333 0.082353 0.007843
0.164706 0.086275 0.000000
0.215686 0.090196 0.000000
0.250980 0.086275 0.000000
0.298039 0.082353 0.000000
0.333333 0.078431 0.000000
0.372549 0.078431 0.003922
0.411765 0.078431 0.007843
0.454902 0.074510 0.011765
0.498039 0.074510 0.023529
0.529412 0.066667 0.019608
0.572549 0.070588 0.027451
0.615686 0.074510 0.035294
0.658824 0.070588 0.043137
0.694118 0.066667 0.043137
0.745098 0.066667 0.050980
0.788235 0.062745 0.062745
0.831373 0.058824 0.066667
0.870588 0.054902 0.070588
0.921569 0.047059 0.082353
0.960784 0.054902 0.086275
1.000000 0.054902 0.098039
0.023529 0.129412 0.000000
0.066667 0.133333 0.007843
0.094118 0.133333 0.000000
0.141176 0.129412 0.000000
0.168627 0.129412 0.000000
0.215686 0.133333 0.011765
0.258824 0.129412 0.007843
0.298039 0.121569 0.007843
0.341176 0.125490 0.015686
0.376471 0.125490 0.015686
0.415686 0.125490 0.019608
0.458824 0.125490 0.015686
0.494118 0.125490 0.023529
0.533333 0.125490 0.027451
0.572549 0.125490 0.031373
0.615686 0.125490 0.047059
0.658824 0.121569 0.050980
0.698039 0.121569 0.054902
0.745098 0.121569 0.066667
0.784314 0.121569 0.070588
0.835294 0.121569 0.078431
0.882353 0.121569 0.086275
0.917647 0.125490 0.086275
0.960784 0.121569 0.090196
1.000000 0.117647 0.101961
0.050980 0.172549 0.007843
0.078431 0.176471 0.011765
0.113725 0.180392 0.015686
0.141176 0.172549 0.011765
0.180392 0.172549 0.019608
0.219608 0.172549 0.015686
0.258824 0.172549 0.011765
0.305882 0.172549 0.023529
0.341176 0.168627 0.023529
0.380392 0.168627 0.027451
0.419608 0.168627 0.027451
0.458824 0.176471 0.035294
0.498039 0.172549 0.039216
0.537255 0.172549 0.043137
0.576471 0.172549 0.047059
0.619608 0.176471 0.058824
0.658824 0.176471 0.062745
0.701961 0.172549 0.066667
0.745098 0.172549 0.074510
0.792157 0.172549 0.086275
0.831373 0.176471 0.082353
0.874510 0.176471 0.090196
0.921569 0.172549 0.098039
0.960784 0.172549 0.101961
1.000000 0.176471 0.109804
0.062745 0.211765 0.027451
0.094118 0.219608 0.027451
0.121569 0.211765 0.031373
0.149020 0.211765 0.019608
0.188235 0.211765 0.023529
0.223529 0.219608 0.039216
0.270588 0.215686 0.039216
0.301961 0.215686 0.031373
0.341176 0.211765 0.035294
0.380392 0.215686 0.035294
0.419608 0.211765 0.039216
0.458824 0.219608 0.047059
0.494118 0.215686 0.047059
0.537255 0.215686 0.058824
0.580392 0.219608 0.066667
0.615686 0.215686 0.058824
0.658824 0.219608 0.070588
0.701961 0.215686 0.074510
0.749020 0.223529 0.086275
0.792157 0.219608 0.090196
0.835294 0.223529 0.094118
0.874510 0.223529 0.098039
0.917647 0.227451 0.105882
0.956863 0.227451 0.105882
0.992157 0.227451 0.109804
0.074510 0.258824 0.047059
0.105882 0.258824 0.050980
0.125490 0.258824 0.050980
0.152941 0.258824 0.043137
0.196078 0.250980 0.043137
0.235294 0.250980 0.050980
0.266667 0.254902 0.047059
0.305882 0.254902 0.050980
0.349020 0.258824 0.054902
0.384314 0.258824 0.058824
0.423529 0.258824 0.062745
0.454902 0.258824 0.062745
0.494118 0.258824 0.070588
0.533333 0.254902 0.074510
0.580392 0.262745 0.078431
0.619608 0.262745 0.086275
0.658824 0.262745 0.082353
0.701961 0.266667 0.090196
0.749020 0.270588 0.094118
0.788235 0.266667 0.098039
0.835294 0.270588 0.098039
0.874510 0.270588 0.105882
0.925490 0.270588 0.113725
0.960784 0.270588 0.137255
1.000000 0.270588 0.141176
0.074510 0.305882 0.054902
0.105882 0.301961 0.047059
0.129412 0.301961 0.062745
0.156863 0.305882 0.066667
0.200000 0.301961 0.054902
0.227451 0.305882 0.066667
0.270588 0.301961 0.070588
0.305882 0.298039 0.066667
0.345098 0.305882 0.074510
0.380392 0.301961 0.066667
0.419608 0.305882 0.078431
0.454902 0.301961 0.070588
0.498039 0.298039 0.074510
0.537255 0.305882 0.090196
0.580392 0.305882 0.101961
0.623529 0.309804 0.101961
0.662745 0.313725 0.101961
0.705882 0.313725 0.109804
0.741176 0.313725 0.101961
0.788235 0.313725 0.109804
0.827451 0.309804 0.117647
0.878431 0.317647 0.121569
0.925490 0.313725 0.125490
0.956863 0.313725 0.133333
0.996078 0.317647 0.129412
0.086275 0.341176 0.066667
0.109804 0.345098 0.062745
0.129412 0.345098 0.078431
0.168627 0.345098 0.082353
0.200000 0.345098 0.074510
0.231373 0.345098 0.082353
0.266667 0.349020 0.078431
0.305882 0.349020 0.082353
0.341176 0.345098 0.082353
0.384314 0.349020 0.094118
0.415686 0.345098 0.086275
0.450980 0.341176 0.086275
0.498039 0.349020 0.094118
0.537255 0.349020 0.098039
0.576471 0.349020 0.098039
0.619608 0.352941 0.105882
0.658824 0.352941 0.109804
0.705882 0.352941 0.117647
0.745098 0.352941 0.117647
0.792157 0.352941 0.125490
0.831373 0.360784 0.125490
0.878431 0.360784 0.137255
0.917647 0.360784 0.133333
0.964706 0.356863 0.137255
0.996078 0.360784 0.141176
0.090196 0.392157 0.086275
0.105882 0.388235 0.090196
0.133333 0.392157 0.094118
0.164706 0.392157 0.101961
0.211765 0.380392 0.101961
0.231373 0.388235 0.101961
0.266667 0.388235 0.086275
0.305882 0.392157 0.098039
0.345098 0.392157 0.094118
0.384314 0.392157 0.098039
0.423529 0.392157 0.098039
0.458824 0.396078 0.101961
0.501961 0.400000 0.109804
0.537255 0.392157 0.113725
0.576471 0.392157 0.117647
0.619608 0.396078 0.125490
0.658824 0.396078 0.121569
0.705882 0.400000 0.125490
0.749020 0.400000 0.133333
0.788235 0.400000 0.133333
0.831373 0.400000 0.129412
0.874510 0.403922 0.137255
0.925490 0.403922 0.141176
0.964706 0.403922 0.145098
0.996078 0.403922 0.156863
0.086275 0.435294 0.105882
0.113725 0.435294 0.105882
0.129412 0.431373 0.109804
0.164706 0.435294 0.109804
0.203922 0.435294 0.105882
0.227451 0.439216 0.105882
0.266667 0.439216 0.105882
0.301961 0.431373 0.113725
0.341176 0.431373 0.117647
0.384314 0.435294 0.121569
0.423529 0.435294 0.117647
0.462745 0.435294 0.117647
0.498039 0.439216 0.121569
0.537255 0.439216 0.117647
0.580392 0.443137 0.125490
0.619608 0.443137 0.133333
0.658824 0.443137 0.129412
0.701961 0.439216 0.129412
0.749020 0.447059 0.141176
0.788235 0.447059 0.137255
0.835294 0.447059 0.145098
0.874510 0.447059 0.145098
0.917647 0.450980 0.152941
0.968627 0.443137 0.164706
0.992157 0.450980 0.164706
0.086275 0.478431 0.133333
0.101961 0.478431 0.117647
0.121569 0.474510 0.121569
0.152941 0.486275 0.121569
0.188235 0.478431 0.129412
0.223529 0.474510 0.125490
0.266667 0.478431 0.133333
0.298039 0.478431 0.125490
0.337255 0.478431 0.125490
0.376471 0.478431 0.129412
0.419608 0.482353 0.133333
0.458824 0.482353 0.137255
0.501961 0.478431 0.141176
0.541176 0.478431 0.145098
0.580392 0.486275 0.141176
0.619608 0.486275 0.145098
0.666667 0.486275 0.149020
0.705882 0.486275 0.152941
0.749020 0.490196 0.152941
0.792157 0.486275 0.156863
0.835294 0.490196 0.160784
0.882353 0.486275 0.164706
0.913725 0.490196 0.164706
0.960784 0.486275 0.168627
0.992157 0.498039 0.164706
0.070588 0.517647 0.141176
0.094118 0.525490 0.137255
0.109804 0.517647 0.137255
0.145098 0.521569 0.133333
0.188235 0.525490 0.145098
0.211765 0.525490 0.137255
0.250980 0.525490 0.137255
0.301961 0.525490 0.145098
0.333333 0.517647 0.133333
0.380392 0.525490 0.149020
0.403922 0.521569 0.145098
0.447059 0.525490 0.145098
0.486275 0.525490 0.149020
0.533333 0.521569 0.141176
0.576471 0.529412 0.145098
0.615686 0.529412 0.141176
0.666667 0.533333 0.152941
0.705882 0.525490 0.149020
0.752941 0.533333 0.160784
0.800000 0.529412 0.156863
0.839216 0.529412 0.164706
0.870588 0.533333 0.168627
0.921569 0.533333 0.168627
0.956863 0.529412 0.172549
1.000000 0.533333 0.176471
0.027451 0.564706 0.149020
0.070588 0.568627 0.149020
0.101961 0.568627 0.149020
0.133333 0.572549 0.141176
0.164706 0.568627 0.156863
0.211765 0.568627 0.156863
0.258824 0.564706 0.156863
0.298039 0.568627 0.149020
0.325490 0.568627 0.141176
0.368627 0.572549 0.141176
0.419608 0.572549 0.152941
0.462745 0.568627 0.149020
0.494118 0.568627 0.156863
0.537255 0.572549 0.160784
0.576471 0.572549 0.156863
0.619608 0.576471 0.164706
0.666667 0.576471 0.168627
0.705882 0.576471 0.164706
0.745098 0.572549 0.160784
0.788235 0.576471 0.160784
0.831373 0.576471 0.176471
0.882353 0.580392 0.180392
0.921569 0.576471 0.184314
0.964706 0.576471 0.180392
1.000000 0.576471 0.184314
0.000000 0.611765 0.152941
0.039216 0.611765 0.156863
0.074510 0.619608 0.160784
0.125490 0.611765 0.156863
0.156863 0.615686 0.156863
0.207843 0.619608 0.156863
0.239216 0.619608 0.164706
0.286275 0.611765 0.164706
0.329412 0.615686 0.164706
0.368627 0.611765 0.168627
0.419608 0.615686 0.172549
0.454902 0.611765 0.164706
0.498039 0.615686 0.168627
0.545098 0.615686 0.176471
0.584314 0.615686 0.172549
0.623529 0.615686 0.180392
0.662745 0.619608 0.168627
0.705882 0.619608 0.180392
0.749020 0.619608 0.176471
0.792157 0.623529 0.180392
0.839216 0.619608 0.176471
0.878431 0.623529 0.172549
0.921569 0.619608 0.180392
0.960784 0.615686 0.184314
1.000000 0.623529 0.200000
0.000000 0.654902 0.172549
0.003922 0.658824 0.176471
0.047059 0.658824 0.168627
0.090196 0.662745 0.176471
0.145098 0.654902 0.176471
0.192157 0.654902 0.172549
0.231373 0.662745 0.172549
0.286275 0.662745 0.168627
0.321569 0.658824 0.168627
0.364706 0.662745 0.168627
0.411765 0.666667 0.172549
0.450980 0.662745 0.176471
0.498039 0.662745 0.172549
0.537255 0.662745 0.180392
0.584314 0.662745 0.188235
0.627451 0.658824 0.180392
0.666667 0.658824 0.184314
0.705882 0.658824 0.180392
0.756863 0.662745 0.184314
0.796078 0.658824 0.188235
0.839216 0.666667 0.188235
0.882353 0.662745 0.188235
0.921569 0.662745 0.192157
0.960784 0.670588 0.188235
1.000000 0.662745 0.196078
0.003922 0.705882 0.172549
0.000000 0.705882 0.184314
0.011765 0.709804 0.176471
0.078431 0.698039 0.192157
0.125490 0.705882 0.172549
0.184314 0.701961 0.164706
0.227451 0.705882 0.176471
0.274510 0.705882 0.184314
0.313725 0.705882 0.180392
0.364706 0.705882 0.184314
0.411765 0.709804 0.184314
0.458824 0.705882 0.184314
0.501961 0.701961 0.188235
0.541176 0.701961 0.184314
0.580392 0.705882 0.184314
0.623529 0.705882 0.192157
0.666667 0.705882 0.192157
0.705882 0.705882 0.188235
0.756863 0.705882 0.188235
0.796078 0.705882 0.188235
0.843137 0.709804 0.188235
0.878431 0.705882 0.184314
0.917647 0.701961 0.196078
0.956863 0.709804 0.203922
1.000000 0.709804 0.196078
0.007843 0.749020 0.184314
0.003922 0.749020 0.192157
0.000000 0.752941 0.192157
0.043137 0.749020 0.188235
0.109804 0.749020 0.188235
0.168627 0.745098 0.184314
0.223529 0.749020 0.196078
0.266667 0.749020 0.188235
0.313725 0.752941 0.188235
0.364706 0.752941 0.188235
0.411765 0.752941 0.192157
0.450980 0.745098 0.176471
0.498039 0.752941 0.188235
0.541176 0.749020 0.192157
0.580392 0.749020 0.196078
0.631373 0.752941 0.203922
0.662745 0.745098 0.192157
0.705882 0.749020 0.196078
0.752941 0.749020 0.192157
0.796078 0.752941 0.196078
0.831373 0.749020 0.196078
0.890196 0.752941 0.192157
0.913725 0.745098 0.196078
0.956863 0.749020 0.200000
0.996078 0.749020 0.196078
0.003922 0.792157 0.203922
0.003922 0.788235 0.196078
0.000000 0.792157 0.188235
0.000000 0.788235 0.192157
0.101961 0.784314 0.188235
0.164706 0.792157 0.203922
0.219608 0.792157 0.200000
0.262745 0.796078 0.200000
0.305882 0.800000 0.200000
0.356863 0.800000 0.203922
0.403922 0.792157 0.196078
0.450980 0.788235 0.196078
0.498039 0.788235 0.196078
0.537255 0.788235 0.203922
0.580392 0.788235 0.200000
0.619608 0.788235 0.196078
0.662745 0.792157 0.200000
0.709804 0.788235 0.196078
0.752941 0.792157 0.200000
0.796078 0.796078 0.207843
0.831373 0.792157 0.200000
0.878431 0.792157 0.211765
0.917647 0.796078 0.207843
0.964706 0.792157 0.207843
0.996078 0.796078 0.211765
0.007843 0.835294 0.211765
0.000000 0.839216 0.207843
0.000000 0.831373 0.196078
0.003922 0.835294 0.192157
0.078431 0.835294 0.211765
0.145098 0.843137 0.207843
0.200000 0.835294 0.196078
0.262745 0.835294 0.196078
0.305882 0.835294 0.192157
0.356863 0.835294 0.203922
0.400000 0.839216 0.203922
0.443137 0.835294 0.203922
0.490196 0.831373 0.207843
0.533333 0.839216 0.207843
0.576471 0.835294 0.207843
0.615686 0.835294 0.203922
0.662745 0.835294 0.207843
0.701961 0.839216 0.203922
0.749020 0.835294 0.200000
0.792157 0.839216 0.211765
0.835294 0.835294 0.207843
0.874510 0.835294 0.211765
0.913725 0.835294 0.211765
0.964706 0.835294 0.219608
1.000000 0.835294 0.203922
0.000000 0.878431 0.196078
0.000000 0.886275 0.207843
0.000000 0.878431 0.196078
0.000000 0.882353 0.200000
0.066667 0.878431 0.211765
0.149020 0.874510 0.203922
0.192157 0.878431 0.211765
0.258824 0.874510 0.211765
0.301961 0.874510 0.211765
0.349020 0.882353 0.215686
0.396078 0.878431 0.215686
0.439216 0.878431 0.211765
0.482353 0.882353 0.211765
0.533333 0.882353 0.215686
0.576471 0.882353 0.211765
0.619608 0.878431 0.203922
0.658824 0.878431 0.207843
0.698039 0.878431 0.207843
0.745098 0.878431 0.203922
0.788235 0.878431 0.211765
0.827451 0.882353 0.211765
0.874510 0.882353 0.219608
0.913725 0.882353 0.215686
0.956863 0.874510 0.219608
1.000000 0.878431 0.219608
0.000000 0.921569 0.211765
0.000000 0.921569 0.211765
0.003922 0.917647 0.215686
0.000000 0.921569 0.200000
0.043137 0.917647 0.207843
0.129412 0.913725 0.211765
0.196078 0.921569 0.207843
0.239216 0.917647 0.211765
0.294118 0.917647 0.211765
0.341176 0.921569 0.207843
0.396078 0.917647 0.207843
0.435294 0.917647 0.207843
0.486275 0.921569 0.207843
0.529412 0.925490 0.211765
0.568627 0.917647 0.211765
0.611765 0.921569 0.219608
0.654902 0.917647 0.219608
0.694118 0.917647 0.215686
0.745098 0.921569 0.219608
0.788235 0.925490 0.219608
0.831373 0.921569 0.215686
0.866667 0.917647 0.219608
0.913725 0.917647 0.215686
0.956863 0.921569 0.219608
1.000000 0.917647 0.223529
0.000000 0.964706 0.215686
0.000000 0.960784 0.227451
0.011765 0.960784 0.215686
0.000000 0.960784 0.211765
0.027451 0.960784 0.219608
0.141176 0.956863 0.211765
0.184314 0.952941 0.207843
0.239216 0.964706 0.219608
0.282353 0.956863 0.211765
0.349020 0.968627 0.223529
0.388235 0.960784 0.219608
0.435294 0.964706 0.219608
0.474510 0.964706 0.219608
0.525490 0.960784 0.215686
0.572549 0.968627 0.223529
0.611765 0.960784 0.223529
0.654902 0.964706 0.223529
0.694118 0.952941 0.215686
0.741176 0.960784 0.227451
0.784314 0.960784 0.223529
0.827451 0.960784 0.235294
0.862745 0.960784 0.219608
0.905882 0.964706 0.231373
0.956863 0.956863 0.227451
0.996078 0.956863 0.231373
0.000000 1.000000 0.215686
0.003922 0.996078 0.223529
0.003922 0.996078 0.223529
0.011765 0.996078 0.227451
0.007843 0.996078 0.200000
0.101961 1.000000 0.219608
0.192157 1.000000 0.227451
0.254902 0.996078 0.227451
0.294118 0.996078 0.219608
0.337255 1.000000 0.219608
0.384314 0.996078 0.219608
0.431373 1.000000 0.223529
0.482353 1.000000 0.215686
0.525490 0.996078 0.219608
0.564706 1.000000 0.215686
0.607843 1.000000 0.227451
0.654902 1.000000 0.223529
0.694118 1.000000 0.227451
0.737255 0.996078 0.227451
0.780392 1.000000 0.235294
0.827451 1.000000 0.227451
0.870588 1.000000 0.227451
0.909804 1.000000 0.231373
0.956863 1.000000 0.235294
0.996078 1.000000 0.247059
0.000000 0.000000 0.019608
0.019608 0.000000 0.023529
0.074510 0.000000 0.031373
0.117647 0.000000 0.031373
0.156863 0.000000 0.035294
0.211765 0.000000 0.035294
0.235294 0.000000 0.031373
0.298039 0.000000 0.047059
0.329412 0.003922 0.050980
0.368627 0.003922 0.047059
0.415686 0.000000 0.050980
0.454902 0.000000 0.050980
0.494118 0.000000 0.054902
0.537255 0.003922 0.062745
0.576471 0.003922 0.062745
0.619608 0.000000 0.066667
0.654902 0.000000 0.078431
0.701961 0.000000 0.086275
0.741176 0.000000 0.094118
0.784314 0.003922 0.094118
0.827451 0.000000 0.098039
0.870588 0.003922 0.101961
0.917647 0.000000 0.105882
0.960784 0.003922 0.113725
0.996078 0.000000 0.121569
0.000000 0.011765 0.031373
0.023529 0.015686 0.027451
0.078431 0.011765 0.035294
0.117647 0.011765 0.031373
0.160784 0.007843 0.035294
0.200000 0.000000 0.035294
0.247059 0.003922 0.047059
0.286275 0.000000 0.035294
0.329412 0.003922 0.043137
0.376471 0.000000 0.047059
0.411765 0.007843 0.054902
0.458824 0.003922 0.062745
0.498039 0.000000 0.066667
0.537255 0.003922 0.062745
0.576471 0.000000 0.070588
0.619608 0.003922 0.086275
0.658824 0.003922 0.082353
0.701961 0.000000 0.086275
0.741176 0.000000 0.086275
0.784314 0.003922 0.094118
0.831373 0.003922 0.101961
0.870588 0.003922 0.101961
0.909804 0.003922 0.105882
0.960784 0.003922 0.121569
0.992157 0.007843 0.113725
0.007843 0.047059 0.043137
0.035294 0.050980 0.047059
0.086275 0.058824 0.035294
0.125490 0.047059 0.043137
0.160784 0.043137 0.043137
0.207843 0.050980 0.054902
0.243137 0.039216 0.047059
0.290196 0.035294 0.050980
0.329412 0.027451 0.050980
0.372549 0.023529 0.050980
0.415686 0.019608 0.058824
0.450980 0.011765 0.066667
0.490196 0.011765 0.070588
0.529412 0.011765 0.074510
0.568627 0.003922 0.074510
0.607843 0.000000 0.082353
0.654902 0.000000 0.078431
0.698039 0.003922 0.086275
0.741176 0.003922 0.098039
0.784314 0.003922 0.101961
0.823529 0.003922 0.098039
0.870588 0.003922 0.105882
0.925490 0.000000 0.109804
0.956863 0.000000 0.117647
1.000000 0.003922 0.117647
0.003922 0.086275 0.050980
0.047059 0.094118 0.047059
0.086275 0.101961 0.047059
0.137255 0.086275 0.054902
0.164706 0.094118 0.047059
0.207843 0.090196 0.050980
0.247059 0.090196 0.054902
0.290196 0.082353 0.058824
0.333333 0.078431 0.054902
0.368627 0.074510 0.054902
0.411765 0.078431 0.066667
0.443137 0.070588 0.062745
0.498039 0.074510 0.074510
0.533333 0.070588 0.074510
0.572549 0.066667 0.082353
0.615686 0.062745 0.086275
0.654902 0.062745 0.090196
0.705882 0.058824 0.094118
0.745098 0.050980 0.090196
0.792157 0.050980 0.098039
0.831373 0.050980 0.101961
0.866667 0.050980 0.105882
0.917647 0.047059 0.113725
0.960784 0.047059 0.129412
0.988235 0.047059 0.121569
0.035294 0.133333 0.058824
0.054902 0.129412 0.043137
0.090196 0.137255 0.058824
0.125490 0.129412 0.058824
0.164706 0.133333 0.054902
0.211765 0.129412 0.062745
0.254902 0.133333 0.062745
0.294118 0.133333 0.066667
0.345098 0.125490 0.066667
0.384314 0.125490 0.070588
0.423529 0.125490 0.074510
0.450980 0.121569 0.078431
0.494118 0.125490 0.086275
0.533333 0.125490 0.082353
0.568627 0.121569 0.082353
0.611765 0.125490 0.094118
0.650980 0.117647 0.086275
0.694118 0.121569 0.094118
0.745098 0.121569 0.098039
0.788235 0.125490 0.105882
0.831373 0.109804 0.109804
0.874510 0.113725 0.117647
0.913725 0.113725 0.117647
0.960784 0.113725 0.125490
1.000000 0.113725 0.129412
0.043137 0.172549 0.066667
0.058824 0.172549 0.062745
0.105882 0.180392 0.066667
0.129412 0.180392 0.062745
0.176471 0.172549 0.062745
0.219608 0.172549 0.070588
0.254902 0.176471 0.078431
0.290196 0.172549 0.078431
0.337255 0.176471 0.074510
0.376471 0.172549 0.078431
0.415686 0.172549 0.082353
0.450980 0.168627 0.074510
0.494118 0.172549 0.086275
0.529412 0.176471 0.090196
0.568627 0.172549 0.094118
0.611765 0.176471 0.098039
0.658824 0.168627 0.098039
0.698039 0.172549 0.105882
0.749020 0.172549 0.105882
0.788235 0.172549 0.113725
0.831373 0.168627 0.109804
0.874510 0.172549 0.117647
0.921569 0.168627 0.125490
0.964706 0.172549 0.133333
0.984314 0.176471 0.145098
0.054902 0.211765 0.070588
0.082353 0.215686 0.070588
0.117647 0.215686 0.090196
0.149020 0.215686 0.082353
0.192157 0.215686 0.082353
0.227451 0.215686 0.086275
0.262745 0.211765 0.078431
0.305882 0.215686 0.082353
0.345098 0.215686 0.086275
0.384314 0.215686 0.090196
0.419608 0.211765 0.086275
0.462745 0.215686 0.094118
0.490196 0.211765 0.094118
0.533333 0.215686 0.098039
0.572549 0.215686 0.101961
0.615686 0.219608 0.101961
0.662745 0.215686 0.105882
0.705882 0.223529 0.109804
0.741176 0.219608 0.113725
0.792157 0.219608 0.121569
0.831373 0.223529 0.121569
0.878431 0.223529 0.129412
0.917647 0.223529 0.129412
0.960784 0.215686 0.129412
1.000000 0.223529 0.141176
0.070588 0.254902 0.090196
0.090196 0.258824 0.078431
0.117647 0.254902 0.090196
0.152941 0.262745 0.074510
0.192157 0.258824 0.094118
0.215686 0.262745 0.082353
0.270588 0.258824 0.090196
0.309804 0.258824 0.094118
0.349020 0.258824 0.094118
0.388235 0.258824 0.098039
0.423529 0.258824 0.101961
0.462745 0.258824 0.101961
0.494118 0.262745 0.098039
0.533333 0.262745 0.101961
0.572549 0.258824 0.113725
0.619608 0.258824 0.117647
0.662745 0.262745 0.121569
0.705882 0.266667 0.121569
0.749020 0.262745 0.129412
0.788235 0.262745 0.125490
0.835294 0.262745 0.129412
0.878431 0.266667 0.137255
0.913725 0.270588 0.141176
0.964706 0.262745 0.137255
1.000000 0.270588 0.152941
0.078431 0.301961 0.094118
0.098039 0.305882 0.094118
0.125490 0.301961 0.086275
0.145098 0.301961 0.094118
0.196078 0.305882 0.105882
0.231373 0.301961 0.105882
0.266667 0.298039 0.098039
0.309804 0.301961 0.101961
0.345098 0.298039 0.101961
0.388235 0.301961 0.105882
0.419608 0.301961 0.105882
0.462745 0.305882 0.105882
0.501961 0.305882 0.109804
0.533333 0.305882 0.121569
0.572549 0.305882 0.129412
0.611765 0.305882 0.125490
0.658824 0.313725 0.133333
0.698039 0.313725 0.129412
0.745098 0.309804 0.129412
0.784314 0.309804 0.133333
0.823529 0.313725 0.141176
0.874510 0.305882 0.145098
0.929412 0.313725 0.152941
0.968627 0.313725 0.156863
0.996078 0.317647 0.160784
0.086275 0.345098 0.101961
0.109804 0.349020 0.113725
0.125490 0.345098 0.105882
0.160784 0.349020 0.105882
0.196078 0.345098 0.113725
0.231373 0.349020 0.113725
0.266667 0.341176 0.113725
0.301961 0.345098 0.109804
0.341176 0.345098 0.117647
0.372549 0.349020 0.113725
0.411765 0.349020 0.109804
0.458824 0.345098 0.117647
0.490196 0.349020 0.121569
0.533333 0.349020 0.129412
0.580392 0.349020 0.129412
0.623529 0.352941 0.137255
0.662745 0.349020 0.141176
0.705882 0.356863 0.145098
0.749020 0.352941 0.141176
0.788235 0.352941 0.145098
0.835294 0.360784 0.145098
0.882353 0.360784 0.152941
0.921569 0.360784 0.156863
0.968627 0.360784 0.156863
1.000000 0.360784 0.160784
0.078431 0.396078 0.133333
0.101961 0.384314 0.125490
0.129412 0.392157 0.121569
0.168627 0.392157 0.125490
0.200000 0.392157 0.125490
0.231373 0.392157 0.125490
0.266667 0.388235 0.121569
0.305882 0.396078 0.129412
0.337255 0.384314 0.125490
0.380392 0.388235 0.133333
