lut_library_archive/removed_20260629/50个风景lut/50个风景lut38.cube
# 版权归凌孟成所有，侵权必究
TITLE "Jungle LUT #38"
#LUT size
LUT_3D_SIZE 5
#LUT data points
0.000000 0.000000 0.000000
0.282353 0.003922 0.003922
0.572549 0.003922 0.000000
0.850980 0.007843 0.007843
0.996078 0.000000 0.000000
0.027451 0.274510 0.000000
0.286275 0.274510 0.000000
0.572549 0.282353 0.000000
0.850980 0.278431 0.003922
0.992157 0.278431 0.000000
0.121569 0.568627 0.000000
0.317647 0.568627 0.000000
0.588235 0.560784 0.003922
0.858824 0.556863 0.000000
1.000000 0.533333 0.000000
0.203922 0.823529 0.003922
0.349020 0.815686 0.007843
0.588235 0.815686 0.000000
0.835294 0.811765 0.000000
0.996078 0.784314 0.031373
0.286275 0.996078 0.137255
0.380392 0.996078 0.137255
0.572549 1.000000 0.149020
0.831373 1.000000 0.152941
1.000000 1.000000 0.176471
0.003922 0.000000 0.262745
0.282353 0.000000 0.258824
0.572549 0.000000 0.254902
0.850980 0.003922 0.258824
1.000000 0.047059 0.266667
0.043137 0.274510 0.250980
0.294118 0.282353 0.262745
0.576471 0.282353 0.258824
0.847059 0.282353 0.247059
0.988235 0.282353 0.254902
0.137255 0.564706 0.247059
0.321569 0.560784 0.254902
0.592157 0.564706 0.247059
0.854902 0.560784 0.250980
0.992157 0.533333 0.262745
0.207843 0.815686 0.247059
0.356863 0.815686 0.254902
0.584314 0.815686 0.258824
0.843137 0.815686 0.258824
1.000000 0.784314 0.278431
0.298039 0.996078 0.313725
0.392157 0.996078 0.305882
0.576471 1.000000 0.309804
0.831373 1.000000 0.305882
1.000000 1.000000 0.321569
0.027451 0.000000 0.525490
0.286275 0.007843 0.525490
0.572549 0.000000 0.529412
0.854902 0.000000 0.529412
1.000000 0.113725 0.513725
0.058824 0.274510 0.529412
0.305882 0.282353 0.525490
0.588235 0.278431 0.533333
0.850980 0.282353 0.521569
1.000000 0.317647 0.525490
0.125490 0.560784 0.533333
0.325490 0.560784 0.529412
0.596078 0.564706 0.521569
0.850980 0.560784 0.525490
1.000000 0.549020 0.529412
0.274510 0.819608 0.525490
0.384314 0.815686 0.529412
0.592157 0.819608 0.529412
0.839216 0.815686 0.525490
1.000000 0.796078 0.537255
0.352941 1.000000 0.549020
0.435294 1.000000 0.549020
0.603922 0.996078 0.549020
0.835294 1.000000 0.552941
1.000000 1.000000 0.560784
0.070588 0.003922 0.796078
0.301961 0.000000 0.792157
0.568627 0.003922 0.792157
0.850980 0.003922 0.792157
0.996078 0.152941 0.764706
0.098039 0.282353 0.792157
0.309804 0.282353 0.796078
0.580392 0.286275 0.792157
0.847059 0.290196 0.784314
1.000000 0.333333 0.752941
0.176471 0.552941 0.780392
0.341176 0.560784 0.784314
0.584314 0.564706 0.784314
0.843137 0.568627 0.780392
1.000000 0.584314 0.772549
0.282353 0.827451 0.776471
0.396078 0.815686 0.784314
0.615686 0.815686 0.780392
0.839216 0.811765 0.788235
1.000000 0.815686 0.788235
0.474510 1.000000 0.784314
0.525490 0.996078 0.784314
0.674510 1.000000 0.811765
0.835294 1.000000 0.792157
1.000000 1.000000 0.788235
0.105882 0.054902 0.996078
0.298039 0.062745 0.996078
0.549020 0.082353 1.000000
0.811765 0.121569 0.996078
1.000000 0.168627 1.000000
0.152941 0.286275 1.000000
0.317647 0.298039 1.000000
0.560784 0.298039 0.996078
0.819608 0.317647 0.996078
1.000000 0.341176 1.000000
0.227451 0.552941 1.000000
0.368627 0.564706 1.000000
0.584314 0.568627 1.000000
0.819608 0.580392 0.996078
0.992157 0.588235 1.000000
0.341176 0.807843 1.000000
0.427451 0.803922 1.000000
0.611765 0.807843 1.000000
0.827451 0.815686 1.000000
1.000000 0.811765 1.000000
0.427451 1.000000 0.988235
0.505882 1.000000 0.996078
0.654902 1.000000 1.000000
0.858824 1.000000 1.000000
1.000000 1.000000 1.000000
