lut_library/filter_lut/33portra400-2.cube
TITLE "Generated by Resolve"
LUT_3D_SIZE 9
0.0975509 0.0689403 0.0894484
0.151476 0.0762188 0.10515
0.315404 0.0582437 0.130419
0.511803 0.0225681 0.129534
0.655207 0.00102235 0.120073
0.747341 0.0096437 0.122042
0.800534 0.0195163 0.134524
0.85597 0.0332494 0.145098
0.90779 0.0883803 0.160739
0.125917 0.122683 0.0960555
0.161913 0.133532 0.105394
0.314244 0.149538 0.125368
0.501228 0.129366 0.128069
0.639368 0.158282 0.132143
0.725765 0.178347 0.134539
0.783963 0.178836 0.141207
0.844099 0.168475 0.154101
0.910567 0.158862 0.166613
0.152056 0.238697 0.0874342
0.175448 0.229725 0.102464
0.307271 0.299001 0.111864
0.484474 0.337484 0.156847
0.618418 0.366003 0.172595
0.703822 0.372381 0.179919
0.768231 0.369314 0.190921
0.833539 0.367987 0.204471
0.915358 0.332769 0.202701
0.177371 0.394827 0.0558785
0.205264 0.383459 0.0708476
0.345266 0.439826 0.100938
0.499123 0.48011 0.133623
0.627268 0.513664 0.181109
0.709178 0.529366 0.205661
0.772045 0.536477 0.222904
0.838911 0.529152 0.236423
0.920546 0.511101 0.252369
0.253056 0.526314 0.0701305
0.270939 0.527657 0.0748302
0.391791 0.558694 0.0995804
0.52079 0.58819 0.116976
0.632776 0.603876 0.158724
0.712352 0.620981 0.202502
0.781872 0.634852 0.233967
0.847181 0.643 0.259083
0.930388 0.638193 0.300694
0.324163 0.619684 0.0974289
0.352819 0.643809 0.0937057
0.44419 0.661631 0.114656
0.55671 0.677958 0.132891
0.65716 0.692485 0.145083
0.732204 0.702907 0.201709
0.799161 0.719554 0.240497
0.874891 0.741833 0.278157
0.94548 0.731807 0.341375
0.397986 0.686717 0.147555
0.435676 0.71722 0.12726
0.494133 0.732006 0.139696
0.589197 0.744961 0.160784
0.677531 0.762875 0.182208
0.755871 0.781796 0.211307
0.822202 0.792432 0.258396
0.892012 0.814084 0.288212
0.965759 0.805585 0.377172
0.469352 0.730159 0.214588
0.505455 0.757153 0.188556
0.545922 0.781659 0.188891
0.611765 0.799649 0.206332
0.688457 0.822065 0.236988
0.7635 0.844541 0.264408
0.824384 0.861433 0.274296
0.896544 0.87274 0.310811
0.97081 0.878096 0.40061
0.548241 0.767605 0.308248
0.571008 0.782849 0.304143
0.609354 0.807477 0.311971
0.638911 0.836149 0.30042
0.688411 0.86627 0.309087
0.742901 0.890089 0.318044
0.797803 0.904005 0.336538
0.86154 0.91249 0.357946
0.953185 0.913863 0.480751
0.112825 0.0799115 0.119265
0.168719 0.0952316 0.128679
0.309316 0.0797436 0.149615
0.486961 0.0470436 0.155184
0.648783 0.0343786 0.151446
0.752163 0.0451667 0.155764
0.810101 0.0520027 0.168521
0.865095 0.0778973 0.19443
0.918349 0.135195 0.235737
0.134249 0.150774 0.131548
0.156725 0.138933 0.118242
0.283024 0.14789 0.13611
0.473716 0.100999 0.144625
0.628107 0.0879377 0.134569
0.741146 0.0847791 0.128954
0.819821 0.0679332 0.137331
0.884413 0.0660258 0.15819
0.934386 0.139742 0.192004
0.161669 0.28394 0.118456
0.175189 0.238056 0.114473
0.297658 0.282948 0.13135
0.478325 0.293492 0.162295
0.623087 0.295964 0.171817
0.718837 0.297871 0.174136
0.798367 0.28748 0.181765
0.873503 0.249332 0.182055
0.938369 0.264134 0.207156
0.196612 0.42768 0.113741
0.207645 0.393606 0.0882277
0.329992 0.437888 0.116976
0.484123 0.468757 0.148425
0.625086 0.496284 0.196612
0.718914 0.501396 0.216876
0.796521 0.503868 0.236606
0.875303 0.487785 0.240757
0.942214 0.47538 0.266224
0.273213 0.535958 0.149432
0.281331 0.542153 0.0989395
0.389639 0.568948 0.127733
0.514366 0.59324 0.142489
0.63209 0.608545 0.17705
0.724956 0.625742 0.221668
0.801572 0.637217 0.254963
0.87953 0.640467 0.281041
0.954696 0.624399 0.324666
0.339452 0.616648 0.188235
0.360632 0.648371 0.132815
0.442695 0.669642 0.148653
0.556939 0.684672 0.168307
0.659007 0.699718 0.167926
0.742748 0.712825 0.229191
0.821881 0.733974 0.276463
0.901549 0.75404 0.312245
0.967712 0.72726 0.364172
0.409903 0.67744 0.244556
0.442878 0.713298 0.193256
0.493797 0.739605 0.180362
0.585748 0.759731 0.195926
0.683101 0.777508 0.221057
0.76759 0.796368 0.249165
0.840848 0.808896 0.3019
0.915923 0.833906 0.330816
0.98468 0.811643 0.403418
0.481849 0.723461 0.307759
0.515938 0.751858 0.268757
0.554452 0.779187 0.251438
0.606058 0.81355 0.244465
0.684596 0.84712 0.266743
0.77026 0.869963 0.292439
0.841093 0.885618 0.29839
0.918074 0.892821 0.341817
0.992111 0.893599 0.430259
0.553414 0.766934 0.374975
0.578683 0.784115 0.363806
0.616556 0.808164 0.370459
0.645914 0.83328 0.356497
0.688411 0.866392 0.342931
0.747417 0.901839 0.351812
0.804898 0.915434 0.368017
0.873579 0.922011 0.388418
0.969436 0.924926 0.511757
0.135821 0.0956893 0.226764
0.201724 0.118929 0.214145
0.347784 0.0931106 0.225498
0.527504 0.068925 0.224872
0.653132 0.092134 0.247929
0.747341 0.100862 0.250919
0.817578 0.10956 0.257115
0.87866 0.145342 0.300938
0.930938 0.215457 0.381018
0.139757 0.144137 0.188205
0.170916 0.156634 0.187045
0.286122 0.177539 0.21622
0.488609 0.140871 0.237522
0.634394 0.153307 0.242237
0.734371 0.16051 0.240467
0.81004 0.166049 0.245594
0.882567 0.165331 0.266209
0.941527 0.216022 0.340154
0.161791 0.292775 0.219196
0.179995 0.260777 0.201572
0.31783 0.308659 0.209125
0.508827 0.302037 0.245548
0.652186 0.289891 0.247227
0.739818 0.285725 0.243565
0.811032 0.289403 0.252323
0.886305 0.2813 0.253254
0.967437 0.261158 0.281376
0.207019 0.42977 0.233997
0.216678 0.403464 0.173617
0.346136 0.448386 0.209277
0.50251 0.481697 0.24004
0.638529 0.494224 0.278111
0.730907 0.496239 0.29131
0.805371 0.493721 0.304662
0.883253 0.488777 0.306371
0.971099 0.433463 0.321172
0.278462 0.541009 0.259297
0.282689 0.53753 0.185595
0.396963 0.570809 0.217426
0.52285 0.597253 0.233585
0.641474 0.611307 0.259419
0.730343 0.62359 0.295827
0.805325 0.631342 0.322667
0.887556 0.63444 0.351919
0.9785 0.612909 0.387396
0.339513 0.613626 0.285893
0.369726 0.641886 0.233845
0.448463 0.665278 0.239979
0.565881 0.682124 0.255238
0.665171 0.694911 0.254475
0.745312 0.707027 0.305379
0.824826 0.727657 0.346639
0.906981 0.74342 0.37998
0.982101 0.715373 0.420081
0.416419 0.673014 0.343008
0.45716 0.705531 0.302525
0.505882 0.734386 0.276905
0.595865 0.752926 0.283848
0.690135 0.769497 0.301305
0.76997 0.785321 0.331807
0.839704 0.801587 0.376059
0.924086 0.825956 0.403113
0.990524 0.802197 0.443442
0.484733 0.714992 0.395697
0.525567 0.746395 0.372213
0.566949 0.776806 0.346838
0.615702 0.809094 0.339986
0.691432 0.846311 0.339422
0.776059 0.868162 0.360342
0.847883 0.884291 0.371084
0.931594 0.898222 0.407858
0.99443 0.88246 0.468284
0.549783 0.759304 0.446601
0.582742 0.779232 0.447654
0.620859 0.806821 0.432258
0.657725 0.832471 0.434501
0.701778 0.865354 0.414206
0.755138 0.905394 0.399161
0.809171 0.920409 0.403021
0.878813 0.925856 0.419409
0.973327 0.927245 0.538537
0.148775 0.111635 0.392615
0.235615 0.136431 0.395544
0.369299 0.150088 0.388647
0.542519 0.12604 0.39324
0.675196 0.132647 0.38471
0.760006 0.14374 0.37966
0.82179 0.170336 0.395392
0.880537 0.202289 0.424903
0.94754 0.282658 0.50576
0.146075 0.143038 0.328237
0.190341 0.168734 0.349218
0.311223 0.205417 0.352621
0.496727 0.192645 0.375616
0.651194 0.197436 0.391791
0.741299 0.216648 0.402243
0.804547 0.239094 0.422171
0.872282 0.263188 0.44918
0.960586 0.321721 0.529366
0.165774 0.260197 0.357931
0.19794 0.262898 0.367834
0.32015 0.315953 0.389731
0.495094 0.334585 0.412284
0.632944 0.348135 0.434775
0.717494 0.361318 0.447364
0.792279 0.363104 0.458701
0.876066 0.347799 0.466041
0.953368 0.39176 0.537209
0.21059 0.434363 0.371954
0.218112 0.412375 0.348501
0.345083 0.459297 0.389517
0.51313 0.486107 0.410117
0.641443 0.497765 0.427985
0.739895 0.489006 0.440635
0.821866 0.473457 0.443229
0.910536 0.447013 0.437201
1 0.432212 0.482216
0.279652 0.54815 0.384924
0.28188 0.548089 0.358541
0.401099 0.577081 0.37937
0.53814 0.601251 0.395697
0.654841 0.613687 0.406897
0.736019 0.621897 0.434333
0.811276 0.622461 0.460227
0.893782 0.616358 0.476448
1 0.580575 0.493431
0.334234 0.617929 0.413153
0.37525 0.640558 0.384253
0.454276 0.664057 0.392447
0.573129 0.679911 0.403632
0.676738 0.69369 0.390723
0.748486 0.703914 0.433021
0.822126 0.719402 0.469123
0.899886 0.725536 0.49279
1 0.694865 0.516091
0.413733 0.672084 0.451514
0.465324 0.699977 0.43154
0.509697 0.728328 0.422766
0.601175 0.749599 0.424674
0.701518 0.76614 0.429297
0.779263 0.778378 0.451591
0.839796 0.791257 0.492378
0.914702 0.809003 0.512993
0.999619 0.788586 0.543709
0.491966 0.717952 0.486824
0.52755 0.740291 0.479301
0.572076 0.772137 0.471214
0.626368 0.807584 0.450568
0.707729 0.837888 0.461509
0.789334 0.855039 0.472297
0.856641 0.866987 0.491173
0.927123 0.88397 0.520256
1 0.875792 0.557061
0.558694 0.762112 0.530312
0.586526 0.779553 0.528038
0.626383 0.801038 0.522927
0.662638 0.82977 0.501579
0.711559 0.863035 0.497765
0.764401 0.900542 0.494133
0.814099 0.925704 0.472084
0.892287 0.93254 0.490455
0.975586 0.923812 0.573114
0.159792 0.134981 0.514214
0.256672 0.158572 0.519524
0.388617 0.175448 0.517845
0.525597 0.194812 0.526329
0.673274 0.186191 0.530449
0.765942 0.182239 0.51812
0.827451 0.199786 0.517968
0.888487 0.233204 0.535256
0.962005 0.313649 0.591409
0.149737 0.149523 0.493584
0.188708 0.168719 0.510063
0.317784 0.215579 0.517418
0.486961 0.255985 0.519982
0.644068 0.266529 0.52987
0.754025 0.254475 0.531151
0.817304 0.267826 0.534066
0.883711 0.290486 0.551949
0.979812 0.368246 0.620691
0.170153 0.263828 0.509834
0.222004 0.297627 0.524407
0.343511 0.343526 0.533822
0.490242 0.371328 0.539376
0.635645 0.385016 0.553277
0.741222 0.377646 0.561425
0.805463 0.389044 0.570535
0.87921 0.401816 0.587427
0.967819 0.47332 0.650172
0.203311 0.415702 0.510246
0.240223 0.427482 0.520485
0.360037 0.469734 0.54078
0.498878 0.49778 0.567575
0.631601 0.511437 0.57557
0.716213 0.522652 0.590036
0.776715 0.532692 0.605051
0.846265 0.54551 0.62591
0.938399 0.578607 0.674678
0.291951 0.554894 0.51899
0.294209 0.555596 0.52491
0.396368 0.582467 0.539132
0.521355 0.605783 0.571283
0.649912 0.624781 0.582559
0.733577 0.63209 0.592065
0.802182 0.628794 0.609155
0.876204 0.628183 0.615167
0.963943 0.618982 0.63949
0.347768 0.622889 0.52755
0.371405 0.643122 0.537881
0.443275 0.664714 0.551385
0.557778 0.682033 0.576272
0.682383 0.701701 0.556512
0.758022 0.709194 0.571344
0.820233 0.724041 0.600473
0.88632 0.725719 0.61735
0.976333 0.70454 0.63064
0.412329 0.675166 0.554879
0.450172 0.702129 0.562707
0.495171 0.731395 0.571649
0.599466 0.749264 0.587961
0.709834 0.766033 0.57644
0.790982 0.780362 0.578531
0.842496 0.790692 0.605737
0.907362 0.804028 0.626535
0.98085 0.779431 0.643473
0.477821 0.721447 0.579477
0.513848 0.743725 0.580362
0.568963 0.771466 0.590738
0.633066 0.806851 0.596368
0.71577 0.835386 0.590234
0.79881 0.85034 0.586984
0.866926 0.859937 0.601984
0.928191 0.872572 0.631113
0.996048 0.864927 0.657816
0.554299 0.766171 0.600092
0.582956 0.780362 0.606638
0.627085 0.804028 0.614359
0.672404 0.828351 0.598413
0.717556 0.860578 0.58378
0.776761 0.898528 0.583001
0.828336 0.923461 0.574441
0.902861 0.932021 0.579355
0.983505 0.923735 0.648676
0.16997 0.158801 0.598871
0.271977 0.184649 0.604395
0.399847 0.203525 0.600137
0.523491 0.214755 0.598123
0.643595 0.239841 0.603662
0.751568 0.228122 0.60766
0.823392 0.233936 0.612634
0.891707 0.265705 0.625177
0.975479 0.362158 0.66601
0.153582 0.166262 0.61442
0.187884 0.180819 0.62771
0.304891 0.217838 0.627466
0.481163 0.256916 0.62295
0.631479 0.3037 0.623453
0.742229 0.308095 0.622827
0.823331 0.298939 0.627375
0.898283 0.31783 0.639124
0.98378 0.418204 0.685054
0.18114 0.298604 0.618936
0.2486 0.339055 0.628077
0.36231 0.375601 0.639094
0.502556 0.401312 0.642206
0.629694 0.419409 0.641581
0.727184 0.420859 0.641901
0.810178 0.417807 0.653468
0.891676 0.429053 0.664134
0.972351 0.499687 0.705882
0.202838 0.421607 0.631128
0.267933 0.451637 0.635416
0.375906 0.481041 0.644129
0.507424 0.508125 0.659998
0.624826 0.529091 0.66009
0.716365 0.542229 0.664576
0.794766 0.546319 0.67805
0.865538 0.564126 0.695109
0.952056 0.596933 0.731106
0.285405 0.548394 0.632792
0.306538 0.556008 0.648783
0.404532 0.581628 0.657359
0.523354 0.604212 0.675273
0.632578 0.629023 0.687678
0.719509 0.642725 0.694301
0.790082 0.647364 0.704524
0.857282 0.659495 0.721416
0.937499 0.673838 0.741711
0.360876 0.629953 0.619547
0.381384 0.648173 0.65275
0.455116 0.668772 0.671855
0.559655 0.684627 0.687938
0.656413 0.70399 0.697215
0.736263 0.720363 0.709926
0.806073 0.726436 0.714382
0.881651 0.72697 0.720302
0.959625 0.710872 0.722759
0.423896 0.681773 0.629694
0.466255 0.707942 0.654963
0.511879 0.733974 0.684398
0.597818 0.749767 0.701076
0.686793 0.766781 0.716564
0.768444 0.784314 0.706691
0.831998 0.793408 0.708675
0.903517 0.801816 0.719051
0.968277 0.777279 0.720394
0.495018 0.726223 0.639124
0.522957 0.744305 0.653574
0.566674 0.770733 0.677897
0.62295 0.807523 0.705913
0.707729 0.834134 0.717968
0.796704 0.84686 0.701366
0.86482 0.85951 0.703441
0.931945 0.869703 0.719768
0.991913 0.856184 0.731716
0.557946 0.767483 0.653529
0.580377 0.78056 0.664363
0.618891 0.803876 0.675731
0.66067 0.834897 0.695918
0.726024 0.863325 0.68809
0.781399 0.89453 0.682734
0.840223 0.919295 0.668803
0.914748 0.929961 0.666117
0.99472 0.929732 0.721477
0.182391 0.18761 0.665248
0.283009 0.217609 0.666758
0.406989 0.236942 0.661906
0.519249 0.244953 0.661204
0.633036 0.268513 0.661601
0.71989 0.292195 0.659678
0.805753 0.291585 0.677867
0.894499 0.328603 0.7019
0.977279 0.434501 0.735561
0.158404 0.197116 0.703441
0.1953 0.214527 0.713741
0.300984 0.24358 0.707958
0.467689 0.269474 0.699962
0.620203 0.303426 0.698878
0.726162 0.348013 0.696544
0.810758 0.371374 0.704555
0.898878 0.390661 0.719081
0.977935 0.488701 0.753933
0.181292 0.310735 0.713878
0.234699 0.338048 0.719295
0.350423 0.377691 0.721599
0.503761 0.415564 0.725032
0.633829 0.444358 0.723491
0.724254 0.470909 0.724041
0.801373 0.478981 0.72755
0.889616 0.484825 0.739483
0.973251 0.541955 0.763973
0.225452 0.452613 0.733532
0.309468 0.481651 0.73254
0.408621 0.506676 0.736522
0.525612 0.528756 0.745892
0.636408 0.548363 0.744106
0.719768 0.569314 0.746258
0.795682 0.581369 0.748623
0.878904 0.592996 0.766201
0.96231 0.618921 0.782956
0.280354 0.549355 0.744808
0.336233 0.568933 0.74905
0.42855 0.589471 0.753582
0.542504 0.611612 0.761471
0.64715 0.633356 0.762219
0.724483 0.652598 0.766094
0.793484 0.667185 0.769924
0.871214 0.67538 0.781277
0.948852 0.685054 0.793866
0.366201 0.634302 0.729793
0.395972 0.652079 0.765728
0.473869 0.667536 0.773434
0.574075 0.682979 0.777615
0.666651 0.703502 0.784527
0.739239 0.72575 0.789014
0.801587 0.740703 0.792432
0.867491 0.74377 0.79968
0.940887 0.743648 0.805707
0.434226 0.687663 0.711604
0.473304 0.709667 0.746059
0.523476 0.735637 0.779995
0.612299 0.752804 0.792813
0.692546 0.769482 0.796674
0.760479 0.784817 0.803433
0.814145 0.798276 0.807095
0.873503 0.806195 0.81799
0.944152 0.786694 0.807187
0.507729 0.73135 0.699977
0.540536 0.749142 0.722774
0.584909 0.77615 0.754116
0.635691 0.812161 0.788571
0.709484 0.834485 0.804059
0.778988 0.848615 0.809384
0.84268 0.860212 0.803677
0.911391 0.874083 0.806546
0.980255 0.854902 0.803281
0.56759 0.771054 0.693019
0.588052 0.784466 0.706706
0.618738 0.803372 0.723583
0.659068 0.831525 0.749035
0.717357 0.86891 0.775708
0.779599 0.896071 0.777508
0.84184 0.915267 0.763058
0.91545 0.929015 0.740871
0.995499 0.931304 0.778088
0.193439 0.222629 0.734157
0.281941 0.246891 0.734127
0.39588 0.268208 0.722881
0.511574 0.283192 0.72459
0.619364 0.300969 0.725109
0.707286 0.319677 0.731365
0.778027 0.349203 0.741085
0.865538 0.403281 0.766278
0.964904 0.532341 0.816632
0.167147 0.246937 0.768566
0.201175 0.265293 0.784482
0.304631 0.28751 0.780377
0.459892 0.311208 0.771984
0.611429 0.331365 0.771634
0.717372 0.354528 0.776928
0.795712 0.399924 0.780987
0.879011 0.464622 0.796078
0.967407 0.57229 0.830747
0.1776 0.332982 0.78471
0.180591 0.316899 0.803983
0.254978 0.347707 0.809781
0.427131 0.380697 0.812589
0.609445 0.41883 0.817731
0.72781 0.466087 0.821866
0.811322 0.514839 0.823957
0.885664 0.558801 0.825101
0.968185 0.605585 0.836408
0.254734 0.488319 0.830137
0.346365 0.523201 0.831342
0.440299 0.547784 0.833066
0.552666 0.572717 0.837568
0.664454 0.592813 0.840772
0.746639 0.607172 0.840696
0.812909 0.624201 0.84361
0.882231 0.643977 0.843946
0.962417 0.654826 0.845014
0.311955 0.580194 0.841947
0.387579 0.60528 0.846708
0.47512 0.623682 0.843565
0.578027 0.648341 0.848081
0.673442 0.667124 0.850141
0.749218 0.679225 0.852384
0.813474 0.692042 0.855436
0.880018 0.707546 0.85507
0.959899 0.711513 0.856168
0.385412 0.649363 0.846494
0.424186 0.664927 0.859739
0.502602 0.681285 0.860212
0.595636 0.69958 0.861051
0.685359 0.723995 0.864683
0.756848 0.740734 0.86508
0.818723 0.751034 0.867567
0.879362 0.763043 0.869093
0.950362 0.758602 0.859388
0.456657 0.695567 0.813413
0.483909 0.714412 0.840696
0.538613 0.738628 0.867933
0.623407 0.755032 0.873823
0.703197 0.772808 0.873899
0.770855 0.7906 0.87776
0.826017 0.805982 0.879713
0.88481 0.820005 0.882246
0.950637 0.807263 0.873625
0.519448 0.735698 0.781201
0.55021 0.754955 0.803616
0.590692 0.780743 0.836713
0.643229 0.816175 0.875959
0.720851 0.836439 0.887129
0.787076 0.851026 0.888747
0.838895 0.863355 0.890517
0.896284 0.881025 0.893919
0.948669 0.866621 0.885542
0.587869 0.781338 0.749523
0.613382 0.796124 0.771237
0.633829 0.812634 0.787427
0.666789 0.834302 0.800992
0.719326 0.868009 0.834714
0.772213 0.894514 0.851484
0.822629 0.913832 0.862821
0.891432 0.924483 0.852766
0.975799 0.936049 0.86685
0.202457 0.291707 0.812055
0.269886 0.311147 0.816129
0.37499 0.328069 0.818143
0.497292 0.354086 0.812909
0.60972 0.368597 0.820432
0.694774 0.388708 0.830579
0.763333 0.414191 0.838422
0.835935 0.458427 0.848478
0.926146 0.598032 0.871244
0.18436 0.320516 0.831312
0.211994 0.332097 0.846891
0.328878 0.357702 0.848112
0.47599 0.380957 0.8486
0.610941 0.403586 0.852567
0.705653 0.419638 0.858854
0.777737 0.44918 0.866651
0.851011 0.506752 0.875013
0.939727 0.628824 0.891249
0.196384 0.388815 0.850584
0.204639 0.383856 0.868315
0.274449 0.404364 0.886793
0.436759 0.435554 0.891691
0.600259 0.458824 0.893797
0.709453 0.476677 0.891661
0.786328 0.506264 0.892073
0.861143 0.547875 0.895872
0.941711 0.658259 0.902724
0.281331 0.518242 0.896223
0.305318 0.512261 0.898955
0.357076 0.514107 0.91339
0.462272 0.538521 0.926726
0.605798 0.560967 0.929595
0.717723 0.577874 0.929244
0.803342 0.590448 0.92871
0.875669 0.619852 0.921645
0.937606 0.696941 0.906188
0.394217 0.631861 0.923796
0.436515 0.648402 0.932418
0.506096 0.664271 0.938903
0.583093 0.675975 0.946502
0.660212 0.685084 0.947875
0.741894 0.694774 0.946365
0.818784 0.703227 0.94316
0.885481 0.714565 0.940154
0.938811 0.731975 0.915618
0.449317 0.685069 0.931991
0.481224 0.698558 0.9393
0.542153 0.71635 0.948241
0.624018 0.741344 0.951736
0.706188 0.760525 0.950759
0.768292 0.767758 0.951797
0.82591 0.772763 0.949798
0.883406 0.779767 0.949218
0.942885 0.793088 0.93312
0.499428 0.719173 0.918563
0.52752 0.731289 0.934096
0.56556 0.745052 0.944564
0.634409 0.766857 0.95465
0.705608 0.786206 0.955016
0.773404 0.804486 0.95375
0.825025 0.814603 0.953521
0.882841 0.825742 0.950515
0.947036 0.839124 0.942657
0.552148 0.751873 0.897169
0.576272 0.764538 0.912322
0.60798 0.780652 0.93138
0.656825 0.798596 0.945098
0.722759 0.821561 0.956771
0.779034 0.836973 0.953811
0.828763 0.852949 0.955016
0.883528 0.873381 0.953567
0.952728 0.891234 0.957229
0.623529 0.809903 0.85861
0.638453 0.819898 0.875074
0.659617 0.830762 0.886717
0.686336 0.83946 0.895674
0.728939 0.861692 0.916762
0.779553 0.889067 0.94023
0.833494 0.908019 0.949798
0.893187 0.930419 0.956695
0.973297 0.964279 0.972061
