lut_library/filter_lut/33portra400-2.cube
TITLE "Generated by Resolve"
LUT_3D_SIZE 5
0.0975509 0.0689403 0.0894484
0.315404 0.0582437 0.130419
0.655207 0.00102235 0.120073
0.800534 0.0195163 0.134524
0.90779 0.0883803 0.160739
0.152056 0.238697 0.0874342
0.307271 0.299001 0.111864
0.618418 0.366003 0.172595
0.768231 0.369314 0.190921
0.915358 0.332769 0.202701
0.253056 0.526314 0.0701305
0.391791 0.558694 0.0995804
0.632776 0.603876 0.158724
0.781872 0.634852 0.233967
0.930388 0.638193 0.300694
0.397986 0.686717 0.147555
0.494133 0.732006 0.139696
0.677531 0.762875 0.182208
0.822202 0.792432 0.258396
0.965759 0.805585 0.377172
0.548241 0.767605 0.308248
0.609354 0.807477 0.311971
0.688411 0.86627 0.309087
0.797803 0.904005 0.336538
0.953185 0.913863 0.480751
0.135821 0.0956893 0.226764
0.347784 0.0931106 0.225498
0.653132 0.092134 0.247929
0.817578 0.10956 0.257115
0.930938 0.215457 0.381018
0.161791 0.292775 0.219196
0.31783 0.308659 0.209125
0.652186 0.289891 0.247227
0.811032 0.289403 0.252323
0.967437 0.261158 0.281376
0.278462 0.541009 0.259297
0.396963 0.570809 0.217426
0.641474 0.611307 0.259419
0.805325 0.631342 0.322667
0.9785 0.612909 0.387396
0.416419 0.673014 0.343008
0.505882 0.734386 0.276905
0.690135 0.769497 0.301305
0.839704 0.801587 0.376059
0.990524 0.802197 0.443442
0.549783 0.759304 0.446601
0.620859 0.806821 0.432258
0.701778 0.865354 0.414206
0.809171 0.920409 0.403021
0.973327 0.927245 0.538537
0.159792 0.134981 0.514214
0.388617 0.175448 0.517845
0.673274 0.186191 0.530449
0.827451 0.199786 0.517968
0.962005 0.313649 0.591409
0.170153 0.263828 0.509834
0.343511 0.343526 0.533822
0.635645 0.385016 0.553277
0.805463 0.389044 0.570535
0.967819 0.47332 0.650172
0.291951 0.554894 0.51899
0.396368 0.582467 0.539132
0.649912 0.624781 0.582559
0.802182 0.628794 0.609155
0.963943 0.618982 0.63949
0.412329 0.675166 0.554879
0.495171 0.731395 0.571649
0.709834 0.766033 0.57644
0.842496 0.790692 0.605737
0.98085 0.779431 0.643473
0.554299 0.766171 0.600092
0.627085 0.804028 0.614359
0.717556 0.860578 0.58378
0.828336 0.923461 0.574441
0.983505 0.923735 0.648676
0.182391 0.18761 0.665248
0.406989 0.236942 0.661906
0.633036 0.268513 0.661601
0.805753 0.291585 0.677867
0.977279 0.434501 0.735561
0.181292 0.310735 0.713878
0.350423 0.377691 0.721599
0.633829 0.444358 0.723491
0.801373 0.478981 0.72755
0.973251 0.541955 0.763973
0.280354 0.549355 0.744808
0.42855 0.589471 0.753582
0.64715 0.633356 0.762219
0.793484 0.667185 0.769924
0.948852 0.685054 0.793866
0.434226 0.687663 0.711604
0.523476 0.735637 0.779995
0.692546 0.769482 0.796674
0.814145 0.798276 0.807095
0.944152 0.786694 0.807187
0.56759 0.771054 0.693019
0.618738 0.803372 0.723583
0.717357 0.86891 0.775708
0.84184 0.915267 0.763058
0.995499 0.931304 0.778088
0.202457 0.291707 0.812055
0.37499 0.328069 0.818143
0.60972 0.368597 0.820432
0.763333 0.414191 0.838422
0.926146 0.598032 0.871244
0.196384 0.388815 0.850584
0.274449 0.404364 0.886793
0.600259 0.458824 0.893797
0.786328 0.506264 0.892073
0.941711 0.658259 0.902724
0.394217 0.631861 0.923796
0.506096 0.664271 0.938903
0.660212 0.685084 0.947875
0.818784 0.703227 0.94316
0.938811 0.731975 0.915618
0.499428 0.719173 0.918563
0.56556 0.745052 0.944564
0.705608 0.786206 0.955016
0.825025 0.814603 0.953521
0.947036 0.839124 0.942657
0.623529 0.809903 0.85861
0.659617 0.830762 0.886717
0.728939 0.861692 0.916762
0.833494 0.908019 0.949798
0.973297 0.964279 0.972061
