lut_library/filter_lut/33portra400-2.cube
TITLE "Generated by Resolve"
LUT_3D_SIZE 33
0.0975509 0.0689403 0.0894484
0.103212 0.0710155 0.0890822
0.112291 0.072694 0.0916457
0.127749 0.0748455 0.097612
0.151476 0.0762188 0.10515
0.184115 0.0785229 0.113481
0.223667 0.0745556 0.120531
0.269184 0.0657054 0.126192
0.315404 0.0582437 0.130419
0.362081 0.0525978 0.134615
0.414435 0.0435492 0.136782
0.465385 0.0324559 0.133364
0.511803 0.0225681 0.129534
0.553674 0.0141604 0.125368
0.590265 0.00747692 0.123262
0.622293 0.00267033 0.120974
0.655207 0.00102235 0.120073
0.683696 0.00144961 0.120699
0.708232 0.00355535 0.121248
0.729442 0.00631724 0.121386
0.747341 0.0096437 0.122042
0.761837 0.0128481 0.12459
0.77525 0.016022 0.128557
0.788144 0.0184787 0.132647
0.800534 0.0195163 0.134524
0.812329 0.0207218 0.135698
0.825498 0.0232853 0.137606
0.840269 0.0274052 0.140566
0.85597 0.0332494 0.145098
0.871031 0.0408026 0.151476
0.883604 0.0488899 0.156024
0.895964 0.0631876 0.158419
0.90779 0.0883803 0.160739
0.103395 0.0768597 0.0889448
0.101305 0.0699931 0.0880446
0.109834 0.0732128 0.0914931
0.12459 0.0768597 0.0971389
0.144213 0.0801404 0.103548
0.169711 0.0855879 0.111254
0.201099 0.0863203 0.117998
0.241169 0.0807202 0.123445
0.289418 0.0694285 0.129595
0.339315 0.0602884 0.133715
0.391287 0.0528572 0.136782
0.44622 0.0425269 0.135271
0.496193 0.0328832 0.132433
0.539391 0.0256657 0.130098
0.577066 0.0204623 0.12697
0.61117 0.0171969 0.123629
0.644083 0.0168765 0.121614
0.674083 0.0179446 0.120912
0.701152 0.0194553 0.120562
0.7243 0.0204776 0.119249
0.743908 0.0218357 0.119463
0.759762 0.022858 0.122087
0.774136 0.0233768 0.125383
0.788067 0.0238499 0.128771
0.80145 0.0244144 0.130007
0.814267 0.0263523 0.131777
0.827588 0.0283818 0.134249
0.841642 0.0305486 0.136904
0.856825 0.0338598 0.140795
0.87216 0.0399634 0.14728
0.885954 0.0475776 0.153933
0.898634 0.062089 0.157916
0.909712 0.0865187 0.161028
0.109071 0.0893721 0.0942092
0.106004 0.07953 0.0915999
0.113298 0.0819562 0.0957198
0.129686 0.089189 0.10341
0.148547 0.0961166 0.109392
0.17113 0.101793 0.114946
0.200687 0.104326 0.119203
0.241627 0.100114 0.122683
0.289998 0.0896773 0.128832
0.340734 0.0779431 0.134005
0.388006 0.0705577 0.136767
0.439582 0.0609751 0.136934
0.489311 0.052369 0.136599
0.533486 0.0460822 0.135363
0.572824 0.0425116 0.13196
0.608438 0.0422827 0.12697
0.641123 0.0448157 0.123064
0.670481 0.0473487 0.120775
0.696361 0.0492866 0.119005
0.718975 0.0505684 0.117433
0.737728 0.0511482 0.116396
0.75346 0.0516365 0.119112
0.767834 0.0511635 0.12224
0.78172 0.0501259 0.125124
0.795773 0.0488594 0.126513
0.809705 0.0482948 0.127993
0.824063 0.0486305 0.129976
0.839231 0.0497597 0.132967
0.854582 0.0516518 0.137011
0.870314 0.0540169 0.143618
0.884703 0.0597848 0.150118
0.898238 0.0722057 0.154421
0.911238 0.0894636 0.157809
0.115114 0.100969 0.0935073
0.11194 0.0948959 0.0938735
0.115846 0.0958724 0.0996262
0.135561 0.1037 0.103777
0.158618 0.113542 0.107836
0.185534 0.122988 0.112566
0.218189 0.127779 0.117037
0.260746 0.122835 0.119478
0.309865 0.10985 0.122072
0.356603 0.103136 0.128389
0.401984 0.0972152 0.132677
0.450828 0.090074 0.133577
0.498695 0.0829786 0.132723
0.542046 0.0781872 0.130449
0.581247 0.0775769 0.125429
0.616449 0.0813306 0.118639
0.645762 0.0928206 0.118822
0.672602 0.102052 0.1205
0.695811 0.107561 0.120867
0.716121 0.111604 0.121538
0.733715 0.113893 0.122713
0.748806 0.114244 0.124453
0.76321 0.114458 0.126268
0.776867 0.113558 0.128252
0.790616 0.112047 0.130022
0.804639 0.110018 0.131807
0.819028 0.107576 0.134386
0.834287 0.106111 0.137301
0.850233 0.105333 0.140612
0.866224 0.101457 0.143816
0.881605 0.100237 0.147097
0.896086 0.107378 0.152987
0.91046 0.118441 0.160143
0.125917 0.122683 0.0960555
0.119631 0.112123 0.0941634
0.125536 0.112795 0.0979324
0.141878 0.121523 0.101106
0.161913 0.133532 0.105394
0.186557 0.145037 0.109117
0.220188 0.15346 0.115145
0.262989 0.156405 0.121782
0.314244 0.149538 0.125368
0.362554 0.143999 0.128038
0.409171 0.137896 0.129595
0.456016 0.132036 0.128817
0.501228 0.129366 0.128069
0.542535 0.130175 0.128054
0.579095 0.13518 0.128389
0.611246 0.146014 0.129824
0.639368 0.158282 0.132143
0.665354 0.167483 0.133135
0.688426 0.173312 0.133822
0.708553 0.176501 0.134112
0.725765 0.178347 0.134539
0.741268 0.178424 0.135241
0.755673 0.178607 0.136538
0.76997 0.178988 0.138735
0.783963 0.178836 0.141207
0.797925 0.177539 0.144228
0.812848 0.175051 0.147875
0.828336 0.171328 0.151156
0.844099 0.168475 0.154101
0.859571 0.166247 0.156603
0.875868 0.162112 0.15877
0.894102 0.157656 0.162478
0.910567 0.158862 0.166613
0.136065 0.148363 0.0965591
0.127916 0.131502 0.0917983
0.132616 0.132097 0.0970779
0.14847 0.139727 0.0981613
0.168826 0.15314 0.103288
0.190997 0.167636 0.107301
0.218952 0.179767 0.111452
0.258473 0.188281 0.119219
0.308904 0.191287 0.126589
0.357168 0.192325 0.132769
0.404776 0.189792 0.1364
0.452461 0.186526 0.137499
0.496666 0.186542 0.137743
0.536248 0.190631 0.138918
0.570809 0.196979 0.140047
0.601953 0.204288 0.141207
0.62974 0.213107 0.142824
0.656046 0.221134 0.144183
0.679103 0.226749 0.145083
0.699596 0.230762 0.145418
0.71722 0.232944 0.145678
0.733486 0.233494 0.146197
0.748745 0.233082 0.147448
0.763317 0.232776 0.149325
0.777813 0.233082 0.152071
0.792309 0.232471 0.155947
0.807248 0.231373 0.159747
0.823301 0.228534 0.163836
0.839689 0.224216 0.166629
0.855863 0.221225 0.169055
0.87274 0.216815 0.170565
0.892897 0.208011 0.172839
0.910948 0.200763 0.174304
0.142535 0.175952 0.0995956
0.132845 0.155047 0.098146
0.137362 0.153506 0.0999619
0.150713 0.161593 0.097673
0.172 0.174319 0.0982528
0.198672 0.189837 0.10367
0.225284 0.207019 0.109575
0.257404 0.220783 0.115404
0.301671 0.229648 0.124315
0.349966 0.234821 0.133379
0.398413 0.237552 0.140154
0.447349 0.237491 0.144152
0.492988 0.239094 0.146807
0.53257 0.244785 0.149065
0.566049 0.252659 0.151141
0.595544 0.259602 0.152712
0.622538 0.266255 0.153506
0.647898 0.271748 0.154406
0.671046 0.275807 0.155718
0.691661 0.279057 0.156756
0.710216 0.280873 0.157336
0.726925 0.281361 0.157702
0.743114 0.28101 0.159243
0.758267 0.280125 0.161105
0.7729 0.279316 0.163973
0.787762 0.279423 0.167636
0.803311 0.279469 0.172
0.819562 0.278157 0.175616
0.836683 0.274464 0.178714
0.853651 0.270191 0.180682
0.872068 0.266178 0.182498
0.89221 0.25742 0.182925
0.911864 0.243412 0.18294
0.147784 0.206165 0.0961166
0.138598 0.182223 0.0998245
0.141543 0.177996 0.101961
0.153384 0.186954 0.103136
0.172564 0.199023 0.101595
0.200397 0.216281 0.0987564
0.232898 0.234333 0.102571
0.264881 0.252293 0.110353
0.300649 0.264469 0.119631
0.34548 0.27277 0.130846
0.392844 0.280247 0.140398
0.441794 0.285496 0.147875
0.487907 0.290547 0.153582
0.528572 0.297215 0.157961
0.562905 0.305211 0.161074
0.592187 0.311955 0.162661
0.618845 0.317266 0.1635
0.643442 0.321218 0.164355
0.666087 0.323507 0.165866
0.686473 0.325231 0.167452
0.70547 0.326238 0.169024
0.72253 0.326543 0.170016
0.738964 0.325795 0.171725
0.754757 0.324788 0.174151
0.769635 0.323415 0.176761
0.78436 0.323674 0.180529
0.800137 0.325017 0.184771
0.816983 0.324758 0.1888
0.834424 0.32137 0.191043
0.852934 0.315877 0.193042
0.872999 0.31223 0.194598
0.893065 0.305776 0.193851
0.913466 0.28716 0.192416
0.152056 0.238697 0.0874342
0.14406 0.21239 0.0953231
0.145953 0.207233 0.099443
0.158556 0.216709 0.101823
0.175448 0.229725 0.102464
0.20087 0.245869 0.101747
0.234043 0.264622 0.100221
0.271229 0.283177 0.101137
0.307271 0.299001 0.111864
0.34551 0.310231 0.124086
0.391409 0.319615 0.137087
0.438743 0.328618 0.14786
0.484474 0.337484 0.156847
0.524865 0.34641 0.163622
0.560403 0.354406 0.168643
0.591073 0.360906 0.171038
0.618418 0.366003 0.172595
0.642695 0.369009 0.173785
0.664958 0.37084 0.175692
0.685115 0.372168 0.177935
0.703822 0.372381 0.179919
0.72108 0.371908 0.182177
0.737789 0.371298 0.185092
0.753338 0.370321 0.187762
0.768231 0.369314 0.190921
0.782986 0.369741 0.194232
0.798764 0.371099 0.198596
0.815717 0.371344 0.202411
0.833539 0.367987 0.204471
0.85304 0.361654 0.20557
0.87454 0.358083 0.206653
0.895155 0.352773 0.205249
0.915358 0.332769 0.202701
0.156451 0.27538 0.0760357
0.148135 0.247822 0.0855116
0.150332 0.2421 0.092546
0.164431 0.251667 0.0947585
0.18143 0.265217 0.0975357
0.204974 0.279759 0.0994736
0.236255 0.296773 0.100649
0.273274 0.315816 0.100938
0.312963 0.335103 0.0988937
0.352926 0.348867 0.112718
0.395575 0.357107 0.129534
0.440299 0.366979 0.143801
0.483757 0.37818 0.155734
0.524025 0.389395 0.165621
0.560479 0.398703 0.173449
0.592432 0.405951 0.177981
0.620722 0.411337 0.18024
0.645502 0.414878 0.182086
0.667247 0.4177 0.184787
0.6869 0.419379 0.187533
0.704967 0.420188 0.190845
0.722164 0.419348 0.194034
0.73875 0.418723 0.197757
0.754314 0.41799 0.20119
0.769223 0.417456 0.20441
0.783902 0.417624 0.207507
0.799481 0.41767 0.21088
0.816205 0.417212 0.214511
0.834348 0.414038 0.216419
0.854475 0.407889 0.216892
0.876127 0.402945 0.217197
0.897551 0.396139 0.21651
0.91754 0.379538 0.213993
0.159533 0.312581 0.0662394
0.151995 0.287221 0.0720226
0.154162 0.279911 0.080293
0.168109 0.287617 0.0839857
0.186954 0.30219 0.087129
0.211215 0.317586 0.0916762
0.242237 0.334371 0.0960098
0.279469 0.352621 0.0996719
0.319921 0.370459 0.101534
0.362402 0.386221 0.0993057
0.404929 0.3953 0.11931
0.446159 0.403281 0.13695
0.486671 0.413611 0.150958
0.525963 0.425589 0.163424
0.562432 0.436347 0.173495
0.595499 0.445029 0.180545
0.624399 0.451362 0.184894
0.649363 0.455772 0.188235
0.670649 0.459754 0.191455
0.689464 0.462913 0.195102
0.707073 0.464668 0.199237
0.723613 0.46479 0.203021
0.740108 0.464363 0.207599
0.755718 0.463722 0.211612
0.77055 0.463111 0.215228
0.785565 0.462226 0.217533
0.801022 0.4607 0.219745
0.818173 0.458946 0.222843
0.836896 0.45565 0.225101
0.857008 0.451072 0.226017
0.878538 0.445502 0.226581
0.899794 0.43714 0.227543
0.919158 0.424048 0.225757
0.165637 0.353994 0.05832
0.157488 0.329473 0.0611887
0.158755 0.320943 0.0688029
0.173098 0.328511 0.0729686
0.195087 0.343008 0.0768749
0.222217 0.358328 0.0835279
0.254292 0.373846 0.0907912
0.291615 0.390249 0.0974441
0.331106 0.405753 0.101991
0.372854 0.419928 0.10251
0.414786 0.431495 0.105303
0.454871 0.439002 0.126925
0.492012 0.447105 0.143359
0.528679 0.457588 0.157351
0.564401 0.468589 0.169039
0.597589 0.478447 0.178088
0.626856 0.485496 0.184939
0.651682 0.48983 0.190097
0.672663 0.493736 0.195087
0.691203 0.497734 0.199115
0.708309 0.50074 0.203601
0.724743 0.502876 0.207889
0.740871 0.503395 0.21265
0.756603 0.503365 0.21709
0.771603 0.502937 0.221073
0.786557 0.501854 0.223682
0.802396 0.499901 0.225986
0.819532 0.49749 0.228611
0.838529 0.494148 0.231174
0.859556 0.490959 0.234119
0.880613 0.486564 0.23595
0.901137 0.478309 0.237873
0.919951 0.467552 0.238041
0.177371 0.394827 0.0558785
0.167498 0.373816 0.0545968
0.166186 0.364141 0.0598917
0.180331 0.370108 0.0652628
0.205264 0.383459 0.0708476
0.235294 0.39791 0.0783093
0.26894 0.411765 0.086656
0.306355 0.426123 0.0946822
0.345266 0.439826 0.100938
0.384512 0.452308 0.103365
0.423972 0.463966 0.101884
0.462776 0.473503 0.112352
0.499123 0.48011 0.133623
0.533089 0.487572 0.149325
0.566262 0.497002 0.162158
0.598291 0.506508 0.172656
0.627268 0.513664 0.181109
0.652461 0.518715 0.188937
0.673518 0.522454 0.195422
0.692348 0.525841 0.200977
0.709178 0.529366 0.205661
0.725505 0.532525 0.210315
0.741268 0.534859 0.214496
0.757031 0.536141 0.219165
0.772045 0.536477 0.222904
0.787442 0.536217 0.226581
0.80322 0.534722 0.229679
0.820294 0.532448 0.233112
0.838911 0.529152 0.236423
0.860182 0.526452 0.240711
0.882048 0.523796 0.245197
0.902632 0.517586 0.248905
0.920546 0.511101 0.252369
0.193332 0.432258 0.0573739
0.183169 0.416449 0.053727
0.178729 0.406439 0.0563821
0.191821 0.410056 0.0621347
0.217762 0.421759 0.0688029
0.24979 0.435019 0.0765545
0.284123 0.447196 0.085008
0.320394 0.459266 0.0919814
0.358511 0.471519 0.0989853
0.396307 0.483085 0.103212
0.432715 0.49369 0.104921
0.469398 0.503822 0.103075
0.505577 0.510887 0.121492
0.538659 0.516304 0.140475
0.569238 0.522866 0.154345
0.599145 0.530755 0.166033
0.626703 0.537758 0.175647
0.65153 0.543511 0.185016
0.672953 0.547875 0.193286
0.6925 0.551049 0.200717
0.709789 0.554162 0.206821
0.726299 0.557519 0.211856
0.742184 0.560571 0.216358
0.757671 0.563027 0.220295
0.772992 0.564614 0.224399
0.788495 0.565301 0.228443
0.804059 0.565042 0.23267
0.820737 0.563729 0.237034
0.839063 0.560845 0.241505
0.859739 0.557458 0.24654
0.882826 0.554757 0.253193
0.904448 0.552163 0.25922
0.920989 0.551553 0.267155
0.212085 0.466697 0.0607462
0.203754 0.455802 0.056611
0.196612 0.446632 0.0569619
0.207584 0.448295 0.0626078
0.233417 0.458473 0.0689097
0.265766 0.470741 0.0764324
0.299001 0.481376 0.0843061
0.333654 0.491173 0.0908522
0.370336 0.501564 0.0976425
0.406836 0.512093 0.103212
0.44097 0.521752 0.107256
0.475364 0.530678 0.108766
0.510369 0.538628 0.11014
0.54461 0.543572 0.13135
0.57406 0.548012 0.147143
0.601205 0.553796 0.159014
0.626566 0.559976 0.169207
0.650324 0.566003 0.179416
0.67187 0.570916 0.189166
0.692058 0.574914 0.198581
0.710201 0.578103 0.206363
0.727459 0.581125 0.213107
0.743725 0.583932 0.218524
0.759411 0.586725 0.22298
0.774777 0.588983 0.227192
0.790677 0.590768 0.231891
0.805844 0.591791 0.23653
0.821759 0.591684 0.241398
0.839796 0.589837 0.246708
0.859968 0.585977 0.252079
0.883177 0.581888 0.259739
0.906371 0.581445 0.268452
0.922866 0.585885 0.280339
0.233021 0.498512 0.0651713
0.227161 0.492302 0.0607614
0.218921 0.48484 0.0599374
0.227085 0.485374 0.0652934
0.251835 0.494102 0.071107
0.282948 0.505074 0.0774701
0.314305 0.514336 0.0844892
0.346716 0.522316 0.0915236
0.381262 0.530449 0.0979324
0.416129 0.53962 0.104128
0.449042 0.548287 0.10956
0.481468 0.556268 0.112978
0.515251 0.563867 0.112566
0.548867 0.56936 0.119661
0.579583 0.572961 0.13933
0.605081 0.576715 0.152636
0.628336 0.581964 0.163256
0.650599 0.58735 0.173754
0.671656 0.592248 0.18436
0.691798 0.596796 0.194797
0.710765 0.600595 0.205005
0.728878 0.603906 0.213748
0.7458 0.606744 0.220295
0.76228 0.609308 0.226123
0.778134 0.611933 0.231113
0.793667 0.614191 0.236561
0.808927 0.616266 0.241688
0.824735 0.617243 0.24686
0.842344 0.616892 0.252628
0.862348 0.614191 0.258549
0.884749 0.608927 0.266194
0.908873 0.607385 0.276539
0.926711 0.613642 0.290822
0.253056 0.526314 0.0701305
0.251041 0.525292 0.0661173
0.24419 0.520958 0.064622
0.248737 0.520531 0.0691386
0.270939 0.527657 0.0748302
0.300526 0.537194 0.0806744
0.330297 0.54551 0.0869612
0.359915 0.552087 0.0932631
0.391791 0.558694 0.0995804
0.425147 0.566339 0.105669
0.457145 0.574228 0.111421
0.488685 0.581643 0.116167
0.52079 0.58819 0.116976
0.553567 0.594324 0.113588
0.584451 0.597696 0.128176
0.610636 0.600488 0.14612
0.632776 0.603876 0.158724
0.652995 0.60824 0.169238
0.673152 0.612497 0.180056
0.692882 0.616754 0.191241
0.712352 0.620981 0.202502
0.730602 0.625071 0.21239
0.74818 0.628428 0.220645
0.765148 0.631678 0.227481
0.781872 0.634852 0.233967
0.797925 0.637903 0.240436
0.81323 0.640314 0.246204
0.829358 0.642145 0.252461
0.847181 0.643 0.259083
0.867536 0.6421 0.265538
0.88893 0.63743 0.273472
0.911742 0.633143 0.28423
0.930388 0.638193 0.300694
0.271244 0.55198 0.0754711
0.273198 0.555306 0.0707866
0.268925 0.554177 0.0688334
0.270985 0.553536 0.0725872
0.289769 0.559045 0.0785077
0.317403 0.567269 0.084535
0.34609 0.574914 0.090013
0.374243 0.580575 0.0959029
0.403738 0.586069 0.102205
0.434958 0.592508 0.107988
0.466575 0.599863 0.113954
0.4972 0.606226 0.118883
0.528023 0.611948 0.121324
0.558907 0.61706 0.119966
0.589044 0.621698 0.120073
0.616297 0.624079 0.138384
0.638987 0.626245 0.154574
0.658228 0.629175 0.166644
0.677058 0.632685 0.177996
0.695964 0.636362 0.189136
0.714809 0.640131 0.200458
0.732738 0.644327 0.210529
0.750332 0.648951 0.219425
0.767987 0.653239 0.227771
0.785611 0.657603 0.236088
0.80235 0.661723 0.243305
0.818555 0.664912 0.249973
0.835096 0.667079 0.256657
0.85333 0.668864 0.264393
0.874281 0.66952 0.272465
0.895293 0.666026 0.281117
0.915541 0.660304 0.292012
0.933654 0.660731 0.311528
0.289067 0.575952 0.0816052
0.293919 0.582635 0.0761273
0.293126 0.584772 0.0738842
0.294041 0.584894 0.0767681
0.309331 0.589273 0.0829786
0.334615 0.596155 0.0890211
0.362203 0.602777 0.0946212
0.38912 0.607736 0.0999924
0.416587 0.612741 0.105486
0.446143 0.618479 0.111406
0.476478 0.624414 0.116991
0.506981 0.629923 0.121935
0.536614 0.634318 0.125109
0.566003 0.638834 0.126055
0.59472 0.643656 0.123491
0.621759 0.647013 0.132418
0.645136 0.648981 0.150134
0.665217 0.651179 0.164721
0.683055 0.654002 0.176913
0.700999 0.656992 0.188479
0.718776 0.660304 0.199466
0.736019 0.663996 0.209247
0.753704 0.668772 0.219104
0.771588 0.673808 0.228519
0.789609 0.678981 0.237827
0.807065 0.683497 0.246296
0.824491 0.687739 0.253544
0.841672 0.691386 0.260639
0.860349 0.693996 0.269062
0.881865 0.695232 0.278386
0.903059 0.693294 0.288426
0.920226 0.688045 0.30106
0.936568 0.683253 0.322194
0.306859 0.598703 0.0888228
0.313695 0.607233 0.0833448
0.316152 0.612329 0.0800946
0.318303 0.614038 0.0825055
0.330373 0.617563 0.0875563
0.352728 0.623484 0.0939498
0.378683 0.629236 0.099733
0.404273 0.633646 0.104524
0.430182 0.637949 0.109819
0.458167 0.642924 0.114916
0.487739 0.648219 0.120531
0.517342 0.652735 0.125246
0.546441 0.65658 0.128786
0.574655 0.66006 0.130938
0.601541 0.664378 0.131426
0.627604 0.668666 0.129335
0.651057 0.671092 0.145876
0.672038 0.673396 0.162707
0.690471 0.675837 0.176699
0.707713 0.678553 0.188708
0.724636 0.681346 0.199893
0.741131 0.684611 0.209857
0.758007 0.688762 0.219242
0.775738 0.693919 0.228916
0.794125 0.699367 0.239338
0.811978 0.704265 0.248554
0.829923 0.709209 0.256626
0.84831 0.714305 0.264591
0.868101 0.718563 0.273655
0.88957 0.720226 0.284031
0.910567 0.718578 0.29543
0.92636 0.715328 0.310613
0.940475 0.707027 0.332296
0.324163 0.619684 0.0974289
0.332494 0.629313 0.0921492
0.338735 0.636881 0.0887465
0.342901 0.640513 0.0897993
0.352819 0.643809 0.0937057
0.371405 0.648783 0.0992447
0.395132 0.653758 0.105043
0.419593 0.657893 0.10988
0.44419 0.661631 0.114656
0.470436 0.665568 0.11931
0.499001 0.67013 0.124712
0.528099 0.674479 0.128908
0.55671 0.677958 0.132891
0.583841 0.681086 0.135805
0.609583 0.684398 0.137469
0.633906 0.688609 0.138949
0.65716 0.692485 0.145083
0.678462 0.695018 0.16054
0.697581 0.697337 0.176699
0.71545 0.70016 0.190021
0.732204 0.702907 0.201709
0.747967 0.706035 0.211566
0.764492 0.709606 0.221408
0.781323 0.714122 0.230686
0.799161 0.719554 0.240497
0.816938 0.72491 0.250126
0.835264 0.730266 0.259236
0.854246 0.736263 0.268177
0.874891 0.741833 0.278157
0.897108 0.743938 0.289296
0.917678 0.742092 0.302022
0.932692 0.740353 0.320272
0.94548 0.731807 0.341375
0.342306 0.638758 0.108522
0.351308 0.648814 0.102586
0.36051 0.657938 0.0977646
0.366491 0.662623 0.0980087
0.374395 0.666102 0.100267
0.389868 0.670481 0.104555
0.410803 0.674983 0.11017
0.433585 0.678676 0.115358
0.45713 0.681743 0.119921
0.482704 0.685374 0.124773
0.510353 0.689769 0.129824
0.538354 0.694011 0.134356
0.565866 0.697444 0.137713
0.592325 0.700298 0.141131
0.617121 0.703395 0.144121
0.64033 0.707118 0.147127
0.662821 0.711543 0.150225
0.68423 0.715404 0.162356
0.704189 0.718257 0.177005
0.722683 0.721004 0.192096
0.739956 0.723918 0.204608
0.756848 0.726909 0.216403
0.772534 0.730541 0.226108
0.788769 0.734874 0.23508
0.805127 0.740398 0.243305
0.822187 0.746761 0.25211
0.840253 0.752438 0.261753
0.8598 0.758099 0.271321
0.880995 0.762966 0.281895
0.90338 0.764691 0.294224
0.923308 0.762158 0.308034
0.939849 0.759731 0.329183
0.951736 0.755169 0.351537
0.361028 0.656336 0.12079
0.369345 0.66569 0.113802
0.380377 0.675517 0.108034
0.388266 0.681453 0.107042
0.395621 0.685573 0.108324
0.40798 0.689799 0.111162
0.425986 0.693996 0.11603
0.447074 0.697414 0.121416
0.469932 0.700084 0.126421
0.494713 0.703273 0.131136
0.521111 0.707317 0.136278
0.547799 0.711269 0.140749
0.574258 0.714672 0.144686
0.599481 0.717769 0.148013
0.623575 0.720928 0.151659
0.646342 0.724727 0.156268
0.66807 0.729473 0.160967
0.689158 0.734401 0.164935
0.709728 0.738521 0.17966
0.728985 0.741726 0.193347
0.746853 0.744549 0.207385
0.764096 0.747356 0.22031
0.78088 0.750515 0.232105
0.796139 0.754849 0.240436
0.811292 0.760372 0.247715
0.827237 0.766583 0.2551
0.845014 0.772107 0.264775
0.865141 0.776715 0.27483
0.886229 0.781384 0.284382
0.907927 0.783108 0.297154
0.926772 0.779507 0.313375
0.944701 0.776272 0.337942
0.957275 0.773693 0.361501
0.379904 0.672572 0.134096
0.387396 0.680995 0.126482
0.398672 0.690913 0.118883
0.408621 0.69781 0.11693
0.416083 0.702571 0.117128
0.426337 0.706813 0.118746
0.441459 0.710948 0.122515
0.460472 0.71426 0.127901
0.482017 0.716854 0.132982
0.505943 0.719692 0.13785
0.531395 0.723293 0.142931
0.556954 0.727077 0.14786
0.58201 0.73051 0.152575
0.606119 0.733883 0.156497
0.629572 0.737423 0.16054
0.651804 0.741543 0.165667
0.672831 0.746441 0.171283
0.693904 0.751797 0.176913
0.714473 0.757244 0.181674
0.733822 0.761212 0.195956
0.752285 0.764141 0.208804
0.769818 0.76669 0.222843
0.786938 0.76936 0.23595
0.803037 0.772625 0.246448
0.817197 0.778103 0.252811
0.832074 0.784314 0.2589
0.848539 0.789914 0.267002
0.868284 0.794202 0.277119
0.890043 0.798077 0.286702
0.911849 0.800366 0.298833
0.929305 0.79649 0.317723
0.947723 0.79202 0.345525
0.962036 0.790204 0.369955
0.397986 0.686717 0.147555
0.404746 0.694469 0.140444
0.415229 0.704067 0.130877
0.427329 0.711864 0.127794
0.435676 0.71722 0.12726
0.444007 0.721431 0.127672
0.456657 0.725505 0.130098
0.473732 0.729076 0.134524
0.494133 0.732006 0.139696
0.516732 0.734752 0.14461
0.540566 0.73785 0.149615
0.56495 0.741299 0.155093
0.589197 0.744961 0.160784
0.612634 0.74873 0.166171
0.634897 0.753002 0.171328
0.656626 0.757733 0.176761
0.677531 0.762875 0.182208
0.697993 0.768246 0.18819
0.718502 0.773632 0.192523
0.737621 0.778454 0.198627
0.755871 0.781796 0.211307
0.773251 0.784222 0.223789
0.79028 0.78648 0.237736
0.806668 0.789364 0.249546
0.822202 0.792432 0.258396
0.836286 0.798978 0.263096
0.851499 0.805005 0.269368
0.869932 0.80972 0.278202
0.892012 0.814084 0.288212
0.914794 0.818143 0.300496
0.932464 0.814328 0.320592
0.948913 0.807858 0.351965
0.965759 0.805585 0.377172
0.414679 0.69929 0.161654
0.422049 0.706905 0.155276
0.43212 0.715709 0.14464
0.444877 0.72369 0.139879
0.453422 0.729015 0.138201
0.46067 0.733242 0.137682
0.471977 0.737758 0.139773
0.487266 0.741939 0.143267
0.505623 0.745373 0.147509
0.526085 0.748074 0.1514
0.547967 0.751034 0.156405
0.571374 0.754467 0.162829
0.594797 0.758389 0.169741
0.617426 0.762554 0.176165
0.638819 0.767132 0.182239
0.660029 0.772076 0.188006
0.680735 0.777615 0.193515
0.701503 0.782757 0.199084
0.721035 0.78761 0.204013
0.739803 0.79234 0.207355
0.757626 0.796201 0.215
0.77499 0.799451 0.226719
0.791638 0.802243 0.238361
0.807523 0.804868 0.250187
0.823026 0.807599 0.260365
0.838437 0.810956 0.26772
0.853361 0.817792 0.271977
0.870893 0.823682 0.278889
0.892088 0.829541 0.288197
0.915434 0.83537 0.301228
0.935439 0.833417 0.32195
0.949462 0.823972 0.354284
0.967529 0.822644 0.385946
0.432654 0.710918 0.177783
0.439445 0.717708 0.170871
0.448142 0.72549 0.159884
0.460838 0.733394 0.153689
0.471336 0.739254 0.151659
0.478828 0.744228 0.150713
0.488197 0.748989 0.151537
0.501411 0.753765 0.154192
0.517372 0.757961 0.156985
0.535348 0.761349 0.159945
0.555566 0.764355 0.164858
0.577081 0.767605 0.171603
0.599573 0.771466 0.179049
0.621607 0.776028 0.186099
0.642222 0.780621 0.192737
0.66215 0.785748 0.198962
0.682765 0.791363 0.205493
0.703807 0.79704 0.212177
0.722988 0.801663 0.216785
0.741253 0.805859 0.220676
0.758587 0.810117 0.223194
0.775982 0.814191 0.231785
0.792004 0.81767 0.241611
0.807935 0.821164 0.251057
0.822995 0.82446 0.260975
0.838682 0.827329 0.269459
0.855802 0.830457 0.277333
0.872526 0.837186 0.282139
0.892103 0.844144 0.288045
0.915175 0.852506 0.299962
