lut_library/filter_lut/Analog.cube
TITLE "Generated by Resolve"
LUT_3D_SIZE 9
0.0472267 0.0621958 0.0657206
0.0910506 0.0662547 0.0636454
0.193774 0.0708324 0.0493629
0.330159 0.0567788 0.00683604
0.470588 0.00982681 0
0.574319 0 0
0.635538 0 0
0.670451 0 0
0.689265 0 0
0.0231785 0.105638 0.0927443
0.099855 0.108125 0.0861372
0.23473 0.108019 0.0609445
0.38024 0.0953384 0.0139773
0.517266 0.0624857 0.000518807
0.612665 0.0216678 1.5259e-05
0.668345 0.00442512 0
0.69929 0 0
0.715679 0.00148013 0
0.00015259 0.215702 0.128878
0.0260471 0.213443 0.114656
0.230915 0.205478 0.0809949
0.388144 0.202029 0.031342
0.544701 0.196872 0.00236515
0.652293 0.182101 3.0518e-05
0.716991 0.16321 0
0.749935 0.147677 0
0.768643 0.143618 0
0 0.359396 0.170809
0.000656138 0.359731 0.149065
0.234501 0.357046 0.0910506
0.446647 0.364431 0.0305638
0.619242 0.364553 0.00393683
0.732662 0.354421 0.000106813
0.798962 0.340261 0
0.831373 0.328206 0
0.848859 0.3243 0
0 0.476707 0.221775
0.00077821 0.492927 0.185016
0.228946 0.51812 0.102449
0.500954 0.546807 0.0282292
0.694957 0.562295 0.00122072
0.814817 0.560067 4.57771e-05
0.881636 0.547295 0
0.91249 0.532326 0
0.92903 0.524971 0
0 0.545052 0.293629
0.00105287 0.582544 0.240299
0.230198 0.632975 0.155886
0.544228 0.678523 0.049424
0.747219 0.709407 0.00761425
0.869474 0.717601 0.00282292
0.936492 0.7122 0.000885023
0.968994 0.703273 4.57771e-05
0.983627 0.696605 0.000671397
0 0.590249 0.380423
0.00135805 0.638346 0.318883
0.268986 0.697581 0.249699
0.582956 0.748775 0.165225
0.774746 0.781857 0.063798
0.892439 0.79762 0.0312505
0.957397 0.802182 0.0213931
0.987945 0.800259 0.0137789
0.997787 0.795392 0.00975052
0 0.628626 0.46334
0.0104067 0.683345 0.404227
0.333104 0.743603 0.350729
0.626017 0.792721 0.300175
0.798093 0.821653 0.236378
0.903807 0.834134 0.185397
0.958633 0.837125 0.151263
0.987762 0.83743 0.124956
0.9991 0.837537 0.126497
0 0.661768 0.52845
0.0227817 0.723079 0.480003
0.414679 0.781323 0.44387
0.670588 0.82562 0.408698
0.82295 0.851286 0.376211
0.914 0.862989 0.348989
0.962783 0.867674 0.330526
0.988251 0.869108 0.323461
0.998672 0.869032 0.325658
0.0423743 0.0659648 0.0923476
0.0921187 0.0694438 0.0904097
0.201526 0.0728923 0.0750591
0.338918 0.0505226 0.0429084
0.478233 0.00254826 0.0138247
0.582162 0 0.00689708
0.6421 0 0.00248722
0.675929 0 0.00015259
0.694179 0 0
0.0144656 0.114565 0.131106
0.0961318 0.115755 0.124712
0.240757 0.113939 0.10425
0.38732 0.0948043 0.0751507
0.520088 0.0365911 0.0416724
0.615778 0.00637827 0.0235142
0.672297 0.00106813 0.0155032
0.703105 9.15541e-05 0.0104067
0.719341 0.000427253 0.0108034
4.57771e-05 0.232563 0.180987
0.013138 0.229252 0.166934
0.231708 0.218189 0.137453
0.394522 0.212329 0.112627
0.545251 0.195193 0.0758221
0.647883 0.166781 0.0423133
0.710948 0.13489 0.0242771
0.742992 0.111376 0.0129854
0.761608 0.0978256 0.0151827
0 0.382101 0.248417
0.000457771 0.382773 0.228656
0.219196 0.377523 0.186999
0.444617 0.379934 0.157321
0.614939 0.370626 0.12163
0.724453 0.351873 0.0902724
0.787076 0.330587 0.0674449
0.818692 0.315602 0.0567483
0.835813 0.310201 0.0627146
0 0.503929 0.335485
0.00030518 0.520562 0.306828
0.180011 0.543679 0.257694
0.485634 0.565774 0.225177
0.681285 0.571023 0.18674
0.798123 0.560952 0.144915
0.864439 0.544564 0.127092
0.894789 0.528054 0.121508
0.910842 0.519646 0.124193
0 0.573754 0.42829
0.000503548 0.612802 0.391119
0.181415 0.661723 0.343694
0.520119 0.702541 0.310506
0.727169 0.723613 0.276921
0.847547 0.723949 0.249165
0.913344 0.714382 0.230137
0.94583 0.703456 0.224109
0.962493 0.697475 0.225086
0 0.617426 0.517983
4.57771e-05 0.668513 0.476081
0.182254 0.726711 0.43508
0.554879 0.777127 0.407691
0.75584 0.806668 0.37937
0.87332 0.816648 0.356069
0.937789 0.817197 0.339986
0.970001 0.813993 0.333104
0.986816 0.811612 0.336996
0 0.652476 0.596048
0.00419623 0.710658 0.555673
0.273564 0.770199 0.520317
0.599329 0.819791 0.498009
0.780758 0.849348 0.475624
0.889326 0.861662 0.455924
0.946258 0.865354 0.442008
0.976837 0.865446 0.435508
0.993347 0.865507 0.435309
0 0.682475 0.651423
0.00544747 0.746777 0.619638
0.362417 0.804334 0.596551
0.647654 0.849515 0.58027
0.806165 0.875517 0.561166
0.900877 0.887541 0.543786
0.951843 0.892393 0.531853
0.978607 0.893874 0.526192
0.993896 0.894774 0.525399
0.0264744 0.0700694 0.154131
0.0894789 0.0729839 0.154528
0.207553 0.0746929 0.140063
0.348211 0.0466468 0.12723
0.487861 0.00106813 0.118791
0.590448 0 0.114809
0.649073 0 0.111299
0.682658 0 0.111147
0.700389 0 0.115557
0.00419623 0.124971 0.224018
0.0784314 0.126772 0.216251
0.244709 0.12166 0.192477
0.395758 0.0999619 0.176104
0.528862 0.0380713 0.162066
0.624277 0.00416571 0.154925
0.680797 0 0.152667
0.71133 0 0.152438
0.727275 0 0.153353
0 0.256565 0.297017
0.0015259 0.25301 0.28278
0.22269 0.237324 0.246113
0.398077 0.230076 0.229541
0.553048 0.210773 0.211521
0.655131 0.177646 0.194675
0.716609 0.139467 0.182391
0.7476 0.111849 0.176379
0.765759 0.0966659 0.17705
0 0.413901 0.386496
9.15541e-05 0.414054 0.367895
0.18703 0.405798 0.325383
0.44004 0.406332 0.306706
0.618936 0.395117 0.288991
0.730327 0.374731 0.272374
0.794141 0.353368 0.26006
0.82501 0.336065 0.253773
0.841611 0.329397 0.254322
0 0.53431 0.472068
0 0.552254 0.448112
0.121218 0.574517 0.40705
0.471244 0.595926 0.38793
0.67895 0.600977 0.369345
0.79852 0.589914 0.352071
0.865461 0.571954 0.341024
0.896651 0.555062 0.336996
0.913497 0.546807 0.336767
0 0.59826 0.551324
0 0.639994 0.522591
0.1252 0.688838 0.485023
0.500938 0.729885 0.465934
0.718364 0.751369 0.44831
0.84268 0.751812 0.432135
0.909743 0.742565 0.420981
0.943191 0.731044 0.416159
0.960021 0.724681 0.416709
0 0.636698 0.62324
0 0.690883 0.592874
0.146609 0.749096 0.56054
0.53695 0.798978 0.543999
0.746212 0.828931 0.528298
0.8654 0.83917 0.513313
0.931014 0.839948 0.503151
0.964019 0.837003 0.497948
0.981323 0.834287 0.497459
0 0.667155 0.680949
0.00102235 0.728832 0.655406
0.226734 0.788449 0.629694
0.584848 0.838193 0.619135
0.771282 0.867689 0.605035
0.881971 0.880354 0.590646
0.939055 0.884291 0.580728
0.970062 0.884474 0.575631
0.986984 0.884474 0.575433
0 0.69369 0.721508
0.00112917 0.760998 0.701961
0.325231 0.818799 0.687434
0.637415 0.86421 0.680781
0.798688 0.890532 0.669947
0.893767 0.902922 0.658564
0.945144 0.908064 0.649989
0.972213 0.909575 0.644572
0.988128 0.910384 0.643091
0.0163272 0.0665904 0.236057
0.0874952 0.0704051 0.237491
0.217166 0.0679026 0.223865
0.36231 0.029221 0.214282
0.503517 0.000198367 0.21236
0.60473 0 0.21294
0.661479 0 0.213138
0.693751 0 0.215351
0.710582 0 0.220096
0.000717174 0.128481 0.31284
0.0593729 0.135271 0.305455
0.25185 0.126207 0.284932
0.408072 0.0988022 0.272648
0.542443 0.0382239 0.263905
0.637049 0.00469978 0.259953
0.692348 0 0.258839
0.721828 0 0.258412
0.737377 0 0.259388
0 0.27628 0.395026
0.000228885 0.272984 0.381506
0.215152 0.256535 0.34522
0.405921 0.247242 0.333654
0.564126 0.226719 0.320516
0.666377 0.193545 0.30779
0.726879 0.157122 0.298421
0.757305 0.130373 0.293156
0.774914 0.116426 0.293706
0 0.437781 0.488731
0 0.438849 0.471778
0.158999 0.431708 0.431724
0.440284 0.431479 0.419074
0.624613 0.419623 0.406287
0.737804 0.39881 0.393622
0.801404 0.376364 0.383169
0.832242 0.358984 0.377401
0.848798 0.352163 0.377264
0 0.555138 0.570352
0 0.575113 0.550958
0.0898451 0.599573 0.516579
0.462074 0.621012 0.503441
0.679759 0.626627 0.491402
0.799786 0.614893 0.478752
0.867094 0.596399 0.468925
0.898802 0.579736 0.463554
0.915938 0.571862 0.463249
0 0.614328 0.637018
0 0.659083 0.617594
0.0822614 0.709545 0.588602
0.487922 0.750957 0.577676
0.713115 0.772503 0.567437
0.839872 0.773602 0.556039
0.906859 0.764416 0.547295
0.940642 0.752758 0.542901
0.957763 0.746441 0.542763
0 0.648997 0.694591
0 0.706615 0.675181
0.113542 0.765682 0.651621
0.525444 0.815366 0.643503
0.739956 0.845487 0.635203
0.860059 0.856062 0.625452
0.925994 0.857038 0.617365
0.959167 0.85417 0.612711
0.976776 0.851148 0.611872
0 0.676616 0.737163
0 0.740749 0.723476
0.200763 0.801053 0.705928
0.576974 0.850858 0.702235
0.76553 0.880537 0.695064
0.877409 0.893843 0.686168
0.933974 0.897795 0.678645
0.965209 0.8981 0.674189
0.982406 0.897978 0.67332
0 0.700618 0.764981
0.00221256 0.770138 0.757092
0.314992 0.828504 0.74995
0.632197 0.873991 0.750729
0.794171 0.900481 0.74551
0.889342 0.913176 0.738064
0.940734 0.918547 0.732067
0.968032 0.920333 0.728023
0.984115 0.921111 0.726528
0.0136873 0.0484627 0.308858
0.0869459 0.0577401 0.311894
0.228428 0.0443275 0.301244
0.380011 0.00767529 0.297078
0.52163 0 0.298772
0.620249 0 0.300572
0.674556 0 0.301472
0.704952 0 0.303593
0.720684 0 0.307774
0.000167849 0.126345 0.390066
0.0452735 0.14023 0.384375
0.260288 0.127443 0.367071
0.421744 0.0928969 0.357977
0.55671 0.037171 0.351995
0.649836 0.0043183 0.348959
0.703487 0.00047303 0.347814
0.732082 0 0.347051
0.747295 0 0.347967
0 0.290089 0.479088
0.000167849 0.288823 0.46804
0.202777 0.273655 0.433494
0.414389 0.26273 0.425498
0.57525 0.240681 0.415152
0.677241 0.207095 0.404196
0.736538 0.171267 0.395239
0.766598 0.144961 0.389639
0.783749 0.133425 0.390234
0 0.455634 0.571267
0 0.458671 0.557977
0.133562 0.454231 0.522911
0.441276 0.453483 0.514824
0.631037 0.441291 0.506264
0.744823 0.419471 0.495476
0.808057 0.396796 0.486244
0.838941 0.37969 0.480949
0.855451 0.372488 0.480034
0 0.569879 0.644587
0 0.593133 0.631312
0.0779126 0.620111 0.604639
0.456489 0.642191 0.597009
0.681285 0.648463 0.590875
0.801434 0.636072 0.580911
0.868772 0.617563 0.572381
0.900862 0.600824 0.566659
0.918181 0.593423 0.565545
0 0.625483 0.699855
0 0.673045 0.689448
0.023743 0.725551 0.66772
0.479011 0.767437 0.663005
0.709514 0.789471 0.657862
0.837812 0.790616 0.650217
0.904646 0.781216 0.643305
0.938704 0.770001 0.638788
0.956252 0.764279 0.637934
0 0.65716 0.742077
0 0.71754 0.734401
0.114961 0.777935 0.719997
0.519783 0.827543 0.718151
0.736461 0.857679 0.715511
0.856657 0.868284 0.708934
0.922576 0.86949 0.702724
0.955734 0.866712 0.698528
0.973693 0.8636 0.697383
0 0.683268 0.771328
0 0.749264 0.76878
0.187655 0.810025 0.758831
0.573953 0.859953 0.762417
0.76228 0.88957 0.760571
0.874311 0.903227 0.755932
0.930556 0.907408 0.751049
0.961868 0.90782 0.747387
0.979309 0.907576 0.746014
0 0.705303 0.789822
0.00459297 0.776349 0.789746
0.317754 0.834943 0.789334
0.630793 0.880446 0.795697
0.792248 0.907088 0.795804
0.886793 0.920027 0.792096
0.938155 0.925521 0.788098
0.965393 0.927443 0.785275
0.981476 0.928252 0.783902
0.00955215 0.0258183 0.37409
0.0866407 0.0375677 0.378378
0.241703 0.0117342 0.372442
0.399924 0.000228885 0.372793
0.538766 0 0.37554
0.634913 0 0.377157
0.686839 0 0.377707
0.715648 0 0.379141
0.730953 0 0.383291
3.0518e-05 0.121202 0.453529
0.0277256 0.143572 0.450584
0.269718 0.126162 0.438315
0.435325 0.0796063 0.432975
0.570153 0.0338293 0.429313
0.662486 0.00340276 0.426978
0.714061 0.000976577 0.425025
0.741833 0 0.424201
0.756756 0 0.42475
0 0.300938 0.547005
0.000167849 0.300862 0.538247
0.196033 0.288457 0.508278
0.422797 0.276356 0.504646
0.585992 0.252903 0.497124
0.687358 0.218433 0.487663
0.745571 0.183398 0.479225
0.775204 0.155825 0.473594
0.791913 0.146456 0.47335
0 0.470176 0.636561
1.5259e-05 0.474876 0.626902
0.116945 0.473152 0.595956
0.443107 0.472358 0.592477
0.637064 0.459632 0.587106
0.751308 0.437568 0.578271
0.814008 0.414801 0.569512
0.844877 0.397253 0.563714
0.861494 0.389944 0.562493
0 0.580835 0.699306
0 0.60705 0.692958
0.07393 0.636271 0.67364
0.453544 0.658686 0.670069
0.682475 0.664775 0.667781
0.803357 0.652583 0.659785
0.870481 0.633875 0.652033
0.902968 0.618219 0.64715
0.920455 0.611414 0.645624
0 0.633463 0.740597
0 0.683452 0.73933
0.00959792 0.737881 0.726268
0.474739 0.780194 0.727581
0.708324 0.802274 0.727871
0.837034 0.803677 0.72285
0.903517 0.793896 0.71664
0.937774 0.783597 0.712077
0.955596 0.778012 0.71046
0 0.662608 0.770138
0 0.725292 0.771939
0.116243 0.786664 0.764385
0.51931 0.836271 0.768261
0.735103 0.866194 0.770291
0.855146 0.876951 0.767529
0.920516 0.878248 0.763317
0.953643 0.875395 0.760357
0.971756 0.872709 0.759503
0 0.687999 0.791165
0 0.755138 0.795178
0.183398 0.816068 0.790707
0.575235 0.865995 0.799893
0.761852 0.895644 0.802823
0.87277 0.909422 0.800992
0.928847 0.913664 0.797742
0.959884 0.914214 0.794919
0.977356 0.91397 0.793606
0 0.709041 0.804456
0.00732433 0.780896 0.80914
0.328908 0.839521 0.812696
0.633005 0.884657 0.822522
0.792782 0.911086 0.825925
0.886076 0.924102 0.824994
0.936568 0.929625 0.822812
0.963943 0.931731 0.821088
0.979858 0.932647 0.820172
0.00770581 0.0118715 0.429816
0.0861219 0.0264897 0.434562
0.255055 0.00424201 0.433417
0.418265 0.000106813 0.436866
0.555428 0 0.440238
0.64892 0 0.442084
0.699062 0 0.442939
0.726223 0 0.443717
0.740627 0 0.446784
0 0.116625 0.504738
0.0277867 0.145418 0.504921
0.278828 0.124697 0.497475
0.448005 0.0751812 0.495186
0.582605 0.0293889 0.493034
0.673732 0.00274662 0.491447
0.723827 0.00163272 0.489143
0.751049 1.5259e-05 0.487861
0.765469 0 0.48806
0 0.310292 0.600229
0.000106813 0.310872 0.594415
0.1953 0.301137 0.570108
0.431434 0.288304 0.569299
0.595499 0.264027 0.56437
0.696742 0.228992 0.555749
0.754025 0.194491 0.547524
0.783047 0.164141 0.541985
0.799527 0.157259 0.541466
0 0.481987 0.682292
1.5259e-05 0.48835 0.677668
0.0906081 0.488579 0.653269
0.446067 0.487922 0.654459
0.643061 0.475059 0.652155
0.757137 0.452262 0.644785
0.819486 0.429603 0.636973
0.850141 0.412055 0.631159
0.866789 0.404608 0.629023
0 0.588983 0.734798
0 0.618265 0.734859
0.0624399 0.649638 0.72192
0.455238 0.672435 0.723842
0.685237 0.678401 0.725673
0.805875 0.665934 0.720104
0.872511 0.647593 0.713252
0.905241 0.632563 0.708415
0.92285 0.626398 0.706737
0 0.638865 0.766033
0 0.691096 0.771176
0.020325 0.747036 0.764553
0.475898 0.789487 0.769619
0.709377 0.811612 0.773648
0.836713 0.812711 0.771084
0.903517 0.803876 0.767147
0.937575 0.794385 0.763638
0.955505 0.789166 0.762066
0 0.667231 0.787579
0 0.73109 0.795361
0.115496 0.792706 0.79173
0.523827 0.842374 0.800519
0.736721 0.87216 0.805966
0.85536 0.882948 0.80589
0.919646 0.884352 0.803189
0.952605 0.881331 0.800244
0.970779 0.879057 0.798962
0 0.692042 0.802777
0 0.75993 0.811078
0.188647 0.820508 0.810849
0.579995 0.870253 0.823163
0.764248 0.899611 0.828733
0.872389 0.913252 0.829023
0.928161 0.917647 0.827588
0.958938 0.918471 0.826078
0.976257 0.918135 0.82501
0 0.712032 0.812131
0.0105745 0.78471 0.820157
0.344869 0.843198 0.826841
0.63743 0.887861 0.839399
0.794736 0.913817 0.845075
0.886427 0.926741 0.846082
0.935805 0.932143 0.844831
0.963287 0.934325 0.843503
0.979019 0.935271 0.842771
0.00389105 0.00881971 0.473838
0.0842451 0.0246281 0.4795
0.266819 0.00267033 0.483757
0.434455 0.000183108 0.489937
0.570352 0 0.494408
0.661173 0 0.495933
0.709682 0 0.495567
0.735622 0 0.496147
0.749233 0 0.498039
0 0.11873 0.542748
0.0320287 0.150332 0.545937
0.287938 0.126879 0.544457
0.460258 0.0698253 0.546044
0.594125 0.0243229 0.545281
0.683528 0.00401312 0.544289
0.732738 0.0021973 0.542016
0.759335 1.5259e-05 0.540444
0.773358 0 0.540352
0 0.319646 0.636988
7.62951e-05 0.321675 0.634379
0.198672 0.313359 0.616037
0.440009 0.300069 0.61944
0.604562 0.274372 0.617502
0.705715 0.239689 0.611154
0.761776 0.203571 0.603342
0.790051 0.167163 0.597192
0.806409 0.165484 0.595926
0 0.491585 0.712383
1.5259e-05 0.500237 0.711818
0.0777142 0.502525 0.693736
0.451652 0.502251 0.698756
0.649943 0.489342 0.699779
0.762997 0.466484 0.694286
0.824735 0.44387 0.687449
0.855283 0.426246 0.681727
0.871855 0.41886 0.679438
0 0.595529 0.756863
0 0.626841 0.761975
0.0472419 0.660914 0.753796
0.460868 0.683986 0.760082
0.688334 0.689036 0.764065
0.809522 0.677165 0.7608
0.875044 0.659586 0.755474
0.907668 0.645197 0.75111
0.925139 0.6392 0.749264
0 0.643351 0.78146
0 0.697398 0.791257
0.0389105 0.754192 0.789456
0.482033 0.79675 0.797467
0.712795 0.819211 0.80444
0.83798 0.819959 0.803845
0.904418 0.811994 0.800824
0.938064 0.803296 0.797803
0.955978 0.798383 0.796124
0 0.670695 0.797528
0 0.735973 0.809125
0.114214 0.797604 0.808499
0.53164 0.847196 0.821027
0.739849 0.876524 0.828809
0.856718 0.887114 0.830304
0.919463 0.888334 0.828855
0.952285 0.885695 0.826886
0.970397 0.883711 0.825788
0 0.69575 0.808972
0 0.764157 0.820005
0.202365 0.824277 0.822538
0.587182 0.87364 0.837324
0.767452 0.90251 0.844923
0.873045 0.915938 0.846815
0.928374 0.920409 0.846555
0.958572 0.921324 0.845396
0.975753 0.920943 0.844236
0 0.715373 0.817166
0.0146487 0.788052 0.82623
0.361776 0.846174 0.834592
0.643793 0.890394 0.848798
0.797848 0.915755 0.855726
0.887739 0.92845 0.857755
0.935653 0.933761 0.857694
0.963119 0.936126 0.857359
0.978531 0.937057 0.856733
0.00335698 0.00769055 0.505791
0.0841535 0.0282597 0.512078
0.278614 0.00393683 0.521462
0.450065 0.000228885 0.530724
0.583947 0 0.536507
0.672374 0 0.53814
0.719127 0 0.537636
0.743908 0 0.537636
0.757 0 0.538811
0 0.127672 0.570703
0.0321965 0.158816 0.575494
0.297261 0.132753 0.577768
0.472297 0.0729686 0.582071
0.604242 0.0198825 0.582666
0.692149 0.00704967 0.583322
0.740124 0.00256352 0.581659
0.766201 3.0518e-05 0.580316
0.779812 0 0.580056
0 0.330449 0.662898
0.000549325 0.332418 0.661814
0.203464 0.325765 0.648859
0.449912 0.312383 0.655528
0.613565 0.28661 0.655589
0.714031 0.25211 0.649989
0.769299 0.216739 0.642985
0.796887 0.179522 0.637507
0.812863 0.178653 0.63624
0 0.501198 0.732845
0 0.511147 0.734646
0.0809186 0.515282 0.72137
0.459434 0.515419 0.729015
0.657832 0.502739 0.732296
0.7691 0.480018 0.728191
0.829953 0.457404 0.722332
0.860075 0.439734 0.717388
0.876295 0.431785 0.714824
0 0.601831 0.770443
0 0.635126 0.779248
0.0266728 0.67068 0.774411
0.469139 0.693614 0.783978
0.692683 0.698619 0.790219
0.813886 0.687373 0.788785
0.877882 0.670481 0.784588
0.910307 0.656596 0.780621
0.927626 0.651286 0.77879
0 0.647471 0.790097
0 0.703105 0.80325
0.0602121 0.760357 0.804578
0.491707 0.803052 0.815335
0.717296 0.825162 0.824231
0.839963 0.825925 0.82504
0.905715 0.818723 0.823178
0.938903 0.810834 0.820737
0.956817 0.806424 0.819181
0 0.674434 0.803586
0 0.740368 0.816388
0.114946 0.801892 0.817777
0.541009 0.851194 0.83299
0.743969 0.879866 0.842496
0.85922 0.890486 0.845365
0.919921 0.891463 0.844877
0.952407 0.889097 0.84358
0.970382 0.887587 0.842741
0 0.699733 0.813245
0 0.768307 0.825345
0.222721 0.827741 0.829404
0.596139 0.876432 0.845396
0.772259 0.904723 0.853986
0.874403 0.9178 0.856947
0.929213 0.922332 0.857343
0.958633 0.923232 0.856657
0.975631 0.923033 0.856077
0 0.71902 0.820356
0.0194095 0.791363 0.829862
0.380835 0.849165 0.839597
0.651499 0.892607 0.854444
0.801389 0.917098 0.861769
0.88957 0.929686 0.864637
0.936034 0.934844 0.865217
0.96347 0.93724 0.864973
0.978332 0.938109 0.864485
