lut_library/filter_lut/Analog.cube
TITLE "Generated by Resolve"
LUT_3D_SIZE 33
0.0472267 0.0621958 0.0657206
0.0572366 0.063035 0.0656748
0.0680705 0.0640269 0.0653086
0.0795453 0.0650645 0.0646677
0.0910506 0.0662547 0.0636454
0.104082 0.067689 0.0620737
0.123278 0.0691539 0.0597696
0.158297 0.0703746 0.0549325
0.193774 0.0708324 0.0493629
0.226902 0.070161 0.0423743
0.259831 0.0675822 0.0325017
0.294377 0.0629587 0.0195621
0.330159 0.0567788 0.00683604
0.368856 0.0467689 0.00331121
0.405707 0.0357519 0.000686656
0.439185 0.0218204 1.5259e-05
0.470588 0.00982681 0
0.499886 0.0030518 0
0.527169 0.00102235 0
0.551888 3.0518e-05 0
0.574319 0 0
0.593194 0 0
0.60914 0 0
0.623102 0 0
0.635538 0 0
0.646738 0 0
0.656001 0 0
0.663676 0 0
0.670451 0 0
0.67628 0 0
0.6813 0 0
0.685786 0 0
0.689265 0 0
0.0453803 0.0706035 0.0707713
0.0573129 0.0708171 0.0705577
0.0696117 0.071397 0.0699474
0.0822766 0.0720684 0.0691234
0.0944839 0.0729534 0.0678874
0.109468 0.074052 0.06598
0.133028 0.075288 0.0627604
0.169421 0.0760967 0.0572824
0.205753 0.0760662 0.0511635
0.238483 0.0754101 0.0439918
0.272465 0.0724651 0.0328527
0.307927 0.0678874 0.0196841
0.344503 0.06215 0.00892653
0.383459 0.05449 0.00384527
0.41973 0.044007 0.000442512
0.452735 0.0283818 6.10361e-05
0.483406 0.0162356 1.5259e-05
0.511971 0.00767529 0
0.538582 0.00222782 0
0.562646 6.10361e-05 0
0.585214 1.5259e-05 0
0.60264 0 0
0.618097 0 0
0.631342 0 0
0.642863 0 0
0.652964 0 0
0.661418 0 0
0.668559 0 0
0.674876 0 0
0.680323 0 0
0.685176 0 0
0.689448 0 0
0.692912 0 0
0.0390173 0.0807507 0.0772259
0.0530251 0.0811627 0.0766613
0.0683604 0.0819257 0.0758373
0.083711 0.0827039 0.0747082
0.0969711 0.0837262 0.0731975
0.114458 0.0847486 0.0708019
0.142046 0.0851759 0.0665751
0.179431 0.0846113 0.0602274
0.216922 0.0836957 0.0534981
0.249317 0.0825666 0.0462654
0.284413 0.078996 0.0339361
0.32047 0.0743877 0.0210117
0.358038 0.0688029 0.0108797
0.396719 0.0614481 0.00425727
0.432639 0.051667 0.000289921
0.465675 0.0386969 0.000106813
0.495598 0.0265354 3.0518e-05
0.523888 0.0142214 0
0.549783 0.00578317 0
0.573297 0.00230411 0
0.595071 0.00103761 0
0.612207 0.000427253 0
0.62742 0.000167849 0
0.640024 3.0518e-05 0
0.651057 0 0
0.660655 0 0
0.66891 0 0
0.676127 0 0
0.682338 0 0
0.687587 0 0
0.692256 0 0
0.696178 0 0
0.699428 0 0
0.0315251 0.0922408 0.0844129
0.0474708 0.0927443 0.0834974
0.0664073 0.0935073 0.082414
0.0846113 0.0943618 0.0810864
0.0989395 0.0955215 0.0792859
0.118898 0.0964065 0.0764172
0.150256 0.0960861 0.0709697
0.188754 0.0948501 0.0637827
0.226413 0.0934005 0.0564584
0.25919 0.0921798 0.0492866
0.295262 0.088426 0.0357366
0.331807 0.0842603 0.0227359
0.370199 0.0789807 0.0121767
0.408576 0.0722362 0.00459297
0.444205 0.06392 0.000564584
0.47744 0.0537423 0.000289921
0.507088 0.0406806 0.000122072
0.534798 0.0259861 6.10361e-05
0.559884 0.0156558 1.5259e-05
0.583261 0.00856031 0
0.604257 0.00363165 0
0.621469 0.00128176 0
0.636805 0.000427253 0
0.649042 7.62951e-05 0
0.6598 0 0
0.669123 0 0
0.677272 1.5259e-05 0
0.684413 3.0518e-05 0
0.6907 0 0
0.695521 0 0
0.699992 0 0
0.703685 0 0
0.706844 0 0
0.0231785 0.105638 0.0927443
0.0399634 0.105745 0.0914931
0.0624247 0.106081 0.0899977
0.0835279 0.106676 0.0882277
0.099855 0.108125 0.0861372
0.122087 0.109361 0.0829175
0.157153 0.109377 0.0765087
0.196841 0.108797 0.0688029
0.23473 0.108019 0.0609445
0.268772 0.106996 0.0522316
0.304875 0.103868 0.0382849
0.341039 0.100237 0.0248875
0.38024 0.0953384 0.0139773
0.418265 0.0894789 0.00605783
0.454047 0.082475 0.00190738
0.487205 0.0737774 0.00111391
0.517266 0.0624857 0.000518807
0.544549 0.0488899 0.000289921
0.569299 0.0383001 0.000122072
0.592386 0.029099 4.57771e-05
0.612665 0.0216678 1.5259e-05
0.630121 0.016022 0
0.645289 0.0111238 0
0.657984 0.00714122 0
0.668345 0.00442512 0
0.677623 0.0021973 0
0.685771 0.000915541 0
0.692882 0.000411994 0
0.69929 0 0
0.704204 0 0
0.70901 0.000350958 0
0.71252 0.000991836 0
0.715679 0.00148013 0
0.0137026 0.125063 0.101747
0.0293584 0.125032 0.100053
0.0502937 0.125078 0.0980087
0.072221 0.125246 0.0956741
0.0951095 0.126116 0.0932631
0.121035 0.126696 0.0897231
0.160266 0.125689 0.0825666
0.202029 0.124666 0.0746624
0.239994 0.124117 0.0667582
0.274662 0.123217 0.0572213
0.309957 0.121324 0.0443275
0.345266 0.118975 0.0302434
0.384298 0.115572 0.0185092
0.422034 0.111849 0.00894179
0.457786 0.107393 0.00393683
0.491066 0.101778 0.00216678
0.522042 0.0949111 0.00106813
0.549279 0.0862745 0.00062562
0.574411 0.0787518 0.000289921
0.596872 0.0694285 0.00015259
0.61738 0.0605631 6.10361e-05
0.635447 0.0517128 0
0.650675 0.0427863 0
0.664729 0.0344396 0
0.675166 0.0298619 0
0.68484 0.0256657 0
0.693111 0.0231785 0
0.700343 0.0213626 0
0.706813 0.0197299 0
0.712306 0.0182498 0
0.717098 0.0167239 0
0.721248 0.0153506 0
0.724773 0.0156405 0
0.00474556 0.152087 0.110292
0.0138247 0.151843 0.108309
0.0273289 0.151461 0.10576
0.0469368 0.151095 0.102785
0.0737621 0.150805 0.0995804
0.106294 0.14992 0.0955215
0.149416 0.146899 0.0881361
0.193606 0.144961 0.0808423
0.232319 0.143755 0.0734417
0.267979 0.143221 0.064744
0.30312 0.142931 0.0532082
0.339223 0.142397 0.0379797
0.377203 0.141344 0.0246738
0.41651 0.139818 0.0124361
0.453925 0.137545 0.0059205
0.489708 0.135103 0.00276188
0.522759 0.131746 0.00125124
0.551461 0.127031 0.000595102
0.578485 0.121889 0.000274662
0.601373 0.113512 0.000183108
0.623423 0.105455 7.62951e-05
0.64242 0.0975967 1.5259e-05
0.658808 0.0902113 0
0.673259 0.084184 0
0.684993 0.0793774 0
0.694652 0.0733654 0
0.70312 0.0676127 0
0.710399 0.0620127 0
0.716884 0.0565347 0
0.722744 0.0516213 0
0.727504 0.0478065 0
0.732265 0.04448 0
0.735912 0.04477 0
0.000732433 0.182986 0.119142
0.00357061 0.182803 0.117235
0.00918593 0.18233 0.114275
0.0226749 0.181872 0.110796
0.0464485 0.181125 0.106645
0.083238 0.179736 0.101152
0.138979 0.176699 0.0931716
0.187976 0.174777 0.0852827
0.229099 0.173785 0.0772106
0.266865 0.173297 0.0686809
0.303395 0.172305 0.0571756
0.340627 0.170825 0.0427405
0.378378 0.169345 0.0292668
0.419409 0.167803 0.0165103
0.458564 0.166247 0.00775158
0.49601 0.164599 0.00341802
0.53051 0.162173 0.00129702
0.56112 0.159106 0.000274662
0.588342 0.155245 0.000198367
0.613199 0.150652 7.62951e-05
0.63566 0.145388 6.10361e-05
0.655406 0.140383 1.5259e-05
0.672435 0.135592 0
0.687099 0.130617 0
0.699626 0.124834 0
0.709499 0.118196 0
0.718654 0.11191 0
0.725734 0.106584 0
0.732341 0.1019 0
0.73817 0.0988327 0
0.742992 0.0972152 0
0.747631 0.0961624 0
0.751217 0.0971237 0
0.00015259 0.215702 0.128878
0.000427253 0.215381 0.127031
0.00173953 0.214954 0.123705
0.00962844 0.214313 0.119677
0.0260471 0.213443 0.114656
0.0640421 0.211398 0.107652
0.128145 0.208103 0.0986038
0.185489 0.206043 0.0899672
0.230915 0.205478 0.0809949
0.271763 0.205249 0.071107
0.310567 0.204379 0.0584726
0.348943 0.203052 0.0445563
0.388144 0.202029 0.031342
0.430121 0.200992 0.0191958
0.470436 0.200015 0.00975052
0.509178 0.198581 0.0053254
0.544701 0.196872 0.00236515
0.576028 0.194339 0.000808728
0.603677 0.190997 0.000350958
0.629252 0.186999 3.0518e-05
0.652293 0.182101 3.0518e-05
0.672663 0.177462 0
0.689494 0.172763 0
0.704295 0.167956 0
0.716991 0.16321 0
0.726986 0.158572 0
0.736706 0.15436 0
0.743328 0.15082 0
0.749935 0.147677 0
0.75555 0.145785 0
0.760464 0.14464 0
0.764935 0.143618 0
0.768643 0.143618 0
1.5259e-05 0.249485 0.139132
6.10361e-05 0.248966 0.137087
0.000244144 0.248463 0.133532
0.00320439 0.24773 0.129061
0.00952163 0.246571 0.123171
0.0504616 0.243442 0.114519
0.118227 0.240146 0.104402
0.183108 0.239017 0.0948653
0.235645 0.239185 0.0849928
0.279164 0.239536 0.0735943
0.320241 0.239536 0.0594797
0.360296 0.239567 0.0449378
0.401343 0.239338 0.0320287
0.444083 0.238407 0.0212406
0.485496 0.237675 0.0120089
0.525567 0.236286 0.00712596
0.561898 0.234577 0.00326543
0.593194 0.231998 0.00135805
0.621302 0.229023 0.000549325
0.647334 0.225254 0.000106813
0.670527 0.220676 7.62951e-05
0.691707 0.216419 0
0.708247 0.21236 0
0.723476 0.208499 0
0.735866 0.204791 0
0.745968 0.201114 0
0.755459 0.197803 0
0.762142 0.194842 0
0.768856 0.191806 0
0.774212 0.189746 0
0.779187 0.18819 0
0.783581 0.186892 0
0.787152 0.185931 0
0 0.285512 0.149447
0 0.285298 0.147021
6.10361e-05 0.284871 0.143221
0.000534066 0.284153 0.138384
0.00177005 0.282689 0.131685
0.0390784 0.279133 0.121233
0.103944 0.276341 0.109773
0.176516 0.275593 0.0987869
0.236988 0.27599 0.0874342
0.286595 0.276905 0.0751965
0.330282 0.277653 0.0597543
0.372641 0.278553 0.0445716
0.416236 0.278584 0.0317082
0.460105 0.278248 0.0210574
0.502541 0.277775 0.0121767
0.543633 0.277195 0.00683604
0.58053 0.276127 0.00292973
0.612131 0.274205 0.00169375
0.641001 0.271717 0.000946059
0.667262 0.268559 0.000442512
0.690654 0.264805 0.000228885
0.712108 0.261204 0
0.72874 0.25716 0
0.74435 0.25333 0
0.756115 0.249363 0
0.76643 0.245731 0
0.775509 0.242329 0
0.782345 0.239292 0
0.789136 0.236072 0
0.794369 0.234409 0
0.79942 0.233036 0
0.803693 0.231983 0
0.807218 0.231189 0
0 0.323415 0.15993
0 0.323293 0.156985
3.0518e-05 0.322759 0.152789
0.000183108 0.322118 0.147524
0.000503548 0.320989 0.140505
0.0244755 0.31696 0.127825
0.0920119 0.314336 0.114946
0.170626 0.313787 0.102296
0.238132 0.314549 0.0895857
0.294652 0.315816 0.0759594
0.341634 0.317006 0.0592508
0.386374 0.318364 0.0432441
0.431891 0.318746 0.031281
0.476631 0.318868 0.0214237
0.520317 0.318853 0.0134737
0.561898 0.318898 0.00776684
0.600122 0.318578 0.00347906
0.631998 0.317128 0.00241093
0.661311 0.314992 0.00135805
0.68777 0.312276 0.000671397
0.711498 0.309148 0.000274662
0.732631 0.305699 0
0.749905 0.301656 0
0.766003 0.297871 0
0.777295 0.294118 0
0.787854 0.290486 0
0.796445 0.287007 0
0.803388 0.284062 0
0.810117 0.281422 0
0.815229 0.279911 0
0.820081 0.278569 0
0.824155 0.277836 0
0.827771 0.277684 0
0 0.359396 0.170809
0 0.359701 0.167376
0 0.360052 0.162844
0 0.360128 0.156893
0.000656138 0.359731 0.149065
0.0120241 0.356023 0.134447
0.0830854 0.354665 0.119966
0.160693 0.355261 0.105562
0.234501 0.357046 0.0910506
0.300328 0.359106 0.0754711
0.350866 0.361379 0.0585336
0.398932 0.363561 0.0428779
0.446647 0.364431 0.0305638
0.492958 0.364981 0.0202182
0.538231 0.365393 0.012726
0.580789 0.365316 0.00759899
0.619242 0.364553 0.00393683
0.652262 0.362371 0.00213626
0.682246 0.360113 0.000793469
0.708782 0.357382 0.00030518
0.732662 0.354421 0.000106813
0.753643 0.350881 0
0.771664 0.347311 0
0.787961 0.343847 0
0.798962 0.340261 0
0.809567 0.336629 0
0.817746 0.333516 0
0.824842 0.330617 0
0.831373 0.328206 0
0.836362 0.326574 0
0.841337 0.3252 0
0.84535 0.324651 0
0.848859 0.3243 0
0 0.393072 0.182086
0 0.394354 0.178378
0 0.395621 0.173297
0 0.396658 0.166705
0.000915541 0.396719 0.157015
0.0069276 0.395209 0.141558
0.0711833 0.395468 0.125277
0.148592 0.39762 0.108949
0.232837 0.400427 0.0925307
0.304952 0.403723 0.0753643
0.358938 0.406958 0.057969
0.411246 0.409903 0.0421454
0.461036 0.411185 0.0289464
0.509499 0.412604 0.018677
0.556573 0.413474 0.011841
0.599786 0.413687 0.00712596
0.638453 0.412863 0.00369268
0.672679 0.411429 0.00154116
0.703517 0.409476 0.000137331
0.7299 0.406912 4.57771e-05
0.753811 0.403784 1.5259e-05
0.774762 0.400488 1.5259e-05
0.79324 0.396994 3.0518e-05
0.808942 0.393408 3.0518e-05
0.820371 0.389639 1.5259e-05
0.831174 0.385977 0
0.839033 0.382528 0
0.846403 0.37908 0
0.852644 0.376287 0
0.857694 0.374441 0
0.862577 0.372564 0
0.866346 0.371771 0
0.869612 0.371099 0
0 0.423392 0.194003
0 0.425406 0.189868
0 0.427482 0.184421
1.5259e-05 0.429557 0.177249
0.000274662 0.431083 0.165881
0.00991836 0.432135 0.149187
0.0550088 0.433997 0.131243
0.13872 0.437797 0.1131
0.23331 0.442298 0.0950637
0.307286 0.447333 0.0759136
0.366445 0.452171 0.057145
0.422843 0.456489 0.0406348
0.475212 0.459541 0.026978
0.525917 0.462226 0.0169528
0.574578 0.464042 0.0104982
0.618769 0.465156 0.00587472
0.658289 0.465293 0.00277714
0.693324 0.464485 0.000961318
0.724102 0.46244 3.0518e-05
0.751064 0.459495 3.0518e-05
0.774975 0.455894 3.0518e-05
0.796078 0.452186 6.10361e-05
0.814542 0.448188 6.10361e-05
0.829602 0.444343 6.10361e-05
0.841459 0.440452 3.0518e-05
0.852522 0.436744 1.5259e-05
0.859937 0.432715 1.5259e-05
0.86743 0.429191 0
0.873365 0.426688 0
0.878477 0.424643 0
0.883146 0.422705 0
0.886778 0.421881 0
0.89015 0.421439 0
0 0.452232 0.206851
0 0.45452 0.202579
0 0.457435 0.196628
0 0.460441 0.188724
0.000381476 0.463355 0.175265
0.0102693 0.466316 0.157168
0.0462959 0.470298 0.137819
0.132708 0.475624 0.118196
0.23267 0.481712 0.0983902
0.307591 0.488533 0.076585
0.373465 0.495125 0.0566567
0.433661 0.500679 0.0399481
0.488365 0.50518 0.026566
0.541375 0.508827 0.0163882
0.592203 0.512093 0.00907912
0.636637 0.513893 0.00454719
0.676753 0.514916 0.00190738
0.712291 0.514504 0.000534066
0.743114 0.513054 1.5259e-05
0.770901 0.510964 1.5259e-05
0.795209 0.508003 3.0518e-05
0.816434 0.504723 4.57771e-05
0.83473 0.501427 6.10361e-05
0.849454 0.497963 4.57771e-05
0.861753 0.494377 3.0518e-05
0.872312 0.490501 1.5259e-05
0.88014 0.486717 1.5259e-05
0.887724 0.483467 0
0.893462 0.48072 0
0.898665 0.477958 0
0.903212 0.475959 0
0.906737 0.474708 0
0.910124 0.473655 0
0 0.476707 0.221775
0 0.47985 0.216968
0 0.483742 0.2103
0 0.48806 0.201175
0.00077821 0.492927 0.185016
0.00805676 0.498222 0.165621
0.0460822 0.504143 0.145113
0.133425 0.510765 0.124025
0.228946 0.51812 0.102449
0.309133 0.526543 0.0785534
0.381048 0.534188 0.0585641
0.443732 0.540825 0.0419928
0.500954 0.546807 0.0282292
0.555978 0.552041 0.0172427
0.60911 0.556893 0.00741588
0.653529 0.559747 0.00332647
0.694957 0.562295 0.00122072
0.730678 0.563195 0.000274662
0.762081 0.563104 1.5259e-05
0.790555 0.562142 9.15541e-05
0.814817 0.560067 4.57771e-05
0.836774 0.557336 3.0518e-05
0.854627 0.554452 1.5259e-05
0.869261 0.551095 0
0.881636 0.547295 0
0.891722 0.543282 0
0.899641 0.539239 0
0.907088 0.535531 0
0.91249 0.532326 0
0.91783 0.529488 0
0.922133 0.527535 0
0.925628 0.526009 0
0.92903 0.524971 0
0 0.500175 0.2374
0 0.504173 0.231952
0 0.508888 0.224384
0 0.514595 0.21442
0.000732433 0.521233 0.195697
0.00503548 0.528038 0.175555
0.0492714 0.535241 0.154391
0.132891 0.543236 0.132158
0.222339 0.551858 0.109392
0.314076 0.561257 0.0854963
0.389212 0.569711 0.0650339
0.453315 0.577722 0.0458076
0.512596 0.584894 0.0295872
0.569345 0.591455 0.0163424
0.623133 0.597253 0.00534066
0.668177 0.601282 0.0021973
0.711101 0.604898 0.00140383
0.746014 0.606073 0.00115969
0.777844 0.606439 0.000823987
0.806271 0.605844 0.000411994
0.830442 0.60383 0.000213626
0.852934 0.601404 0.000137331
0.870283 0.598413 9.15541e-05
0.885451 0.595682 4.57771e-05
0.898054 0.592721 1.5259e-05
0.908156 0.589426 0
0.916411 0.585916 0
0.923827 0.582986 0
0.92958 0.580377 0
0.93518 0.578042 0
0.93933 0.576486 0
0.943145 0.575479 0
0.946532 0.574639 0
0 0.516518 0.255024
0 0.521385 0.249027
0 0.52755 0.240879
3.0518e-05 0.534722 0.229938
0.000534066 0.543938 0.209171
0.00288396 0.553246 0.18909
0.0519417 0.5626 0.167071
0.129381 0.572335 0.14403
0.219348 0.582498 0.121309
0.320104 0.593103 0.098146
0.397299 0.602762 0.0729381
0.462287 0.61178 0.0458381
0.523507 0.619944 0.0278325
0.582223 0.627894 0.0146944
0.635981 0.634684 0.00636301
0.681636 0.639628 0.00503548
0.72639 0.644419 0.00375372
0.759976 0.645792 0.00309758
0.792935 0.647166 0.00192264
0.821042 0.646937 0.00111391
0.845548 0.645457 0.000732433
0.868162 0.643961 0.000396735
0.88574 0.641993 0.000244144
0.901869 0.64004 0.000122072
0.914 0.637308 6.10361e-05
0.923919 0.634379 3.0518e-05
0.932296 0.631403 1.5259e-05
0.939406 0.628489 0
0.945251 0.625864 0
0.950774 0.62359 1.5259e-05
0.954726 0.622126 0
0.958618 0.620874 0
0.9617 0.619776 0
0 0.532052 0.273564
0 0.538048 0.267079
0 0.545586 0.258091
0 0.554864 0.244892
0.000106813 0.56672 0.223468
0.00292973 0.577523 0.203632
0.0496376 0.588251 0.180911
0.123674 0.599298 0.158267
0.22179 0.610742 0.13611
0.326299 0.622171 0.111513
0.403784 0.63267 0.0805371
0.471824 0.64268 0.0488899
0.534218 0.651743 0.0336309
0.594141 0.660456 0.0207523
0.647181 0.667659 0.0133211
0.693706 0.673442 0.0101167
0.737713 0.678706 0.00627146
0.771893 0.680735 0.00483711
0.805722 0.683009 0.00288396
0.832776 0.682872 0.00205997
0.857969 0.682414 0.00154116
0.880064 0.681559 0.00111391
0.89752 0.679927 0.000854505
0.914214 0.678096 0.000579843
0.925734 0.6757 0.000396735
0.935836 0.673121 0.000213626
0.944457 0.670665 7.62951e-05
0.951644 0.668116 0
0.957778 0.665873 0
0.963333 0.663951 0
0.967315 0.662348 0
0.971267 0.660792 0
0.974105 0.65977 1.5259e-05
0 0.545052 0.293629
0 0.551446 0.286641
0 0.559365 0.276875
0 0.569711 0.261753
0.00105287 0.582544 0.240299
0.00657664 0.595376 0.220295
0.0433051 0.607355 0.199084
0.122377 0.619989 0.177462
0.230198 0.632975 0.155886
0.331838 0.645548 0.128954
0.409293 0.657099 0.0957961
0.481407 0.668482 0.0652018
0.544228 0.678523 0.049424
0.604593 0.688289 0.0343786
0.656718 0.696361 0.0238193
0.704387 0.703624 0.014725
0.747219 0.709407 0.00761425
0.782483 0.71281 0.00588998
0.8168 0.716121 0.00395209
0.843442 0.716884 0.00340276
0.869474 0.717601 0.00282292
0.8907 0.717189 0.00231937
0.908476 0.715801 0.00184634
0.924956 0.714458 0.00129702
0.936492 0.7122 0.000885023
0.947188 0.710048 0.000411994
0.955627 0.707698 0.000167849
0.962798 0.705425 7.62951e-05
0.968994 0.703273 4.57771e-05
0.974075 0.701289 0.00015259
0.977829 0.699489 0.000366217
0.981369 0.697734 0.000503548
0.983627 0.696605 0.000671397
0 0.557198 0.314382
0 0.563882 0.306737
0 0.572702 0.296559
0 0.584726 0.279545
0.00187686 0.59884 0.258076
0.00991836 0.612757 0.237964
0.03122 0.625696 0.21857
0.125399 0.639628 0.197879
0.241489 0.653834 0.177234
0.337728 0.667109 0.148318
0.416587 0.679576 0.11693
0.490364 0.691539 0.0903944
0.554482 0.702312 0.0706493
0.614649 0.71252 0.0519112
0.666316 0.721233 0.0357214
0.714015 0.728893 0.0209354
0.755367 0.73463 0.0121614
0.791348 0.738888 0.00900282
0.824781 0.742428 0.00611887
0.852033 0.743786 0.00541695
0.878172 0.744884 0.00454719
0.898482 0.744762 0.00378424
0.916915 0.74435 0.00294499
0.93283 0.743648 0.00215152
0.944396 0.742077 0.00154116
0.955901 0.74081 0.000823987
0.963882 0.738964 0.0010071
0.971008 0.737087 0.00125124
0.976883 0.735241 0.00134279
0.981613 0.733761 0.00129702
0.985428 0.732525 0.00117494
0.988785 0.731304 0.000946059
0.990723 0.729946 0.00108339
0 0.56878 0.336034
0 0.575616 0.328542
0 0.585092 0.317998
0 0.598123 0.29897
0.00234989 0.612543 0.277745
0.00979629 0.626566 0.258244
0.0366674 0.64007 0.239612
0.138033 0.654765 0.22031
0.251377 0.669474 0.200473
0.343206 0.683207 0.17409
0.425696 0.696376 0.147692
0.499275 0.708568 0.123339
0.563729 0.719783 0.099855
0.623484 0.730251 0.0769513
0.675288 0.739315 0.053254
0.722087 0.747127 0.0342107
0.762402 0.753521 0.0223087
0.798383 0.758785 0.0144503
0.830671 0.762829 0.00915541
0.8589 0.76527 0.00801099
0.884886 0.767437 0.00663767
0.904952 0.768399 0.00550851
0.923858 0.769268 0.0043946
0.938949 0.769268 0.00479133
0.951125 0.768719 0.00491341
0.962661 0.768093 0.00447089
0.970306 0.76643 0.00444038
0.977569 0.764691 0.00399786
0.983001 0.763119 0.00354009
0.987259 0.761639 0.00299077
0.990738 0.760189 0.0024567
0.993439 0.758724 0.00205997
0.995087 0.757397 0.002121
0 0.579889 0.358221
0 0.586908 0.350561
0 0.596918 0.33962
0 0.611154 0.318807
0.00189212 0.62591 0.297871
0.00650034 0.640055 0.278813
0.0456397 0.654231 0.261006
0.153185 0.669581 0.243046
0.260365 0.684642 0.224826
0.352773 0.699001 0.202853
0.436606 0.712535 0.180316
0.509133 0.724895 0.156649
0.57322 0.736233 0.131197
0.631495 0.746517 0.104097
0.684672 0.755871 0.0743572
0.729778 0.763622 0.0530251
0.769085 0.770214 0.0367742
0.804425 0.775525 0.0247654
0.835981 0.779538 0.0176699
0.864408 0.782544 0.0152743
0.889586 0.785 0.0141146
0.909667 0.786404 0.0140383
0.928084 0.787549 0.0133364
0.942519 0.787747 0.0126802
0.955154 0.787625 0.0114748
0.966018 0.78706 0.0101778
0.973785 0.785824 0.00927749
0.981537 0.784894 0.00772107
0.986191 0.783612 0.00697337
0.990036 0.782238 0.00643931
0.993072 0.780972 0.00593576
0.995163 0.779751 0.00541695
0.996612 0.778622 0.00469978
0 0.590249 0.380423
0 0.597879 0.372351
0 0.608331 0.361089
0 0.623392 0.339178
0.00135805 0.638346 0.318883
0.00674449 0.652506 0.300877
0.0626535 0.667124 0.283879
0.16817 0.682597 0.266606
0.268986 0.697581 0.249699
0.366842 0.712398 0.231998
0.449317 0.725734 0.211933
0.519966 0.737789 0.190463
0.582956 0.748775 0.165225
0.640162 0.758801 0.135897
0.692592 0.76791 0.105699
0.736233 0.775341 0.082475
0.774746 0.781857 0.063798
0.809033 0.787121 0.0514076
0.840436 0.79144 0.0423133
0.868513 0.794949 0.0353552
0.892439 0.79762 0.0312505
0.912947 0.79968 0.0290684
0.930816 0.801129 0.0264744
0.944793 0.801801 0.0240787
0.957397 0.802182 0.0213931
0.967758 0.802182 0.0190127
0.976028 0.801831 0.0169985
0.983963 0.801495 0.0141451
0.987945 0.800259 0.0137789
0.991836 0.799161 0.0131228
0.994537 0.797955 0.012253
0.996368 0.796704 0.0111086
0.997787 0.795392 0.00975052
0 0.600076 0.402152
0 0.608392 0.39382
0 0.61973 0.380896
1.5259e-05 0.635279 0.359808
0.000442512 0.650523 0.340139
0.0126497 0.664851 0.323049
0.0821393 0.679835 0.306401
0.180743 0.695277 0.290425
0.280766 0.710506 0.275349
0.382284 0.725612 0.260639
0.46186 0.738521 0.242878
0.531792 0.75053 0.224521
0.59321 0.761318 0.199527
0.649638 0.771298 0.171298
0.700587 0.780194 0.144533
0.742351 0.787289 0.121721
0.781231 0.793835 0.100832
0.814023 0.798703 0.0863508
0.845151 0.802884 0.0729076
0.872068 0.806195 0.0631418
0.895125 0.808759 0.0569619
0.915343 0.810742 0.0520485
0.932448 0.812085 0.0477913
0.946105 0.812741 0.0436103
0.958343 0.813184 0.0393225
0.968215 0.813245 0.0354925
0.976745 0.813138 0.0312352
0.983993 0.812726 0.0269169
0.988159 0.81178 0.0256657
0.992599 0.811048 0.0234989
0.994995 0.809995 0.0219883
0.996872 0.808896 0.0204013
0.998337 0.807858 0.0188907
0 0.609476 0.422889
0 0.618433 0.41442
0 0.630777 0.400458
0 0.646479 0.380499
0.000198367 0.66183 0.361227
0.0224613 0.676127 0.344991
0.0973831 0.691203 0.329015
0.192096 0.706569 0.314092
0.295644 0.721935 0.300481
0.396918 0.736736 0.286854
0.474205 0.749477 0.27129
0.544457 0.761776 0.256428
0.603693 0.772183 0.234089
0.660517 0.782177 0.211704
0.708827 0.790478 0.189059
0.748714 0.797147 0.166384
0.786938 0.803372 0.145296
0.818799 0.807706 0.129488
0.849744 0.811749 0.113893
0.874922 0.814771 0.103029
0.897246 0.817227 0.0937057
0.916793 0.819104 0.0858015
0.932921 0.820356 0.0792706
0.946822 0.821134 0.0728161
0.958434 0.821576 0.0664988
0.968048 0.821744 0.0597391
0.976593 0.82182 0.0525521
0.983246 0.821607 0.0472419
0.988128 0.82121 0.0439155
0.993072 0.820844 0.0396887
0.995224 0.819974 0.0377661
0.997375 0.819165 0.0355993
0.998795 0.81828 0.0333257
0 0.618769 0.443046
0 0.628321 0.434669
0 0.641703 0.419959
0 0.657343 0.400961
0.00483711 0.672435 0.382589
0.0322728 0.686793 0.366827
0.104738 0.701961 0.351553
0.202121 0.717449 0.338033
0.312978 0.733059 0.325628
