lut_library/filter_lut/Analog.cube
TITLE "Generated by Resolve"
LUT_3D_SIZE 5
0.0472267 0.0621958 0.0657206
0.193774 0.0708324 0.0493629
0.470588 0.00982681 0
0.635538 0 0
0.689265 0 0
0.00015259 0.215702 0.128878
0.230915 0.205478 0.0809949
0.544701 0.196872 0.00236515
0.716991 0.16321 0
0.768643 0.143618 0
0 0.476707 0.221775
0.228946 0.51812 0.102449
0.694957 0.562295 0.00122072
0.881636 0.547295 0
0.92903 0.524971 0
0 0.590249 0.380423
0.268986 0.697581 0.249699
0.774746 0.781857 0.063798
0.957397 0.802182 0.0213931
0.997787 0.795392 0.00975052
0 0.661768 0.52845
0.414679 0.781323 0.44387
0.82295 0.851286 0.376211
0.962783 0.867674 0.330526
0.998672 0.869032 0.325658
0.0264744 0.0700694 0.154131
0.207553 0.0746929 0.140063
0.487861 0.00106813 0.118791
0.649073 0 0.111299
0.700389 0 0.115557
0 0.256565 0.297017
0.22269 0.237324 0.246113
0.553048 0.210773 0.211521
0.716609 0.139467 0.182391
0.765759 0.0966659 0.17705
0 0.53431 0.472068
0.121218 0.574517 0.40705
0.67895 0.600977 0.369345
0.865461 0.571954 0.341024
0.913497 0.546807 0.336767
0 0.636698 0.62324
0.146609 0.749096 0.56054
0.746212 0.828931 0.528298
0.931014 0.839948 0.503151
0.981323 0.834287 0.497459
0 0.69369 0.721508
0.325231 0.818799 0.687434
0.798688 0.890532 0.669947
0.945144 0.908064 0.649989
0.988128 0.910384 0.643091
0.0136873 0.0484627 0.308858
0.228428 0.0443275 0.301244
0.52163 0 0.298772
0.674556 0 0.301472
0.720684 0 0.307774
0 0.290089 0.479088
0.202777 0.273655 0.433494
0.57525 0.240681 0.415152
0.736538 0.171267 0.395239
0.783749 0.133425 0.390234
0 0.569879 0.644587
0.0779126 0.620111 0.604639
0.681285 0.648463 0.590875
0.868772 0.617563 0.572381
0.918181 0.593423 0.565545
0 0.65716 0.742077
0.114961 0.777935 0.719997
0.736461 0.857679 0.715511
0.922576 0.86949 0.702724
0.973693 0.8636 0.697383
0 0.705303 0.789822
0.317754 0.834943 0.789334
0.792248 0.907088 0.795804
0.938155 0.925521 0.788098
0.981476 0.928252 0.783902
0.00770581 0.0118715 0.429816
0.255055 0.00424201 0.433417
0.555428 0 0.440238
0.699062 0 0.442939
0.740627 0 0.446784
0 0.310292 0.600229
0.1953 0.301137 0.570108
0.595499 0.264027 0.56437
0.754025 0.194491 0.547524
0.799527 0.157259 0.541466
0 0.588983 0.734798
0.0624399 0.649638 0.72192
0.685237 0.678401 0.725673
0.872511 0.647593 0.713252
0.92285 0.626398 0.706737
0 0.667231 0.787579
0.115496 0.792706 0.79173
0.736721 0.87216 0.805966
0.919646 0.884352 0.803189
0.970779 0.879057 0.798962
0 0.712032 0.812131
0.344869 0.843198 0.826841
0.794736 0.913817 0.845075
0.935805 0.932143 0.844831
0.979019 0.935271 0.842771
0.00335698 0.00769055 0.505791
0.278614 0.00393683 0.521462
0.583947 0 0.536507
0.719127 0 0.537636
0.757 0 0.538811
0 0.330449 0.662898
0.203464 0.325765 0.648859
0.613565 0.28661 0.655589
0.769299 0.216739 0.642985
0.812863 0.178653 0.63624
0 0.601831 0.770443
0.0266728 0.67068 0.774411
0.692683 0.698619 0.790219
0.877882 0.670481 0.784588
0.927626 0.651286 0.77879
0 0.674434 0.803586
0.114946 0.801892 0.817777
0.743969 0.879866 0.842496
0.919921 0.891463 0.844877
0.970382 0.887587 0.842741
0 0.71902 0.820356
0.380835 0.849165 0.839597
0.801389 0.917098 0.861769
0.936034 0.934844 0.865217
0.978332 0.938109 0.864485
