lut_library/filter_lut/Chrome.cube
#Created by: Adobe Photoshop Export Color Lookup Plugin
TITLE "未标题-1"
#LUT size
LUT_3D_SIZE 5
#data domain
#LUT data points
DOMAIN_MIN 0.000000 0.000000 0.000000
DOMAIN_MAX 0.903226 0.903226 0.903226
0.000000 0.000000 0.000000
0.170166 0.010132 0.000549
0.389252 0.040527 0.002136
0.594788 0.076691 0.004822
0.793030 0.102264 0.008606
0.013763 0.178741 0.062897
0.176239 0.192383 0.004669
0.418213 0.231262 0.001404
0.608124 0.265991 0.004333
0.793030 0.297760 0.008606
0.057373 0.405762 0.164948
0.170319 0.394531 0.124786
0.400360 0.431854 0.030334
0.663330 0.456116 0.000854
0.846619 0.476044 0.005585
0.100372 0.617737 0.262939
0.193695 0.598267 0.210907
0.366058 0.617371 0.175415
0.607239 0.654114 0.061554
0.902496 0.677765 0.000000
0.133850 0.823639 0.358154
0.242035 0.795013 0.332733
0.359467 0.802826 0.279999
0.563049 0.833801 0.223450
0.809631 0.872131 0.090851
0.000000 0.027832 0.186646
0.201111 0.000000 0.203522
0.420929 0.002136 0.176392
0.610535 0.007233 0.142273
0.796082 0.011017 0.113190
0.000000 0.201111 0.203522
0.201111 0.201111 0.198608
0.418976 0.244751 0.209595
0.622345 0.276917 0.218140
0.820587 0.302490 0.225128
0.030426 0.425629 0.287506
0.253357 0.427185 0.299622
0.424469 0.440186 0.231842
0.649170 0.463867 0.216553
0.833923 0.491791 0.224396
0.086060 0.625946 0.411224
0.292725 0.637634 0.396729
0.405548 0.627228 0.357513
0.630615 0.661865 0.261566
0.889130 0.681915 0.219727
0.133850 0.823639 0.532135
0.326172 0.843536 0.491791
0.419495 0.824066 0.440491
0.591858 0.843170 0.404846
0.833038 0.879913 0.290009
0.000000 0.110901 0.409485
0.146606 0.000000 0.425262
0.448517 0.000000 0.442474
0.666046 0.001282 0.428772
0.851685 0.005005 0.379395
0.000000 0.272339 0.426636
0.209869 0.276123 0.434265
0.448517 0.221436 0.438995
0.651672 0.228302 0.407379
0.836334 0.233032 0.370605
0.000000 0.448517 0.442474
0.221436 0.448517 0.438995
0.448517 0.448517 0.435516
0.649902 0.477173 0.441986
0.848145 0.502716 0.447815
0.019135 0.665649 0.484283
0.261169 0.656067 0.518433
0.485046 0.657532 0.531921
0.654022 0.669647 0.463867
0.874969 0.689667 0.446045
0.070740 0.860474 0.598999
0.311859 0.851746 0.639954
0.519928 0.863831 0.625854
0.636932 0.855255 0.583221
0.856415 0.887665 0.491272
0.000000 0.178619 0.626312
0.057526 0.000000 0.633240
0.409637 0.000000 0.665375
0.677429 0.000000 0.674500
0.903229 0.000000 0.676544
0.000000 0.359955 0.635437
0.203644 0.335297 0.663086
0.375275 0.213898 0.667908
0.677429 0.225800 0.672455
0.891846 0.227081 0.656708
0.000000 0.475433 0.667297
0.214722 0.506531 0.668396
0.440521 0.506348 0.665710
0.677429 0.451599 0.670410
0.877472 0.454102 0.636841
0.000000 0.677429 0.674500
0.225800 0.677429 0.672455
0.451599 0.677429 0.670410
0.686401 0.686401 0.661316
0.879211 0.711395 0.665833
0.002625 0.901459 0.680450
0.244934 0.891449 0.712311
0.486969 0.881866 0.748077
0.720428 0.887207 0.756927
0.883636 0.898743 0.687378
0.000000 0.238159 0.839478
0.000000 0.028107 0.839478
0.305969 0.000000 0.869843
0.670410 0.000000 0.901550
0.903229 0.000000 0.902954
0.000000 0.443420 0.840912
0.192566 0.390015 0.888245
0.259888 0.197174 0.890381
0.636902 0.219269 0.899902
0.903229 0.225800 0.902344
0.000000 0.555389 0.872467
0.198334 0.589233 0.891449
0.429443 0.561096 0.892303
0.601074 0.439697 0.897156
0.903229 0.451599 0.901733
0.000000 0.677429 0.902954
0.220551 0.703400 0.900482
0.440521 0.732330 0.897644
0.675049 0.739166 0.894287
0.905914 0.686401 0.899017
0.000000 0.903229 0.902954
0.225800 0.903229 0.902344
0.451599 0.903229 0.901733
0.686401 0.905914 0.899017
0.909332 0.909332 0.895721
