lut_library/filter_lut/Chrome.cube
#Created by: Adobe Photoshop Export Color Lookup Plugin
TITLE "未标题-1"
#LUT size
LUT_3D_SIZE 8
#data domain
#LUT data points
DOMAIN_MIN 0.000000 0.000000 0.000000
DOMAIN_MAX 0.903226 0.903226 0.903226
0.000000 0.000000 0.000000
0.073425 0.003296 0.000183
0.202026 0.013245 0.000702
0.327545 0.029785 0.001587
0.450195 0.053314 0.002808
0.566437 0.073029 0.004395
0.679749 0.087646 0.006317
0.793030 0.102264 0.008606
0.004486 0.078430 0.018646
0.077087 0.086365 0.001526
0.219147 0.110077 0.000458
0.335938 0.136963 0.001404
0.450195 0.165649 0.002808
0.566437 0.184723 0.004395
0.679749 0.199432 0.006317
0.793030 0.213928 0.008606
0.018005 0.211792 0.077637
0.074463 0.205109 0.054382
0.208923 0.227295 0.006195
0.370300 0.250214 0.000275
0.482849 0.270691 0.001831
0.589600 0.287140 0.003387
0.695007 0.304016 0.005646
0.799988 0.322144 0.008728
0.041229 0.341919 0.135956
0.094299 0.329742 0.105560
0.195618 0.341675 0.085388
0.337402 0.364563 0.020294
0.515747 0.387329 0.000000
0.621094 0.395599 0.001495
0.725708 0.408081 0.004120
0.830994 0.422791 0.006744
0.073334 0.468842 0.193726
0.133728 0.451416 0.178436
0.201630 0.456177 0.148102
0.319885 0.475037 0.116089
0.462585 0.498291 0.040344
0.645172 0.516174 0.000000
0.758087 0.521271 0.001099
0.862213 0.531158 0.004333
0.095612 0.588318 0.249237
0.157318 0.571716 0.232269
0.196167 0.572327 0.178650
0.308868 0.582489 0.176361
0.423706 0.595581 0.152405
0.578308 0.622955 0.057281
0.774200 0.645111 0.000000
0.893646 0.647156 0.001556
0.114716 0.705963 0.303833
0.175140 0.690125 0.284210
0.221344 0.683716 0.244659
0.308136 0.688141 0.236481
0.418335 0.705566 0.204102
0.525696 0.714630 0.187500
0.694000 0.747559 0.074158
0.903229 0.774231 0.000000
0.133850 0.823639 0.358154
0.194122 0.807312 0.336975
0.247559 0.797668 0.312836
0.299011 0.802155 0.265839
0.410553 0.811615 0.263763
0.530823 0.829803 0.230835
0.635101 0.838318 0.204651
0.809631 0.872131 0.090851
0.000000 0.008179 0.089722
0.091461 0.000000 0.099426
0.220764 0.000702 0.084320
0.337402 0.002869 0.066315
0.452057 0.005707 0.052185
0.566437 0.007843 0.042633
0.679749 0.009430 0.034088
0.793030 0.010986 0.025482
0.000000 0.091461 0.099426
0.091461 0.091461 0.096252
0.219604 0.117950 0.103119
0.344818 0.144104 0.110016
0.466980 0.169861 0.116852
0.582214 0.187469 0.121857
0.695465 0.202057 0.126160
0.808777 0.216675 0.130463
0.009949 0.223572 0.148407
0.123047 0.224487 0.154907
0.223053 0.232239 0.115997
0.361481 0.254028 0.109467
0.475128 0.279083 0.116608
0.582214 0.299194 0.121857
0.695465 0.313751 0.126160
0.808777 0.328461 0.130463
0.035156 0.347046 0.221680
0.154144 0.354309 0.212952
0.219086 0.347839 0.190033
0.351288 0.369415 0.135529
0.508026 0.389526 0.114532
0.612854 0.401093 0.120178
0.718628 0.416168 0.124695
0.824036 0.433044 0.129669
0.073334 0.468842 0.294037
0.184692 0.480957 0.270416
0.237152 0.469116 0.240387
0.336700 0.480713 0.220215
0.476013 0.502808 0.154846
0.644775 0.516357 0.117188
0.750122 0.524780 0.122162
0.854736 0.537109 0.127930
0.095612 0.588318 0.349182
0.205505 0.599670 0.325562
0.267334 0.583344 0.310883
0.334473 0.587799 0.280579
0.450775 0.605499 0.248016
0.591705 0.627411 0.171448
0.774200 0.645203 0.120331
0.887115 0.650299 0.124542
0.114716 0.705963 0.403564
0.224640 0.717346 0.380096
0.286346 0.700745 0.363434
0.325195 0.701355 0.309937
0.437988 0.711517 0.307587
0.552734 0.724609 0.283478
0.707336 0.751984 0.187927
0.903229 0.774139 0.123505
0.133850 0.823639 0.457550
0.243744 0.834991 0.434326
0.304169 0.819153 0.414978
0.350372 0.812744 0.375610
0.437164 0.817169 0.367554
0.547363 0.834595 0.334991
0.654724 0.843658 0.318268
0.823029 0.876587 0.204407
0.000000 0.039886 0.218781
0.060760 0.000000 0.227966
0.237183 0.000000 0.237976
0.371979 0.000549 0.232666
0.485931 0.002808 0.206726
0.591919 0.005829 0.185059
0.697723 0.008270 0.166168
0.804626 0.009521 0.148468
0.000000 0.134186 0.228760
0.097748 0.136444 0.232574
0.237183 0.104523 0.235291
0.363068 0.117554 0.219452
0.476562 0.130920 0.200836
0.583954 0.135315 0.184296
0.695465 0.136871 0.173248
0.808777 0.138458 0.164307
0.000000 0.237183 0.237976
0.104523 0.237183 0.235291
0.237183 0.237183 0.232605
0.361938 0.261780 0.238678
0.483765 0.286011 0.244781
0.597931 0.301880 0.248993
0.711243 0.316498 0.252899
0.824493 0.331085 0.256805
0.008301 0.371735 0.264618
0.136841 0.365784 0.283386
0.266724 0.366669 0.290314
0.365173 0.374207 0.251465
0.499969 0.394073 0.244141
0.605591 0.410065 0.248566
0.711243 0.428223 0.252899
0.824493 0.442780 0.256805
0.039734 0.491241 0.333374
0.176910 0.485931 0.355835
0.295746 0.493011 0.347443
0.359833 0.486725 0.324829
0.489410 0.507263 0.270020
0.637115 0.518707 0.245819
0.741882 0.530121 0.251068
0.847656 0.545197 0.255249
0.068787 0.604156 0.402893
0.205505 0.599670 0.425781
0.315430 0.611053 0.402344
0.368744 0.599945 0.372742
0.467224 0.610840 0.352295
0.605042 0.631836 0.286285
0.773804 0.645386 0.247955
0.879150 0.653809 0.252563
0.098328 0.715363 0.472931
0.224640 0.717346 0.480072
0.334534 0.728699 0.456787
0.396362 0.712372 0.442383
0.463501 0.716827 0.412170
0.579803 0.734528 0.379425
0.720734 0.756439 0.302490
0.903229 0.774231 0.250671
0.126129 0.828339 0.543915
0.243744 0.834991 0.534088
0.353668 0.846375 0.510986
0.415375 0.829773 0.494598
0.454407 0.830383 0.441315
0.567017 0.840546 0.438812
0.681763 0.853638 0.414581
0.836365 0.881012 0.318573
0.000000 0.087433 0.346283
0.023926 0.000000 0.350372
0.223572 0.000000 0.369354
0.379028 0.000000 0.374756
0.516144 0.000000 0.378784
0.623688 0.002441 0.348663
0.730042 0.004303 0.322296
0.836029 0.006561 0.299500
0.000000 0.193237 0.351685
0.104218 0.180481 0.367157
0.203857 0.110443 0.369904
0.379028 0.117584 0.372528
0.509613 0.129761 0.366028
0.615753 0.131897 0.337891
0.720947 0.134857 0.315582
0.826752 0.137299 0.296326
0.000000 0.261780 0.370514
0.110931 0.279907 0.370178
0.241669 0.279785 0.367615
0.379028 0.248322 0.370331
0.501434 0.259491 0.353729
0.606934 0.262177 0.332672
0.712982 0.264343 0.315338
0.824493 0.265900 0.303894
0.000000 0.379028 0.374756
0.117584 0.379028 0.372528
0.248322 0.379028 0.370331
0.379028 0.379028 0.368103
0.500397 0.401672 0.373383
0.613708 0.416321 0.376923
0.726959 0.430908 0.380432
0.840271 0.445526 0.383942
0.001526 0.515137 0.381042
0.139984 0.509399 0.398163
0.278259 0.503937 0.417480
0.406189 0.504761 0.424805
0.502747 0.511688 0.385895
0.628998 0.523102 0.375916
0.734619 0.539185 0.379974
0.840271 0.557251 0.383942
0.030823 0.626617 0.444641
0.169434 0.620758 0.464508
0.307220 0.615753 0.487579
0.425323 0.622437 0.479492
0.489807 0.616486 0.457184
0.618439 0.636292 0.401855
0.766144 0.647736 0.377106
0.870911 0.659149 0.381989
0.060638 0.737549 0.511047
0.197815 0.733185 0.533600
0.334534 0.728699 0.557007
0.444458 0.740082 0.533905
0.497772 0.728973 0.504486
0.596252 0.739868 0.484070
0.734070 0.760864 0.417755
0.902832 0.774414 0.378754
0.088257 0.850708 0.579498
0.227356 0.844391 0.603363
0.353668 0.846375 0.610931
0.463562 0.857727 0.588013
0.527283 0.842041 0.572601
0.595886 0.847137 0.540863
0.709717 0.863983 0.509674
0.849762 0.885468 0.433533
0.000000 0.134094 0.472260
0.000000 0.015411 0.472260
0.174591 0.000000 0.490204
0.383118 0.000000 0.508759
0.516144 0.000000 0.509552
0.645172 0.000000 0.511353
0.761200 0.001495 0.492767
0.867523 0.003387 0.462311
0.000000 0.251740 0.473145
0.110016 0.222870 0.499786
0.148499 0.112671 0.501038
0.363861 0.125305 0.506409
0.516144 0.129028 0.507812
0.645172 0.129028 0.509552
0.752716 0.131470 0.479218
0.859070 0.133331 0.452332
0.000000 0.317291 0.491760
0.113312 0.336700 0.501648
0.245392 0.320618 0.500702
0.343475 0.251251 0.503479
0.516144 0.258057 0.506042
0.638672 0.258789 0.497528
0.744781 0.260925 0.468781
0.849976 0.263885 0.446381
0.000000 0.387115 0.509552
0.126038 0.401886 0.506775
0.251709 0.418488 0.503723
0.380737 0.418365 0.501617
0.516144 0.387085 0.504303
0.630463 0.388519 0.485504
0.736023 0.391205 0.464172
0.842010 0.393372 0.446350
0.000000 0.516144 0.509552
0.129028 0.516144 0.507812
0.258057 0.516144 0.506042
0.387085 0.516144 0.504303
0.517365 0.517365 0.501556
0.630463 0.532043 0.504608
0.743500 0.546722 0.507660
0.856445 0.561401 0.510651
0.000000 0.645172 0.511353
0.130554 0.644165 0.511810
0.268982 0.638428 0.529480
0.407288 0.632965 0.549347
0.537811 0.635803 0.555267
0.633545 0.642395 0.516449
0.758698 0.653137 0.506653
0.864075 0.669220 0.510223
0.021881 0.760742 0.556030
0.159851 0.755646 0.575317
0.298462 0.749786 0.595551
0.436249 0.744781 0.619110
0.558197 0.753601 0.608948
0.624756 0.749451 0.584381
0.749207 0.766937 0.531311
0.895447 0.777344 0.507416
0.051208 0.872162 0.620544
0.189667 0.866577 0.641235
0.326752 0.862213 0.664276
0.463562 0.857727 0.688232
0.578400 0.870605 0.662537
0.634216 0.860840 0.630829
0.730652 0.871429 0.610107
0.864349 0.890900 0.546082
0.000000 0.170105 0.595673
0.000000 0.050110 0.595673
0.119354 0.000000 0.608398
0.320404 0.000000 0.626801
0.516174 0.000000 0.641632
0.645172 0.000000 0.641632
0.774200 0.000000 0.642853
0.899292 0.000000 0.637207
0.000000 0.290131 0.595673
0.103699 0.254150 0.629639
0.103699 0.121460 0.629639
0.299835 0.115417 0.635132
0.512634 0.128021 0.640564
0.645172 0.129028 0.640350
0.774200 0.129028 0.641663
0.890228 0.130524 0.622650
0.000000 0.364197 0.610474
0.104584 0.383728 0.629578
0.239044 0.351898 0.631012
0.277527 0.241699 0.632263
0.492981 0.254333 0.637665
0.645172 0.258057 0.639069
0.774200 0.258057 0.640350
0.881744 0.260498 0.609619
0.000000 0.430023 0.628662
0.116364 0.449860 0.635742
0.242340 0.465729 0.632843
0.374420 0.449646 0.632385
0.472504 0.380280 0.635162
0.645172 0.387085 0.637756
0.767700 0.387817 0.628815
0.873810 0.389954 0.599701
0.000000 0.516174 0.641632
0.129028 0.516144 0.640350
0.255066 0.531006 0.638031
0.380737 0.547516 0.635437
0.510559 0.548126 0.633392
0.646057 0.517365 0.635773
0.760162 0.518921 0.616516
0.865417 0.521790 0.594513
0.000000 0.645172 0.641632
0.129028 0.645172 0.640350
0.258057 0.645172 0.639069
0.387085 0.645172 0.637756
0.517365 0.646057 0.635773
0.653259 0.653259 0.628845
0.764008 0.667603 0.631531
0.874756 0.681946 0.634216
0.000000 0.774200 0.642853
0.129028 0.774200 0.641663
0.259583 0.773193 0.642609
0.398010 0.767456 0.660797
0.539001 0.763336 0.679779
0.672943 0.768921 0.683319
0.766815 0.775482 0.643768
0.889679 0.786224 0.633148
0.011749 0.896210 0.667969
0.150909 0.889771 0.686005
0.288879 0.884674 0.705811
0.427490 0.878815 0.726562
0.569763 0.875092 0.748688
0.692535 0.883942 0.737762
0.756866 0.879028 0.713776
0.879852 0.897217 0.658661
0.000000 0.204132 0.717987
0.000000 0.084045 0.717987
0.065765 0.000000 0.725861
0.262268 0.000000 0.744171
0.468109 0.000000 0.762360
0.645111 0.000000 0.772766
0.774200 0.000000 0.772766
0.903229 0.000000 0.773621
0.000000 0.324219 0.717987
0.097382 0.285431 0.758575
0.097382 0.152771 0.758575
0.233765 0.105103 0.763336
0.449921 0.117920 0.768524
0.645203 0.129028 0.771942
0.774200 0.129028 0.771942
0.903229 0.129028 0.772705
0.000000 0.411377 0.728333
0.097382 0.418091 0.758575
0.232727 0.383179 0.760376
0.232727 0.250488 0.760376
0.428864 0.244446 0.765900
0.641663 0.257050 0.771362
0.774200 0.258057 0.771118
0.903229 0.258057 0.771973
0.000000 0.476044 0.746460
0.107422 0.497223 0.763031
0.233612 0.512756 0.760284
0.368073 0.480927 0.762238
0.406647 0.370728 0.763489
0.622009 0.383362 0.768890
0.774200 0.387085 0.770325
0.903229 0.387085 0.771118
0.000000 0.543335 0.764587
0.119141 0.562683 0.769226
0.245392 0.578888 0.766479
0.371368 0.594879 0.764069
0.503754 0.578949 0.764008
0.602112 0.510071 0.766602
0.774780 0.517365 0.769043
0.897003 0.518158 0.759613
0.000000 0.645111 0.772766
0.129028 0.645203 0.771942
0.258057 0.645172 0.771118
0.384094 0.660034 0.769257
0.510559 0.677032 0.766876
0.646698 0.683502 0.762054
0.779327 0.653259 0.764648
0.891083 0.654755 0.744659
0.000000 0.774200 0.772766
0.129028 0.774200 0.771942
0.258057 0.774200 0.771118
0.387085 0.774200 0.770325
0.517365 0.774780 0.769043
0.653259 0.779327 0.764648
0.783905 0.783905 0.760223
0.892334 0.797913 0.762573
0.000000 0.903229 0.773621
0.129028 0.903229 0.772705
0.258057 0.903229 0.771973
0.388611 0.902222 0.773407
0.529083 0.896912 0.791443
0.674042 0.893860 0.809265
0.802795 0.896820 0.815460
0.894836 0.903351 0.775177
0.000000 0.238159 0.839478
0.000000 0.118164 0.839478
0.013184 0.000000 0.842590
0.206268 0.000000 0.860687
0.407898 0.000000 0.878937
0.616913 0.000000 0.897003
0.774231 0.000000 0.902954
0.903229 0.000000 0.902954
0.000000 0.358154 0.839478
0.091034 0.316711 0.886536
0.091034 0.183929 0.886536
0.167969 0.096313 0.889008
0.385223 0.108612 0.894775
0.598816 0.121552 0.899780
0.774139 0.129028 0.902618
0.903229 0.129028 0.902618
0.000000 0.459015 0.845490
0.091034 0.449463 0.886536
0.226410 0.414459 0.888824
0.226410 0.281799 0.888824
0.362976 0.234131 0.893585
0.578949 0.246948 0.898804
0.774231 0.258057 0.902252
0.903229 0.258057 0.902252
0.000000 0.522705 0.863495
0.097626 0.544342 0.890137
0.226410 0.547119 0.888824
0.361755 0.512207 0.891113
0.361755 0.379517 0.891113
0.557892 0.373474 0.896637
0.770691 0.386078 0.902130
0.903229 0.387085 0.901917
0.000000 0.588623 0.881470
0.110016 0.610229 0.895599
0.236450 0.626251 0.893311
0.362640 0.641785 0.891022
0.497162 0.609985 0.893433
0.535614 0.499786 0.894684
0.751526 0.513367 0.899994
0.903473 0.517365 0.901367
0.000000 0.656860 0.899567
0.123047 0.674866 0.900513
0.248169 0.691711 0.899506
0.374420 0.707916 0.897247
0.500488 0.723846 0.895264
0.640137 0.713806 0.894135
0.736420 0.646210 0.896881
0.905426 0.653259 0.899475
0.000000 0.774231 0.902954
0.129028 0.774139 0.902618
0.258057 0.774231 0.902252
0.387085 0.774200 0.901917
0.514160 0.789490 0.900360
0.646698 0.809814 0.897156
0.777618 0.813660 0.894867
0.907379 0.783905 0.897614
0.000000 0.903229 0.902954
0.129028 0.903229 0.902618
0.258057 0.903229 0.902252
0.387085 0.903229 0.901917
0.517365 0.903473 0.901367
0.653259 0.905426 0.899475
0.783905 0.907379 0.897614
0.909332 0.909332 0.895721
