lut_library/filter_lut/Chrome.cube
#Created by: Adobe Photoshop Export Color Lookup Plugin
TITLE "未标题-1"
#LUT size
LUT_3D_SIZE 32
#data domain
DOMAIN_MIN 0.0 0.0 0.0
DOMAIN_MAX 1.0 1.0 1.0
#LUT data points
0.000000 0.000000 0.000000
0.001617 0.000214 0.000000
0.008057 0.000824 0.000031
0.040833 0.001862 0.000092
0.073425 0.003296 0.000183
0.105835 0.005157 0.000275
0.138092 0.007446 0.000397
0.170166 0.010132 0.000549
0.202026 0.013245 0.000702
0.233673 0.016754 0.000885
0.265167 0.020660 0.001099
0.296478 0.025024 0.001312
0.327545 0.029785 0.001587
0.358521 0.034943 0.001862
0.389252 0.040527 0.002136
0.419800 0.046539 0.002472
0.450195 0.053314 0.002808
0.480377 0.060059 0.003174
0.509827 0.065735 0.003540
0.538147 0.069366 0.003937
0.566437 0.073029 0.004395
0.594788 0.076691 0.004822
0.623108 0.080353 0.005310
0.651428 0.084015 0.005798
0.679749 0.087646 0.006317
0.708069 0.091278 0.006836
0.736389 0.094940 0.007416
0.764709 0.098602 0.007996
0.793030 0.102264 0.008606
0.821350 0.105896 0.009216
0.849670 0.109558 0.009857
0.877991 0.113220 0.010529
0.000275 0.001740 0.000305
0.001801 0.001953 0.000092
0.012482 0.004120 0.000031
0.043030 0.006592 0.000092
0.073425 0.009644 0.000183
0.105835 0.013062 0.000275
0.138092 0.016937 0.000397
0.170166 0.021210 0.000549
0.202026 0.027191 0.000702
0.233673 0.034027 0.000885
0.265167 0.040863 0.001099
0.296478 0.047638 0.001312
0.327545 0.054443 0.001587
0.358521 0.061218 0.001862
0.389252 0.068024 0.002136
0.419800 0.074677 0.002472
0.450195 0.081390 0.002808
0.480377 0.088043 0.003174
0.509827 0.093719 0.003540
0.538147 0.097351 0.003937
0.566437 0.100983 0.004395
0.594788 0.104614 0.004822
0.623108 0.108246 0.005310
0.651428 0.111908 0.005798
0.679749 0.115631 0.006317
0.708069 0.119232 0.006836
0.736389 0.122955 0.007416
0.764709 0.126587 0.007996
0.793030 0.130127 0.008606
0.821350 0.133789 0.009216
0.849670 0.137573 0.009857
0.877991 0.141113 0.010529
0.001129 0.010529 0.001282
0.002930 0.008850 0.000763
0.009888 0.014557 0.000397
0.052155 0.021149 0.000031
0.082245 0.026947 0.000122
0.112457 0.033722 0.000214
0.142426 0.040955 0.000366
0.172119 0.048462 0.000549
0.202026 0.056000 0.000702
0.233673 0.062744 0.000885
0.265167 0.069458 0.001099
0.296478 0.076233 0.001312
0.327545 0.082947 0.001587
0.358521 0.089600 0.001862
0.389252 0.096222 0.002136
0.419800 0.102844 0.002472
0.450195 0.109467 0.002808
0.480377 0.116058 0.003174
0.509827 0.121582 0.003540
0.538147 0.125214 0.003937
0.566437 0.128937 0.004395
0.594788 0.132538 0.004822
0.623108 0.136139 0.005310
0.651428 0.139832 0.005798
0.679749 0.143463 0.006317
0.708069 0.147186 0.006836
0.736389 0.150787 0.007416
0.764709 0.154388 0.007996
0.793030 0.158203 0.008606
0.821350 0.161682 0.009216
0.849670 0.165405 0.009857
0.877991 0.169006 0.010529
0.002533 0.044556 0.004089
0.004730 0.041382 0.002380
0.009216 0.044525 0.001648
0.043579 0.050598 0.000854
0.091370 0.057892 0.000000
0.121460 0.062866 0.000092
0.151123 0.068756 0.000244
0.180847 0.075348 0.000427
0.210815 0.082214 0.000549
0.240051 0.089325 0.000793
0.269684 0.096649 0.000977
0.298401 0.104004 0.001343
0.327545 0.111359 0.001587
0.358521 0.117950 0.001862
0.389252 0.124542 0.002136
0.419800 0.131012 0.002472
0.450195 0.137573 0.002808
0.480377 0.144043 0.003174
0.509827 0.149567 0.003540
0.538147 0.153198 0.003937
0.566437 0.156769 0.004395
0.594788 0.160461 0.004822
0.623108 0.164215 0.005310
0.651428 0.167755 0.005798
0.679749 0.171448 0.006317
0.708069 0.175171 0.006836
0.736389 0.178802 0.007416
0.764709 0.182373 0.007996
0.793030 0.186066 0.008606
0.821350 0.189758 0.009216
0.849670 0.193420 0.009857
0.877991 0.196930 0.010529
0.004486 0.078430 0.018646
0.007843 0.073730 0.014679
0.011780 0.075043 0.006958
0.039673 0.080109 0.003754
0.077087 0.086365 0.001526
0.128265 0.094727 0.000000
0.160278 0.098969 0.000061
0.189636 0.104126 0.000275
0.219147 0.110077 0.000458
0.248932 0.116516 0.000549
0.277985 0.123169 0.000854
0.307373 0.130005 0.001007
0.335938 0.136963 0.001404
0.364960 0.143982 0.001648
0.393005 0.151306 0.002167
0.421692 0.158417 0.002502
0.450195 0.165649 0.002808
0.480377 0.172058 0.003174
0.509827 0.177429 0.003540
0.538147 0.181061 0.003937
0.566437 0.184723 0.004395
0.594788 0.188385 0.004822
0.623108 0.192108 0.005310
0.651428 0.195679 0.005798
0.679749 0.199432 0.006317
0.708069 0.202942 0.006836
0.736389 0.206635 0.007416
0.764709 0.210358 0.007996
0.793030 0.213928 0.008606
0.821350 0.217621 0.009216
0.849670 0.221252 0.009857
0.877991 0.225037 0.010529
0.007019 0.112061 0.033417
0.011230 0.107330 0.028900
0.014038 0.107513 0.015259
0.039185 0.110413 0.014709
0.069427 0.114166 0.008789
0.110321 0.121948 0.002380
0.164825 0.131378 0.000000
0.198456 0.134857 0.000092
0.228088 0.139648 0.000244
0.257324 0.145111 0.000458
0.286377 0.150970 0.000702
0.315796 0.157257 0.000854
0.344299 0.163666 0.001221
0.373322 0.170166 0.001434
0.401337 0.176971 0.001953
0.430054 0.183807 0.002228
0.458618 0.190796 0.002502
0.486938 0.197662 0.002777
0.513336 0.203613 0.003601
0.539917 0.208191 0.003967
0.566437 0.212677 0.004395
0.594788 0.216309 0.004822
0.623108 0.220001 0.005310
0.651428 0.223572 0.005798
0.679749 0.227264 0.006317
0.708069 0.230896 0.006836
0.736389 0.234650 0.007416
0.764709 0.238159 0.007996
0.793030 0.241821 0.008606
0.821350 0.245514 0.009216
0.849670 0.249268 0.009857
0.877991 0.252930 0.010529
0.010132 0.145508 0.048218
0.015106 0.141022 0.042969
0.019196 0.139221 0.032806
0.041840 0.140472 0.030731
0.070892 0.145416 0.022675
0.098969 0.147980 0.018494
0.143372 0.157257 0.003448
0.201111 0.167847 0.000000
0.236969 0.170959 0.000000
0.266357 0.175323 0.000153
0.295349 0.180206 0.000366
0.324158 0.185577 0.000671
0.352692 0.191345 0.001007
0.381714 0.197479 0.001190
0.409729 0.203644 0.001678
0.438446 0.210083 0.001923
0.466949 0.216553 0.002136
0.494324 0.223389 0.002869
0.521271 0.227997 0.003174
0.547943 0.232422 0.003510
0.574585 0.236908 0.003876
0.600006 0.241608 0.004913
0.626617 0.246124 0.005341
0.653107 0.250549 0.005829
0.679749 0.255249 0.006317
0.708069 0.258850 0.006836
0.736389 0.262482 0.007416
0.764709 0.266144 0.007996
0.793030 0.269897 0.008606
0.821350 0.273407 0.009216
0.849670 0.277100 0.009857
0.877991 0.280853 0.010529
0.013763 0.178741 0.062897
0.019592 0.174164 0.057312
0.029114 0.171417 0.050964
0.042572 0.172699 0.039001
0.071625 0.175354 0.038544
0.103180 0.180481 0.030304
0.130341 0.182861 0.023743
0.176239 0.192383 0.004669
0.237183 0.204010 0.000000
0.273010 0.206940 0.000000
0.303741 0.210480 0.000183
0.332550 0.215057 0.000458
0.361847 0.220245 0.000519
0.390106 0.225708 0.000916
0.418213 0.231262 0.001404
0.446838 0.237122 0.001587
0.475433 0.243347 0.001770
0.502563 0.249268 0.002472
0.529266 0.253296 0.002747
0.555908 0.257446 0.003021
0.581451 0.261780 0.003967
0.608124 0.265991 0.004333
0.634766 0.270294 0.004700
0.661499 0.274841 0.005127
0.688080 0.279236 0.005554
0.713318 0.283966 0.006958
0.739929 0.288513 0.007477
0.766510 0.293335 0.008026
0.793030 0.297760 0.008606
0.821350 0.301483 0.009216
0.849670 0.305115 0.009857
0.877991 0.308746 0.010529
0.018005 0.211792 0.077637
0.024567 0.207336 0.071533
0.039612 0.202637 0.069733
0.046906 0.203888 0.051117
0.074463 0.205109 0.054382
0.102386 0.209961 0.046356
0.135315 0.215027 0.038330
0.161926 0.217621 0.028992
0.208923 0.227295 0.006195
0.272369 0.239960 0.000275
0.308594 0.242798 0.000000
0.341705 0.246033 0.000000
0.370300 0.250214 0.000275
0.398590 0.254761 0.000641
0.426544 0.259674 0.001099
0.455231 0.265167 0.001221
0.482849 0.270691 0.001831
0.510529 0.275574 0.002014
0.537262 0.279327 0.002258
0.562958 0.283295 0.003082
0.589600 0.287140 0.003387
0.616302 0.291229 0.003693
0.642914 0.295410 0.004028
0.668274 0.299713 0.005219
0.695007 0.304016 0.005646
0.721710 0.308380 0.006104
0.748260 0.312653 0.006531
0.774963 0.317291 0.007019
0.799988 0.322144 0.008728
0.826508 0.326630 0.009338
0.853149 0.331024 0.009949
0.879669 0.335785 0.010559
0.022766 0.244598 0.092255
0.031616 0.240051 0.085846
0.047638 0.235565 0.084045
0.057007 0.235321 0.069275
0.075439 0.236603 0.063019
0.103699 0.239868 0.061890
0.133789 0.244415 0.054108
0.164429 0.248260 0.048096
0.193726 0.252533 0.033844
0.241333 0.261932 0.008911
0.307220 0.277863 0.001251
0.343933 0.278290 0.000000
0.378723 0.281128 0.000000
0.406952 0.284790 0.000336
0.434998 0.289001 0.000732
0.463684 0.294006 0.000854
0.491241 0.298920 0.001404
0.518524 0.302704 0.001587
0.544281 0.306061 0.002319
0.571014 0.309601 0.002533
0.597748 0.313232 0.002777
0.623260 0.317108 0.003784
0.649933 0.321106 0.004120
0.676605 0.325104 0.004456
0.703278 0.329102 0.004822
0.729980 0.333313 0.005219
0.755127 0.337769 0.006683
0.781891 0.342010 0.007172
0.808563 0.346466 0.007660
0.835144 0.350800 0.008148
0.861877 0.355377 0.008698
0.888428 0.359680 0.009247
0.028107 0.277252 0.106842
0.039673 0.272644 0.100128
0.055695 0.268036 0.097961
0.067108 0.266571 0.087585
0.075653 0.268372 0.070862
0.106781 0.269012 0.077972
0.133972 0.274017 0.069824
0.165375 0.278625 0.061920
0.193298 0.281250 0.057861
0.225006 0.286407 0.039398
0.273560 0.296387 0.012085
0.340942 0.314667 0.002686
0.379028 0.313660 0.000000
0.413910 0.316254 0.000000
0.443420 0.319397 0.000366
0.472168 0.323730 0.000427
0.499695 0.327850 0.000977
0.526550 0.330627 0.001068
0.552246 0.333374 0.001770
0.579071 0.336792 0.001953
0.604767 0.340057 0.002869
0.631470 0.343597 0.003113
0.658264 0.347351 0.003387
0.684937 0.351135 0.003662
0.710327 0.355042 0.004913
0.737000 0.358948 0.005310
0.763641 0.362885 0.005707
0.790375 0.367157 0.006104
0.815399 0.371429 0.007782
0.842072 0.375641 0.008301
0.868744 0.380005 0.008820
0.895416 0.384338 0.009399
0.033997 0.309662 0.121399
0.047485 0.305206 0.114410
0.063568 0.300629 0.111938
0.076630 0.298279 0.105591
0.084381 0.298889 0.087524
0.107758 0.300140 0.086639
0.135620 0.303436 0.085449
0.164612 0.307800 0.077759
0.197327 0.312897 0.069397
0.221985 0.314056 0.067627
0.256775 0.320862 0.044250
0.305603 0.330597 0.015717
0.375000 0.351715 0.004150
0.413910 0.348816 0.000000
0.448517 0.351166 0.000000
0.480591 0.354248 0.000000
0.507660 0.357117 0.000488
0.534576 0.359497 0.000549
0.560425 0.361725 0.001221
0.587219 0.364594 0.001343
0.612915 0.367615 0.002197
0.639618 0.370728 0.002380
0.665222 0.374054 0.003448
0.691956 0.377533 0.003723
0.718658 0.381287 0.004028
0.745361 0.385010 0.004333
0.770630 0.388916 0.005798
0.797302 0.392944 0.006195
0.824005 0.396942 0.006622
0.850739 0.401184 0.007080
0.877350 0.405243 0.007507
0.902283 0.409454 0.009521
0.041229 0.341919 0.135956
0.055206 0.337677 0.128540
0.071136 0.333252 0.125702
0.087128 0.328491 0.124359
0.094299 0.329742 0.105560
0.108490 0.330994 0.094910
0.138733 0.332153 0.101440
0.165344 0.336884 0.093506
0.195618 0.341675 0.085388
0.228729 0.346680 0.077362
0.250610 0.346649 0.077118
0.288605 0.355316 0.048859
0.337402 0.364563 0.020294
0.408691 0.388092 0.005829
0.448517 0.383667 0.000000
0.482880 0.385956 0.000000
0.515747 0.387329 0.000000
0.541595 0.388519 0.000549
0.568573 0.390961 0.000610
0.594299 0.392975 0.001373
0.621094 0.395599 0.001495
0.646698 0.398254 0.002441
0.673431 0.401459 0.002655
0.700256 0.404694 0.002869
0.725708 0.408081 0.004120
0.752441 0.411621 0.004425
0.779175 0.415314 0.004730
0.805847 0.418976 0.005066
0.830994 0.422791 0.006744
0.857758 0.426666 0.007172
0.884399 0.430756 0.007629
0.911072 0.434906 0.008087
0.049316 0.373932 0.150452
0.063477 0.369263 0.142883
0.079163 0.365143 0.139832
0.095093 0.360596 0.138733
0.103638 0.361176 0.123199
0.111420 0.361664 0.105713
0.139679 0.362915 0.110199
0.167389 0.365997 0.109009
0.195312 0.371155 0.100586
0.226746 0.375732 0.092712
0.257172 0.379028 0.087067
0.281128 0.380890 0.081696
0.319397 0.388275 0.054626
0.368988 0.398346 0.025330
0.442078 0.424103 0.007751
0.482880 0.418274 0.000000
0.516144 0.419373 0.000000
0.548401 0.419342 0.000000
0.576660 0.420654 0.000000
0.602417 0.422302 0.000702
0.629395 0.424652 0.000763
0.655060 0.426941 0.001678
0.681824 0.429626 0.001801
0.707275 0.432281 0.002930
0.734070 0.435486 0.003174
0.760864 0.438812 0.003387
0.786163 0.442078 0.004822
0.812927 0.445496 0.005157
0.839630 0.449341 0.005493
0.866333 0.452942 0.005859
0.893158 0.456787 0.006226
0.918091 0.460907 0.008209
0.057373 0.405762 0.164948
0.071014 0.401520 0.156982
0.086914 0.396942 0.153870
0.102692 0.392761 0.152283
0.113464 0.391724 0.141418
0.121307 0.392151 0.123596
0.139709 0.394165 0.117676
0.170319 0.394531 0.124786
0.196564 0.399292 0.116791
0.225739 0.404114 0.108643
0.258118 0.409088 0.100433
0.285370 0.411224 0.096741
0.311157 0.413696 0.087372
0.351044 0.422668 0.058929
0.400360 0.431854 0.030334
0.475067 0.459839 0.009918
0.516144 0.451630 0.000000
0.548401 0.451599 0.000000
0.580658 0.451660 0.000000
0.610626 0.452454 0.000000
0.636322 0.453674 0.000793
0.663330 0.456116 0.000854
0.688812 0.457977 0.001831
0.715698 0.460724 0.002014
0.742462 0.463501 0.002136
0.767883 0.466339 0.003448
0.794617 0.469452 0.003693
0.821381 0.472717 0.003937
0.846619 0.476044 0.005585
0.873352 0.479462 0.005951
0.900085 0.483002 0.006317
0.926819 0.487030 0.006714
0.065338 0.437408 0.179352
0.078400 0.433746 0.170929
0.094696 0.428711 0.167908
0.110687 0.424042 0.166229
0.123169 0.422119 0.159637
0.131042 0.422455 0.141541
0.140137 0.424530 0.125824
0.171265 0.424927 0.133606
0.198395 0.428375 0.131927
0.226044 0.432678 0.124207
0.256378 0.437103 0.116425
0.289398 0.442474 0.107849
0.313507 0.443237 0.106415
0.341553 0.447266 0.092194
0.381683 0.455261 0.064514
0.431549 0.465149 0.035339
0.507355 0.494659 0.012299
0.548401 0.483856 0.000000
0.580658 0.483826 0.000000
0.612915 0.483917 0.000000
0.644653 0.484131 0.000000
0.670288 0.485413 0.000885
0.697174 0.487366 0.000946
0.724152 0.489655 0.001007
0.749542 0.491791 0.002197
0.776367 0.494690 0.002350
0.803253 0.497559 0.002502
0.828369 0.500061 0.004028
0.855225 0.503601 0.004272
0.881989 0.506744 0.004547
0.907104 0.510071 0.006439
0.933838 0.513580 0.006805
0.073334 0.468842 0.193726
0.086456 0.464874 0.185272
0.102264 0.460419 0.181824
0.117798 0.456238 0.179688
0.133728 0.451416 0.178436
0.140869 0.452637 0.159668
0.147949 0.453827 0.141602
0.171936 0.455078 0.141754
0.201630 0.456177 0.148102
0.227539 0.460724 0.140167
0.255890 0.465393 0.132111
0.286987 0.470154 0.124084
0.319885 0.475037 0.116089
0.341431 0.475037 0.116089
0.371582 0.479980 0.097595
0.412750 0.488647 0.069366
0.462585 0.498291 0.040344
0.539093 0.528748 0.015076
0.579529 0.516205 0.001099
0.612915 0.516113 0.000000
0.645172 0.516174 0.000000
0.677429 0.516174 0.000000
0.705566 0.517456 0.000000
0.731018 0.518890 0.001038
0.758087 0.521271 0.001099
0.783417 0.522980 0.002380
0.810272 0.525726 0.002563
0.837097 0.528473 0.002716
0.862213 0.531158 0.004333
0.889038 0.534302 0.004608
0.915833 0.537537 0.004913
0.942596 0.540863 0.005219
0.081238 0.500061 0.208099
0.094513 0.495789 0.199402
0.109711 0.492004 0.195648
0.125549 0.487457 0.193451
0.141174 0.483215 0.192719
0.150574 0.482574 0.177612
0.157654 0.483795 0.159393
0.171570 0.485901 0.149048
0.202515 0.486237 0.156891
0.229523 0.489105 0.155579
0.256439 0.494019 0.147369
0.285706 0.498993 0.139038
0.317383 0.502991 0.131317
0.347198 0.506226 0.125580
0.368683 0.506226 0.125580
0.401093 0.512787 0.101715
0.442261 0.520752 0.073486
0.491577 0.529510 0.044617
0.569733 0.561859 0.019714
0.611725 0.551361 0.002625
0.645172 0.548462 0.000000
0.677429 0.548431 0.000000
0.709686 0.548370 0.000000
0.739624 0.549286 0.000000
0.764984 0.550262 0.001129
0.791840 0.552399 0.001221
0.818909 0.554901 0.001312
0.844086 0.556915 0.002777
0.870941 0.559601 0.002960
0.897705 0.562378 0.003143
0.922760 0.565094 0.004974
0.949615 0.568176 0.005280
0.086029 0.529480 0.221802
0.098846 0.526184 0.212799
0.115662 0.521240 0.209412
0.131348 0.517609 0.206909
0.147736 0.513214 0.206177
0.158112 0.512634 0.194916
0.166016 0.512787 0.177094
0.173065 0.513947 0.159454
0.201630 0.515076 0.164642
0.231110 0.516113 0.170898
0.255890 0.520996 0.162262
0.283722 0.525055 0.154541
0.313751 0.529175 0.146637
0.345886 0.534332 0.137848
0.372711 0.536011 0.134491
0.394287 0.535980 0.134155
0.429230 0.543762 0.106079
0.470612 0.551331 0.078339
0.520508 0.560669 0.048889
0.601410 0.596008 0.023529
0.642670 0.585175 0.005035
0.677429 0.580688 0.000000
0.709686 0.580597 0.000000
0.741943 0.580719 0.000000
0.773560 0.580933 0.000000
0.800476 0.582581 0.000000
0.825867 0.583984 0.001343
0.852844 0.586426 0.001404
0.877991 0.588043 0.003021
0.904755 0.590790 0.003204
0.931610 0.593597 0.003357
0.958435 0.596466 0.003571
0.090820 0.558899 0.235535
0.103729 0.555359 0.226379
0.119812 0.551147 0.222687
0.135834 0.547180 0.220062
0.152649 0.542419 0.219330
0.165985 0.539764 0.213135
0.171997 0.541931 0.193726
0.178955 0.543030 0.175598
0.199554 0.543213 0.172241
0.229492 0.544342 0.179169
0.256012 0.547363 0.177429
0.282196 0.551636 0.169403
0.310852 0.555969 0.161346
0.341400 0.560394 0.153290
0.374481 0.564880 0.145050
0.398224 0.565796 0.143463
0.421661 0.567413 0.138031
0.457336 0.574799 0.110321
0.499573 0.582947 0.082062
0.549408 0.591797 0.053070
0.631866 0.628815 0.028442
0.673492 0.619049 0.007782
0.709686 0.612823 0.000000
0.741943 0.612976 0.000000
0.774200 0.612976 0.000000
0.806458 0.612915 0.000000
0.834442 0.614227 0.000000
0.859741 0.615479 0.001434
0.886627 0.617432 0.001526
0.913605 0.620209 0.001617
0.938690 0.622070 0.003418
0.965607 0.624634 0.003632
0.095612 0.588318 0.249237
0.108612 0.584503 0.239899
0.125122 0.580017 0.236206
0.141296 0.575745 0.233765
0.157318 0.571716 0.232269
0.172882 0.567871 0.230682
0.179871 0.569031 0.211884
0.186829 0.570160 0.193695
0.196167 0.572327 0.178650
0.227448 0.572449 0.186676
0.256775 0.573456 0.192841
0.281860 0.577942 0.184631
0.308868 0.582489 0.176361
0.338074 0.587097 0.168030
0.369629 0.590759 0.160553
0.402191 0.595581 0.152405
0.423706 0.595581 0.152405
0.448975 0.598022 0.142700
0.484863 0.604919 0.115570
0.528015 0.613556 0.086700
0.578308 0.622955 0.057281
0.663483 0.662872 0.032196
0.704224 0.652618 0.010803
0.741943 0.645203 0.000000
0.774200 0.645111 0.000000
0.806458 0.645203 0.000000
0.838715 0.645203 0.000000
0.868439 0.646027 0.000000
0.893646 0.647156 0.001556
0.920593 0.649170 0.001648
0.947601 0.651581 0.001770
0.972534 0.653259 0.003693
0.100372 0.617737 0.262939
0.112244 0.614899 0.252869
0.129089 0.610077 0.249359
0.145599 0.605499 0.246857
0.161926 0.601135 0.245331
0.176910 0.598145 0.244324
0.185669 0.598236 0.228516
0.193695 0.598267 0.210907
0.199585 0.600494 0.192169
0.224274 0.601624 0.193146
0.255066 0.601685 0.201080
0.281403 0.605011 0.199036
0.307831 0.608704 0.191589
0.335785 0.613556 0.183044
0.366058 0.617371 0.175415
0.398102 0.622345 0.166840
0.427673 0.625336 0.161285
0.449158 0.625336 0.161285
0.476349 0.628754 0.147186
0.513947 0.637299 0.118530
0.557404 0.645386 0.090332
0.607239 0.654114 0.061554
0.693207 0.695099 0.036041
0.734802 0.686096 0.014038
0.774200 0.677429 0.000000
0.806458 0.677490 0.000000
0.838715 0.677368 0.000000
0.870972 0.677460 0.000000
0.902496 0.677765 0.000000
0.929474 0.679626 0.000000
0.954468 0.680511 0.001770
0.981384 0.682709 0.001892
0.105164 0.647156 0.276611
0.117096 0.644135 0.266510
0.134186 0.639008 0.262939
0.149841 0.635376 0.259827
0.166473 0.630676 0.258362
0.181702 0.627441 0.257141
0.192505 0.626404 0.246063
0.199493 0.627533 0.227295
0.207611 0.627533 0.210327
0.222015 0.629791 0.200562
0.253082 0.629791 0.208557
0.282471 0.630798 0.214661
0.307068 0.635773 0.205994
0.334198 0.639709 0.198334
0.363068 0.643707 0.190582
0.393799 0.648895 0.181702
0.426453 0.653015 0.173798
0.453125 0.655121 0.170197
0.474579 0.655121 0.170197
0.503876 0.659607 0.151672
0.541748 0.667511 0.123505
0.585815 0.676056 0.094910
0.636139 0.685242 0.065735
0.721008 0.725311 0.041077
0.766785 0.720795 0.016571
0.806458 0.709595 0.000000
0.838715 0.709717 0.000000
0.870972 0.709778 0.000000
0.903229 0.709625 0.000000
0.935486 0.709595 0.000000
0.963409 0.711273 0.000000
0.988434 0.712189 0.001892
0.109924 0.676544 0.290192
0.121918 0.673340 0.280029
0.138000 0.669250 0.275940
0.155212 0.664062 0.273529
0.170868 0.660370 0.271332
0.187592 0.655579 0.270752
0.200531 0.653351 0.264313
0.206299 0.655701 0.244507
0.213318 0.656830 0.226410
0.221527 0.656769 0.209900
0.251190 0.657928 0.216156
0.280823 0.659058 0.223022
0.306854 0.662659 0.220581
0.332977 0.666748 0.212708
0.360901 0.670929 0.204895
0.390350 0.675140 0.196869
0.421783 0.679443 0.188904
0.455109 0.683777 0.180847
0.478668 0.684906 0.179108
0.500153 0.684906 0.179108
0.532074 0.691803 0.154785
0.570374 0.698975 0.127380
0.614319 0.706726 0.099579
0.665070 0.716400 0.069946
0.750519 0.756866 0.044861
0.798737 0.755096 0.019196
0.838715 0.741852 0.000000
0.870972 0.741913 0.000000
0.903229 0.742035 0.000000
0.935486 0.742035 0.000000
0.967743 0.741882 0.000000
0.997467 0.742737 0.000000
0.114716 0.705963 0.303833
0.126709 0.702576 0.293427
0.143066 0.698242 0.289490
0.159180 0.694092 0.286438
0.175140 0.690125 0.284210
0.190918 0.686371 0.282990
0.207489 0.681458 0.281830
0.214447 0.682587 0.262909
0.221344 0.683716 0.244659
0.228333 0.684875 0.226837
0.248932 0.686035 0.223602
0.278809 0.687164 0.230499
0.308136 0.688141 0.236481
0.333130 0.692413 0.228485
0.359619 0.696747 0.220398
0.388031 0.701111 0.212280
0.418335 0.705566 0.204102
0.449951 0.710083 0.195923
0.482605 0.714691 0.188019
0.504150 0.714691 0.188019
0.525696 0.714630 0.187500
0.559418 0.721649 0.160187
0.599152 0.730560 0.131134
0.642548 0.737427 0.104248
0.694000 0.747559 0.074158
0.778198 0.786926 0.050140
0.829102 0.788269 0.023682
0.869263 0.774292 0.002472
0.903229 0.774231 0.000000
0.935486 0.774231 0.000000
0.967743 0.774231 0.000000
1.000000 0.774170 0.000000
0.119476 0.735382 0.317444
0.131561 0.731781 0.306885
0.148132 0.727234 0.303009
0.164520 0.722839 0.299896
0.180634 0.718628 0.297852
0.196655 0.714630 0.296509
0.211121 0.712158 0.295319
0.221344 0.710693 0.280334
0.228363 0.711853 0.261841
0.234100 0.714294 0.242889
0.245239 0.715424 0.229767
0.276703 0.715271 0.237915
0.306366 0.716400 0.244843
0.333130 0.719055 0.243317
0.358917 0.723541 0.235138
0.386169 0.728088 0.226807
0.415131 0.732727 0.218506
0.445984 0.737396 0.210083
0.478394 0.740845 0.202911
0.508087 0.744446 0.196869
0.529602 0.744446 0.196869
0.553070 0.745361 0.191895
0.587250 0.752869 0.164276
0.626984 0.760895 0.136108
0.672058 0.769531 0.107483
0.722900 0.778687 0.078308
0.807312 0.818420 0.053986
0.859344 0.821442 0.028778
0.901459 0.809357 0.004730
0.935486 0.806458 0.000000
0.967743 0.806366 0.000000
1.000000 0.806396 0.000000
0.124268 0.764801 0.331055
0.136444 0.761017 0.320251
0.153137 0.756195 0.316376
0.168365 0.753082 0.312744
0.184784 0.748596 0.310669
0.201050 0.744354 0.309418
0.217102 0.740265 0.308868
0.228271 0.738831 0.297791
0.233856 0.741333 0.278137
0.240814 0.742462 0.259857
0.249115 0.742218 0.243561
0.274689 0.743378 0.245422
0.304504 0.744507 0.252380
0.333801 0.745483 0.258270
0.358429 0.750153 0.249908
0.384705 0.754883 0.241394
0.412842 0.759674 0.232971
0.442749 0.763184 0.225677
0.474060 0.768066 0.217072
0.506958 0.771698 0.209717
0.533600 0.774231 0.205719
0.554993 0.774231 0.205719
0.580597 0.777588 0.194977
0.615448 0.784180 0.168304
0.655090 0.791229 0.140991
0.700439 0.800262 0.112030
0.751831 0.809845 0.082520
0.836487 0.849915 0.057953
0.891205 0.855499 0.032227
0.933655 0.844360 0.007080
0.967743 0.838745 0.000000
1.000000 0.838623 0.000000
0.129059 0.794220 0.344635
0.139618 0.791809 0.333160
0.156647 0.786743 0.329437
0.173492 0.781860 0.326294
0.190216 0.777161 0.324188
0.205261 0.774170 0.322144
0.221588 0.769806 0.321625
0.233582 0.768341 0.314301
0.240631 0.769470 0.295319
0.249023 0.769196 0.278259
0.256042 0.770355 0.260651
0.272308 0.771484 0.252808
0.302460 0.772614 0.259735
0.332092 0.773743 0.266663
0.358643 0.776581 0.264832
0.383789 0.781464 0.256165
0.411530 0.785065 0.248871
0.440033 0.790070 0.240143
