lut_library/filter_lut/fuji-cc-v1.1-33_3.2-1.cube
TITLE "Generated by Resolve"
LUT_3D_SIZE 33
0 0 0
0.0224155 0.00407416 0.00416571
0.0470283 0.00888075 0.0091249
0.072221 0.0136873 0.0140688
0.101549 0.0195773 0.0201419
0.13077 0.026688 0.0274968
0.159716 0.0350347 0.0361181
0.188663 0.0447089 0.0461585
0.216892 0.055375 0.0571908
0.24477 0.0671244 0.0693828
0.268879 0.0783856 0.0813153
0.291646 0.0899367 0.0928511
0.318074 0.103044 0.106218
0.3514 0.1196 0.123095
0.389319 0.138506 0.142351
0.429343 0.15845 0.162692
0.469184 0.178347 0.182986
0.506783 0.197162 0.202167
0.541238 0.21442 0.219776
0.573571 0.23061 0.236286
0.604868 0.246281 0.252277
0.634714 0.261219 0.267491
0.663249 0.275471 0.282032
0.690669 0.289204 0.29604
0.716777 0.30222 0.3093
0.741817 0.314687 0.322011
0.7664 0.326909 0.334462
0.790814 0.339055 0.346853
0.815 0.351049 0.35906
0.839704 0.363256 0.371481
0.865019 0.375769 0.384222
0.887251 0.386709 0.395361
0.905959 0.395926 0.404746
0.0009308 0.024979 0.00111391
0.0267338 0.0226291 0.00448615
0.0496986 0.0248112 0.00857557
0.0728923 0.0284276 0.0133974
0.100267 0.0332341 0.0191806
0.128328 0.0394598 0.0262913
0.157046 0.0472267 0.0349126
0.185458 0.0562295 0.0445258
0.213458 0.0662242 0.0553597
0.241291 0.0776074 0.0675669
0.265461 0.0889754 0.0790723
0.2878 0.0996719 0.0905776
0.31458 0.111925 0.104189
0.34815 0.126741 0.121355
0.386282 0.143282 0.14078
0.426307 0.160937 0.161135
0.466743 0.179171 0.181842
0.504555 0.196536 0.201129
0.538903 0.21326 0.21857
0.571466 0.229557 0.235203
0.602731 0.245212 0.251179
0.632532 0.260121 0.266377
0.661173 0.274434 0.28098
0.688869 0.288304 0.295109
0.714992 0.30132 0.3084
0.740276 0.313909 0.321218
0.764752 0.326101 0.333639
0.789197 0.338262 0.346029
0.813535 0.350317 0.358328
0.838376 0.3626 0.370825
0.864042 0.37528 0.383734
0.886458 0.386313 0.394965
0.905455 0.395682 0.404486
0.00215152 0.0513619 0.00250248
0.0262303 0.0487068 0.00587472
0.0550546 0.0465248 0.0093843
0.0782177 0.0477913 0.0131075
0.10341 0.0512551 0.0185397
0.129305 0.0564126 0.0251926
0.156176 0.063447 0.0332494
0.183536 0.0719768 0.0428016
0.210956 0.0819257 0.0533913
0.237827 0.0923476 0.0650034
0.261845 0.10251 0.0764477
0.284123 0.112337 0.0879988
0.310765 0.12369 0.101595
0.343923 0.137301 0.118532
0.38201 0.152987 0.138125
0.421988 0.169772 0.158526
0.462058 0.186984 0.179049
0.500252 0.203952 0.198688
0.535271 0.219883 0.216556
0.567788 0.234928 0.233219
0.59942 0.249729 0.249409
0.629587 0.264103 0.264836
0.658381 0.277882 0.27953
0.68603 0.291325 0.293614
0.71223 0.304143 0.306935
0.737804 0.316762 0.319966
0.762448 0.328954 0.332448
0.786679 0.340978 0.344701
0.811292 0.353262 0.357137
0.836576 0.365881 0.369894
0.862242 0.378607 0.382788
0.884855 0.389838 0.39411
0.904051 0.399435 0.403738
0.00366217 0.0774548 0.00396735
0.0243229 0.0745403 0.00683604
0.0549935 0.0719768 0.0102846
0.0832227 0.0699779 0.0143893
0.107393 0.0713664 0.0184176
0.13228 0.0754253 0.0247349
0.157382 0.0813153 0.0322881
0.183337 0.0886244 0.0412299
0.209781 0.0972152 0.0516823
0.236057 0.106371 0.063035
0.259586 0.115541 0.0741436
0.281697 0.124605 0.0856641
0.307729 0.134951 0.0991836
0.340627 0.147601 0.116197
0.378119 0.162234 0.13547
0.418341 0.178424 0.156268
0.458564 0.195163 0.176883
0.496544 0.211368 0.196384
0.531411 0.226688 0.214298
0.564034 0.241443 0.231052
0.595728 0.255909 0.247288
0.626017 0.269963 0.262776
0.6551 0.283665 0.277623
0.682887 0.296895 0.291859
0.709194 0.309514 0.305241
0.734722 0.321889 0.318196
0.75964 0.334035 0.330831
0.78436 0.346212 0.343389
0.809125 0.358404 0.355901
0.83444 0.37084 0.368627
0.860426 0.383642 0.381674
0.88368 0.395117 0.393347
0.903044 0.404746 0.403052
0.00534066 0.104738 0.00561532
0.022446 0.102342 0.00805676
0.0530709 0.0988937 0.0120394
0.0842298 0.0966354 0.0144198
0.111131 0.0946975 0.0198062
0.135241 0.0962234 0.0248264
0.159838 0.100053 0.0319829
0.184421 0.105425 0.0402838
0.209583 0.112184 0.0500649
0.23534 0.120256 0.0612802
0.258305 0.128374 0.0722057
0.279835 0.136507 0.0834516
0.305608 0.146044 0.0969558
0.338064 0.157839 0.114
0.375418 0.171618 0.133455
0.415152 0.18706 0.153979
0.45536 0.203113 0.174792
0.493309 0.21886 0.194339
0.528237 0.233799 0.212329
0.561044 0.248157 0.229191
0.592645 0.262272 0.245426
0.62324 0.27628 0.261112
0.652338 0.289677 0.276005
0.68011 0.302632 0.290181
0.706706 0.315206 0.303731
0.732341 0.327443 0.316762
0.758007 0.33991 0.329824
0.783062 0.352071 0.342565
0.80824 0.36434 0.355276
0.834012 0.376898 0.368246
0.860151 0.389639 0.381369
0.88394 0.401312 0.393347
0.902968 0.410788 0.402853
0.00761425 0.131838 0.00790417
0.0211948 0.130037 0.00982681
0.0523079 0.126711 0.0140383
0.0831617 0.123827 0.0174105
0.1122 0.121675 0.0196384
0.13901 0.119875 0.0264744
0.163043 0.121431 0.0322881
0.187289 0.125048 0.0402838
0.211978 0.13022 0.0496986
0.236393 0.136492 0.0602884
0.258625 0.143435 0.0708324
0.27982 0.150881 0.0820325
0.304967 0.159335 0.0953536
0.337057 0.170001 0.112337
0.373968 0.182712 0.131777
0.413214 0.19678 0.152346
0.452888 0.211749 0.172885
0.490806 0.226749 0.192554
0.525826 0.241215 0.210666
0.558984 0.255512 0.227771
0.590723 0.269337 0.244114
0.621195 0.282856 0.25977
0.650492 0.296086 0.274769
0.678599 0.309041 0.289143
0.705791 0.321828 0.303059
0.732189 0.334386 0.316487
0.757595 0.346502 0.329381
0.7832 0.358785 0.342397
0.808911 0.371221 0.355383
0.835187 0.383963 0.368612
0.861967 0.396933 0.382071
0.885023 0.408209 0.393622
0.903761 0.417487 0.403021
0.010193 0.15935 0.0105287
0.0208896 0.157702 0.011841
0.0521553 0.154711 0.0164492
0.0831769 0.151675 0.0203555
0.111711 0.148943 0.0233005
0.140856 0.146685 0.0274205
0.167132 0.145708 0.0344396
0.191363 0.147433 0.0410925
0.215183 0.150683 0.0496376
0.239216 0.155612 0.0599985
0.260777 0.161379 0.070161
0.281498 0.167773 0.0808118
0.306401 0.175494 0.0945449
0.337484 0.184695 0.111147
0.373617 0.19585 0.130434
0.41236 0.208713 0.150866
0.451759 0.22266 0.171527
0.489799 0.237018 0.191455
0.524758 0.250965 0.209567
0.557809 0.264591 0.226688
0.589853 0.278202 0.243229
0.620752 0.291661 0.259144
0.65037 0.304814 0.274342
0.678767 0.317693 0.288899
0.706477 0.330632 0.303105
0.732952 0.343084 0.316579
0.759258 0.35555 0.329961
0.784985 0.367849 0.343008
0.811078 0.380362 0.356207
0.838361 0.393515 0.369955
0.864637 0.406165 0.383154
0.887037 0.41706 0.394369
0.904814 0.425803 0.403281
0.0127413 0.18703 0.0131685
0.0209812 0.185779 0.0143282
0.0521706 0.182773 0.0187076
0.0839857 0.180056 0.0231327
0.112047 0.17731 0.0267643
0.140368 0.175021 0.030045
0.169787 0.172778 0.0363775
0.195865 0.172244 0.0437934
0.219837 0.17406 0.0512703
0.243442 0.17731 0.0605783
0.264698 0.182025 0.0704204
0.285252 0.187823 0.0808576
0.309163 0.19411 0.0939345
0.339605 0.201892 0.110445
0.37496 0.211582 0.129564
0.413184 0.22327 0.150057
0.452567 0.236378 0.170947
0.490257 0.249928 0.190707
0.525322 0.263294 0.209079
0.558297 0.276448 0.226261
0.590616 0.289754 0.243015
0.621683 0.302998 0.259068
0.65182 0.316289 0.274586
0.680644 0.329198 0.289372
0.708186 0.341772 0.303471
0.735378 0.354376 0.317403
0.761608 0.36672 0.330755
0.787839 0.379141 0.344045
0.814633 0.391913 0.35761
0.842023 0.404944 0.37142
0.867567 0.417105 0.384237
0.888838 0.427344 0.394919
0.905226 0.435431 0.403098
0.0158694 0.215228 0.016434
0.0222019 0.214252 0.017319
0.0535134 0.211444 0.0216983
0.0853285 0.208698 0.0259861
0.113481 0.20647 0.0301061
0.141085 0.204196 0.0342565
0.169558 0.202167 0.0378119
0.199008 0.199557 0.0463264
0.224735 0.199847 0.0542916
0.248783 0.202045 0.0625925
0.270039 0.205783 0.0717327
0.290135 0.21033 0.0818189
0.313741 0.215579 0.0942092
0.343999 0.222339 0.110704
0.378729 0.230762 0.129519
0.41648 0.241199 0.150011
0.455314 0.253056 0.170855
0.492576 0.265629 0.190631
0.527596 0.278447 0.209125
0.560754 0.29131 0.226505
0.593027 0.304265 0.243366
0.62443 0.317388 0.259663
0.654536 0.330251 0.275212
0.683482 0.342977 0.29012
0.711452 0.355505 0.304494
0.738293 0.367803 0.318212
0.764584 0.37998 0.331609
0.791318 0.392508 0.345205
0.817929 0.404929 0.358679
0.845258 0.417655 0.372427
0.869841 0.429175 0.384817
0.890028 0.43888 0.394934
0.905272 0.44651 0.402548
0.0188296 0.243687 0.0195773
0.024445 0.242969 0.0203708
0.0561532 0.240589 0.0249332
0.0883803 0.2383 0.0294652
0.115938 0.235889 0.0336309
0.14284 0.233661 0.0381476
0.170901 0.231754 0.0429084
0.199985 0.23032 0.0469825
0.229511 0.228031 0.0584421
0.25478 0.229068 0.0665446
0.276585 0.23212 0.0747387
0.296986 0.236271 0.0842298
0.321111 0.240848 0.0963455
0.350637 0.246143 0.111894
0.385122 0.253376 0.13051
0.422354 0.262409 0.150851
0.460472 0.273091 0.171572
0.497414 0.284733 0.191455
0.531914 0.296712 0.209812
0.564935 0.309087 0.227283
0.59736 0.321706 0.244312
0.628504 0.334249 0.260624
0.658625 0.346731 0.276295
0.687465 0.35906 0.291203
0.71516 0.371206 0.305455
0.742168 0.383383 0.319295
0.768673 0.395392 0.332876
0.79498 0.407401 0.346273
0.821744 0.419623 0.359823
0.848951 0.431998 0.373571
0.872068 0.442741 0.385183
0.890929 0.451804 0.394644
0.904723 0.458747 0.401572
0.0224308 0.271839 0.0234073
0.0314946 0.271382 0.0247349
0.0632486 0.2692 0.0291295
0.094789 0.267033 0.0335241
0.12166 0.264866 0.0378119
0.148379 0.263096 0.0428626
0.176196 0.261463 0.0482643
0.205264 0.260487 0.0537881
0.234577 0.259831 0.0579385
0.264088 0.257969 0.0736248
0.286503 0.260594 0.0813916
0.307622 0.264637 0.0900435
0.332265 0.268803 0.101259
0.362173 0.273381 0.116121
0.396033 0.279103 0.133974
0.432609 0.286732 0.153903
0.469978 0.296162 0.17435
0.506386 0.306813 0.194141
0.540597 0.31809 0.212528
0.573266 0.329809 0.229999
0.60499 0.341543 0.246815
0.635752 0.353414 0.262974
0.665309 0.36527 0.278431
0.694163 0.377295 0.293462
0.721813 0.389151 0.307729
0.748913 0.4009 0.321691
0.775174 0.412558 0.335149
0.801877 0.424506 0.348791
0.829068 0.436576 0.362631
0.854963 0.448203 0.375708
0.876707 0.458289 0.38735
0.893446 0.466239 0.396323
0.905165 0.472175 0.402731
0.0265354 0.300511 0.0277867
0.0409094 0.299596 0.0296941
0.0730907 0.297765 0.0341955
0.104356 0.296376 0.0390478
0.130632 0.29482 0.0435187
0.156817 0.293385 0.048661
0.184695 0.292378 0.0547341
0.213336 0.291493 0.0610513
0.242618 0.291218 0.0668956
0.272435 0.291554 0.0712139
0.298878 0.291432 0.0906844
0.320577 0.295109 0.0983139
0.345602 0.298833 0.108446
0.375723 0.302373 0.122164
0.409491 0.307042 0.139132
0.44538 0.313405 0.158343
0.481987 0.321492 0.178347
0.517739 0.331197 0.197894
0.551171 0.341375 0.216052
0.583032 0.352026 0.233219
0.614496 0.363088 0.250019
0.644785 0.374334 0.266102
0.674434 0.38587 0.281697
0.70309 0.397436 0.296681
0.730785 0.408865 0.311116
0.757488 0.420203 0.325063
0.783932 0.431586 0.339254
0.811215 0.443336 0.353796
0.838804 0.455406 0.36846
0.862898 0.466117 0.381186
0.882124 0.474907 0.391485
0.896254 0.481773 0.3991
0.905867 0.486946 0.404532
0.0315557 0.331807 0.0331579
0.0492866 0.331319 0.0356146
0.0825208 0.330236 0.0404974
0.112306 0.329076 0.0452125
0.138033 0.328359 0.049958
0.163806 0.327596 0.0554208
0.191272 0.326955 0.0619211
0.219715 0.326467 0.0691081
0.24892 0.326268 0.0765087
0.278294 0.326696 0.0832837
0.305043 0.329076 0.0881666
0.33048 0.330053 0.108309
0.35671 0.332372 0.120394
0.387243 0.334768 0.13225
0.421057 0.337896 0.146944
0.456504 0.342657 0.164111
0.492424 0.349416 0.182467
0.526955 0.357397 0.200748
0.559625 0.366384 0.218357
0.59086 0.376028 0.235325
0.62179 0.386206 0.252094
0.651774 0.396811 0.26836
0.681331 0.407721 0.284428
0.709667 0.418647 0.299687
0.737163 0.429664 0.314549
0.763973 0.440742 0.329015
0.790616 0.451835 0.343313
0.818082 0.463416 0.357961
0.844999 0.47483 0.372274
0.867475 0.484627 0.384192
0.884978 0.492775 0.393637
0.897581 0.49897 0.400519
0.904967 0.503212 0.404746
0.0383764 0.367453 0.0404822
0.0542 0.367697 0.042771
0.0879683 0.367208 0.0477302
0.117723 0.366934 0.0527199
0.143114 0.366461 0.0576791
0.167605 0.366094 0.0632639
0.194232 0.365805 0.0700084
0.222156 0.365713 0.0777447
0.250797 0.36582 0.0862593
0.279881 0.366598 0.0943465
0.306127 0.368338 0.101686
0.33077 0.371008 0.109438
0.359945 0.371725 0.122454
0.393927 0.370642 0.14107
0.428077 0.372183 0.153216
0.463523 0.375189 0.168231
0.498573 0.379705 0.185046
0.532647 0.38613 0.202564
0.564477 0.393591 0.219486
0.595071 0.402045 0.236057
0.625589 0.411521 0.252766
0.655238 0.421256 0.26891
0.684016 0.431327 0.284566
0.71223 0.441642 0.299992
0.739437 0.452079 0.314809
0.766293 0.462791 0.329351
0.793179 0.473716 0.343969
0.820264 0.484703 0.358465
0.84654 0.49546 0.372442
0.868147 0.504601 0.384039
0.884794 0.512093 0.392981
0.89688 0.517998 0.399695
0.90396 0.522271 0.403784
0.0474708 0.406897 0.0502174
0.0585336 0.407736 0.0521553
0.0927443 0.407843 0.0572824
0.121889 0.407736 0.0623636
0.147112 0.40766 0.0674601
0.170153 0.40763 0.0727245
0.195361 0.407507 0.079408
0.222354 0.407782 0.0874342
0.250278 0.407919 0.0956436
0.278325 0.408347 0.103929
0.30396 0.409949 0.11162
0.328206 0.41236 0.119463
0.356741 0.413611 0.12755
0.393057 0.413001 0.136095
0.431846 0.409796 0.159609
0.46772 0.410803 0.171969
0.503029 0.413596 0.186862
0.536614 0.418296 0.203021
0.568246 0.424536 0.219409
0.598688 0.432105 0.235843
0.628412 0.440131 0.251987
0.65745 0.448768 0.267857
0.685832 0.457893 0.283375
0.713237 0.467185 0.298451
0.740063 0.476921 0.313176
0.766629 0.487022 0.327749
0.792859 0.497047 0.342061
0.81944 0.507301 0.35642
0.845594 0.517403 0.370443
0.867002 0.526131 0.381964
0.883894 0.533501 0.391135
0.896345 0.539391 0.398077
0.903441 0.543282 0.402167
0.0592966 0.448249 0.0628061
0.0652171 0.450065 0.0644083
0.0987869 0.450156 0.0695506
0.127153 0.450202 0.0747234
0.151858 0.450233 0.0799268
0.173831 0.450324 0.0852979
0.197436 0.450599 0.0914931
0.222782 0.450767 0.0984665
0.249393 0.450965 0.106157
0.276585 0.451423 0.114275
0.301869 0.452918 0.122179
0.325795 0.455177 0.12961
0.354376 0.456458 0.137774
0.389517 0.455573 0.145846
0.430076 0.453605 0.153017
0.471046 0.449638 0.179492
0.507057 0.450721 0.19234
0.540825 0.453803 0.206897
0.572503 0.458854 0.222049
0.602335 0.464744 0.237095
0.631693 0.471504 0.252308
0.660151 0.478981 0.267323
0.688045 0.486976 0.282368
0.715358 0.49572 0.297459
0.741558 0.504448 0.311818
0.7673 0.51339 0.32604
0.792752 0.522576 0.340017
0.818891 0.532006 0.354162
0.844678 0.541329 0.368124
0.866743 0.549813 0.380041
0.883848 0.556664 0.389349
0.896498 0.562127 0.396384
0.904723 0.566323 0.401053
0.0738231 0.49012 0.078233
0.0747234 0.492012 0.0791791
0.106493 0.492241 0.0845197
0.133867 0.492393 0.089601
0.157885 0.492485 0.0945296
0.179675 0.492958 0.0994736
0.201083 0.493111 0.104738
0.224857 0.493339 0.110948
0.250248 0.493629 0.117998
0.27657 0.494133 0.125734
0.301381 0.496071 0.133639
0.3252 0.498589 0.141329
0.353216 0.499657 0.149844
0.388037 0.498619 0.159014
0.427878 0.496422 0.167544
0.470344 0.493935 0.176074
0.511879 0.49041 0.203037
0.54638 0.492073 0.215122
0.577996 0.495415 0.228229
0.607645 0.49984 0.241779
0.636469 0.505104 0.255741
0.66453 0.511284 0.269856
0.691997 0.518441 0.283986
0.718441 0.52578 0.297719
0.744076 0.53344 0.311421
0.769238 0.541344 0.325231
0.793912 0.549462 0.338704
0.81912 0.5579 0.352438
0.845121 0.56669 0.366522
0.867048 0.574319 0.378378
0.884886 0.580926 0.388098
0.898299 0.58616 0.395453
0.90721 0.590066 0.400458
0.0910964 0.531167 0.0961318
0.0920424 0.533104 0.0970932
0.11751 0.533562 0.101274
0.143648 0.533944 0.10602
0.166918 0.53431 0.110674
0.187747 0.534524 0.115145
0.207797 0.534859 0.119844
0.23035 0.535332 0.12549
0.254826 0.535912 0.132082
0.280766 0.536828 0.13962
0.30486 0.538628 0.146914
0.328237 0.541192 0.15465
0.355688 0.542092 0.162829
0.389746 0.541024 0.17232
0.428992 0.538613 0.182071
0.471046 0.536278 0.19057
0.513466 0.533516 0.202304
0.552499 0.530465 0.226734
0.584588 0.532479 0.237827
0.614435 0.535821 0.249744
0.643336 0.540017 0.262409
0.671351 0.545296 0.275532
0.698116 0.550851 0.288548
0.72398 0.55697 0.301457
0.749004 0.563577 0.314168
0.773495 0.570474 0.326787
0.797787 0.577874 0.339818
0.822202 0.585153 0.352895
0.84715 0.592599 0.366278
0.869307 0.599573 0.37818
0.887266 0.605585 0.387854
0.901549 0.610758 0.395666
0.911299 0.614649 0.401114
0.108125 0.570687 0.113558
0.109026 0.572732 0.114473
0.131548 0.573388 0.118303
0.156252 0.573999 0.122774
0.178347 0.574456 0.127077
0.198474 0.574975 0.13135
0.217655 0.57554 0.135729
0.239216 0.576165 0.140963
0.263096 0.577188 0.14728
0.288045 0.577996 0.154238
0.311635 0.579919 0.161334
0.334478 0.582406 0.168673
0.361578 0.583459 0.176806
0.395239 0.582498 0.186328
0.433906 0.579965 0.19646
0.474922 0.576974 0.205982
0.516579 0.574304 0.213458
0.556405 0.571405 0.22887
0.592142 0.569406 0.249973
0.622522 0.57174 0.260365
0.651545 0.574777 0.271519
0.679042 0.578653 0.283146
0.705531 0.583139 0.295079
0.730907 0.588129 0.307042
0.755291 0.593561 0.318868
0.779309 0.59968 0.330785
0.803006 0.605844 0.342733
0.826841 0.61239 0.355032
0.851041 0.618891 0.367758
0.873014 0.625055 0.379324
0.891432 0.630472 0.389151
0.905898 0.635294 0.396994
0.916167 0.639033 0.40264
0.125322 0.609827 0.13109
0.126467 0.612436 0.13225
0.148379 0.613184 0.135988
0.171252 0.613794 0.140078
0.192096 0.614359 0.144106
0.211231 0.614984 0.148074
0.229679 0.615656 0.152178
0.250523 0.616434 0.157061
0.27335 0.617197 0.162829
0.297551 0.61799 0.169375
0.320363 0.619898 0.176089
0.342748 0.622248 0.183032
0.369299 0.623392 0.190951
0.402426 0.622217 0.200183
0.440177 0.619364 0.210178
0.480446 0.615946 0.220096
0.521141 0.612863 0.228794
0.56051 0.610849 0.235279
0.597604 0.608438 0.254185
0.630793 0.607156 0.272679
0.659846 0.608942 0.282277
0.687144 0.611627 0.292454
0.713405 0.61503 0.303166
0.738582 0.619043 0.314168
0.762966 0.623804 0.325353
0.786191 0.628641 0.336309
0.809079 0.633783 0.347341
0.832334 0.639307 0.35874
0.856138 0.645136 0.370581
0.878325 0.650858 0.382116
0.896635 0.655695 0.391623
0.911208 0.659953 0.399329
0.921889 0.66331 0.405081
0.142443 0.649241 0.148516
0.143481 0.651606 0.149569
0.165545 0.652323 0.153323
0.186847 0.653056 0.157168
0.206439 0.653742 0.160967
0.224659 0.654475 0.164706
0.242496 0.655329 0.168688
0.262501 0.65597 0.173281
0.28452 0.656626 0.178653
0.308034 0.657359 0.184756
0.330327 0.659098 0.19115
0.352346 0.661616 0.197864
0.378027 0.662287 0.20528
0.409964 0.660746 0.213931
0.446967 0.657633 0.223667
0.486519 0.653925 0.233616
0.526604 0.650507 0.242969
0.565286 0.647929 0.250706
0.601419 0.646433 0.256214
0.635691 0.64361 0.277363
0.667369 0.642359 0.294011
0.69485 0.644053 0.302922
0.721141 0.646601 0.31249
0.746075 0.649729 0.322347
0.769863 0.653361 0.332403
0.79295 0.657404 0.342596
0.815366 0.661768 0.35288
0.838361 0.666514 0.363745
0.861769 0.671611 0.374929
0.883696 0.676463 0.385534
0.902007 0.680812 0.394583
0.916884 0.684733 0.402319
0.927977 0.687678 0.408118
0.159426 0.688136 0.16582
0.161822 0.690471 0.167056
0.183413 0.691218 0.170687
0.203189 0.691722 0.174212
0.221729 0.692409 0.177676
0.238865 0.693004 0.181125
0.255726 0.693568 0.184649
0.27512 0.694026 0.189029
0.296376 0.694484 0.194034
0.318975 0.695064 0.199695
0.340932 0.696727 0.205859
0.361868 0.698802 0.212024
0.386892 0.699275 0.218967
0.417945 0.697414 0.227131
0.453956 0.693874 0.236378
0.492851 0.689799 0.24625
0.532235 0.686015 0.255848
0.570092 0.683024 0.264225
0.605509 0.681071 0.270863
0.639185 0.679911 0.275639
0.672343 0.676387 0.299702
0.702037 0.675776 0.314137
0.728481 0.677409 0.322576
0.753277 0.679622 0.331365
0.776883 0.682414 0.340429
0.799741 0.68571 0.349798
0.822309 0.689632 0.359594
0.844999 0.693751 0.369726
0.867689 0.697826 0.380056
0.889479 0.701976 0.390188
0.907881 0.705806 0.398917
0.922988 0.709377 0.406241
0.934539 0.712276 0.411963
0.175738 0.72607 0.182437
0.181216 0.728084 0.184054
0.201053 0.72874 0.187396
0.219745 0.72961 0.190829
0.236988 0.729931 0.194049
0.252995 0.730266 0.197116
0.2692 0.730571 0.200397
0.287877 0.730861 0.20441
0.308598 0.73109 0.209201
0.3308 0.731594 0.214603
0.351476 0.732769 0.220111
0.371847 0.734295 0.225895
0.395926 0.734524 0.232776
0.426398 0.732372 0.240482
0.461967 0.728847 0.249165
0.499565 0.724407 0.258549
0.538109 0.719936 0.267964
0.575265 0.71635 0.276585
0.610224 0.714214 0.284031
0.643336 0.712703 0.289845
0.676097 0.711589 0.294713
0.707546 0.707744 0.321126
0.735348 0.707362 0.333257
0.760418 0.708873 0.341146
0.784131 0.710994 0.349386
0.807065 0.713878 0.358083
0.829496 0.717083 0.367071
0.851637 0.720348 0.376349
0.874113 0.723827 0.386038
0.895857 0.727398 0.395697
0.914519 0.730922 0.404273
0.92961 0.734005 0.411292
0.941329 0.736706 0.416846
0.191684 0.763226 0.198703
0.200549 0.764996 0.200748
0.21883 0.765454 0.203845
0.235813 0.765743 0.206775
0.25185 0.765896 0.209613
0.266896 0.765988 0.212375
0.282719 0.765957 0.215503
0.30103 0.76611 0.219348
0.320882 0.765988 0.223667
0.342031 0.766003 0.228595
0.362264 0.766888 0.233799
0.381918 0.768154 0.24007
0.405219 0.768032 0.246601
0.435126 0.765805 0.253941
0.469551 0.761822 0.261753
0.506691 0.757107 0.270298
0.544579 0.752377 0.279606
0.581048 0.748531 0.288365
0.615518 0.745937 0.296162
0.648234 0.744183 0.302708
0.680201 0.742672 0.30782
0.711086 0.741039 0.316747
0.741604 0.737163 0.341878
0.767437 0.737423 0.351507
0.79176 0.7393 0.359258
0.814633 0.741482 0.367117
0.836759 0.743877 0.375219
0.85864 0.746593 0.383719
0.88101 0.749493 0.392782
0.903044 0.752758 0.402167
0.921706 0.755825 0.410315
0.936782 0.75845 0.41706
0.948302 0.760647 0.422309
0.207004 0.799039 0.214313
0.218692 0.799969 0.216388
0.235492 0.800122 0.219089
0.251209 0.800061 0.221683
0.266133 0.799786 0.224201
0.280186 0.799527 0.226688
0.295827 0.799558 0.229694
0.313497 0.799359 0.233295
0.332815 0.799008 0.23743
0.353216 0.798627 0.242405
0.372747 0.799191 0.248035
0.391852 0.80032 0.253925
0.415015 0.800183 0.260304
0.443854 0.797513 0.26688
0.477653 0.793194 0.274174
0.514183 0.788235 0.282124
0.551614 0.783627 0.291005
0.5879 0.77969 0.299886
0.621469 0.776593 0.307652
0.653696 0.774212 0.314488
0.685206 0.772381 0.320287
0.715908 0.771084 0.324758
0.745602 0.769207 0.338521
0.775296 0.765728 0.362478
0.79913 0.766735 0.369406
0.822187 0.768231 0.376532
0.844358 0.770184 0.384009
0.86656 0.772641 0.392111
0.88893 0.775128 0.40058
0.910643 0.777768 0.409216
0.928939 0.780209 0.41677
0.944137 0.782589 0.423331
0.95581 0.784588 0.428473
0.221439 0.833219 0.229038
0.235676 0.833402 0.23125
0.251209 0.833249 0.233646
0.265949 0.832914 0.236011
0.280049 0.832578 0.238758
0.293324 0.832074 0.241306
0.308293 0.831449 0.244236
0.325353 0.830839 0.247761
0.344427 0.830396 0.252049
0.36434 0.829831 0.256657
0.383566 0.830365 0.262043
0.402197 0.831174 0.267597
0.424445 0.830655 0.27335
0.452918 0.827787 0.279591
0.486046 0.823377 0.286458
0.522164 0.818463 0.294209
0.559197 0.81355 0.302419
0.594629 0.809232 0.310613
0.627985 0.80589 0.318563
0.659632 0.803311 0.325673
0.690898 0.801099 0.33193
0.721355 0.799817 0.337209
0.750973 0.798962 0.341207
0.77908 0.796399 0.359426
0.806683 0.7935 0.379721
0.829847 0.794705 0.38645
0.852247 0.796262 0.393408
0.874617 0.798077 0.40087
0.897124 0.800153 0.40882
0.918776 0.802426 0.416953
0.936919 0.804471 0.424048
0.951598 0.806302 0.429984
0.963134 0.808072 0.434836
0.236484 0.865705 0.244282
0.251453 0.865492 0.246799
0.265812 0.864958 0.24918
0.279667 0.864439 0.251652
0.292912 0.863783 0.253986
0.305669 0.863005 0.256184
0.320409 0.862074 0.258824
0.337179 0.861265 0.262135
0.355596 0.860517 0.266011
0.375296 0.859998 0.270542
0.393927 0.860212 0.275364
0.412085 0.860838 0.280522
0.434043 0.859983 0.285939
0.461707 0.857084 0.291752
0.494667 0.85272 0.298634
0.530465 0.847608 0.306142
0.566598 0.842374 0.313741
0.601541 0.837827 0.321431
0.634684 0.834211 0.329076
0.666148 0.831769 0.336507
0.697353 0.829587 0.343206
0.727169 0.827741 0.348806
0.756191 0.826398 0.353338
0.784543 0.825544 0.356863
0.811673 0.822705 0.379705
0.837629 0.820706 0.396643
0.860288 0.821958 0.403204
0.882765 0.823255 0.41004
0.90544 0.824994 0.417533
