lut_library/filter_lut/fuji-cc-v1.1-33_3.2-1.cube
TITLE "Generated by Resolve"
LUT_3D_SIZE 5
0 0 0
0.216892 0.055375 0.0571908
0.469184 0.178347 0.182986
0.716777 0.30222 0.3093
0.905959 0.395926 0.404746
0.0158694 0.215228 0.016434
0.224735 0.199847 0.0542916
0.455314 0.253056 0.170855
0.711452 0.355505 0.304494
0.905272 0.44651 0.402548
0.0738231 0.49012 0.078233
0.250248 0.493629 0.117998
0.511879 0.49041 0.203037
0.744076 0.53344 0.311421
0.90721 0.590066 0.400458
0.207004 0.799039 0.214313
0.332815 0.799008 0.23743
0.551614 0.783627 0.291005
0.79913 0.766735 0.369406
0.95581 0.784588 0.428473
0.297749 0.986465 0.305913
0.401999 0.975311 0.31989
0.601617 0.960754 0.362188
0.83917 0.948287 0.415274
1 0.940261 0.480003
0.0153658 0.100145 0.176425
0.237461 0.0397803 0.232715
0.473777 0.158694 0.285283
0.713573 0.296315 0.372915
0.902129 0.393378 0.456825
0 0.215244 0.226566
0.219608 0.211032 0.210986
0.46186 0.255192 0.263264
0.724498 0.348577 0.361685
0.91429 0.438102 0.452384
0.0549935 0.498375 0.208698
0.244114 0.503349 0.237842
0.512535 0.498985 0.30399
0.751476 0.536934 0.381201
0.911269 0.589288 0.455131
0.194461 0.804532 0.30338
0.324392 0.802579 0.322591
0.545876 0.785489 0.362631
0.794934 0.767147 0.427024
0.953964 0.782834 0.476692
0.285008 0.986831 0.383841
0.391272 0.975814 0.392172
0.593362 0.960998 0.423636
0.832395 0.947707 0.469291
0.999802 0.939315 0.527047
0.0767834 0.308659 0.464363
0.221347 0.29276 0.466712
0.478767 0.218662 0.539391
0.755703 0.204868 0.591379
0.925093 0.337484 0.642634
0.0176547 0.335866 0.465461
0.203265 0.334493 0.454444
0.46569 0.301503 0.527916
0.756985 0.31014 0.598749
0.931624 0.408194 0.661524
0 0.50428 0.548135
0.195621 0.515068 0.557412
0.493828 0.52604 0.553353
0.743069 0.551003 0.601999
0.900343 0.598444 0.650431
0.156847 0.801144 0.595789
0.298619 0.800427 0.592401
0.51809 0.792935 0.570962
0.777584 0.769482 0.609293
0.941176 0.783505 0.640772
0.253178 0.9832 0.649729
0.358648 0.975891 0.631647
0.562615 0.965957 0.616999
0.811048 0.949462 0.644648
0.984222 0.940002 0.685573
0.153613 0.476707 0.695338
0.272435 0.471382 0.680369
0.440925 0.415946 0.755215
0.732952 0.358801 0.81413
0.98613 0.23711 0.886213
0.111025 0.488609 0.690028
0.240986 0.48748 0.682231
0.445563 0.465446 0.735714
0.743969 0.421881 0.822263
0.988251 0.35903 0.897963
0 0.592584 0.746227
0.175494 0.602975 0.752056
0.4701 0.614496 0.747021
0.745418 0.595926 0.818845
0.953704 0.578103 0.873259
0 0.812863 0.869871
0.226627 0.809964 0.864286
0.495781 0.798993 0.846464
0.759304 0.794553 0.822446
0.935531 0.797772 0.851865
0.155505 0.985656 0.922393
0.309789 0.976532 0.908156
0.547585 0.966628 0.884367
0.795941 0.965225 0.854536
0.976684 0.956024 0.877974
0.194537 0.565682 0.817548
0.300374 0.561746 0.805737
0.463691 0.532616 0.847929
0.710582 0.47686 0.933715
0.955779 0.414206 0.996887
0.1608 0.577569 0.815534
0.27335 0.576715 0.808515
0.471687 0.567056 0.834882
0.729244 0.519692 0.938338
0.962798 0.478828 0.996139
0.00250248 0.661463 0.858122
0.209201 0.667674 0.857588
0.479805 0.675746 0.849348
0.730922 0.651698 0.929
0.932967 0.638102 0.964874
0 0.853208 0.973083
0.148226 0.848798 0.965026
0.456779 0.839597 0.94934
0.742336 0.836088 0.927291
0.941604 0.82031 0.967712
0.145708 0.991989 1
0.304799 0.98291 1
0.545602 0.973388 1
0.807752 0.967407 1
0.974548 0.974121 0.989868
