lut_library/filter_lut/fuji-cc-v1.1-33_3.2-1.cube
TITLE "Generated by Resolve"
LUT_3D_SIZE 9
0 0 0
0.101549 0.0195773 0.0201419
0.216892 0.055375 0.0571908
0.318074 0.103044 0.106218
0.469184 0.178347 0.182986
0.604868 0.246281 0.252277
0.716777 0.30222 0.3093
0.815 0.351049 0.35906
0.905959 0.395926 0.404746
0.00534066 0.104738 0.00561532
0.111131 0.0946975 0.0198062
0.209583 0.112184 0.0500649
0.305608 0.146044 0.0969558
0.45536 0.203113 0.174792
0.592645 0.262272 0.245426
0.706706 0.315206 0.303731
0.80824 0.36434 0.355276
0.902968 0.410788 0.402853
0.0158694 0.215228 0.016434
0.113481 0.20647 0.0301061
0.224735 0.199847 0.0542916
0.313741 0.215579 0.0942092
0.455314 0.253056 0.170855
0.593027 0.304265 0.243366
0.711452 0.355505 0.304494
0.817929 0.404929 0.358679
0.905272 0.44651 0.402548
0.0315557 0.331807 0.0331579
0.138033 0.328359 0.049958
0.24892 0.326268 0.0765087
0.35671 0.332372 0.120394
0.492424 0.349416 0.182467
0.62179 0.386206 0.252094
0.737163 0.429664 0.314549
0.844999 0.47483 0.372274
0.904967 0.503212 0.404746
0.0738231 0.49012 0.078233
0.157885 0.492485 0.0945296
0.250248 0.493629 0.117998
0.353216 0.499657 0.149844
0.511879 0.49041 0.203037
0.636469 0.505104 0.255741
0.744076 0.53344 0.311421
0.845121 0.56669 0.366522
0.90721 0.590066 0.400458
0.142443 0.649241 0.148516
0.206439 0.653742 0.160967
0.28452 0.656626 0.178653
0.378027 0.662287 0.20528
0.526604 0.650507 0.242969
0.667369 0.642359 0.294011
0.769863 0.653361 0.332403
0.861769 0.671611 0.374929
0.927977 0.687678 0.408118
0.207004 0.799039 0.214313
0.266133 0.799786 0.224201
0.332815 0.799008 0.23743
0.415015 0.800183 0.260304
0.551614 0.783627 0.291005
0.685206 0.772381 0.320287
0.79913 0.766735 0.369406
0.88893 0.775128 0.40058
0.95581 0.784588 0.428473
0.266407 0.925933 0.274449
0.316594 0.921996 0.28159
0.377081 0.917296 0.291966
0.452537 0.915236 0.309712
0.58143 0.897658 0.335729
0.709743 0.883955 0.364141
0.822538 0.878355 0.38407
0.921523 0.873869 0.435737
0.985565 0.878248 0.456825
0.297749 0.986465 0.305913
0.342275 0.980987 0.310765
0.401999 0.975311 0.31989
0.474632 0.970672 0.335317
0.601617 0.960754 0.362188
0.728145 0.952773 0.392203
0.83917 0.948287 0.415274
0.942672 0.940764 0.458534
1 0.940261 0.480003
0.00520333 0.0359197 0.0741741
0.115816 0.0133059 0.112612
0.225391 0.0391852 0.135927
0.319722 0.0925765 0.168933
0.467033 0.174792 0.222904
0.601694 0.245167 0.280018
0.713375 0.302342 0.331533
0.811444 0.351812 0.378759
0.903716 0.39588 0.42237
0 0.105455 0.113603
0.106645 0.101549 0.102724
0.209812 0.114458 0.119463
0.308827 0.14345 0.150195
0.4598 0.196643 0.205127
0.595499 0.257389 0.266041
0.70927 0.311299 0.320592
0.811063 0.360983 0.371099
0.905821 0.407599 0.418494
0.00872816 0.216373 0.102266
0.105791 0.2103 0.10219
0.222232 0.202808 0.124071
0.316869 0.216602 0.150729
0.459754 0.25182 0.205341
0.597284 0.302739 0.268223
0.715679 0.353994 0.326085
0.822461 0.403296 0.379461
0.908415 0.443885 0.422644
0.0220188 0.335195 0.114244
0.131456 0.332799 0.128527
0.246754 0.331228 0.152972
0.35642 0.337041 0.187518
0.496391 0.351476 0.230426
0.626169 0.386892 0.288014
0.741695 0.429892 0.343862
0.849775 0.474937 0.397345
0.907485 0.502342 0.426947
0.0658122 0.493843 0.138582
0.15375 0.496452 0.153704
0.248035 0.497887 0.175143
0.352728 0.504219 0.206271
0.5122 0.494102 0.250751
0.639567 0.508171 0.293797
0.747585 0.535485 0.343755
0.848356 0.567788 0.393454
0.908858 0.590158 0.424094
0.13724 0.653056 0.192065
0.203891 0.657572 0.206104
0.282811 0.660273 0.224155
0.376486 0.665476 0.250553
0.525628 0.652735 0.282567
0.666682 0.644297 0.327977
0.770352 0.654322 0.361791
0.862181 0.671672 0.40116
0.928344 0.687404 0.432181
0.201801 0.801755 0.255558
0.262333 0.802152 0.265797
0.329076 0.800565 0.278096
0.411826 0.801617 0.297993
0.549035 0.784405 0.325185
0.683284 0.7729 0.351034
0.797269 0.766918 0.39617
0.887678 0.774609 0.424857
0.954971 0.783795 0.451301
0.26154 0.926818 0.310597
0.3122 0.922606 0.31667
0.372946 0.917769 0.325689
0.448646 0.915511 0.341558
0.578241 0.897765 0.36556
0.706889 0.883711 0.392523
0.819791 0.877821 0.411215
0.918776 0.873182 0.45977
0.984085 0.877226 0.479561
0.292821 0.986725 0.338369
0.33785 0.981262 0.342687
0.39765 0.975555 0.35082
0.47039 0.97084 0.364675
0.598047 0.960891 0.389761
0.724971 0.952697 0.418311
0.835996 0.948043 0.440665
0.939406 0.940887 0.480201
1 0.939803 0.502098
0.0153658 0.100145 0.176425
0.0947585 0.0758984 0.205539
0.237461 0.0397803 0.232715
0.341375 0.0531014 0.254932
0.473777 0.158694 0.285283
0.603387 0.236637 0.32874
0.713573 0.296315 0.372915
0.811078 0.347021 0.415747
0.902129 0.393378 0.456825
0 0.140581 0.196353
0.0952926 0.138003 0.185489
0.221439 0.116808 0.216678
0.319997 0.134661 0.236179
0.460487 0.193118 0.269398
0.593805 0.256062 0.316258
0.706981 0.311391 0.363638
0.809094 0.362387 0.410636
0.903151 0.409537 0.455116
0 0.215244 0.226566
0.107454 0.209964 0.218173
0.219608 0.211032 0.210986
0.31371 0.225086 0.230213
0.46186 0.255192 0.263264
0.603815 0.300847 0.311955
0.724498 0.348577 0.361685
0.830793 0.398154 0.411978
0.91429 0.438102 0.452384
0.0135348 0.335103 0.230961
0.12604 0.336858 0.22678
0.24213 0.339193 0.233555
0.355398 0.343847 0.263539
0.498512 0.356161 0.291173
0.632975 0.387442 0.33518
0.74992 0.428504 0.384253
0.85684 0.472374 0.433753
0.912459 0.498756 0.462181
0.0549935 0.498375 0.208698
0.147295 0.501457 0.220554
0.244114 0.503349 0.237842
0.350912 0.509468 0.266163
0.512535 0.498985 0.30399
0.642802 0.511482 0.338033
0.751476 0.536934 0.381201
0.85153 0.56762 0.426246
0.911269 0.589288 0.455131
0.128969 0.657176 0.247135
0.199084 0.661616 0.259709
0.279255 0.664271 0.275563
0.373526 0.669108 0.299504
0.524437 0.655543 0.326757
0.665263 0.646036 0.366476
0.770657 0.655161 0.395605
0.862562 0.671489 0.430732
0.928817 0.686839 0.459373
0.194461 0.804532 0.30338
0.257053 0.804608 0.312398
0.324392 0.802579 0.322591
0.407172 0.802976 0.340337
0.545876 0.785489 0.362631
0.680751 0.773465 0.38584
0.794934 0.767147 0.427024
0.886412 0.774166 0.452659
0.953964 0.782834 0.476692
0.254643 0.927886 0.355627
0.306065 0.923384 0.360037
0.367208 0.918303 0.367025
0.443122 0.915801 0.381018
0.574075 0.897902 0.399969
0.703517 0.883497 0.423819
0.81648 0.877119 0.441184
0.915709 0.872526 0.486397
0.982101 0.876204 0.504524
0.285008 0.986831 0.383841
0.33106 0.981506 0.386389
0.391272 0.975814 0.392172
0.464256 0.970962 0.404181
0.593362 0.960998 0.423636
0.721141 0.95259 0.448524
0.832395 0.947707 0.469291
0.93579 0.940932 0.504677
0.999802 0.939315 0.527047
0.0312047 0.174319 0.27892
0.112261 0.166186 0.280049
0.212726 0.134417 0.320653
0.339818 0.0975509 0.350225
0.49662 0.116411 0.371374
0.614725 0.215518 0.397543
0.719966 0.282673 0.432898
0.815366 0.336721 0.470619
0.904845 0.384894 0.507622
0.00848402 0.195041 0.284169
0.0999008 0.191608 0.273976
0.199619 0.171298 0.308217
0.323415 0.155825 0.332464
0.479881 0.170245 0.353979
0.603815 0.242802 0.385016
0.713588 0.302571 0.42472
0.814481 0.355856 0.467765
0.906752 0.403586 0.509392
0 0.24564 0.308415
0.0738231 0.242634 0.301411
0.206836 0.243412 0.292287
0.322469 0.235203 0.328939
0.472297 0.253483 0.351476
0.606836 0.30219 0.388388
0.723995 0.352255 0.43241
0.829877 0.401022 0.477821
0.910903 0.440314 0.515648
0 0.338018 0.356893
0.118608 0.339391 0.356512
0.24654 0.343053 0.357122
0.352941 0.357641 0.362417
0.492943 0.369207 0.38378
0.626276 0.400763 0.416388
0.744747 0.439521 0.457588
0.853544 0.480751 0.501793
0.905394 0.505669 0.52903
0.045594 0.499855 0.327398
0.142748 0.504585 0.330327
0.236576 0.510964 0.331609
0.34548 0.518746 0.352316
0.511727 0.506462 0.382864
0.64239 0.518441 0.40882
0.753704 0.541604 0.444587
0.856016 0.569024 0.483177
0.914687 0.588403 0.50869
0.104005 0.663798 0.328832
0.191363 0.667842 0.338643
0.272145 0.670466 0.352575
0.367498 0.674968 0.374289
0.521126 0.660533 0.395041
0.663355 0.649775 0.427649
0.768688 0.658244 0.45127
0.863493 0.672679 0.480964
0.930755 0.686152 0.505455
0.182589 0.808774 0.37705
0.247745 0.808301 0.384558
0.31606 0.806104 0.392645
0.399451 0.806287 0.408118
0.54078 0.788373 0.422843
0.67715 0.775464 0.441871
0.79173 0.768414 0.477073
0.883589 0.775494 0.499596
0.952895 0.782803 0.519982
0.243091 0.929778 0.427008
0.295888 0.925399 0.429541
0.357626 0.920043 0.433783
0.434379 0.917556 0.445884
0.56762 0.899474 0.457221
0.698833 0.884627 0.475837
0.812451 0.877775 0.491478
0.9122 0.872953 0.531533
0.978378 0.876539 0.547433
0.272648 0.987411 0.455879
0.319997 0.982116 0.456214
0.380774 0.976486 0.458839
0.454902 0.971984 0.468971
0.586069 0.9617 0.480308
0.715709 0.952987 0.499504
0.827863 0.947753 0.5178
0.931395 0.941405 0.547234
0.995758 0.939101 0.570001
0.0767834 0.308659 0.464363
0.149294 0.305074 0.455131
0.221347 0.29276 0.466712
0.296086 0.25948 0.519524
0.478767 0.218662 0.539391
0.656031 0.126497 0.575647
0.755703 0.204868 0.591379
0.841566 0.276356 0.615259
0.925093 0.337484 0.642634
0.0532845 0.313924 0.458656
0.127275 0.310079 0.450111
0.215488 0.307485 0.445701
0.288823 0.285176 0.494072
0.466773 0.242939 0.525261
0.643992 0.175479 0.563058
0.748898 0.238972 0.584878
0.841627 0.304799 0.615915
0.928832 0.36199 0.649836
0.0176547 0.335866 0.465461
0.0992752 0.333806 0.460044
0.203265 0.334493 0.454444
0.295491 0.334432 0.479194
0.46569 0.301503 0.527916
0.644739 0.264363 0.571283
0.756985 0.31014 0.598749
0.855039 0.364248 0.631464
0.931624 0.408194 0.661524
0 0.398642 0.509316
0.0745251 0.40238 0.510719
0.206317 0.408255 0.51223
0.324269 0.42063 0.517189
0.487511 0.400839 0.559319
0.661418 0.380056 0.599115
0.770947 0.419715 0.625223
0.873121 0.461707 0.657008
0.923842 0.487358 0.678431
0 0.50428 0.548135
0.060502 0.509468 0.552972
0.195621 0.515068 0.557412
0.318151 0.525963 0.566445
0.493828 0.52604 0.553353
0.637751 0.526482 0.578363
0.743069 0.551003 0.601999
0.841947 0.578988 0.630198
0.900343 0.598444 0.650431
0.0543984 0.656474 0.564034
0.155352 0.661555 0.570764
0.248875 0.665202 0.575021
0.351095 0.671809 0.581445
0.504067 0.666712 0.561074
0.649866 0.657557 0.571542
0.756466 0.662623 0.593011
0.851209 0.67657 0.614557
0.920363 0.689723 0.632914
0.156847 0.801144 0.595789
0.228656 0.801175 0.595422
0.298619 0.800427 0.592401
0.381613 0.803296 0.592187
0.51809 0.792935 0.570962
0.659602 0.777966 0.584466
0.777584 0.769482 0.609293
0.869841 0.776165 0.625635
0.941176 0.783505 0.640772
0.2224 0.92253 0.628107
0.277714 0.91931 0.622354
0.33724 0.915862 0.614954
0.410346 0.916777 0.610834
0.543862 0.901961 0.597391
0.679393 0.885588 0.608454
0.795712 0.877043 0.623606
0.897261 0.8719 0.652415
0.966262 0.875517 0.664256
0.253178 0.9832 0.649729
0.301595 0.97937 0.641489
0.358648 0.975891 0.631647
0.427878 0.97467 0.625132
0.562615 0.965957 0.616999
0.695659 0.956313 0.628183
0.811048 0.949462 0.644648
0.91603 0.945296 0.656825
0.984222 0.940002 0.685573
0.122728 0.409751 0.603433
0.17908 0.406424 0.595789
0.255146 0.404639 0.587259
0.315221 0.389273 0.617029
0.446387 0.33962 0.673243
0.612833 0.307134 0.698268
0.761303 0.240742 0.737133
0.878859 0.203494 0.766827
0.96437 0.261997 0.784817
0.103929 0.41236 0.597711
0.160052 0.409262 0.591104
0.237919 0.407507 0.583322
0.308766 0.401297 0.599634
0.435798 0.351431 0.664042
0.60499 0.323751 0.690257
0.75758 0.268925 0.733639
0.880278 0.245487 0.768582
0.968948 0.298543 0.791577
0.0708629 0.425925 0.59997
0.136492 0.42417 0.595514
0.222019 0.424521 0.590997
0.315145 0.43183 0.591638
0.438804 0.387533 0.669841
0.611948 0.372335 0.698085
0.765759 0.335821 0.742763
0.890349 0.326345 0.77821
0.968872 0.364904 0.798932
0.0137484 0.470954 0.63093
0.11426 0.473884 0.631281
0.22034 0.478447 0.631586
0.326452 0.488563 0.635233
0.468269 0.470314 0.67718
0.630274 0.455863 0.717784
0.784756 0.433921 0.760159
0.905684 0.441337 0.79234
0.95613 0.464347 0.807416
0 0.550225 0.666987
0.0156405 0.555322 0.670405
0.160479 0.561257 0.673701
0.289509 0.572229 0.680476
0.472053 0.573007 0.668055
0.622278 0.561044 0.706432
0.770291 0.54728 0.739834
0.87219 0.566323 0.762753
0.927565 0.586816 0.776043
0 0.669062 0.726909
0.0606546 0.674159 0.730968
0.191928 0.677394 0.732586
0.311345 0.683909 0.736599
0.48423 0.675593 0.721813
0.634852 0.674876 0.707988
0.759441 0.668528 0.729229
0.847562 0.68397 0.745815
0.91487 0.698497 0.759182
0.0427558 0.801709 0.770642
0.159213 0.801251 0.769192
0.251499 0.799435 0.765499
0.352407 0.801297 0.765118
0.512078 0.788205 0.745739
0.656336 0.781079 0.728573
0.768002 0.780575 0.730205
0.862333 0.783688 0.748257
0.935683 0.790646 0.75935
0.170489 0.920607 0.793896
0.242161 0.916701 0.788663
0.313436 0.912276 0.782376
0.398444 0.911879 0.779507
0.539178 0.898314 0.75816
0.666041 0.891966 0.737209
0.782895 0.884321 0.746563
0.888167 0.878111 0.768338
0.959762 0.881117 0.777737
0.219821 0.9823 0.810193
0.279088 0.977844 0.803067
0.345022 0.973526 0.795422
0.423651 0.971038 0.791012
0.557046 0.965759 0.768841
0.679057 0.966262 0.747097
0.797894 0.958358 0.76173
0.904738 0.952377 0.776455
0.978286 0.947051 0.79588
0.153613 0.476707 0.695338
0.202258 0.473503 0.68838
0.272435 0.471382 0.680369
0.33698 0.464775 0.692012
0.440925 0.415946 0.755215
0.593271 0.390692 0.782971
0.732952 0.358801 0.81413
0.862989 0.30547 0.851896
0.98613 0.23711 0.886213
0.137758 0.478035 0.689387
0.18497 0.47512 0.68336
0.255848 0.473259 0.676295
0.331304 0.473411 0.677607
0.435294 0.429969 0.740047
0.587427 0.402457 0.777523
0.732158 0.376562 0.812924
0.868666 0.332372 0.855817
0.991119 0.281315 0.893187
0.111025 0.488609 0.690028
0.164096 0.487007 0.686
0.240986 0.48748 0.682231
0.328817 0.493736 0.682612
0.445563 0.465446 0.735714
0.59678 0.439796 0.786114
0.743969 0.421881 0.822263
0.883162 0.388449 0.865248
0.988251 0.35903 0.897963
0.0565957 0.526909 0.716075
0.145266 0.529702 0.716442
0.238392 0.533471 0.716243
0.337301 0.542336 0.719219
0.475822 0.532525 0.743145
0.618112 0.50753 0.805905
0.765133 0.499565 0.839002
0.904158 0.479713 0.878965
0.971893 0.469322 0.901488
0 0.592584 0.746227
0.0458839 0.597665 0.749523
0.175494 0.602975 0.752056
0.29514 0.613291 0.757916
0.4701 0.614496 0.747021
0.6094 0.601236 0.789075
0.745418 0.595926 0.818845
0.882277 0.579049 0.853773
0.953704 0.578103 0.873259
0 0.699733 0.806958
0 0.704616 0.810437
0.145296 0.707591 0.811368
0.278111 0.713954 0.814771
0.460182 0.706523 0.800015
0.619287 0.705043 0.785214
0.742046 0.696391 0.813107
0.868284 0.684733 0.839323
0.9402 0.692531 0.853422
0 0.812863 0.869871
0.122957 0.812192 0.867994
0.226627 0.809964 0.864286
0.333562 0.811704 0.863859
0.495781 0.798993 0.846464
0.643824 0.791211 0.832013
0.759304 0.794553 0.822446
0.867262 0.790402 0.840238
0.935531 0.797772 0.851865
0.0788739 0.924056 0.908476
0.182879 0.919676 0.903059
0.270695 0.91519 0.897231
0.368185 0.914397 0.894331
0.524468 0.89955 0.87512
0.670756 0.888487 0.858351
0.785687 0.887648 0.847135
0.885283 0.888823 0.850156
0.958709 0.889158 0.862867
0.155505 0.985656 0.922393
0.231769 0.981048 0.915373
0.309789 0.976532 0.908156
0.398459 0.97377 0.904082
0.547585 0.966628 0.884367
0.686458 0.962951 0.867231
0.795941 0.965225 0.854536
0.899535 0.9617 0.863203
0.976684 0.956024 0.877974
0.177432 0.528359 0.766262
0.221714 0.525109 0.759518
0.287907 0.522789 0.751751
0.357305 0.521202 0.752972
0.452049 0.48246 0.80444
0.584497 0.443595 0.853849
0.718547 0.426825 0.876295
0.844465 0.393622 0.910674
0.970184 0.338582 0.94786
0.162966 0.52874 0.759793
0.205493 0.525917 0.75407
0.272053 0.524025 0.747402
0.348699 0.526268 0.743725
0.447227 0.492943 0.791562
0.580194 0.453803 0.850187
0.719921 0.44184 0.876921
0.853162 0.414649 0.916594
0.975998 0.37232 0.95555
0.13933 0.537835 0.759686
0.186709 0.536645 0.756268
0.25835 0.537224 0.752941
0.342962 0.543114 0.753475
0.459007 0.52372 0.790753
0.591089 0.487175 0.859937
0.73341 0.480354 0.88719
0.869856 0.458686 0.926909
0.972534 0.43386 0.95964
0.092546 0.573114 0.783841
0.169665 0.575708 0.7841
0.255573 0.579065 0.783688
0.349676 0.587152 0.786297
0.487877 0.582483 0.79913
0.61236 0.547768 0.879728
0.75639 0.546868 0.903731
0.892699 0.531746 0.939254
0.954086 0.526085 0.958083
0 0.630625 0.809613
0.0802625 0.635523 0.812711
0.194491 0.640757 0.815244
0.306569 0.650782 0.821073
0.474266 0.651759 0.810819
0.610834 0.644129 0.839261
0.734707 0.631174 0.887098
0.864042 0.623957 0.914015
0.943099 0.613504 0.935195
0 0.729183 0.868574
0 0.73312 0.871046
0.14522 0.735668 0.871534
0.275685 0.741604 0.874418
0.456184 0.734783 0.859846
0.613474 0.73344 0.845701
0.731258 0.723461 0.877958
0.849714 0.717601 0.900801
0.946059 0.704677 0.922713
0 0.835904 0.932265
0.0224155 0.83473 0.929839
0.16643 0.832715 0.926268
0.290639 0.834562 0.925765
0.46566 0.822477 0.908553
0.62118 0.815641 0.893874
0.748821 0.816983 0.882918
0.856199 0.811032 0.904891
0.956222 0.79733 0.925261
0.0899977 0.931548 0.984726
0.188632 0.927031 0.979187
0.27483 0.922408 0.973281
0.370886 0.921492 0.970581
0.523308 0.906859 0.952163
0.666697 0.896635 0.936797
0.786908 0.893767 0.927642
0.88014 0.901244 0.92015
0.962356 0.896941 0.933333
0.192676 0.984985 1
0.25687 0.980529 1
0.32752 0.976181 0.995102
0.413397 0.973327 0.990921
0.549065 0.967391 0.973587
0.680964 0.964767 0.95935
0.80589 0.962585 0.948638
0.901778 0.967102 0.939818
0.976715 0.965698 0.944183
0.194537 0.565682 0.817548
0.236744 0.563531 0.812421
0.300374 0.561746 0.805737
0.372992 0.562753 0.800763
0.463691 0.532616 0.847929
0.578576 0.484886 0.916701
0.710582 0.47686 0.933715
0.832532 0.455528 0.962432
0.955779 0.414206 0.996887
0.182193 0.568338 0.814664
0.222202 0.56614 0.809903
0.28571 0.564477 0.80383
0.360372 0.566201 0.799893
0.460212 0.542367 0.83769
0.575784 0.494621 0.914519
0.714382 0.489693 0.934539
0.844617 0.471229 0.96701
0.963653 0.436652 1
0.1608 0.577569 0.815534
0.204883 0.576593 0.81236
0.27335 0.576715 0.808515
0.355154 0.580682 0.806714
0.471687 0.567056 0.834882
0.587671 0.52221 0.918715
0.729244 0.519692 0.938338
0.863569 0.502693 0.969894
0.962798 0.478828 0.996139
0.115343 0.606256 0.831479
0.185901 0.606851 0.82887
0.267643 0.608148 0.825635
0.358572 0.61294 0.823636
0.497292 0.611154 0.831876
0.61413 0.576059 0.913756
0.755215 0.570993 0.938888
0.889281 0.556039 0.966506
0.94789 0.547967 0.980102
0.00250248 0.661463 0.858122
0.106477 0.66453 0.858381
0.209201 0.667674 0.857588
0.315953 0.674525 0.858518
0.479805 0.675746 0.849348
0.614954 0.670939 0.87158
0.730922 0.651698 0.929
0.857664 0.647196 0.948486
0.932967 0.638102 0.964874
0 0.753658 0.914382
0.0112917 0.755886 0.914046
0.154711 0.757061 0.9122
0.280354 0.761151 0.911879
0.457084 0.755459 0.899687
0.612451 0.755428 0.88838
0.729305 0.748928 0.912596
0.841291 0.738506 0.946075
0.932891 0.729625 0.96231
0 0.853208 0.973083
0 0.851286 0.969421
0.148226 0.848798 0.965026
0.278676 0.849958 0.962921
0.456779 0.839597 0.94934
0.613458 0.834348 0.93727
0.742336 0.836088 0.927291
0.846586 0.826719 0.956954
0.941604 0.82031 0.967712
0 0.944228 1
0.118837 0.939834 1
0.226459 0.935409 1
0.334783 0.934295 1
0.494331 0.921828 0.992889
0.641733 0.913741 0.981506
0.765942 0.912001 0.97319
0.872999 0.916091 0.963668
0.958816 0.908797 0.9794
0.145708 0.991989 1
0.224445 0.987411 1
0.304799 0.98291 1
0.395911 0.980011 1
0.545602 0.973388 1
0.687434 0.968963 1
0.807752 0.967407 1
0.903075 0.971237 0.994736
0.974548 0.974121 0.989868
