lut_library/filter_lut/暖调11.5.cube
LUT_3D_SIZE 5
DOMAIN_MIN 0.000000 0.000000 0.000000
DOMAIN_MAX 0.903226 0.903226 0.903226
0.000000 0.000000 0.000000
0.202274 0.025086 0.016327
0.469734 0.000000 0.000000
0.761318 0.000000 0.000000
0.968688 0.038392 0.000000
0.073487 0.178256 0.042237
0.198672 0.190951 0.012451
0.466377 0.225559 0.000000
0.758907 0.238804 0.000000
0.969085 0.243351 0.000000
0.122469 0.405615 0.063966
0.231479 0.407233 0.063844
0.468635 0.459266 0.000000
0.757931 0.491981 0.000000
0.962066 0.475654 0.000000
0.188449 0.664363 0.117342
0.281682 0.665461 0.119997
0.471717 0.667659 0.127077
0.732174 0.715663 0.000000
0.954162 0.704768 0.055207
0.334112 0.886351 0.290043
0.388067 0.885710 0.293339
0.528893 0.881651 0.301274
0.713344 0.887297 0.312413
0.917937 0.899962 0.269505
0.081910 0.064454 0.163210
0.204685 0.024628 0.173068
0.460670 0.000000 0.193606
0.747799 0.000000 0.199130
0.961028 0.091096 0.231022
0.100771 0.181857 0.160220
0.210086 0.197208 0.175967
0.461097 0.203983 0.183658
0.747250 0.215640 0.197024
0.960021 0.250889 0.232944
0.131350 0.406836 0.193088
0.239628 0.415778 0.198215
0.461494 0.450416 0.186648
0.747127 0.480629 0.192477
0.956603 0.479652 0.242283
0.196658 0.665248 0.240940
0.290166 0.667903 0.246616
0.476204 0.669215 0.252018
0.729976 0.713008 0.226169
0.949676 0.705653 0.264286
0.358831 0.884489 0.368109
0.407935 0.883909 0.370459
0.544823 0.882963 0.381811
0.720272 0.886168 0.393317
0.917845 0.899809 0.369055
0.128359 0.095979 0.422705
0.246921 0.073762 0.432624
0.471870 0.000000 0.447791
0.746548 0.000000 0.469184
0.951385 0.202213 0.480537
0.163668 0.240848 0.415137
0.251225 0.233005 0.425849
0.472969 0.199069 0.448646
0.743526 0.215122 0.467475
0.948089 0.327672 0.492256
0.167758 0.425879 0.411292
0.267247 0.434089 0.419806
0.489235 0.475410 0.463081
0.740963 0.488808 0.476356
0.941375 0.527855 0.511223
0.206516 0.663355 0.442451
0.300481 0.666377 0.447700
0.507042 0.682399 0.475990
0.731655 0.712886 0.484749
0.935851 0.718685 0.517815
0.373724 0.880369 0.504265
0.436805 0.879942 0.514458
0.584131 0.878721 0.539178
0.735897 0.877470 0.548516
0.915618 0.896361 0.548943
0.218326 0.171023 0.672724
0.305608 0.161349 0.676417
0.504631 0.075288 0.690120
0.746761 0.000000 0.693721
0.945647 0.224643 0.674556
0.253513 0.300542 0.668330
0.323705 0.293614 0.672358
0.505180 0.258640 0.685054
0.743557 0.225132 0.690181
0.941741 0.335851 0.675776
0.328557 0.503136 0.655421
0.401251 0.514031 0.657923
0.538506 0.517357 0.672755
0.741360 0.494636 0.685328
0.933196 0.551659 0.685786
0.311192 0.679957 0.648402
0.381140 0.681941 0.649989
0.553796 0.694057 0.659876
0.754208 0.729152 0.691463
0.924346 0.746090 0.704677
0.406531 0.877165 0.659724
0.461677 0.876524 0.663111
0.601495 0.876310 0.674556
0.765652 0.878264 0.697414
0.915984 0.894530 0.711147
0.374823 0.342321 0.866606
0.417884 0.337957 0.867857
0.541985 0.314214 0.872251
0.718502 0.237217 0.880125
0.927825 0.280125 0.878538
0.428107 0.439399 0.863096
0.461219 0.434394 0.864469
0.565057 0.412604 0.869230
0.725277 0.354406 0.877653
0.926513 0.377142 0.876982
0.554833 0.628717 0.852964
0.584344 0.633600 0.854154
0.643275 0.618891 0.859770
0.753048 0.581415 0.869657
0.922911 0.572229 0.872862
0.590295 0.751888 0.847227
0.622705 0.756832 0.847501
0.712367 0.772396 0.849271
0.798093 0.773892 0.859648
0.919310 0.757748 0.869108
0.572869 0.878111 0.845762
0.602167 0.878477 0.846067
0.689204 0.880095 0.847532
0.804135 0.884794 0.852171
0.920653 0.902922 0.872709
