lut_library/filter_lut/暖调11.5.cube
LUT_3D_SIZE 8
DOMAIN_MIN 0.000000 0.000000 0.000000
DOMAIN_MAX 0.903226 0.903226 0.903226
0.000000 0.000000 0.000000
0.114168 0.016999 0.012085
0.235264 0.022950 0.014252
0.386877 0.000000 0.000000
0.553826 0.000000 0.000000
0.722347 0.000000 0.000000
0.862577 0.000000 0.000000
0.968688 0.038392 0.000000
0.052338 0.102571 0.027619
0.112337 0.107362 0.017121
0.233066 0.115663 0.008148
0.382605 0.121950 0.000000
0.548943 0.125246 0.000000
0.716091 0.122286 0.000000
0.857023 0.120943 0.000000
0.965820 0.140139 0.000000
0.080171 0.205722 0.046876
0.125765 0.206088 0.047395
0.230777 0.222293 0.004028
0.384039 0.248875 0.000000
0.552361 0.266911 0.000000
0.719020 0.274937 0.000000
0.861845 0.274998 0.000000
0.967803 0.276097 0.000000
0.107179 0.334081 0.058900
0.149569 0.334020 0.058869
0.242557 0.335821 0.058259
0.386419 0.377173 0.000000
0.566674 0.415229 0.000000
0.725307 0.422827 0.000000
0.860533 0.418189 0.000000
0.964660 0.409735 0.000000
0.138735 0.479561 0.071962
0.177554 0.479591 0.071839
0.270298 0.481178 0.072267
0.387915 0.496498 0.042542
0.546502 0.536156 0.000000
0.718959 0.561578 0.000000
0.854185 0.555505 0.000000
0.959808 0.541558 0.000000
0.175601 0.625971 0.102693
0.210605 0.629145 0.104585
0.297887 0.629572 0.106172
0.406989 0.630915 0.109224
0.537713 0.651362 0.072267
0.697658 0.682521 0.000000
0.852598 0.693965 0.000000
0.955901 0.672847 0.031708
0.234440 0.765774 0.173098
0.260624 0.766354 0.174533
0.334112 0.765408 0.176455
0.433997 0.765194 0.181521
0.545373 0.764736 0.188510
0.677729 0.785458 0.160891
0.823301 0.804196 0.108492
0.948760 0.799649 0.092531
0.334112 0.886351 0.290043
0.350866 0.886076 0.290898
0.404730 0.885649 0.294804
0.486732 0.885649 0.303716
0.579065 0.881315 0.307774
0.685328 0.884642 0.315099
0.799832 0.894224 0.300450
0.917937 0.899962 0.269505
0.057008 0.041749 0.090547
0.115419 0.025269 0.094545
0.229648 0.023011 0.099977
0.377050 0.000000 0.099245
0.544244 0.000000 0.094148
0.711238 0.000000 0.086793
0.853544 0.000000 0.090303
0.963287 0.034150 0.117617
0.065888 0.103182 0.088991
0.116884 0.108980 0.094118
0.229404 0.113100 0.098421
0.376501 0.112001 0.096834
0.542718 0.107820 0.090517
0.708583 0.102449 0.082734
0.849607 0.106752 0.085634
0.960388 0.137545 0.114046
0.088991 0.204898 0.100526
0.134859 0.208591 0.105104
0.230564 0.220645 0.097841
0.378943 0.242344 0.088930
0.545281 0.258213 0.079225
0.709651 0.265324 0.069703
0.851255 0.267033 0.078767
0.961517 0.273564 0.116945
0.112886 0.332525 0.112428
0.154269 0.334142 0.113588
0.245274 0.337102 0.114260
0.379370 0.369299 0.087617
0.551354 0.401740 0.043122
0.710658 0.411414 0.018738
0.849485 0.410498 0.063325
0.958587 0.406806 0.116762
0.141756 0.479774 0.127291
0.179446 0.479377 0.127230
0.270695 0.479866 0.127596
0.383795 0.490028 0.120790
0.538415 0.527703 0.063111
0.710842 0.554070 0.000000
0.848295 0.550774 0.032746
0.955810 0.539666 0.124208
0.176913 0.623224 0.151095
0.210117 0.623529 0.151553
0.296208 0.624231 0.152834
0.404761 0.626642 0.156039
0.534417 0.646906 0.139925
0.695155 0.679835 0.084993
0.849454 0.691218 0.050507
0.952911 0.671321 0.144045
0.235142 0.761044 0.206699
0.259922 0.760281 0.206577
0.332952 0.760128 0.208591
0.432837 0.761288 0.214206
0.544244 0.761807 0.221714
0.675288 0.782040 0.202274
0.819760 0.800595 0.167483
0.945098 0.796719 0.161898
0.337407 0.883604 0.311376
0.354253 0.883726 0.312688
0.407568 0.883513 0.316716
0.488899 0.883787 0.325475
0.584680 0.882872 0.336065
0.688045 0.884611 0.341741
0.799954 0.893187 0.326574
0.916747 0.898711 0.298589
0.088533 0.067201 0.193668
0.134340 0.058289 0.198672
0.238499 0.014954 0.205142
0.381933 0.000000 0.222782
0.546136 0.000000 0.232700
0.712520 0.000000 0.237980
0.853483 0.000000 0.250858
0.961547 0.121889 0.273655
0.105623 0.127260 0.189059
0.140871 0.125490 0.194156
0.237247 0.112245 0.203586
0.380163 0.097627 0.219028
0.544823 0.047150 0.227970
0.709651 0.000000 0.234592
0.850645 0.098756 0.248600
0.959899 0.173770 0.272190
0.111360 0.211521 0.188815
0.149813 0.215305 0.192630
0.245426 0.231479 0.210025
0.384131 0.234562 0.213993
0.549584 0.243870 0.224247
0.710689 0.252140 0.234073
0.849882 0.265141 0.248875
0.958343 0.289738 0.273808
0.121462 0.335302 0.208103
0.161349 0.339117 0.211002
0.259770 0.353948 0.221622
0.386999 0.375097 0.218936
0.554559 0.398047 0.223362
0.711940 0.406775 0.233616
0.849363 0.411322 0.250797
0.956329 0.417762 0.278508
0.146365 0.480720 0.232090
0.184756 0.483467 0.234073
0.280430 0.491493 0.240574
0.390631 0.494179 0.243381
0.543511 0.531640 0.230594
0.710811 0.552056 0.231968
0.846250 0.550835 0.252628
0.952575 0.546227 0.284916
0.181857 0.624842 0.256992
0.216648 0.626581 0.259373
0.305028 0.629664 0.264836
0.411109 0.630671 0.267185
0.534691 0.644251 0.265568
0.693050 0.677180 0.252873
0.844938 0.688502 0.260349
0.949310 0.674769 0.298528
0.247410 0.762814 0.300908
0.274754 0.762783 0.304021
0.346288 0.762234 0.308080
0.441352 0.762112 0.311009
0.549401 0.762142 0.316045
0.676539 0.779995 0.312047
0.820279 0.800870 0.301305
0.943175 0.798459 0.311833
0.359564 0.882414 0.383673
0.377508 0.881804 0.386633
0.425910 0.881315 0.389014
0.503868 0.882261 0.397681
0.594965 0.881346 0.405768
0.694911 0.882078 0.414740
0.803250 0.891844 0.407630
0.916686 0.898619 0.391821
0.113436 0.082307 0.340154
0.159182 0.077760 0.344610
0.264073 0.015351 0.356847
0.389715 0.000000 0.362585
0.549371 0.000000 0.384192
0.709834 0.000000 0.394842
0.846921 0.000000 0.400855
0.953002 0.197543 0.420813
0.128084 0.147768 0.338079
0.165530 0.144015 0.341863
0.262333 0.124056 0.354162
0.389288 0.091188 0.362097
0.549584 0.030335 0.383154
0.708186 0.000000 0.393072
0.844877 0.122744 0.401007
0.951446 0.241093 0.424201
0.156161 0.248692 0.329320
0.190738 0.251957 0.332219
0.265629 0.249454 0.348455
0.390692 0.234806 0.363500
0.551873 0.239689 0.381811
0.710048 0.253086 0.394812
0.846708 0.293004 0.413062
0.950958 0.345830 0.436042
0.147005 0.350378 0.332494
0.182620 0.353185 0.335576
0.276066 0.365118 0.348486
0.406287 0.392828 0.379278
0.556634 0.396429 0.383948
0.707759 0.407813 0.396277
0.842496 0.425330 0.413977
0.948333 0.450874 0.437873
0.151614 0.484688 0.352941
0.189425 0.486763 0.354925
0.286992 0.496712 0.364691
0.415320 0.518059 0.387060
0.553674 0.540520 0.389075
0.710170 0.553643 0.400122
0.841825 0.559136 0.418311
0.945342 0.566674 0.442969
0.188754 0.628504 0.377661
0.224247 0.632227 0.381323
0.315923 0.636805 0.388647
0.433539 0.645747 0.403906
0.545892 0.647669 0.406683
0.697139 0.680232 0.408331
0.840452 0.690303 0.423957
0.942199 0.685328 0.451759
0.254917 0.762753 0.406775
0.282567 0.763485 0.409461
0.362768 0.765438 0.419257
0.466194 0.767910 0.433600
0.567071 0.767849 0.437018
0.683589 0.779110 0.440406
0.820829 0.800809 0.441321
0.937011 0.800626 0.459174
0.371740 0.882811 0.464149
0.391882 0.882628 0.467933
0.453529 0.881437 0.480446
0.532616 0.880491 0.493141
0.615137 0.879667 0.498360
0.707454 0.878935 0.506126
0.809232 0.889189 0.507164
0.916594 0.897917 0.502464
0.147280 0.112276 0.502037
0.188449 0.108400 0.504784
0.288396 0.084047 0.512749
0.416602 0.000000 0.527062
0.558312 0.000000 0.531579
0.710414 0.000000 0.538018
0.844907 0.000000 0.536736
0.949767 0.207797 0.538598
0.158022 0.171695 0.499886
0.194553 0.168612 0.503136
0.288640 0.152041 0.511223
0.414069 0.098054 0.524926
0.557366 0.003143 0.530632
0.709895 0.000000 0.537316
0.844205 0.134127 0.537041
0.948699 0.250645 0.540612
0.189944 0.284855 0.493446
0.218509 0.284764 0.496803
0.295171 0.276677 0.504936
0.411810 0.255833 0.521202
0.555047 0.239292 0.527977
0.706081 0.250584 0.534173
0.840299 0.288701 0.538170
0.944213 0.357092 0.547448
0.209201 0.392828 0.488197
0.240299 0.395453 0.490181
0.327733 0.406561 0.498329
0.425788 0.410956 0.517662
0.558770 0.397528 0.530144
0.706172 0.411566 0.536309
0.836820 0.440803 0.546197
0.938933 0.487251 0.563745
0.196353 0.500877 0.486152
0.228367 0.502922 0.488258
0.316320 0.510430 0.495583
0.434821 0.527337 0.511620
0.571801 0.555779 0.539452
0.707424 0.559503 0.542443
0.833494 0.573724 0.554345
0.935149 0.595483 0.571771
0.197116 0.625635 0.492470
0.229465 0.627100 0.493996
0.318578 0.632105 0.499672
0.437568 0.643153 0.512688
0.570062 0.660121 0.534722
0.701534 0.682460 0.542626
0.834531 0.694179 0.557794
0.933654 0.700160 0.576410
0.266209 0.761013 0.514031
0.291905 0.761135 0.515190
0.368719 0.762478 0.520500
0.475898 0.766140 0.532555
0.590326 0.771542 0.548913
0.691005 0.773556 0.551873
0.820859 0.799191 0.559747
0.929534 0.802640 0.577081
0.380804 0.879240 0.547570
0.399390 0.878874 0.549523
0.458534 0.877806 0.556817
0.546746 0.878386 0.571557
0.636072 0.877745 0.583795
0.720424 0.877287 0.588312
0.814267 0.884642 0.593988
0.915923 0.895903 0.596582
0.202976 0.157321 0.644495
0.234806 0.154910 0.645716
0.320836 0.140566 0.649042
0.437018 0.094636 0.657679
0.573083 0.000000 0.667964
0.713771 0.000000 0.665705
0.844999 0.004791 0.658930
0.947295 0.224491 0.648493
0.212436 0.207553 0.640925
0.241184 0.204623 0.642054
0.322515 0.192721 0.646113
0.435981 0.163302 0.654963
0.570672 0.070527 0.665583
0.711696 0.047547 0.663722
0.843442 0.145907 0.657984
0.945953 0.262852 0.648920
0.249302 0.323125 0.638239
0.271397 0.321111 0.639460
0.339666 0.313787 0.644038
0.441749 0.297368 0.652033
0.569451 0.262699 0.662257
0.710475 0.258732 0.661891
0.841367 0.296605 0.657679
0.942779 0.368536 0.652552
0.300938 0.444587 0.631128
0.321111 0.445838 0.632227
0.384436 0.450935 0.637751
0.467842 0.447150 0.647700
0.576959 0.427893 0.658961
0.712581 0.420050 0.661891
0.839506 0.448615 0.660273
0.938323 0.495827 0.660761
0.296605 0.542046 0.624842
0.321294 0.544152 0.625788
0.396277 0.552209 0.629206
0.502525 0.569543 0.636347
0.595453 0.575250 0.649866
0.711543 0.562707 0.658412
0.834043 0.580652 0.660853
0.931304 0.612360 0.668849
0.280949 0.645106 0.617975
0.306523 0.646845 0.619440
0.380621 0.650782 0.622736
0.484749 0.658686 0.629206
0.599390 0.672267 0.640406
0.721889 0.698146 0.663813
0.833677 0.704585 0.668452
0.926970 0.720424 0.680995
0.299626 0.763699 0.620661
0.322942 0.764401 0.621698
0.391638 0.765286 0.624018
0.490211 0.767849 0.629450
0.602991 0.774044 0.640101
0.719478 0.785336 0.658564
0.827207 0.802914 0.666957
0.925048 0.810513 0.682765
0.401404 0.877806 0.636896
0.418555 0.877379 0.637873
0.473365 0.876402 0.641657
0.553216 0.876158 0.648737
0.645167 0.876188 0.659022
0.739437 0.877195 0.673274
0.820951 0.879423 0.678676
0.916197 0.894865 0.688716
0.273503 0.226535 0.760006
0.295720 0.225223 0.760800
0.362676 0.218021 0.763455
0.458808 0.198062 0.768124
0.573297 0.149477 0.774075
0.703517 0.028443 0.778927
0.836912 0.099763 0.776730
0.942046 0.236301 0.759030
0.286992 0.268345 0.758999
0.307195 0.266484 0.759762
0.369787 0.258946 0.762356
0.462135 0.241337 0.766781
0.574487 0.204318 0.772976
0.703609 0.148318 0.778347
0.836454 0.173556 0.776181
0.941253 0.274388 0.759121
0.330694 0.374273 0.755337
0.346380 0.372564 0.756069
0.397406 0.366522 0.758633
0.477913 0.353674 0.763180
0.581292 0.329442 0.769589
0.704707 0.294285 0.776333
0.835142 0.309545 0.774350
0.938476 0.375891 0.759762
0.396063 0.496559 0.748928
0.411902 0.498482 0.749477
0.456336 0.500359 0.752132
0.516106 0.490883 0.756954
0.600427 0.474037 0.763821
0.709163 0.444739 0.772641
0.833341 0.452796 0.771603
0.934081 0.497261 0.761318
0.431556 0.594079 0.741817
0.449714 0.597345 0.742123
0.507317 0.608850 0.743404
0.570916 0.616724 0.748745
0.634333 0.609644 0.756741
0.719783 0.589868 0.766445
0.832181 0.585077 0.769070
0.928923 0.615930 0.764279
0.424262 0.679652 0.738247
0.441840 0.681178 0.738552
0.497597 0.686763 0.739864
0.576165 0.696193 0.742794
0.665980 0.710689 0.748531
0.741207 0.715450 0.760403
0.832853 0.705867 0.768185
0.923857 0.725917 0.770077
0.410163 0.772763 0.733272
0.427222 0.773159 0.733608
0.480690 0.774594 0.734798
0.557031 0.777523 0.737362
0.646845 0.782956 0.742275
0.743069 0.793271 0.751949
0.838773 0.813596 0.772946
0.920439 0.821164 0.779385
0.442847 0.876585 0.735683
0.457221 0.876402 0.736080
0.502861 0.875944 0.737362
0.570611 0.875517 0.739559
0.652979 0.875425 0.743404
0.746731 0.877226 0.752926
0.836362 0.882322 0.769070
0.916381 0.895476 0.780606
0.374823 0.342321 0.866606
0.387976 0.341131 0.866972
0.431403 0.336187 0.868254
0.500206 0.324285 0.870634
0.587945 0.300359 0.874144
0.690639 0.254520 0.878782
0.809598 0.232395 0.880705
0.927825 0.280125 0.878538
0.391547 0.374701 0.865537
0.403510 0.373358 0.865934
0.443519 0.367926 0.867277
0.508537 0.356054 0.869718
0.592950 0.333593 0.873289
0.693019 0.292363 0.878050
0.810239 0.270970 0.880217
0.927428 0.312383 0.878080
0.444862 0.466163 0.861936
0.453895 0.464790 0.862364
0.485267 0.459419 0.863798
0.538872 0.448554 0.866423
0.612024 0.429236 0.870298
0.702602 0.396582 0.875334
0.812863 0.373816 0.878447
0.926055 0.403693 0.876493
0.527367 0.583276 0.855924
0.533318 0.582055 0.856382
0.554345 0.577417 0.857969
0.592462 0.568200 0.860899
0.648096 0.552514 0.865110
0.722042 0.527062 0.870695
0.818265 0.499428 0.875608
0.924041 0.515465 0.874144
0.578546 0.670283 0.849851
0.586816 0.671626 0.850217
0.613519 0.675502 0.851560
0.651087 0.676997 0.854490
0.689937 0.665309 0.859129
0.746426 0.646967 0.865202
0.825193 0.618250 0.872587
0.921752 0.628138 0.871580
0.591577 0.736141 0.847379
0.601709 0.737881 0.847440
0.634546 0.743771 0.847745
0.684718 0.753445 0.848631
0.734340 0.759976 0.852415
0.777737 0.753201 0.859251
0.837186 0.735470 0.867369
0.919677 0.733425 0.869413
0.584985 0.802518 0.846647
0.594476 0.803311 0.846738
0.625605 0.805936 0.847105
0.674739 0.810575 0.847929
0.736019 0.817929 0.849699
0.802579 0.829099 0.853330
0.854765 0.832090 0.862455
0.918700 0.825711 0.868956
0.572869 0.878111 0.845762
0.581781 0.878202 0.845853
0.611597 0.878599 0.846189
0.659968 0.879423 0.846952
0.720729 0.880980 0.848386
0.787259 0.883787 0.851102
0.855375 0.889342 0.857023
0.920653 0.902922 0.872709
