lut_library/filter_lut/暖调11.5.cube
LUT_3D_SIZE 32
DOMAIN_MIN 0.0 0.0 0.0
DOMAIN_MAX 1.0 1.0 1.0
0.000000 0.000000 0.000000
0.029572 0.002075 0.002289
0.061494 0.004761 0.004273
0.087617 0.011109 0.007050
0.114168 0.016999 0.012085
0.142153 0.020844 0.014954
0.171450 0.023743 0.016449
0.202274 0.025086 0.016327
0.235264 0.022950 0.014252
0.270420 0.017273 0.008789
0.307713 0.007599 0.001648
0.346624 0.000000 0.000000
0.386877 0.000000 0.000000
0.428077 0.000000 0.000000
0.469734 0.000000 0.000000
0.511711 0.000000 0.000000
0.553826 0.000000 0.000000
0.595605 0.000000 0.000000
0.636408 0.000000 0.000000
0.680659 0.000000 0.000000
0.722347 0.000000 0.000000
0.761318 0.000000 0.000000
0.797574 0.000000 0.000000
0.831205 0.000000 0.000000
0.862577 0.000000 0.000000
0.891844 0.000000 0.000000
0.919310 0.000000 0.000000
0.944915 0.000000 0.000000
0.968688 0.038392 0.000000
0.990723 0.078370 0.011261
1.000000 0.104128 0.067842
1.000000 0.128756 0.096742
0.006134 0.024659 0.003235
0.029755 0.026642 0.002441
0.061585 0.030549 0.003235
0.087343 0.034730 0.007294
0.114015 0.040589 0.011261
0.142000 0.045655 0.015137
0.171176 0.048310 0.016632
0.201877 0.049470 0.016541
0.234653 0.048371 0.013428
0.269688 0.044862 0.008972
0.306828 0.038239 0.000610
0.345586 0.030091 0.000000
0.385657 0.020050 0.000000
0.426764 0.012970 0.000000
0.468299 0.003998 0.000000
0.510185 0.000000 0.000000
0.552148 0.000000 0.000000
0.593835 0.000000 0.000000
0.634760 0.000000 0.000000
0.678767 0.000000 0.000000
0.720089 0.000000 0.000000
0.758968 0.000000 0.000000
0.795163 0.000000 0.000000
0.829007 0.000000 0.000000
0.860472 0.000000 0.000000
0.889952 0.000000 0.000000
0.917632 0.000000 0.000000
0.943481 0.017182 0.000000
0.967468 0.063416 0.000000
0.989685 0.087404 0.005127
1.000000 0.110262 0.065217
1.000000 0.133181 0.094728
0.013458 0.055604 0.006775
0.035645 0.056367 0.007202
0.061555 0.058961 0.004913
0.087434 0.060639 0.006775
0.114076 0.062501 0.011933
0.141665 0.064698 0.014740
0.170748 0.065919 0.016266
0.201266 0.067079 0.016083
0.234104 0.066987 0.012879
0.268956 0.066224 0.007324
0.306004 0.064851 0.000977
0.344793 0.062165 0.000000
0.384894 0.059663 0.000000
0.425910 0.056703 0.000000
0.467353 0.052430 0.000000
0.509300 0.043915 0.000000
0.551171 0.037598 0.000000
0.592798 0.026154 0.000000
0.634058 0.011841 0.000000
0.677699 0.000855 0.000000
0.718959 0.000000 0.000000
0.757717 0.000000 0.000000
0.793973 0.000000 0.000000
0.827817 0.000000 0.000000
0.859373 0.000000 0.000000
0.888945 0.001160 0.000000
0.916747 0.028840 0.000000
0.942687 0.060853 0.000000
0.966796 0.080110 0.000000
0.989105 0.099336 0.002167
1.000000 0.119051 0.064149
1.000000 0.140047 0.093568
0.031891 0.080140 0.016052
0.050385 0.080201 0.016602
0.065736 0.080171 0.016938
0.086610 0.082765 0.011200
0.113863 0.084688 0.011780
0.141695 0.086427 0.013397
0.170443 0.087739 0.014862
0.201114 0.089174 0.014496
0.233707 0.090120 0.011048
0.268559 0.090486 0.006256
0.305455 0.090639 0.000000
0.344121 0.090578 0.000000
0.383886 0.090852 0.000000
0.424842 0.090913 0.000000
0.466316 0.090150 0.000000
0.508141 0.089357 0.000000
0.549981 0.087556 0.000000
0.591577 0.085389 0.000000
0.633387 0.083497 0.000000
0.676265 0.080385 0.000000
0.716976 0.077790 0.000000
0.755550 0.075105 0.000000
0.791897 0.073671 0.000000
0.826078 0.073457 0.000000
0.858122 0.075898 0.000000
0.888121 0.080171 0.000000
0.916258 0.086976 0.000000
0.942412 0.096864 0.000000
0.966552 0.108705 0.000000
0.988830 0.122103 0.000855
1.000000 0.137484 0.062928
1.000000 0.154910 0.092958
0.052338 0.102571 0.027619
0.062593 0.102693 0.028168
0.072175 0.102754 0.027466
0.088594 0.103822 0.026673
0.112337 0.107362 0.017121
0.141482 0.110628 0.012360
0.170199 0.112337 0.013550
0.200504 0.114199 0.011872
0.233066 0.115663 0.008148
0.267552 0.117433 0.002869
0.304265 0.119203 0.000000
0.342779 0.120638 0.000000
0.382605 0.121950 0.000000
0.423438 0.123415 0.000000
0.464942 0.124453 0.000000
0.506889 0.125307 0.000000
0.548943 0.125246 0.000000
0.590661 0.124788 0.000000
0.633570 0.124453 0.000000
0.675868 0.123659 0.000000
0.716091 0.122286 0.000000
0.754452 0.121309 0.000000
0.790677 0.120424 0.000000
0.824918 0.120485 0.000000
0.857023 0.120943 0.000000
0.887175 0.123232 0.000000
0.915404 0.127016 0.000000
0.941619 0.132479 0.000000
0.965820 0.140139 0.000000
0.988159 0.149966 0.000000
1.000000 0.161288 0.062104
1.000000 0.175570 0.092256
0.062409 0.126192 0.035462
0.069245 0.126467 0.034852
0.077852 0.126314 0.035309
0.092897 0.126375 0.036011
0.112978 0.128939 0.030152
0.139132 0.133272 0.019654
0.170260 0.137728 0.010101
0.200443 0.140108 0.009033
0.232792 0.142519 0.004700
0.267277 0.145144 0.000000
0.303929 0.148226 0.000000
0.342168 0.150729 0.000000
0.381903 0.153445 0.000000
0.422797 0.155947 0.000000
0.464271 0.158175 0.000000
0.506249 0.159731 0.000000
0.548394 0.161044 0.000000
0.590173 0.161746 0.000000
0.634119 0.162417 0.000000
0.676112 0.162539 0.000000
0.716152 0.162295 0.000000
0.754482 0.161624 0.000000
0.804837 0.165103 0.000000
0.838041 0.165255 0.000000
0.868864 0.165835 0.000000
0.897581 0.167147 0.000000
0.924315 0.169619 0.000000
0.949096 0.173312 0.000000
0.972015 0.178836 0.000000
0.993256 0.185977 0.032715
1.000000 0.195071 0.077241
1.000000 0.206149 0.104158
0.068666 0.152163 0.038300
0.074769 0.152377 0.038758
0.082673 0.152285 0.039216
0.097749 0.152529 0.038605
0.116762 0.152712 0.039338
0.140230 0.156832 0.029877
0.168948 0.161959 0.016663
0.202457 0.168063 0.003326
0.235019 0.171298 0.000000
0.269810 0.175113 0.000000
0.306676 0.178836 0.000000
0.345281 0.182681 0.000000
0.385046 0.186404 0.000000
0.425879 0.189761 0.000000
0.467384 0.192660 0.000000
0.509026 0.195132 0.000000
0.550835 0.196994 0.000000
0.594690 0.198947 0.000000
0.638514 0.200595 0.000000
0.680690 0.201328 0.000000
0.721462 0.201938 0.000000
0.760769 0.201846 0.000000
0.798154 0.201999 0.000000
0.833158 0.201999 0.000000
0.865507 0.202609 0.000000
0.895140 0.203311 0.000000
0.922393 0.204929 0.000000
0.947448 0.207218 0.000000
0.970611 0.210758 0.000000
0.991913 0.216007 0.027253
1.000000 0.222690 0.075105
1.000000 0.231479 0.102815
0.073487 0.178256 0.042237
0.080018 0.178256 0.042756
0.087770 0.178134 0.042115
0.101930 0.178225 0.042664
0.120638 0.178439 0.043275
0.142184 0.180209 0.039612
0.168338 0.185122 0.027497
0.198672 0.190951 0.012451
0.234714 0.198581 0.000000
0.269352 0.203098 0.000000
0.306035 0.208072 0.000000
0.344549 0.212711 0.000000
0.384222 0.217350 0.000000
0.424903 0.221683 0.000000
0.466377 0.225559 0.000000
0.507927 0.228550 0.000000
0.550866 0.231662 0.000000
0.595056 0.234623 0.000000
0.637934 0.236637 0.000000
0.679500 0.237827 0.000000
0.719875 0.238437 0.000000
0.758907 0.238804 0.000000
0.796048 0.238895 0.000000
0.830991 0.238834 0.000000
0.863401 0.238804 0.000000
0.893156 0.239078 0.000000
0.920562 0.239689 0.000000
0.945800 0.240940 0.000000
0.969085 0.243351 0.000000
0.990570 0.246708 0.019745
1.000000 0.251896 0.073854
1.000000 0.258610 0.102174
0.080171 0.205722 0.046876
0.085664 0.205844 0.047211
0.093111 0.205844 0.047486
0.107301 0.205966 0.046967
0.125765 0.206088 0.047395
0.146609 0.206332 0.047028
0.170474 0.209842 0.039185
0.198611 0.215671 0.023865
0.230777 0.222293 0.004028
0.269047 0.231540 0.000000
0.306065 0.237705 0.000000
0.344427 0.243290 0.000000
0.384039 0.248875 0.000000
0.424811 0.253910 0.000000
0.465919 0.258457 0.000000
0.508385 0.262760 0.000000
0.552361 0.266911 0.000000
0.595758 0.270268 0.000000
0.637903 0.272526 0.000000
0.679011 0.273899 0.000000
0.719020 0.274937 0.000000
0.757778 0.275273 0.000000
0.794736 0.275425 0.000000
0.829496 0.275212 0.000000
0.861845 0.274998 0.000000
0.891630 0.274388 0.000000
0.919127 0.274510 0.000000
0.944457 0.274998 0.000000
0.967803 0.276097 0.000000
0.989349 0.278355 0.015656
1.000000 0.281865 0.072572
1.000000 0.286961 0.101991
0.086549 0.234989 0.050172
0.091951 0.235111 0.050507
0.099184 0.235080 0.049928
0.112947 0.235233 0.050141
0.131075 0.235477 0.050385
0.151797 0.235599 0.049989
0.174289 0.236057 0.050172
0.200809 0.241733 0.035615
0.230961 0.248386 0.015351
0.264744 0.255772 0.000000
0.304509 0.265812 0.000000
0.344121 0.273594 0.000000
0.383703 0.280003 0.000000
0.424323 0.285893 0.000000
0.467079 0.292149 0.000000
0.510704 0.297856 0.000000
0.554192 0.302525 0.000000
0.597131 0.306126 0.000000
0.638849 0.308690 0.000000
0.679469 0.310185 0.000000
0.718868 0.311192 0.000000
0.756924 0.311406 0.000000
0.793240 0.311345 0.000000
0.827481 0.310948 0.000000
0.859617 0.310216 0.000000
0.889433 0.309361 0.000000
0.917144 0.308812 0.000000
0.942779 0.308629 0.000000
0.966369 0.309056 0.000000
0.988159 0.310246 0.011200
1.000000 0.312657 0.072724
1.000000 0.316503 0.102724
0.093019 0.265537 0.053071
0.097993 0.265629 0.052583
0.105226 0.265751 0.052644
0.118654 0.265873 0.052827
0.136751 0.265934 0.053101
0.157351 0.266361 0.053101
0.180026 0.266819 0.053071
0.204379 0.269291 0.048615
0.233249 0.275822 0.028382
0.265324 0.283330 0.003540
0.300786 0.291539 0.000000
0.341741 0.302129 0.000000
0.384344 0.312108 0.000000
0.426459 0.319799 0.000000
0.469062 0.326726 0.000000
0.511925 0.332586 0.000000
0.554772 0.337377 0.000000
0.597101 0.341283 0.000000
0.638514 0.343999 0.000000
0.678767 0.345708 0.000000
0.717952 0.346746 0.000000
0.755795 0.347173 0.000000
0.792050 0.347051 0.000000
0.826230 0.346502 0.000000
0.858305 0.345556 0.000000
0.888090 0.344366 0.000000
0.915770 0.343297 0.000000
0.941375 0.342351 0.000000
0.964996 0.342016 0.000000
0.986816 0.342290 0.006622
1.000000 0.343664 0.071992
1.000000 0.346319 0.103426
0.099367 0.297978 0.056001
0.104585 0.298009 0.055482
0.111543 0.298039 0.056428
0.124422 0.298192 0.055726
0.142763 0.298375 0.055695
0.163485 0.298772 0.055543
0.185946 0.299290 0.056062
0.209995 0.299840 0.055604
0.236973 0.304662 0.044709
0.267674 0.312200 0.018952
0.301732 0.320500 0.000000
0.340215 0.330816 0.000000
0.391577 0.350225 0.000000
0.438392 0.362371 0.000000
0.481483 0.369635 0.000000
0.524651 0.375708 0.000000
0.567529 0.380621 0.000000
0.609705 0.384314 0.000000
0.650019 0.386297 0.000000
0.689326 0.387396 0.000000
0.727413 0.387793 0.000000
0.764004 0.387579 0.000000
0.798886 0.386633 0.000000
0.831907 0.385351 0.000000
0.862913 0.383734 0.000000
0.891844 0.381964 0.000000
0.918730 0.380133 0.000000
0.943603 0.378424 0.000000
0.966583 0.377173 0.000000
0.987915 0.376471 0.027039
1.000000 0.376898 0.080415
1.000000 0.378332 0.109987
0.107179 0.334081 0.058900
0.112154 0.334173 0.059022
0.118715 0.334051 0.058747
0.131868 0.334020 0.058839
0.149569 0.334020 0.058869
0.170321 0.334112 0.058869
0.193149 0.334325 0.058717
0.217197 0.334783 0.058808
0.242557 0.335821 0.058259
0.273289 0.344732 0.035737
0.307469 0.354620 0.005371
0.345159 0.365484 0.000000
0.386419 0.377173 0.000000
0.431952 0.389990 0.000000
0.480995 0.403296 0.000000
0.524071 0.410010 0.000000
0.566674 0.415229 0.000000
0.608392 0.419013 0.000000
0.648463 0.421241 0.000000
0.687465 0.422400 0.000000
0.725307 0.422827 0.000000
0.761807 0.422461 0.000000
0.796536 0.421515 0.000000
0.829526 0.420020 0.000000
0.860533 0.418189 0.000000
0.889525 0.416083 0.000000
0.916533 0.413825 0.000000
0.941527 0.411688 0.000000
0.964660 0.409735 0.000000
0.986145 0.408362 0.022461
1.000000 0.407843 0.079835
1.000000 0.408423 0.110689
0.114107 0.368322 0.061189
0.119326 0.368322 0.060914
0.125826 0.368322 0.060945
0.138338 0.368322 0.061006
0.155947 0.368170 0.061097
0.176699 0.368658 0.061128
0.199832 0.369604 0.061219
0.224430 0.370764 0.061067
0.250156 0.372107 0.061067
0.278294 0.376318 0.055421
0.310826 0.385657 0.026429
0.346715 0.396033 0.000000
0.385657 0.407050 0.000000
0.427771 0.418585 0.000000
0.472877 0.430182 0.000000
0.523278 0.444068 0.000000
0.565423 0.449500 0.000000
0.606867 0.453529 0.000000
0.646784 0.455818 0.000000
0.685603 0.457130 0.000000
0.723384 0.457557 0.000000
0.759823 0.457282 0.000000
0.794583 0.456275 0.000000
0.827604 0.454719 0.000000
0.858640 0.452644 0.000000
0.887663 0.450202 0.000000
0.914763 0.447578 0.000000
0.939818 0.444923 0.000000
0.963073 0.442512 0.000000
0.984649 0.440528 0.020691
1.000000 0.439307 0.081331
1.000000 0.439033 0.112642
0.122469 0.405615 0.063966
0.127138 0.405768 0.063996
0.133211 0.405707 0.064088
0.145907 0.405768 0.064027
0.163272 0.405890 0.063844
0.184024 0.406104 0.063569
0.206943 0.406592 0.063844
0.231479 0.407233 0.063844
0.257084 0.408362 0.063813
0.284123 0.409827 0.064149
0.314336 0.416632 0.051392
0.348608 0.426429 0.015045
0.385718 0.436988 0.000000
0.425849 0.448096 0.000000
0.468635 0.459266 0.000000
0.513939 0.470283 0.000000
0.564691 0.483925 0.000000
0.605737 0.488075 0.000000
0.645411 0.490486 0.000000
0.684016 0.491859 0.000000
0.721645 0.492256 0.000000
0.757931 0.491981 0.000000
0.792630 0.490822 0.000000
0.825589 0.489113 0.000000
0.856718 0.486793 0.000000
0.885893 0.484230 0.000000
0.913237 0.481392 0.000000
0.938598 0.478401 0.000000
0.962066 0.475654 0.000000
0.983825 0.473243 0.030823
1.000000 0.471473 0.086580
1.000000 0.470558 0.118532
0.130465 0.443244 0.067292
0.134981 0.443427 0.067659
0.141024 0.443427 0.067262
0.153323 0.443458 0.067597
0.170748 0.443549 0.067414
0.191135 0.443854 0.067384
0.214023 0.444282 0.067140
0.238499 0.444984 0.067353
0.264439 0.445838 0.067689
0.291203 0.446998 0.067659
0.319097 0.448524 0.067414
0.351629 0.457496 0.047761
0.386725 0.467079 0.003388
0.424689 0.477241 0.000000
0.465034 0.487556 0.000000
0.507988 0.498116 0.000000
0.553246 0.508690 0.000000
0.604334 0.522301 0.000000
0.644160 0.524987 0.000000
0.682948 0.526635 0.000000
0.720668 0.527337 0.000000
0.757107 0.527031 0.000000
0.791836 0.525902 0.000000
0.824826 0.524041 0.000000
0.855955 0.521599 0.000000
0.885191 0.518700 0.000000
0.912505 0.515496 0.000000
0.937835 0.512200 0.000000
0.961212 0.508904 0.000000
0.982879 0.505852 0.041535
1.000000 0.503288 0.091432
1.000000 0.501549 0.122927
0.138735 0.479561 0.071962
0.143038 0.479591 0.071656
0.148928 0.479561 0.071687
0.160830 0.479561 0.071992
0.177554 0.479591 0.071839
0.197971 0.479744 0.071839
0.220371 0.480018 0.072023
0.244755 0.480537 0.071901
0.270298 0.481178 0.072267
0.296941 0.482094 0.072602
0.324651 0.483253 0.072908
0.354131 0.487282 0.068208
0.387915 0.496498 0.042542
0.424048 0.506096 0.000000
0.462684 0.515984 0.000000
0.503410 0.525994 0.000000
0.546502 0.536156 0.000000
0.591974 0.546410 0.000000
0.641627 0.558373 0.000000
0.681392 0.560906 0.000000
0.718959 0.561578 0.000000
0.755245 0.561242 0.000000
0.789944 0.559991 0.000000
0.822965 0.558129 0.000000
0.854185 0.555505 0.000000
0.883482 0.552392 0.000000
0.910918 0.548943 0.000000
0.936339 0.545312 0.000000
0.959808 0.541558 0.000000
0.981537 0.538018 0.053285
1.000000 0.534905 0.096040
1.000000 0.532555 0.127993
0.147189 0.515618 0.077638
0.151614 0.515862 0.077516
0.159396 0.523735 0.079652
0.171145 0.523674 0.079591
0.187778 0.523613 0.079774
0.207645 0.523461 0.079622
0.230045 0.523400 0.079622
0.254276 0.523430 0.079744
0.279881 0.523796 0.080140
0.306798 0.524315 0.080507
0.334386 0.525078 0.080568
0.362615 0.525872 0.081331
0.394263 0.532067 0.071534
0.429206 0.541009 0.046021
0.466224 0.550286 0.000000
0.505394 0.559594 0.000000
0.546471 0.568933 0.000000
0.589441 0.578088 0.000000
0.634211 0.587121 0.000000
0.681941 0.596887 0.000000
0.721187 0.598810 0.000000
0.756954 0.598016 0.000000
0.791226 0.596338 0.000000
0.823728 0.593896 0.000000
0.854276 0.590631 0.000000
0.883055 0.586908 0.000000
0.909972 0.582788 0.000000
0.935058 0.578485 0.000000
0.958404 0.574121 0.000000
0.980102 0.570001 0.060822
1.000000 0.566339 0.100923
1.000000 0.563317 0.132967
0.156802 0.554192 0.084993
0.161105 0.555322 0.085054
0.166751 0.556420 0.085359
0.178286 0.557366 0.085969
0.194491 0.558038 0.086122
0.214206 0.558312 0.086488
0.236210 0.558434 0.086610
0.260105 0.558495 0.086641
0.285496 0.558923 0.087190
0.312016 0.559319 0.087556
0.339574 0.560021 0.087831
0.367834 0.560784 0.088441
0.396704 0.561791 0.088685
0.430060 0.570153 0.074342
0.465492 0.578637 0.048493
0.502770 0.587182 0.000000
0.541802 0.595758 0.000000
0.582574 0.604303 0.000000
0.625238 0.612879 0.000000
0.669703 0.621332 0.000000
0.715877 0.629847 0.000000
0.755032 0.631830 0.000000
0.789364 0.630152 0.000000
0.821988 0.627680 0.000000
0.852628 0.624292 0.000000
0.881498 0.620356 0.000000
0.908476 0.615991 0.000000
0.933593 0.611292 0.000000
0.956939 0.606561 0.000000
0.978637 0.601953 0.068208
0.998810 0.597711 0.106813
1.000000 0.594018 0.138643
0.165774 0.590295 0.092561
0.169924 0.591333 0.093141
0.175418 0.592309 0.093446
0.186465 0.593225 0.093690
0.202243 0.593835 0.094087
0.221103 0.594141 0.094636
0.242893 0.594232 0.094972
0.266545 0.594324 0.094972
0.291539 0.594568 0.095521
0.317967 0.594934 0.095796
0.345251 0.595483 0.096590
0.373327 0.596124 0.097383
0.401892 0.596612 0.098146
0.432197 0.599817 0.094514
0.466102 0.607538 0.080385
0.501732 0.615320 0.059754
0.538933 0.623285 0.000000
0.577844 0.631189 0.000000
0.618463 0.639124 0.000000
0.660792 0.647120 0.000000
0.704585 0.654932 0.000000
0.749203 0.662348 0.000000
0.787808 0.664118 0.000000
0.820401 0.661463 0.000000
0.851072 0.657893 0.000000
0.879911 0.653651 0.000000
0.906828 0.648951 0.000000
0.931914 0.643885 0.000000
0.955230 0.638697 0.000000
0.976928 0.633570 0.074952
0.997131 0.628809 0.112459
1.000000 0.624537 0.144320
0.175601 0.625971 0.102693
0.179568 0.626856 0.103029
0.184939 0.627832 0.103487
0.195499 0.628595 0.104219
0.210605 0.629145 0.104585
0.229221 0.629389 0.105074
0.250187 0.629450 0.105135
0.273289 0.629419 0.105653
0.297887 0.629572 0.106172
0.323949 0.629786 0.106722
0.350835 0.630152 0.107485
0.378637 0.630518 0.108522
0.406989 0.630915 0.109224
0.435798 0.631250 0.110445
0.467597 0.636439 0.103517
0.501823 0.643824 0.089998
0.537713 0.651362 0.072267
0.575341 0.659113 0.031525
0.614588 0.666926 0.000000
0.655421 0.674769 0.000000
0.697658 0.682521 0.000000
0.741176 0.690150 0.000000
0.784390 0.696468 0.000000
0.821897 0.697688 0.000000
0.852598 0.693965 0.000000
0.881315 0.689418 0.000000
0.908049 0.684199 0.000000
0.932860 0.678614 0.000000
0.955901 0.672847 0.031708
0.977325 0.667140 0.093446
0.997192 0.661707 0.127962
1.000000 0.656794 0.158053
0.188449 0.664363 0.117342
0.192111 0.664790 0.117708
0.196963 0.665095 0.117861
0.206821 0.665370 0.118196
0.221012 0.665522 0.118532
0.238804 0.665492 0.118898
0.259159 0.665461 0.119234
0.281682 0.665461 0.119997
0.306004 0.665675 0.120363
0.331456 0.665949 0.121340
0.358221 0.666377 0.122469
0.385901 0.666743 0.123507
0.414038 0.667079 0.124819
0.442664 0.667262 0.126070
0.471717 0.667659 0.127077
0.504631 0.674281 0.117586
0.538933 0.681086 0.106233
0.574884 0.688014 0.091249
0.612238 0.695033 0.070954
0.651057 0.702022 0.018158
0.691066 0.708949 0.000000
0.732174 0.715663 0.000000
0.774136 0.722133 0.000000
0.815030 0.726925 0.000000
0.850919 0.727260 0.000000
0.879576 0.722438 0.000000
0.906340 0.716976 0.000000
0.931151 0.710994 0.000000
0.954162 0.704768 0.055207
0.975555 0.698543 0.101534
0.995422 0.692592 0.135164
1.000000 0.687098 0.165164
0.201450 0.698299 0.132784
0.204837 0.698665 0.133089
0.209415 0.699031 0.133364
0.218631 0.699245 0.133852
0.232151 0.699397 0.134127
0.248966 0.699275 0.134340
0.268437 0.699184 0.134829
0.289982 0.699092 0.135225
0.313695 0.699123 0.136263
0.338598 0.699306 0.137179
0.364813 0.699550 0.138247
0.391852 0.699825 0.139498
0.419593 0.700038 0.140841
0.447944 0.700191 0.142580
0.476631 0.700313 0.144015
0.506798 0.702724 0.142245
0.539757 0.708949 0.133700
0.574182 0.715389 0.123690
0.609979 0.721828 0.111543
0.647120 0.728359 0.096559
0.685420 0.734768 0.076112
0.724727 0.741024 0.027649
0.764797 0.747127 0.000000
0.805447 0.752865 0.000000
0.842802 0.755093 0.000000
0.877134 0.754696 0.000000
0.903929 0.748928 0.000000
0.928771 0.742672 0.000000
0.951843 0.736019 0.064027
0.973297 0.729305 0.107881
0.993286 0.722866 0.140810
1.000000 0.717006 0.171359
0.218082 0.734127 0.153079
0.221317 0.734554 0.153597
0.225406 0.734798 0.153841
0.234012 0.734859 0.154055
0.246372 0.734768 0.154269
0.261967 0.734554 0.154513
0.280400 0.734218 0.154757
0.301152 0.733852 0.155093
0.323644 0.733516 0.155642
0.347692 0.733272 0.156466
0.372930 0.733120 0.157443
0.399145 0.732998 0.158602
0.426246 0.732937 0.159762
0.453895 0.732753 0.161288
0.481971 0.732448 0.162631
0.510307 0.732174 0.164401
0.541009 0.735897 0.159792
0.573693 0.741451 0.152224
0.607874 0.747250 0.143313
0.643305 0.753231 0.133089
0.679927 0.759182 0.121340
0.717403 0.764981 0.106630
0.755550 0.770474 0.087098
0.794156 0.775570 0.054627
0.832853 0.780240 0.000000
0.870024 0.782956 0.000000
0.902129 0.781369 0.000000
0.927001 0.774685 0.000000
0.949920 0.767544 0.076326
0.971313 0.760311 0.116060
0.991302 0.753353 0.148592
1.000000 0.746883 0.178927
0.234440 0.765774 0.173098
0.237308 0.766171 0.173556
0.241276 0.766445 0.173770
0.249088 0.766476 0.174350
0.260624 0.766354 0.174533
0.275334 0.766171 0.174716
0.292821 0.765896 0.175174
0.312383 0.765652 0.175784
0.334112 0.765408 0.176455
0.357336 0.765286 0.177371
0.381842 0.765194 0.178561
0.407568 0.765194 0.179965
0.433997 0.765194 0.181521
0.461097 0.765103 0.183169
0.488685 0.764920 0.184970
0.516777 0.764706 0.186679
0.545373 0.764736 0.188510
0.576654 0.769741 0.182620
0.609186 0.774929 0.176272
0.642939 0.780209 0.168978
0.677729 0.785458 0.160891
0.713405 0.790616 0.151492
0.749691 0.795499 0.140017
0.786374 0.800046 0.126040
0.823301 0.804196 0.108492
0.860319 0.807950 0.083894
0.895872 0.810025 0.042023
0.925200 0.806760 0.041871
0.948760 0.799649 0.092531
0.970062 0.791897 0.128847
0.989990 0.784482 0.160494
1.000000 0.777401 0.190158
0.253819 0.797574 0.196963
0.256687 0.797848 0.197391
0.260044 0.797910 0.197543
0.267094 0.797848 0.197757
0.277531 0.797665 0.197879
0.290959 0.797360 0.198093
0.307195 0.797024 0.198398
0.325780 0.796689 0.198856
0.346319 0.796445 0.199680
0.368444 0.796292 0.200687
0.392096 0.796201 0.201938
0.416907 0.796201 0.203677
0.442634 0.796201 0.205234
0.469123 0.796139 0.207248
0.496010 0.795956 0.209232
0.523491 0.795682 0.211246
0.551324 0.795407 0.213474
0.580316 0.796963 0.213169
0.611261 0.801480 0.208133
0.643305 0.806088 0.202579
0.676295 0.810697 0.196536
0.710140 0.815152 0.189822
0.744503 0.819425 0.181765
0.779294 0.823392 0.172519
0.814298 0.826993 0.161135
0.849485 0.830198 0.147768
0.884703 0.833127 0.131502
0.919188 0.835019 0.111452
0.945647 0.830014 0.114809
0.968078 0.822660 0.138613
0.987976 0.814633 0.169131
1.000000 0.807004 0.198428
0.275456 0.827573 0.222660
0.277867 0.827726 0.222995
0.281071 0.827787 0.223239
0.287236 0.827756 0.223392
0.297002 0.827665 0.223819
0.309636 0.827634 0.224369
0.324926 0.827726 0.225315
0.342718 0.827909 0.226596
0.362554 0.828183 0.228244
0.384192 0.828580 0.230137
0.407172 0.829007 0.232395
0.431403 0.829404 0.234745
0.456489 0.829770 0.237217
0.482307 0.829953 0.239902
0.508659 0.829923 0.242435
0.535424 0.829740 0.244846
0.562646 0.829435 0.247471
0.590234 0.829221 0.250309
0.619226 0.831876 0.248569
0.649439 0.835660 0.244358
0.680507 0.839414 0.240024
0.712245 0.843046 0.235050
0.744533 0.846464 0.229160
0.777188 0.849607 0.222324
0.810147 0.852476 0.214511
0.843229 0.855039 0.205325
0.876402 0.857298 0.194583
0.909697 0.859312 0.181796
0.942992 0.861143 0.166964
0.966827 0.854643 0.171054
0.987732 0.846769 0.188602
1.000000 0.838346 0.216587
0.304692 0.859495 0.256809
0.306767 0.859556 0.257176
0.309514 0.859525 0.257328
0.314946 0.859434 0.257420
0.323583 0.859220 0.257603
0.334783 0.859007 0.257969
0.348425 0.858854 0.258610
0.364446 0.858732 0.259434
0.382513 0.858671 0.260746
0.402472 0.858640 0.262455
0.423713 0.858610 0.264256
0.446326 0.858610 0.266117
0.469917 0.858579 0.268376
0.494392 0.858457 0.270848
0.519524 0.858244 0.273198
0.545251 0.857969 0.275914
0.571496 0.857633 0.278752
0.598230 0.857328 0.281956
0.625452 0.857298 0.285130
0.653742 0.860380 0.281865
0.682826 0.863432 0.278447
0.712520 0.866392 0.274418
