lut_library/filter_lut/菲林黑白11.5.cube
LUT_3D_SIZE 8
DOMAIN_MIN 0.000000 0.000000 0.000000
DOMAIN_MAX 0.903226 0.903226 0.903226
0.000000 0.000000 0.000000
0.057160 0.057160 0.057160
0.094270 0.094270 0.094270
0.149844 0.149844 0.149844
0.225376 0.225376 0.225376
0.312230 0.312230 0.312230
0.422644 0.422644 0.422644
0.567041 0.567041 0.567041
0.071138 0.071138 0.071138
0.078859 0.078859 0.078859
0.118166 0.118166 0.118166
0.171115 0.171115 0.171115
0.242649 0.242649 0.242649
0.326390 0.326390 0.326390
0.435004 0.435004 0.435004
0.577050 0.577050 0.577050
0.134890 0.134890 0.134890
0.140566 0.140566 0.140566
0.162936 0.162936 0.162936
0.232059 0.232059 0.232059
0.300053 0.300053 0.300053
0.374823 0.374823 0.374823
0.477729 0.477729 0.477729
0.610529 0.610529 0.610529
0.232609 0.232609 0.232609
0.236942 0.236942 0.236942
0.251835 0.251835 0.251835
0.282902 0.282902 0.282902
0.360906 0.360906 0.360906
0.454749 0.454749 0.454749
0.547906 0.547906 0.547906
0.663233 0.663233 0.663233
0.345830 0.345830 0.345830
0.349035 0.349035 0.349035
0.360693 0.360693 0.360693
0.382788 0.382788 0.382788
0.417639 0.417639 0.417639
0.504234 0.504234 0.504234
0.614008 0.614008 0.614008
0.725673 0.725673 0.725673
0.472938 0.472938 0.472938
0.475776 0.475776 0.475776
0.485756 0.485756 0.485756
0.503899 0.503899 0.503899
0.532830 0.532830 0.532830
0.570336 0.570336 0.570336
0.657710 0.657710 0.657710
0.764767 0.764767 0.764767
0.619806 0.619806 0.619806
0.621912 0.621912 0.621912
0.629541 0.629541 0.629541
0.643214 0.643214 0.643214
0.662684 0.662684 0.662684
0.690822 0.690822 0.690822
0.723354 0.723354 0.723354
0.798428 0.798428 0.798428
0.763912 0.763912 0.763912
0.765438 0.765438 0.765438
0.770809 0.770809 0.770809
0.780423 0.780423 0.780423
0.794156 0.794156 0.794156
0.812284 0.812284 0.812284
0.835019 0.835019 0.835019
0.860044 0.860044 0.860044
0.028321 0.028321 0.028321
0.057893 0.057893 0.057893
0.104463 0.104463 0.104463
0.166201 0.166201 0.166201
0.238895 0.238895 0.238895
0.322545 0.322545 0.322545
0.429938 0.429938 0.429938
0.571069 0.571069 0.571069
0.069429 0.069429 0.069429
0.092866 0.092866 0.092866
0.129061 0.129061 0.129061
0.184543 0.184543 0.184543
0.254368 0.254368 0.254368
0.335760 0.335760 0.335760
0.441810 0.441810 0.441810
0.580804 0.580804 0.580804
0.140719 0.140719 0.140719
0.156680 0.156680 0.156680
0.176425 0.176425 0.176425
0.244846 0.244846 0.244846
0.307225 0.307225 0.307225
0.381537 0.381537 0.381537
0.483040 0.483040 0.483040
0.613397 0.613397 0.613397
0.240818 0.240818 0.240818
0.249210 0.249210 0.249210
0.263401 0.263401 0.263401
0.292424 0.292424 0.292424
0.369604 0.369604 0.369604
0.458625 0.458625 0.458625
0.551232 0.551232 0.551232
0.665217 0.665217 0.665217
0.355108 0.355108 0.355108
0.358221 0.358221 0.358221
0.369421 0.369421 0.369421
0.390631 0.390631 0.390631
0.424628 0.424628 0.424628
0.510491 0.510491 0.510491
0.618708 0.618708 0.618708
0.726894 0.726894 0.726894
0.479957 0.479957 0.479957
0.482704 0.482704 0.482704
0.492500 0.492500 0.492500
0.510307 0.510307 0.510307
0.538262 0.538262 0.538262
0.574945 0.574945 0.574945
0.661402 0.661402 0.661402
0.767178 0.767178 0.767178
0.624018 0.624018 0.624018
0.626154 0.626154 0.626154
0.633631 0.633631 0.633631
0.647028 0.647028 0.647028
0.666163 0.666163 0.666163
0.693721 0.693721 0.693721
0.725765 0.725765 0.725765
0.800381 0.800381 0.800381
0.765957 0.765957 0.765957
0.767453 0.767453 0.767453
0.772732 0.772732 0.772732
0.782223 0.782223 0.782223
0.795804 0.795804 0.795804
0.813657 0.813657 0.813657
0.836179 0.836179 0.836179
0.861021 0.861021 0.861021
0.068025 0.068025 0.068025
0.075898 0.075898 0.075898
0.105898 0.105898 0.105898
0.175998 0.175998 0.175998
0.253300 0.253300 0.253300
0.341009 0.341009 0.341009
0.444709 0.444709 0.444709
0.579034 0.579034 0.579034
0.096834 0.096834 0.096834
0.110109 0.110109 0.110109
0.133333 0.133333 0.133333
0.197086 0.197086 0.197086
0.270237 0.270237 0.270237
0.353368 0.353368 0.353368
0.455909 0.455909 0.455909
0.588281 0.588281 0.588281
0.137453 0.137453 0.137453
0.155764 0.155764 0.155764
0.207645 0.207645 0.207645
0.257847 0.257847 0.257847
0.320806 0.320806 0.320806
0.395819 0.395819 0.395819
0.495033 0.495033 0.495033
0.619715 0.619715 0.619715
0.242649 0.242649 0.242649
0.255497 0.255497 0.255497
0.293004 0.293004 0.293004
0.318700 0.318700 0.318700
0.394415 0.394415 0.394415
0.468299 0.468299 0.468299
0.559625 0.559625 0.559625
0.669886 0.669886 0.669886
0.357122 0.357122 0.357122
0.367254 0.367254 0.367254
0.395148 0.395148 0.395148
0.413977 0.413977 0.413977
0.446021 0.446021 0.446021
0.530083 0.530083 0.530083
0.633509 0.633509 0.633509
0.730190 0.730190 0.730190
0.485908 0.485908 0.485908
0.494179 0.494179 0.494179
0.513664 0.513664 0.513664
0.530175 0.530175 0.530175
0.555383 0.555383 0.555383
0.589746 0.589746 0.589746
0.673457 0.673457 0.673457
0.775143 0.775143 0.775143
0.630945 0.630945 0.630945
0.636316 0.636316 0.636316
0.646601 0.646601 0.646601
0.659266 0.659266 0.659266
0.677363 0.677363 0.677363
0.703029 0.703029 0.703029
0.733700 0.733700 0.733700
0.806882 0.806882 0.806882
0.771176 0.771176 0.771176
0.774014 0.774014 0.774014
0.779080 0.779080 0.779080
0.788205 0.788205 0.788205
0.801236 0.801236 0.801236
0.818143 0.818143 0.818143
0.840055 0.840055 0.840055
0.864317 0.864317 0.864317
0.094972 0.094972 0.094972
0.103426 0.103426 0.103426
0.129885 0.129885 0.129885
0.174197 0.174197 0.174197
0.261631 0.261631 0.261631
0.349493 0.349493 0.349493
0.456214 0.456214 0.456214
0.585229 0.585229 0.585229
0.130983 0.130983 0.130983
0.137179 0.137179 0.137179
0.157687 0.157687 0.157687
0.196109 0.196109 0.196109
0.279271 0.279271 0.279271
0.363531 0.363531 0.363531
0.467933 0.467933 0.467933
0.593500 0.593500 0.593500
0.167147 0.167147 0.167147
0.183383 0.183383 0.183383
0.232059 0.232059 0.232059
0.261631 0.261631 0.261631
0.332341 0.332341 0.332341
0.409735 0.409735 0.409735
0.507012 0.507012 0.507012
0.623407 0.623407 0.623407
0.233738 0.233738 0.233738
0.247227 0.247227 0.247227
0.290654 0.290654 0.290654
0.357946 0.357946 0.357946
0.413001 0.413001 0.413001
0.480995 0.480995 0.480995
0.568719 0.568719 0.568719
0.673121 0.673121 0.673121
0.359136 0.359136 0.359136
0.368872 0.368872 0.368872
0.401404 0.401404 0.401404
0.451179 0.451179 0.451179
0.479072 0.479072 0.479072
0.559930 0.559930 0.559930
0.643763 0.643763 0.643763
0.733242 0.733242 0.733242
0.487587 0.487587 0.487587
0.495613 0.495613 0.495613
0.522515 0.522515 0.522515
0.559808 0.559808 0.559808
0.581201 0.581201 0.581201
0.612573 0.612573 0.612573
0.692531 0.692531 0.692531
0.787625 0.787625 0.787625
0.631769 0.631769 0.631769
0.637018 0.637018 0.637018
0.654627 0.654627 0.654627
0.677882 0.677882 0.677882
0.694636 0.694636 0.694636
0.717556 0.717556 0.717556
0.746304 0.746304 0.746304
0.817533 0.817533 0.817533
0.771420 0.771420 0.771420
0.774411 0.774411 0.774411
0.784573 0.784573 0.784573
0.797452 0.797452 0.797452
0.809781 0.809781 0.809781
0.825559 0.825559 0.825559
0.846311 0.846311 0.846311
0.869718 0.869718 0.869718
0.135653 0.135653 0.135653
0.143160 0.143160 0.143160
0.166903 0.166903 0.166903
0.202640 0.202640 0.202640
0.255711 0.255711 0.255711
0.355108 0.355108 0.355108
0.468788 0.468788 0.468788
0.597009 0.597009 0.597009
0.168215 0.168215 0.168215
0.173983 0.173983 0.173983
0.192844 0.192844 0.192844
0.224063 0.224063 0.224063
0.273503 0.273503 0.273503
0.369909 0.369909 0.369909
0.480293 0.480293 0.480293
0.604944 0.604944 0.604944
0.225711 0.225711 0.225711
0.244297 0.244297 0.244297
0.263828 0.263828 0.263828
0.289067 0.289067 0.289067
0.330144 0.330144 0.330144
0.418830 0.418830 0.418830
0.518425 0.518425 0.518425
0.630976 0.630976 0.630976
0.266026 0.266026 0.266026
0.278752 0.278752 0.278752
0.320226 0.320226 0.320226
0.384833 0.384833 0.384833
0.416815 0.416815 0.416815
0.492409 0.492409 0.492409
0.575921 0.575921 0.575921
0.671015 0.671015 0.671015
0.344549 0.344549 0.344549
0.355322 0.355322 0.355322
0.391058 0.391058 0.391058
0.448463 0.448463 0.448463
0.520684 0.520684 0.520684
0.577234 0.577234 0.577234
0.646784 0.646784 0.646784
0.731136 0.731136 0.731136
0.489723 0.489723 0.489723
0.497536 0.497536 0.497536
0.523674 0.523674 0.523674
0.565057 0.565057 0.565057
0.614008 0.614008 0.614008
0.640833 0.640833 0.640833
0.716121 0.716121 0.716121
0.795438 0.795438 0.795438
0.632746 0.632746 0.632746
0.637873 0.637873 0.637873
0.655116 0.655116 0.655116
0.683070 0.683070 0.683070
0.715694 0.715694 0.715694
0.735653 0.735653 0.735653
0.762509 0.762509 0.762509
0.831357 0.831357 0.831357
0.771572 0.771572 0.771572
0.774533 0.774533 0.774533
0.784512 0.784512 0.784512
0.801114 0.801114 0.801114
0.820554 0.820554 0.820554
0.835477 0.835477 0.835477
0.854551 0.854551 0.854551
0.877134 0.877134 0.877134
0.188907 0.188907 0.188907
0.195315 0.195315 0.195315
0.215610 0.215610 0.215610
0.247745 0.247745 0.247745
0.290288 0.290288 0.290288
0.351476 0.351476 0.351476
0.470771 0.470771 0.470771
0.612787 0.612787 0.612787
0.216556 0.216556 0.216556
0.221622 0.221622 0.221622
0.238743 0.238743 0.238743
0.267704 0.267704 0.267704
0.307408 0.307408 0.307408
0.366186 0.366186 0.366186
0.482979 0.482979 0.482979
0.620264 0.620264 0.620264
0.287877 0.287877 0.287877
0.291691 0.291691 0.291691
0.305241 0.305241 0.305241
0.329198 0.329198 0.329198
0.362982 0.362982 0.362982
0.414740 0.414740 0.414740
0.523674 0.523674 0.523674
0.644892 0.644892 0.644892
0.314000 0.314000 0.314000
0.329320 0.329320 0.329320
0.380407 0.380407 0.380407
0.420691 0.420691 0.420691
0.448585 0.448585 0.448585
0.490822 0.490822 0.490822
0.584680 0.584680 0.584680
0.682979 0.682979 0.682979
0.385016 0.385016 0.385016
0.394995 0.394995 0.394995
0.428321 0.428321 0.428321
0.481849 0.481849 0.481849
0.549340 0.549340 0.549340
0.580224 0.580224 0.580224
0.653437 0.653437 0.653437
0.731106 0.731106 0.731106
0.474189 0.474189 0.474189
0.482612 0.482612 0.482612
0.511040 0.511040 0.511040
0.555871 0.555871 0.555871
0.610956 0.610956 0.610956
0.676967 0.676967 0.676967
0.728573 0.728573 0.728573
0.792660 0.792660 0.792660
0.627680 0.627680 0.627680
0.633661 0.633661 0.633661
0.653834 0.653834 0.653834
0.682673 0.682673 0.682673
0.718502 0.718502 0.718502
0.760708 0.760708 0.760708
0.783932 0.783932 0.783932
0.848692 0.848692 0.848692
0.771572 0.771572 0.771572
0.774441 0.774441 0.774441
0.784176 0.784176 0.784176
0.800504 0.800504 0.800504
0.822904 0.822904 0.822904
0.848814 0.848814 0.848814
0.865812 0.865812 0.865812
0.887480 0.887480 0.887480
0.261631 0.261631 0.261631
0.266880 0.266880 0.266880
0.284520 0.284520 0.284520
0.313573 0.313573 0.313573
0.352667 0.352667 0.352667
0.403937 0.403937 0.403937
0.471534 0.471534 0.471534
0.610956 0.610956 0.610956
0.284520 0.284520 0.284520
0.289067 0.289067 0.289067
0.304662 0.304662 0.304662
0.331548 0.331548 0.331548
0.368780 0.368780 0.368780
0.417700 0.417700 0.417700
0.483467 0.483467 0.483467
0.619104 0.619104 0.619104
0.349035 0.349035 0.349035
0.352667 0.352667 0.352667
0.365545 0.365545 0.365545
0.388403 0.388403 0.388403
0.420691 0.420691 0.420691
0.463294 0.463294 0.463294
0.523186 0.523186 0.523186
0.645930 0.645930 0.645930
0.408301 0.408301 0.408301
0.421454 0.421454 0.421454
0.454475 0.454475 0.454475
0.473304 0.473304 0.473304
0.500267 0.500267 0.500267
0.533989 0.533989 0.533989
0.582574 0.582574 0.582574
0.687251 0.687251 0.687251
0.443183 0.443183 0.443183
0.451667 0.451667 0.451667
0.480110 0.480110 0.480110
0.543542 0.543542 0.543542
0.589624 0.589624 0.589624
0.615381 0.615381 0.615381
0.652308 0.652308 0.652308
0.739284 0.739284 0.739284
0.531762 0.531762 0.531762
0.538720 0.538720 0.538720
0.561913 0.561913 0.561913
0.597925 0.597925 0.597925
0.644068 0.644068 0.644068
0.703761 0.703761 0.703761
0.730983 0.730983 0.730983
0.796872 0.796872 0.796872
0.621881 0.621881 0.621881
0.627008 0.627008 0.627008
0.644373 0.644373 0.644373
0.672480 0.672480 0.672480
0.710658 0.710658 0.710658
0.757992 0.757992 0.757992
0.813016 0.813016 0.813016
0.856779 0.856779 0.856779
0.760494 0.760494 0.760494
0.764004 0.764004 0.764004
0.775998 0.775998 0.775998
0.796231 0.796231 0.796231
0.821958 0.821958 0.821958
0.850217 0.850217 0.850217
0.882841 0.882841 0.882841
0.902129 0.902129 0.902129
0.372320 0.372320 0.372320
0.376806 0.376806 0.376806
0.392157 0.392157 0.392157
0.418585 0.418585 0.418585
0.454932 0.454932 0.454932
0.499611 0.499611 0.499611
0.556664 0.556664 0.556664
0.620569 0.620569 0.620569
0.390936 0.390936 0.390936
0.394995 0.394995 0.394995
0.409277 0.409277 0.409277
0.434211 0.434211 0.434211
0.468940 0.468940 0.468940
0.511955 0.511955 0.511955
0.566369 0.566369 0.566369
0.628138 0.628138 0.628138
0.446632 0.446632 0.446632
0.450080 0.450080 0.450080
0.462196 0.462196 0.462196
0.483803 0.483803 0.483803
0.514305 0.514305 0.514305
0.551385 0.551385 0.551385
0.597742 0.597742 0.597742
0.652949 0.652949 0.652949
0.526940 0.526940 0.526940
0.529686 0.529686 0.529686
0.539208 0.539208 0.539208
0.556146 0.556146 0.556146
0.579706 0.579706 0.579706
0.608789 0.608789 0.608789
0.644678 0.644678 0.644678
0.691341 0.691341 0.691341
0.540612 0.540612 0.540612
0.550500 0.550500 0.550500
0.582818 0.582818 0.582818
0.632563 0.632563 0.632563
0.650477 0.650477 0.650477
0.673396 0.673396 0.673396
0.700557 0.700557 0.700557
0.740383 0.740383 0.740383
0.608209 0.608209 0.608209
0.612879 0.612879 0.612879
0.628199 0.628199 0.628199
0.652491 0.652491 0.652491
0.701472 0.701472 0.701472
0.744808 0.744808 0.744808
0.766812 0.766812 0.766812
0.797177 0.797177 0.797177
0.693477 0.693477 0.693477
0.696895 0.696895 0.696864
0.708309 0.708309 0.708309
0.727779 0.727779 0.727779
0.755184 0.755184 0.755184
0.789975 0.789975 0.789975
0.836576 0.836576 0.836576
0.858549 0.858549 0.858549
0.769558 0.769558 0.769558
0.772030 0.772030 0.772030
0.780636 0.780636 0.780636
0.795804 0.795804 0.795804
0.817472 0.817472 0.817472
0.845548 0.845548 0.845548
0.880705 0.880705 0.880705
0.924620 0.924620 0.924620
