lut_library/filter_lut/菲林黑白11.5.cube
LUT_3D_SIZE 32
DOMAIN_MIN 0.0 0.0 0.0
DOMAIN_MAX 1.0 1.0 1.0
0.000000 0.000000 0.000000
0.005859 0.005859 0.005859
0.013672 0.013672 0.013672
0.034180 0.034180 0.034180
0.057160 0.057160 0.057160
0.066987 0.066987 0.066987
0.075288 0.075288 0.075288
0.084230 0.084230 0.084230
0.094270 0.094270 0.094270
0.105898 0.105898 0.105898
0.118898 0.118898 0.118898
0.133639 0.133639 0.133639
0.149844 0.149844 0.149844
0.167514 0.167514 0.167514
0.186221 0.186221 0.186221
0.205447 0.205447 0.205447
0.225376 0.225376 0.225376
0.245945 0.245945 0.245945
0.266880 0.266880 0.266880
0.288853 0.288853 0.288853
0.312230 0.312230 0.312230
0.337194 0.337194 0.337194
0.363745 0.363745 0.363745
0.392157 0.392157 0.392157
0.422644 0.422644 0.422644
0.455390 0.455390 0.455390
0.490669 0.490669 0.490669
0.528313 0.528313 0.528313
0.567041 0.567041 0.567041
0.606775 0.606775 0.606775
0.647303 0.647303 0.647303
0.688502 0.688502 0.688502
0.010742 0.010742 0.010742
0.013672 0.013672 0.013672
0.025391 0.025391 0.025391
0.046876 0.046876 0.046876
0.061738 0.061738 0.061738
0.070130 0.070130 0.070130
0.077974 0.077974 0.077974
0.086580 0.086580 0.086580
0.096620 0.096620 0.096620
0.108125 0.108125 0.108125
0.121157 0.121157 0.121157
0.135805 0.135805 0.135805
0.151980 0.151980 0.151980
0.169619 0.169619 0.169619
0.188083 0.188083 0.188083
0.207370 0.207370 0.207370
0.227207 0.227207 0.227207
0.247654 0.247654 0.247654
0.268437 0.268437 0.268437
0.290349 0.290349 0.290349
0.313664 0.313664 0.313664
0.338476 0.338476 0.338476
0.365026 0.365026 0.365026
0.393408 0.393408 0.393408
0.423835 0.423835 0.423835
0.456611 0.456611 0.456611
0.491829 0.491829 0.491829
0.529442 0.529442 0.529442
0.568078 0.568078 0.568078
0.607721 0.607721 0.607721
0.648157 0.648157 0.648157
0.689235 0.689235 0.689235
0.025391 0.025391 0.025391
0.028321 0.028321 0.028321
0.034180 0.034180 0.034180
0.056428 0.056428 0.056428
0.066621 0.066621 0.066621
0.074006 0.074006 0.074006
0.081453 0.081453 0.081453
0.089906 0.089906 0.089906
0.099733 0.099733 0.099733
0.111086 0.111086 0.111086
0.124269 0.124269 0.124269
0.138796 0.138796 0.138796
0.154879 0.154879 0.154879
0.172396 0.172396 0.172396
0.190829 0.190829 0.190829
0.209842 0.209842 0.209842
0.229557 0.229557 0.229557
0.249882 0.249882 0.249882
0.270573 0.270573 0.270573
0.292424 0.292424 0.292424
0.315618 0.315618 0.315618
0.340337 0.340337 0.340337
0.366827 0.366827 0.366827
0.395148 0.395148 0.395148
0.425544 0.425544 0.425544
0.458167 0.458167 0.458167
0.493477 0.493477 0.493477
0.530938 0.530938 0.530938
0.569451 0.569451 0.569451
0.608972 0.608972 0.608972
0.649287 0.649287 0.649287
0.690242 0.690242 0.690242
0.055695 0.055695 0.055695
0.057893 0.057893 0.057893
0.059785 0.059785 0.059785
0.063722 0.063722 0.063722
0.072724 0.072724 0.072724
0.082277 0.082277 0.082277
0.089174 0.089174 0.089174
0.097292 0.097292 0.097292
0.106935 0.106935 0.106935
0.117983 0.117983 0.117983
0.130831 0.130831 0.130831
0.145296 0.145296 0.145296
0.161349 0.161349 0.161349
0.178531 0.178531 0.178531
0.196414 0.196414 0.196414
0.215335 0.215335 0.215335
0.234745 0.234745 0.234745
0.254795 0.254795 0.254795
0.275181 0.275181 0.275181
0.296727 0.296727 0.296727
0.319829 0.319829 0.319829
0.344396 0.344396 0.344396
0.370794 0.370794 0.370794
0.398962 0.398962 0.398962
0.429236 0.429236 0.429236
0.461799 0.461799 0.461799
0.496895 0.496895 0.496895
0.534203 0.534203 0.534203
0.572412 0.572412 0.572412
0.611719 0.611719 0.611719
0.651759 0.651759 0.651759
0.692470 0.692470 0.692470
0.071138 0.071138 0.071138
0.071778 0.071778 0.071778
0.072724 0.072724 0.072724
0.074983 0.074983 0.074983
0.078859 0.078859 0.078859
0.088136 0.088136 0.088136
0.098848 0.098848 0.098848
0.109133 0.109133 0.109133
0.118166 0.118166 0.118166
0.129061 0.129061 0.129061
0.141451 0.141451 0.141451
0.155642 0.155642 0.155642
0.171115 0.171115 0.171115
0.187778 0.187778 0.187778
0.205356 0.205356 0.205356
0.223636 0.223636 0.223636
0.242649 0.242649 0.242649
0.262303 0.262303 0.262303
0.282383 0.282383 0.282383
0.303685 0.303685 0.303685
0.326390 0.326390 0.326390
0.350805 0.350805 0.350805
0.376898 0.376898 0.376898
0.404913 0.404913 0.404913
0.435004 0.435004 0.435004
0.467414 0.467414 0.467414
0.502403 0.502403 0.502403
0.539178 0.539178 0.539178
0.577050 0.577050 0.577050
0.615961 0.615961 0.615961
0.655604 0.655604 0.655604
0.695888 0.695888 0.695888
0.083650 0.083650 0.083650
0.084504 0.084504 0.084504
0.085298 0.085298 0.085298
0.087373 0.087373 0.087373
0.090639 0.090639 0.090639
0.095430 0.095430 0.095430
0.106111 0.106111 0.106111
0.118166 0.118166 0.118166
0.132265 0.132265 0.132265
0.143862 0.143862 0.143862
0.155917 0.155917 0.155917
0.169497 0.169497 0.169497
0.184237 0.184237 0.184237
0.200168 0.200168 0.200168
0.217075 0.217075 0.217075
0.234836 0.234836 0.234836
0.253361 0.253361 0.253361
0.272374 0.272374 0.272374
0.291997 0.291997 0.291997
0.312902 0.312902 0.312902
0.335241 0.335241 0.335241
0.359319 0.359319 0.359319
0.385107 0.385107 0.385107
0.412879 0.412879 0.412879
0.442725 0.442725 0.442725
0.474922 0.474922 0.474922
0.509667 0.509667 0.509667
0.545922 0.545922 0.545922
0.583246 0.583246 0.583246
0.621576 0.621576 0.621576
0.660731 0.660731 0.660731
0.700526 0.700526 0.700526
0.098177 0.098177 0.098177
0.098848 0.098848 0.098848
0.099733 0.099733 0.099733
0.101472 0.101472 0.101472
0.104463 0.104463 0.104463
0.109133 0.109133 0.109133
0.114870 0.114870 0.114870
0.127108 0.127108 0.127108
0.140871 0.140871 0.140871
0.156680 0.156680 0.156680
0.173861 0.173861 0.173861
0.186526 0.186526 0.186526
0.200473 0.200473 0.200473
0.215610 0.215610 0.215610
0.231662 0.231662 0.231662
0.248692 0.248692 0.248692
0.266484 0.266484 0.266484
0.284825 0.284825 0.284825
0.303960 0.303960 0.303960
0.324254 0.324254 0.324254
0.346288 0.346288 0.346288
0.369909 0.369909 0.369909
0.395422 0.395422 0.395422
0.422858 0.422858 0.422858
0.452399 0.452399 0.452399
0.484352 0.484352 0.484352
0.518669 0.518669 0.518669
0.554284 0.554284 0.554284
0.590936 0.590936 0.590936
0.628626 0.628626 0.628626
0.667048 0.667048 0.667048
0.706203 0.706203 0.706203
0.115236 0.115236 0.115236
0.115785 0.115785 0.115785
0.116548 0.116548 0.116548
0.118349 0.118349 0.118349
0.121004 0.121004 0.121004
0.124941 0.124941 0.124941
0.130495 0.130495 0.130495
0.137331 0.137331 0.137331
0.151308 0.151308 0.151308
0.166659 0.166659 0.166659
0.183902 0.183902 0.183902
0.202457 0.202457 0.202457
0.219394 0.219394 0.219394
0.233585 0.233585 0.233585
0.248905 0.248905 0.248905
0.265049 0.265049 0.265049
0.282017 0.282017 0.282017
0.299748 0.299748 0.299748
0.318212 0.318212 0.318212
0.338018 0.338018 0.338018
0.359503 0.359503 0.359503
0.382696 0.382696 0.382696
0.407782 0.407782 0.407782
0.434821 0.434821 0.434821
0.464027 0.464027 0.464027
0.495766 0.495766 0.495766
0.529351 0.529351 0.529351
0.564141 0.564141 0.564141
0.600031 0.600031 0.600031
0.636927 0.636927 0.636927
0.674647 0.674647 0.674647
0.713008 0.713008 0.713008
0.134890 0.134890 0.134890
0.135500 0.135500 0.135500
0.136263 0.136263 0.136263
0.137758 0.137758 0.137758
0.140566 0.140566 0.140566
0.144015 0.144015 0.144015
0.149020 0.149020 0.149020
0.155398 0.155398 0.155398
0.162936 0.162936 0.162936
0.177005 0.177005 0.177005
0.194736 0.194736 0.194736
0.212680 0.212680 0.212680
0.232059 0.232059 0.232059
0.252567 0.252567 0.252567
0.268589 0.268589 0.268589
0.283818 0.283818 0.283818
0.300053 0.300053 0.300053
0.316991 0.316991 0.316991
0.334661 0.334661 0.334661
0.353857 0.353857 0.353857
0.374823 0.374823 0.374823
0.397467 0.397467 0.397467
0.422156 0.422156 0.422156
0.448798 0.448798 0.448798
0.477729 0.477729 0.477729
0.508843 0.508843 0.508843
0.541619 0.541619 0.541619
0.575494 0.575494 0.575494
0.610529 0.610529 0.610529
0.646540 0.646540 0.646540
0.683314 0.683314 0.683314
0.720790 0.720790 0.720790
0.156924 0.156924 0.156924
0.157443 0.157443 0.157443
0.158206 0.158206 0.158206
0.159701 0.159701 0.159701
0.162325 0.162325 0.162325
0.165591 0.165591 0.165591
0.169741 0.169741 0.169741
0.175662 0.175662 0.175662
0.182742 0.182742 0.182742
0.190646 0.190646 0.190646
0.204044 0.204044 0.204044
0.224216 0.224216 0.224216
0.243015 0.243015 0.243015
0.262943 0.262943 0.262943
0.283818 0.283818 0.283818
0.304936 0.304936 0.304936
0.320226 0.320226 0.320226
0.336278 0.336278 0.336278
0.353246 0.353246 0.353246
0.371710 0.371710 0.371710
0.392065 0.392065 0.392065
0.414313 0.414313 0.414313
0.438453 0.438453 0.438453
0.464668 0.464668 0.464668
0.493111 0.493111 0.493111
0.523583 0.523583 0.523583
0.555322 0.555322 0.555322
0.588190 0.588190 0.588190
0.622248 0.622248 0.622248
0.657221 0.657221 0.657221
0.693050 0.693050 0.693050
0.729458 0.729458 0.729458
0.180911 0.180911 0.180911
0.181460 0.181460 0.181460
0.182101 0.182101 0.182101
0.183597 0.183597 0.183597
0.185794 0.185794 0.185794
0.188907 0.188907 0.188907
0.192844 0.192844 0.192844
0.197879 0.197879 0.197879
0.204410 0.204410 0.204410
0.211887 0.211887 0.211887
0.220188 0.220188 0.220188
0.232456 0.232456 0.232456
0.255070 0.255070 0.255070
0.274479 0.274479 0.274479
0.294835 0.294835 0.294835
0.316167 0.316167 0.316167
0.338201 0.338201 0.338201
0.357549 0.357549 0.357549
0.373693 0.373693 0.373693
0.391516 0.391516 0.391516
0.411261 0.411261 0.411261
0.432898 0.432898 0.432898
0.456580 0.456580 0.456580
0.482277 0.482277 0.482277
0.510246 0.510246 0.510246
0.539635 0.539635 0.539635
0.570245 0.570245 0.570245
0.602075 0.602075 0.602075
0.635004 0.635004 0.635004
0.668910 0.668910 0.668910
0.703670 0.703670 0.703670
0.739010 0.739010 0.739010
0.206271 0.206271 0.206271
0.206729 0.206729 0.206729
0.207370 0.207370 0.207370
0.208743 0.208743 0.208743
0.210819 0.210819 0.210819
0.213748 0.213748 0.213748
0.217350 0.217350 0.217350
0.221714 0.221714 0.221714
0.227512 0.227512 0.227512
0.234440 0.234440 0.234440
0.242344 0.242344 0.242344
0.250980 0.250980 0.250980
0.261967 0.261967 0.261967
0.286961 0.286961 0.286961
0.306767 0.306767 0.306767
0.327520 0.327520 0.327520
0.349096 0.349096 0.349096
0.371344 0.371344 0.371344
0.394415 0.394415 0.394415
0.413123 0.413123 0.413123
0.432197 0.432197 0.432197
0.453254 0.453254 0.453254
0.476356 0.476356 0.476356
0.501610 0.501610 0.501610
0.528557 0.528557 0.528557
0.556847 0.556847 0.556847
0.586297 0.586297 0.586297
0.616938 0.616938 0.616938
0.648737 0.648737 0.648737
0.681514 0.681514 0.681514
0.715053 0.715053 0.715053
0.749203 0.749203 0.749203
0.232609 0.232609 0.232609
0.233097 0.233097 0.233097
0.233646 0.233646 0.233646
0.234928 0.234928 0.234928
0.236942 0.236942 0.236942
0.239597 0.239597 0.239597
0.242954 0.242954 0.242954
0.247074 0.247074 0.247074
0.251835 0.251835 0.251835
0.258335 0.258335 0.258335
0.265812 0.265812 0.265812
0.273899 0.273899 0.273899
0.282902 0.282902 0.282902
0.292546 0.292546 0.292546
0.319615 0.319615 0.319615
0.339940 0.339940 0.339940
0.360906 0.360906 0.360906
0.382605 0.382605 0.382605
0.405249 0.405249 0.405249
0.429694 0.429694 0.429694
0.454749 0.454749 0.454749
0.475196 0.475196 0.475196
0.497780 0.497780 0.497780
0.522148 0.522148 0.522148
0.547906 0.547906 0.547906
0.574914 0.574914 0.574914
0.603204 0.603204 0.603204
0.632685 0.632685 0.632685
0.663233 0.663233 0.663233
0.694789 0.694789 0.694789
0.727108 0.727108 0.727108
0.759976 0.759976 0.759976
0.259953 0.259953 0.259953
0.260380 0.260380 0.260380
0.260868 0.260868 0.260868
0.262119 0.262119 0.262119
0.263890 0.263890 0.263890
0.266423 0.266423 0.266423
0.269566 0.269566 0.269566
0.273411 0.273411 0.273411
0.277928 0.277928 0.277928
0.283391 0.283391 0.283391
0.290288 0.290288 0.290288
0.298039 0.298039 0.298039
0.306493 0.306493 0.306493
0.315618 0.315618 0.315618
0.325505 0.325505 0.325505
0.353033 0.353033 0.353033
0.373510 0.373510 0.373510
0.394720 0.394720 0.394720
0.416938 0.416938 0.416938
0.440955 0.440955 0.440955
0.466865 0.466865 0.466865
0.494667 0.494667 0.494667
0.520287 0.520287 0.520287
0.543481 0.543481 0.543481
0.567987 0.567987 0.567987
0.593774 0.593774 0.593774
0.620783 0.620783 0.620783
0.649012 0.649012 0.649012
0.678340 0.678340 0.678340
0.708644 0.708644 0.708644
0.739651 0.739651 0.739651
0.771206 0.771206 0.771206
0.287938 0.287938 0.287938
0.288365 0.288365 0.288365
0.288792 0.288792 0.288792
0.289982 0.289982 0.289982
0.291691 0.291691 0.291691
0.294041 0.294041 0.294041
0.297032 0.297032 0.297032
0.300572 0.300572 0.300572
0.304753 0.304753 0.304753
0.309728 0.309728 0.309728
0.315831 0.315831 0.315831
0.323156 0.323156 0.323156
0.331151 0.331151 0.331151
0.339818 0.339818 0.339818
0.349187 0.349187 0.349187
0.359167 0.359167 0.359167
0.386969 0.386969 0.386969
0.407538 0.407538 0.407538
0.429419 0.429419 0.429419
0.453071 0.453071 0.453071
0.478614 0.478614 0.478614
0.506004 0.506004 0.506004
0.534661 0.534661 0.534661
0.564141 0.564141 0.564141
0.588556 0.588556 0.588556
0.613092 0.613092 0.613092
0.638880 0.638880 0.638880
0.665888 0.665888 0.665888
0.693904 0.693904 0.693904
0.722866 0.722866 0.722866
0.752560 0.752560 0.752560
0.782742 0.782742 0.782742
0.316594 0.316594 0.316594
0.316991 0.316991 0.316991
0.317479 0.317479 0.317479
0.318517 0.318517 0.318517
0.320043 0.320043 0.320043
0.322332 0.322332 0.322332
0.325078 0.325078 0.325078
0.328466 0.328466 0.328466
0.332494 0.332494 0.332494
0.337041 0.337041 0.337041
0.342199 0.342199 0.342199
0.349035 0.349035 0.349035
0.356603 0.356603 0.356603
0.364843 0.364843 0.364843
0.373693 0.373693 0.373693
0.383246 0.383246 0.383246
0.393286 0.393286 0.393286
0.420050 0.420050 0.420050
0.442603 0.442603 0.442603
0.465919 0.465919 0.465919
0.491005 0.491005 0.491005
0.517937 0.517937 0.517937
0.545800 0.545800 0.545800
0.574548 0.574548 0.574548
0.603937 0.603937 0.603937
0.632746 0.632746 0.632746
0.657252 0.657252 0.657252
0.682979 0.682979 0.682979
0.709712 0.709712 0.709712
0.737362 0.737362 0.737362
0.765652 0.765652 0.765652
0.794491 0.794491 0.794491
0.345830 0.345830 0.345830
0.346105 0.346105 0.346105
0.346593 0.346593 0.346593
0.347539 0.347539 0.347539
0.349035 0.349035 0.349035
0.351202 0.351202 0.351202
0.353765 0.353765 0.353765
0.356939 0.356939 0.356939
0.360693 0.360693 0.360693
0.364996 0.364996 0.364996
0.369879 0.369879 0.369879
0.375677 0.375677 0.375677
0.382788 0.382788 0.382788
0.390539 0.390539 0.390539
0.398962 0.398962 0.398962
0.407996 0.407996 0.407996
0.417639 0.417639 0.417639
0.427893 0.427893 0.427893
0.453681 0.453681 0.453681
0.479469 0.479469 0.479469
0.504234 0.504234 0.504234
0.530388 0.530388 0.530388
0.557427 0.557427 0.557427
0.585382 0.585382 0.585382
0.614008 0.614008 0.614008
0.643244 0.643244 0.643244
0.672969 0.672969 0.672969
0.700221 0.700221 0.700221
0.725673 0.725673 0.725673
0.751980 0.751980 0.751980
0.778897 0.778897 0.778897
0.806271 0.806271 0.806271
0.375372 0.375372 0.375372
0.375677 0.375677 0.375677
0.376074 0.376074 0.376074
0.377020 0.377020 0.377020
0.378485 0.378485 0.378485
0.380407 0.380407 0.380407
0.382910 0.382910 0.382910
0.385870 0.385870 0.385870
0.389471 0.389471 0.389471
0.393561 0.393561 0.393561
0.398260 0.398260 0.398260
0.403449 0.403449 0.403449
0.409918 0.409918 0.409918
0.417395 0.417395 0.417395
0.425544 0.425544 0.425544
0.434241 0.434241 0.434241
0.443671 0.443671 0.443671
0.453590 0.453590 0.453590
0.464118 0.464118 0.464118
0.489021 0.489021 0.489021
0.517876 0.517876 0.517876
0.543236 0.543236 0.543236
0.569512 0.569512 0.569512
0.596612 0.596612 0.596612
0.624475 0.624475 0.624475
0.652979 0.652979 0.652979
0.681971 0.681971 0.681971
0.711360 0.711360 0.711360
0.740932 0.740932 0.740932
0.766537 0.766537 0.766537
0.792050 0.792050 0.792050
0.818051 0.818051 0.818051
0.406104 0.406104 0.406104
0.406439 0.406439 0.406439
0.406775 0.406775 0.406775
0.407752 0.407752 0.407752
0.409094 0.409094 0.409094
0.410986 0.410986 0.410986
0.413397 0.413397 0.413397
0.416297 0.416297 0.416297
0.419776 0.419776 0.419776
0.423713 0.423713 0.423713
0.428199 0.428199 0.428199
0.433265 0.433265 0.433265
0.438911 0.438911 0.438911
0.446143 0.446143 0.446143
0.453986 0.453986 0.453986
0.462470 0.462470 0.462470
0.471595 0.471595 0.471595
0.481239 0.481239 0.481239
0.491554 0.491554 0.491554
0.502403 0.502403 0.502403
0.525811 0.525811 0.525811
0.556390 0.556390 0.556390
0.581872 0.581872 0.581872
0.608209 0.608209 0.608209
0.635279 0.635279 0.635279
0.662989 0.662989 0.662989
0.691218 0.691218 0.691218
0.719844 0.719844 0.719844
0.748653 0.748653 0.748653
0.777462 0.777462 0.777462
0.805051 0.805051 0.805051
0.829740 0.829740 0.829740
0.438575 0.438575 0.438575
0.438911 0.438911 0.438911
0.439307 0.439307 0.439307
0.440162 0.440162 0.440162
0.441474 0.441474 0.441474
0.443336 0.443336 0.443336
0.445624 0.445624 0.445624
0.448463 0.448463 0.448463
0.451789 0.451789 0.451789
0.455695 0.455695 0.455695
0.460090 0.460090 0.460090
0.465034 0.465034 0.465034
0.470436 0.470436 0.470436
0.476783 0.476783 0.476783
0.484443 0.484443 0.484443
0.492653 0.492653 0.492653
0.501549 0.501549 0.501549
0.510948 0.510948 0.510948
0.520745 0.520745 0.520745
0.530999 0.530999 0.530999
0.541588 0.541588 0.541588
0.562524 0.562524 0.562524
0.594598 0.594598 0.594598
0.620111 0.620111 0.620111
0.646418 0.646418 0.646418
0.673304 0.673304 0.673304
0.700740 0.700740 0.700740
0.728573 0.728573 0.728573
0.756649 0.756649 0.756649
0.784604 0.784604 0.784604
0.812314 0.812314 0.812314
0.839841 0.839841 0.839841
0.472938 0.472938 0.472938
0.473213 0.473213 0.473213
0.473579 0.473579 0.473579
0.474464 0.474464 0.474464
0.475776 0.475776 0.475776
0.477485 0.477485 0.477485
0.479774 0.479774 0.479774
0.482521 0.482521 0.482521
0.485756 0.485756 0.485756
0.489509 0.489509 0.489509
0.493812 0.493812 0.493812
0.498665 0.498665 0.498665
0.503899 0.503899 0.503899
0.509697 0.509697 0.509697
0.516655 0.516655 0.516655
0.524529 0.524529 0.524529
0.532830 0.532830 0.532830
0.541619 0.541619 0.541619
0.550805 0.550805 0.550805
0.560388 0.560388 0.560388
0.570336 0.570336 0.570336
0.580591 0.580591 0.580591
0.599084 0.599084 0.599084
0.632227 0.632227 0.632227
0.657710 0.657710 0.657710
0.683833 0.683833 0.683833
0.710445 0.710445 0.710445
0.737514 0.737514 0.737514
0.764767 0.764767 0.764767
0.791928 0.791928 0.791928
0.818875 0.818875 0.818875
0.845731 0.845731 0.845731
0.509087 0.509087 0.509087
0.509392 0.509392 0.509392
0.509697 0.509697 0.509697
0.510552 0.510552 0.510552
0.511833 0.511833 0.511833
0.513512 0.513512 0.513512
0.515709 0.515709 0.515709
0.518273 0.518273 0.518273
0.521386 0.521386 0.521386
0.524926 0.524926 0.524926
0.529015 0.529015 0.529015
0.533501 0.533501 0.533501
0.538445 0.538445 0.538445
0.543847 0.543847 0.543847
0.549706 0.549706 0.549706
0.556970 0.556970 0.556970
0.564721 0.564721 0.564721
0.572900 0.572900 0.572900
0.581506 0.581506 0.581506
0.590478 0.590478 0.590478
0.599817 0.599817 0.599817
0.609400 0.609400 0.609400
0.619348 0.619348 0.619348
0.635279 0.635279 0.635279
0.669245 0.669245 0.669245
0.694575 0.694575 0.694575
0.720424 0.720424 0.720424
0.746639 0.746639 0.746639
0.773068 0.773068 0.773068
0.799405 0.799405 0.799405
0.825620 0.825620 0.825620
0.851743 0.851743 0.851743
0.545953 0.545953 0.545953
0.546258 0.546258 0.546258
0.546563 0.546563 0.546563
0.547295 0.547295 0.547295
0.548486 0.548486 0.548486
0.550072 0.550072 0.550072
0.552087 0.552087 0.552087
0.554498 0.554498 0.554498
0.557397 0.557397 0.557397
0.560693 0.560693 0.560693
0.564446 0.564446 0.564446
0.568658 0.568658 0.568658
0.573236 0.573236 0.573236
0.578302 0.578302 0.578302
0.583764 0.583764 0.583764
0.589868 0.589868 0.589868
0.597070 0.597070 0.597070
0.604700 0.604700 0.604700
0.612696 0.612696 0.612696
0.621118 0.621118 0.621118
0.629816 0.629816 0.629816
0.638819 0.638819 0.638819
0.648096 0.648096 0.648096
0.657588 0.657588 0.657588
0.670954 0.670954 0.670954
0.704829 0.704829 0.704829
0.730434 0.730434 0.730434
0.755856 0.755856 0.755856
0.781460 0.781460 0.781460
0.806973 0.806973 0.806973
0.832425 0.832425 0.832425
0.857939 0.857939 0.857939
0.582910 0.582910 0.582910
0.583154 0.583154 0.583154
0.583459 0.583459 0.583459
0.584161 0.584161 0.584161
0.585229 0.585229 0.585229
0.586694 0.586694 0.586694
0.588556 0.588556 0.588556
0.590845 0.590845 0.590845
0.593500 0.593500 0.593500
0.596551 0.596551 0.596551
0.600031 0.600031 0.600031
0.603906 0.603906 0.603906
0.608209 0.608209 0.608209
0.612848 0.612848 0.612848
0.617914 0.617914 0.617914
0.623377 0.623377 0.623377
0.629755 0.629755 0.629755
0.636835 0.636835 0.636835
0.644312 0.644312 0.644312
0.652094 0.652125 0.652094
0.660212 0.660212 0.660212
0.668574 0.668574 0.668574
0.677241 0.677241 0.677241
0.686091 0.686091 0.686091
0.695186 0.695186 0.695186
0.705989 0.705989 0.705989
0.738949 0.738949 0.738949
0.765164 0.765164 0.765164
0.789914 0.789914 0.789914
0.814633 0.814633 0.814633
0.839353 0.839353 0.839353
0.864225 0.864225 0.864225
0.619806 0.619806 0.619806
0.619989 0.619989 0.619989
0.620264 0.620264 0.620264
0.620935 0.620935 0.620935
0.621912 0.621912 0.621912
0.623285 0.623285 0.623285
0.624994 0.624994 0.624994
0.627100 0.627100 0.627100
0.629541 0.629541 0.629541
0.632410 0.632410 0.632410
0.635615 0.635615 0.635615
0.639216 0.639216 0.639216
0.643214 0.643214 0.643214
0.647517 0.647517 0.647517
0.652216 0.652216 0.652216
0.657313 0.657313 0.657313
0.662684 0.662684 0.662684
0.669215 0.669215 0.669215
0.676081 0.676081 0.676081
0.683345 0.683345 0.683345
0.690822 0.690822 0.690822
0.698634 0.698634 0.698634
0.706661 0.706661 0.706661
0.714931 0.714931 0.714931
0.723354 0.723354 0.723354
0.731991 0.731991 0.731991
0.740780 0.740780 0.740780
0.772122 0.772122 0.772122
0.798428 0.798428 0.798428
0.822354 0.822354 0.822354
0.846372 0.846372 0.846372
0.870603 0.870603 0.870603
0.656458 0.656458 0.656458
0.656672 0.656672 0.656672
0.656947 0.656947 0.656947
0.657557 0.657557 0.657557
0.658442 0.658442 0.658442
0.659724 0.659724 0.659724
0.661311 0.661311 0.661311
0.663233 0.663233 0.663233
0.665492 0.665492 0.665492
0.668116 0.668116 0.668116
0.671107 0.671107 0.671107
0.674434 0.674434 0.674434
0.678096 0.678096 0.678096
0.682155 0.682155 0.682155
0.686458 0.686458 0.686458
0.691157 0.691157 0.691157
0.696132 0.696132 0.696132
0.701656 0.701656 0.701656
0.708003 0.708003 0.708003
0.714687 0.714687 0.714687
0.721614 0.721614 0.721614
0.728817 0.728817 0.728817
0.736233 0.736233 0.736233
0.743893 0.743893 0.743893
0.751675 0.751675 0.751675
0.759640 0.759640 0.759640
0.767727 0.767727 0.767727
0.775937 0.775937 0.775937
0.803983 0.803983 0.803983
0.830137 0.830137 0.830137
0.853452 0.853452 0.853452
0.877104 0.877104 0.877104
0.692897 0.692897 0.692897
0.693080 0.693080 0.693080
0.693324 0.693324 0.693324
0.693843 0.693843 0.693843
0.694697 0.694697 0.694697
0.695888 0.695888 0.695888
0.697322 0.697322 0.697322
0.699092 0.699092 0.699092
0.701167 0.701167 0.701167
0.703609 0.703609 0.703609
0.706325 0.706325 0.706325
0.709377 0.709377 0.709377
0.712764 0.712764 0.712764
0.716457 0.716457 0.716457
0.720485 0.720485 0.720485
0.724788 0.724788 0.724788
0.729397 0.729397 0.729397
0.734249 0.734249 0.734249
0.739803 0.739803 0.739803
0.745937 0.745937 0.745937
0.752285 0.752285 0.752285
0.758907 0.758907 0.758907
0.765713 0.765713 0.765713
0.772702 0.772702 0.772702
0.779873 0.779873 0.779873
0.787137 0.787137 0.787137
0.794553 0.794553 0.794553
0.802060 0.802060 0.802060
0.809659 0.809659 0.809659
0.834531 0.834531 0.834531
0.860594 0.860594 0.860594
0.883604 0.883604 0.883604
0.728756 0.728756 0.728756
0.728939 0.728939 0.728939
0.729183 0.729183 0.729183
0.729671 0.729671 0.729671
0.730434 0.730434 0.730434
0.731502 0.731502 0.731502
0.732845 0.732845 0.732845
0.734463 0.734463 0.734463
0.736385 0.736385 0.736385
0.738613 0.738613 0.738613
0.741085 0.741085 0.741085
0.743893 0.743893 0.743893
0.746975 0.746975 0.746975
0.750362 0.750362 0.750362
0.754025 0.754025 0.754025
0.757961 0.757961 0.757961
0.762142 0.762142 0.762142
0.766598 0.766598 0.766598
0.771298 0.771298 0.771298
0.776822 0.776822 0.776822
0.782589 0.782589 0.782589
0.788602 0.788602 0.788602
