lut_library/filter_lut/菲林黑白11.5.cube
LUT_3D_SIZE 5
DOMAIN_MIN 0.000000 0.000000 0.000000
DOMAIN_MAX 0.903226 0.903226 0.903226
0.000000 0.000000 0.000000
0.084230 0.084230 0.084230
0.186221 0.186221 0.186221
0.337194 0.337194 0.337194
0.567041 0.567041 0.567041
0.115236 0.115236 0.115236
0.137331 0.137331 0.137331
0.248905 0.248905 0.248905
0.382696 0.382696 0.382696
0.600031 0.600031 0.600031
0.287938 0.287938 0.287938
0.300572 0.300572 0.300572
0.349187 0.349187 0.349187
0.506004 0.506004 0.506004
0.693904 0.693904 0.693904
0.509087 0.509087 0.509087
0.518273 0.518273 0.518273
0.549706 0.549706 0.549706
0.609400 0.609400 0.609400
0.773068 0.773068 0.773068
0.763912 0.763912 0.763912
0.769070 0.769070 0.769070
0.786770 0.786770 0.786770
0.817716 0.817716 0.817716
0.860044 0.860044 0.860044
0.062135 0.062135 0.062135
0.092134 0.092134 0.092134
0.211521 0.211521 0.211521
0.359869 0.359869 0.359869
0.577020 0.577020 0.577020
0.117250 0.117250 0.117250
0.174533 0.174533 0.174533
0.267826 0.267826 0.267826
0.400580 0.400580 0.400580
0.608148 0.608148 0.608148
0.298100 0.298100 0.298100
0.330358 0.330358 0.330358
0.373877 0.373877 0.373877
0.527031 0.527031 0.527031
0.698299 0.698299 0.698299
0.521843 0.521843 0.521843
0.537896 0.537896 0.537896
0.567041 0.567041 0.567041
0.622339 0.622339 0.622339
0.780545 0.780545 0.780545
0.770535 0.770535 0.770535
0.775448 0.775418 0.775418
0.792447 0.792447 0.792447
0.822019 0.822019 0.822019
0.863279 0.863279 0.863279
0.113924 0.113924 0.113924
0.139406 0.139406 0.139406
0.213748 0.213748 0.213748
0.379828 0.379828 0.379828
0.590631 0.590631 0.590631
0.189212 0.189212 0.189212
0.220523 0.220523 0.220523
0.275639 0.275639 0.275639
0.423499 0.423499 0.423499
0.617029 0.617029 0.617029
0.287694 0.287694 0.287694
0.326879 0.326879 0.326879
0.439094 0.439094 0.439094
0.547601 0.547601 0.547601
0.702022 0.702022 0.702022
0.524498 0.524498 0.524498
0.548272 0.548272 0.548272
0.613153 0.613153 0.613153
0.658350 0.658350 0.658350
0.802060 0.802060 0.802060
0.771511 0.771511 0.771511
0.781369 0.781369 0.781369
0.808408 0.808408 0.808408
0.834531 0.834531 0.834531
0.873136 0.873136 0.873136
0.204990 0.204990 0.204990
0.224460 0.224460 0.224460
0.281315 0.281315 0.281315
0.378851 0.378851 0.378851
0.615076 0.615076 0.615076
0.280430 0.280430 0.280430
0.293980 0.293980 0.293980
0.339666 0.339666 0.339666
0.424872 0.424872 0.424872
0.641444 0.641444 0.641444
0.359411 0.359411 0.359411
0.393317 0.393317 0.393317
0.495186 0.495186 0.495186
0.553918 0.553918 0.553918
0.709010 0.709010 0.709010
0.510765 0.510765 0.510765
0.536065 0.536065 0.536065
0.608301 0.608301 0.608301
0.713344 0.713344 0.713344
0.808469 0.808469 0.808469
0.771511 0.771511 0.771511
0.780972 0.780972 0.780972
0.810758 0.810758 0.810758
0.856748 0.856748 0.856748
0.890654 0.890654 0.890654
0.372320 0.372320 0.372320
0.387274 0.387274 0.387274
0.435584 0.435584 0.435584
0.511833 0.511833 0.511833
0.620569 0.620569 0.620569
0.429786 0.429786 0.429786
0.441993 0.441993 0.441993
0.483375 0.483375 0.483375
0.549798 0.549798 0.549798
0.645258 0.645258 0.645258
0.536248 0.536248 0.536248
0.569116 0.569116 0.569116
0.604089 0.604089 0.604089
0.647303 0.647303 0.647303
0.714656 0.714656 0.714656
0.630060 0.630060 0.630060
0.644221 0.644221 0.644221
0.686549 0.686549 0.686549
0.768276 0.768276 0.768276
0.812131 0.812131 0.812131
0.769558 0.769558 0.769558
0.777829 0.777829 0.777829
0.805844 0.805844 0.805844
0.853605 0.853605 0.853605
0.924620 0.924620 0.924620
