lut_library/filter_lut/负片11.5.cube
LUT_3D_SIZE 32
DOMAIN_MIN 0.0 0.0 0.0
DOMAIN_MAX 1.0 1.0 1.0
0.000000 0.000000 0.000000
0.026276 0.000336 0.000366
0.056825 0.001740 0.001526
0.081636 0.003113 0.002838
0.104646 0.006256 0.005554
0.128817 0.008179 0.009583
0.154238 0.011353 0.013489
0.181216 0.015442 0.017060
0.210117 0.018189 0.021210
0.241123 0.019806 0.023407
0.274846 0.018860 0.024262
0.310613 0.016175 0.023438
0.348241 0.009796 0.020813
0.387243 0.002411 0.016052
0.427253 0.000000 0.011200
0.467994 0.000000 0.004211
0.509209 0.000000 0.000000
0.550713 0.000000 0.000000
0.592035 0.000000 0.000000
0.638666 0.000000 0.000000
0.683345 0.000000 0.000000
0.725521 0.000000 0.000000
0.765072 0.000000 0.000000
0.802274 0.000000 0.000000
0.837400 0.000000 0.000000
0.870787 0.000000 0.000000
0.902861 0.000000 0.000000
0.933562 0.000000 0.000000
0.963043 0.000000 0.000000
0.991302 0.000000 0.039094
1.000000 0.009033 0.070741
1.000000 0.068635 0.092287
0.002441 0.024140 0.002289
0.023285 0.025360 0.002716
0.053590 0.026978 0.003906
0.080293 0.029572 0.006226
0.103426 0.030518 0.009125
0.127687 0.032685 0.012085
0.153170 0.034882 0.016114
0.179873 0.039643 0.019715
0.208774 0.042847 0.022827
0.239750 0.046082 0.024964
0.273289 0.046021 0.025879
0.308965 0.044251 0.025147
0.346410 0.039216 0.021546
0.385412 0.033692 0.017792
0.425238 0.026215 0.011994
0.465766 0.015381 0.005158
0.506859 0.003174 0.000000
0.548302 0.000000 0.000000
0.589624 0.000000 0.000000
0.635950 0.000000 0.000000
0.680171 0.000000 0.000000
0.722164 0.000000 0.000000
0.761715 0.000000 0.000000
0.799069 0.000000 0.000000
0.834348 0.000000 0.000000
0.867948 0.000000 0.000000
0.900328 0.000000 0.000000
0.931334 0.000000 0.000000
0.961089 0.000000 0.000000
0.989593 0.000000 0.035828
1.000000 0.046174 0.068757
1.000000 0.079805 0.090608
0.003357 0.055146 0.004913
0.025940 0.054994 0.004334
0.053651 0.055665 0.005646
0.078676 0.056458 0.010407
0.101595 0.057527 0.014405
0.126009 0.059449 0.017304
0.151492 0.060517 0.020264
0.178378 0.062043 0.022919
0.207370 0.063905 0.025940
0.238376 0.064881 0.028199
0.271916 0.065888 0.027893
0.307561 0.065949 0.026001
0.344945 0.064790 0.023438
0.383978 0.063325 0.018585
0.423682 0.061646 0.013764
0.464302 0.057374 0.006836
0.505303 0.050874 0.000000
0.546715 0.038514 0.000000
0.588281 0.026123 0.000000
0.634424 0.011780 0.000000
0.678431 0.000000 0.000000
0.720302 0.000000 0.000000
0.759854 0.000000 0.000000
0.797269 0.000000 0.000000
0.832639 0.000000 0.000000
0.866361 0.000000 0.000000
0.898894 0.000000 0.000000
0.930053 0.000000 0.000000
0.959930 0.004028 0.000000
0.988586 0.044709 0.036316
1.000000 0.072145 0.068971
1.000000 0.093965 0.090700
0.009583 0.079530 0.010315
0.029236 0.079622 0.010864
0.054505 0.079286 0.011292
0.078065 0.079072 0.013031
0.100252 0.078981 0.019471
0.123110 0.080507 0.027893
0.148989 0.082002 0.029603
0.176120 0.083833 0.032074
0.205295 0.085237 0.032959
0.236393 0.086976 0.033906
0.269932 0.088533 0.032349
0.305638 0.089906 0.030152
0.342901 0.090913 0.026093
0.381781 0.090944 0.022248
0.421576 0.090944 0.016114
0.462165 0.089784 0.010071
0.503105 0.088502 0.001709
0.544427 0.086580 0.000000
0.586847 0.084016 0.000000
0.632044 0.081300 0.000000
0.675410 0.078248 0.000000
0.716976 0.074739 0.000000
0.756680 0.071809 0.000000
0.794491 0.069276 0.000000
0.830594 0.068086 0.000000
0.864988 0.067689 0.000000
0.897978 0.070039 0.000000
0.929442 0.075624 0.000000
0.959472 0.083040 0.002960
0.988098 0.092897 0.041932
1.000000 0.105013 0.071046
1.000000 0.119600 0.092348
0.018158 0.101381 0.020356
0.036439 0.101472 0.020905
0.057771 0.101595 0.021302
0.077790 0.101381 0.023194
0.100191 0.101564 0.025177
0.122347 0.101839 0.030793
0.146487 0.103426 0.038117
0.172427 0.105776 0.042756
0.201755 0.108461 0.042023
0.233036 0.110903 0.041535
0.266575 0.113436 0.038514
0.302281 0.115816 0.035920
0.339788 0.117983 0.032441
0.378668 0.119966 0.027924
0.418555 0.121218 0.021393
0.459358 0.122194 0.014618
0.500694 0.122225 0.005737
0.542229 0.122377 0.000000
0.586175 0.121981 0.000000
0.630701 0.121584 0.000000
0.673487 0.120790 0.000000
0.714809 0.120119 0.000000
0.754391 0.118868 0.000000
0.792386 0.117891 0.000000
0.828611 0.117433 0.000000
0.863249 0.117433 0.000000
0.896391 0.118685 0.000000
0.928038 0.121126 0.000000
0.958129 0.125460 0.009644
0.986847 0.131624 0.049775
1.000000 0.139620 0.074311
1.000000 0.150210 0.095247
0.026490 0.124697 0.031952
0.045014 0.124758 0.031434
0.061585 0.124880 0.031830
0.079561 0.124971 0.032563
0.100923 0.125002 0.034668
0.123293 0.125368 0.035828
0.146304 0.125826 0.040436
0.171725 0.128206 0.046021
0.198947 0.130922 0.049989
0.229770 0.134646 0.049989
0.263493 0.138399 0.047913
0.299382 0.142153 0.044770
0.336858 0.145388 0.040620
0.375952 0.148501 0.035248
0.415961 0.151186 0.028901
0.456916 0.153414 0.021302
0.498482 0.155062 0.012573
0.540124 0.156313 0.002838
0.585565 0.157870 0.000000
0.629786 0.158968 0.000000
0.672541 0.159548 0.000000
0.713954 0.159487 0.000000
0.773068 0.164126 0.000000
0.810086 0.164248 0.000000
0.844907 0.164340 0.000000
0.877958 0.164584 0.000000
0.909422 0.165774 0.000000
0.939269 0.167605 0.022278
0.967773 0.170840 0.055360
0.995117 0.175296 0.074647
1.000000 0.181399 0.093050
1.000000 0.189731 0.111574
0.031098 0.151369 0.040284
0.050050 0.151247 0.039826
0.064057 0.151308 0.040223
0.082399 0.151492 0.041901
0.103944 0.151736 0.042695
0.126619 0.151919 0.043763
0.149844 0.152316 0.044953
0.173831 0.152987 0.047089
0.201480 0.156252 0.050996
0.231418 0.160281 0.054688
0.263340 0.164767 0.058747
0.299840 0.169741 0.055055
0.337743 0.174533 0.051453
0.376989 0.178653 0.046265
0.417182 0.182376 0.038575
0.457954 0.185428 0.031128
0.499367 0.188235 0.021241
0.543725 0.191287 0.010681
0.589441 0.194186 0.000000
0.634241 0.196292 0.000000
0.678248 0.198276 0.000000
0.721340 0.199435 0.000000
0.762875 0.200717 0.000000
0.802365 0.201511 0.000000
0.839384 0.202213 0.000000
0.873808 0.202823 0.000000
0.906065 0.203769 0.007965
0.936370 0.204990 0.036439
0.965270 0.207248 0.062898
0.992706 0.210544 0.080323
1.000000 0.215152 0.097200
1.000000 0.221653 0.115602
0.032715 0.177829 0.046540
0.050996 0.177859 0.047028
0.065064 0.177890 0.047303
0.083650 0.178012 0.046937
0.105440 0.178164 0.047486
0.128389 0.178500 0.048951
0.152193 0.178988 0.049622
0.176547 0.179538 0.051148
0.201419 0.180270 0.053407
0.231113 0.184726 0.056550
0.263127 0.189883 0.059754
0.297154 0.195224 0.061250
0.333471 0.200778 0.061830
0.372808 0.206302 0.058442
0.413062 0.211246 0.052491
0.453986 0.215427 0.044587
0.496864 0.219669 0.034241
0.541924 0.224308 0.022370
0.586633 0.228000 0.010925
0.630915 0.230930 0.000000
0.674525 0.233433 0.000000
0.717342 0.235355 0.000000
0.758785 0.237125 0.000000
0.798276 0.238346 0.000000
0.835447 0.239048 0.000000
0.870115 0.239963 0.004059
0.902647 0.240635 0.024048
0.933349 0.241428 0.051789
0.962493 0.243137 0.069917
0.990204 0.245609 0.086213
1.000000 0.249393 0.103120
1.000000 0.254459 0.121431
0.033295 0.206577 0.052186
0.051575 0.206577 0.051789
0.065766 0.206699 0.051972
0.084901 0.206760 0.052369
0.107454 0.207034 0.052766
0.130861 0.207340 0.053285
0.155245 0.207736 0.054627
0.180148 0.208377 0.055024
0.205600 0.209262 0.056092
0.231540 0.210269 0.058564
0.263523 0.216068 0.060304
0.297429 0.221897 0.062226
0.332921 0.227939 0.063752
0.369787 0.233799 0.065705
0.409186 0.239628 0.064027
0.451331 0.245670 0.059266
0.495735 0.251743 0.051789
0.539910 0.256931 0.039887
0.584070 0.261234 0.027832
0.628046 0.264897 0.017060
0.671443 0.268223 0.006653
0.714137 0.270756 0.000641
0.755459 0.272953 0.000000
0.794949 0.274571 0.001343
0.832181 0.275731 0.010254
0.867002 0.276249 0.025116
0.899779 0.276951 0.046876
0.930694 0.277623 0.064912
0.960021 0.278874 0.078950
0.987884 0.280766 0.094240
1.000000 0.283787 0.110597
1.000000 0.287938 0.128420
0.030213 0.237461 0.056306
0.050141 0.237461 0.056703
0.065553 0.237552 0.056855
0.085786 0.237644 0.057160
0.109194 0.237888 0.057404
0.133516 0.238254 0.057710
0.158602 0.238651 0.058747
0.184207 0.239322 0.059205
0.210391 0.240238 0.059541
0.236973 0.241367 0.060151
0.263645 0.242161 0.061280
0.297520 0.248783 0.062562
0.332982 0.255375 0.064363
0.369787 0.261845 0.065705
0.409339 0.269139 0.067414
0.450324 0.276280 0.069612
0.494362 0.283330 0.064271
0.538445 0.289342 0.059022
0.582452 0.294560 0.049042
0.626032 0.298924 0.037934
0.669001 0.302678 0.029145
0.710964 0.305699 0.023102
0.751675 0.307958 0.020417
0.790646 0.309758 0.023835
0.827695 0.310887 0.033173
0.862699 0.311742 0.048127
0.895933 0.312352 0.062470
0.927367 0.313115 0.074434
0.957214 0.314183 0.088258
0.985534 0.315770 0.103212
1.000000 0.318395 0.119600
1.000000 0.322026 0.137636
0.023041 0.270146 0.059815
0.045411 0.270115 0.060029
0.064424 0.270237 0.059632
0.085908 0.270451 0.060121
0.110353 0.270695 0.060212
0.135805 0.271214 0.060151
0.162051 0.271794 0.060945
0.188510 0.272465 0.060792
0.215457 0.273472 0.061280
0.243076 0.274601 0.061585
0.270848 0.276005 0.062104
0.298405 0.276585 0.062959
0.334264 0.284184 0.064179
0.372656 0.292363 0.065217
0.412055 0.300298 0.066499
0.452277 0.307469 0.068391
0.492927 0.314092 0.070771
0.534752 0.320439 0.070924
0.578637 0.326360 0.065492
0.622187 0.331640 0.060121
0.665126 0.336065 0.053803
0.707210 0.339635 0.049134
0.748043 0.342596 0.048524
0.787198 0.344762 0.051209
0.824399 0.346319 0.059388
0.859556 0.347143 0.066224
0.892882 0.347814 0.074952
0.924437 0.348425 0.086091
0.954376 0.349279 0.098756
0.982879 0.350591 0.113161
1.000000 0.352728 0.129152
1.000000 0.355932 0.147311
0.011414 0.305211 0.061311
0.036316 0.305241 0.061463
0.061799 0.305333 0.061494
0.084840 0.305516 0.061952
0.111330 0.305852 0.061860
0.138155 0.306340 0.062104
0.165438 0.307012 0.061799
0.192874 0.307866 0.062226
0.220798 0.308843 0.062470
0.249180 0.310033 0.062440
0.278233 0.311681 0.062806
0.308934 0.314855 0.063172
0.349035 0.325933 0.063142
0.386969 0.333532 0.064393
0.427253 0.341741 0.065522
0.467994 0.349310 0.067231
0.508934 0.356023 0.069642
0.549920 0.362097 0.072572
0.590631 0.367376 0.076844
0.632746 0.372412 0.075898
0.674830 0.376654 0.073091
0.715816 0.380102 0.072114
0.755337 0.382574 0.072236
0.793271 0.384466 0.074830
0.829404 0.385565 0.079255
0.863737 0.386206 0.085725
0.896330 0.386542 0.093996
0.927092 0.386725 0.104067
0.956329 0.387182 0.115999
0.984253 0.387976 0.129641
1.000000 0.389624 0.145418
1.000000 0.392309 0.162814
0.000000 0.345495 0.062470
0.021759 0.345617 0.062104
0.054994 0.345495 0.062226
0.083375 0.345434 0.062318
0.112001 0.345464 0.062318
0.140475 0.345495 0.062257
0.169100 0.345892 0.062348
0.197818 0.346532 0.062654
0.227176 0.348058 0.062623
0.257939 0.351049 0.062562
0.289647 0.354589 0.062684
0.322179 0.358312 0.062623
0.355444 0.362219 0.062379
0.389197 0.365850 0.062257
0.426947 0.372442 0.063325
0.467659 0.380560 0.065126
0.508263 0.387671 0.067353
0.548852 0.393866 0.069764
0.589166 0.399359 0.074281
0.629206 0.404150 0.079896
0.668788 0.408576 0.086824
0.709957 0.412604 0.085328
0.749630 0.415656 0.085939
0.787778 0.417884 0.088106
0.824155 0.419348 0.092103
0.858793 0.420172 0.097688
0.891722 0.420661 0.105623
0.922850 0.420935 0.115419
0.952453 0.421302 0.126955
0.980713 0.422065 0.140749
1.000000 0.423468 0.156039
1.000000 0.425879 0.173892
0.000000 0.383368 0.062684
0.003326 0.383368 0.062379
0.040467 0.383307 0.062470
0.079896 0.383307 0.062440
0.110903 0.383398 0.062318
0.141543 0.384283 0.062379
0.171786 0.385504 0.062531
0.202182 0.387060 0.062318
0.233036 0.388922 0.062043
0.264408 0.391363 0.061921
0.296483 0.394263 0.061982
0.329351 0.397559 0.061677
0.362799 0.400916 0.061311
0.396490 0.404120 0.061036
0.430304 0.406867 0.060639
0.467048 0.411810 0.061982
0.507256 0.419043 0.064454
0.547448 0.425483 0.067262
0.587579 0.431128 0.071290
0.627344 0.436164 0.076814
0.666835 0.440711 0.084474
0.705684 0.444800 0.092836
0.744137 0.448249 0.100069
0.782650 0.451057 0.101961
0.819364 0.452949 0.105501
0.854337 0.454108 0.111391
0.887602 0.454749 0.118746
0.919097 0.455116 0.128145
0.949004 0.455543 0.139681
0.977539 0.456306 0.153231
1.000000 0.457588 0.169100
1.000000 0.459785 0.186954
0.000000 0.426246 0.061646
0.000000 0.426459 0.062013
0.017243 0.426368 0.061646
0.074647 0.426551 0.061463
0.109834 0.426581 0.061646
0.142428 0.426917 0.061128
0.174258 0.427466 0.061524
0.205844 0.428443 0.061433
0.237461 0.429908 0.061158
0.269810 0.431983 0.060914
0.302342 0.434424 0.060426
0.335546 0.437385 0.060365
0.369329 0.440436 0.060151
0.403357 0.443366 0.059113
0.437385 0.445716 0.059022
0.470985 0.447517 0.057893
0.506706 0.450904 0.060578
0.546502 0.457465 0.063203
0.586297 0.463294 0.067475
0.625910 0.468452 0.073762
0.665064 0.473091 0.081270
0.703700 0.477058 0.090211
0.741360 0.480568 0.100526
0.777920 0.483467 0.112642
0.814389 0.485908 0.119844
0.849882 0.487495 0.125185
0.883787 0.488624 0.132692
0.915923 0.489509 0.142611
0.946441 0.490211 0.154391
0.975463 0.491157 0.168460
1.000000 0.492683 0.184848
1.000000 0.494972 0.203555
0.000000 0.469551 0.060304
0.000000 0.469825 0.060578
0.000000 0.469825 0.060548
0.067048 0.469917 0.060334
0.107118 0.470039 0.060365
0.142580 0.470375 0.060090
0.176181 0.470954 0.059815
0.209232 0.471931 0.059876
0.242191 0.473182 0.059358
0.275059 0.474861 0.059083
0.308263 0.476631 0.059174
0.341741 0.478737 0.059022
0.375311 0.480812 0.058350
0.409216 0.482765 0.057465
0.442939 0.484352 0.056519
0.476661 0.485756 0.055116
0.510185 0.486946 0.054994
0.545312 0.489326 0.058198
0.585260 0.495613 0.063325
0.625025 0.501244 0.069703
0.664393 0.506188 0.077699
0.703151 0.510430 0.088136
0.740871 0.514031 0.099184
0.777523 0.516991 0.111543
0.812802 0.519402 0.125551
0.846830 0.521508 0.140841
0.881010 0.522942 0.148745
0.913420 0.524071 0.158450
0.944060 0.524865 0.170565
0.973114 0.525780 0.184573
1.000000 0.527031 0.200839
1.000000 0.529107 0.219699
0.000000 0.511437 0.059419
0.000000 0.511498 0.059022
0.000000 0.511437 0.059480
0.056977 0.511467 0.059236
0.103365 0.511467 0.058900
0.141115 0.511681 0.059022
0.176425 0.512139 0.059144
0.210666 0.512810 0.058259
0.244450 0.513817 0.058137
0.278111 0.515129 0.057649
0.311894 0.516808 0.057404
0.345861 0.518608 0.056916
0.379889 0.520500 0.056275
0.414069 0.522210 0.055177
0.448096 0.523613 0.054780
0.481788 0.524559 0.053773
0.515496 0.525322 0.053162
0.549218 0.526238 0.052247
0.583978 0.527855 0.056336
0.623468 0.533593 0.064820
0.662684 0.538598 0.073854
0.701198 0.542901 0.084413
0.738888 0.546471 0.096376
0.775570 0.549462 0.109865
0.810910 0.551812 0.124453
0.845090 0.553826 0.140322
0.877897 0.555718 0.157565
0.909606 0.557427 0.174197
0.940642 0.558465 0.186313
0.970001 0.559564 0.200839
0.997772 0.560906 0.217411
1.000000 0.563012 0.236820
0.000000 0.553491 0.058442
0.000000 0.553735 0.057954
0.000000 0.565179 0.059449
0.032349 0.565057 0.059297
0.100801 0.564904 0.059358
0.141939 0.564660 0.059419
0.179721 0.564569 0.059449
0.215640 0.564599 0.058625
0.250919 0.564935 0.058930
0.285710 0.565637 0.058900
0.320348 0.566552 0.058656
0.354925 0.567529 0.058808
0.389441 0.568414 0.058656
0.423896 0.569177 0.058686
0.458045 0.569757 0.058412
0.492073 0.570062 0.058015
0.525872 0.570275 0.058656
0.559594 0.570336 0.058106
0.593347 0.570397 0.057435
0.627802 0.571221 0.061189
0.666194 0.575586 0.071687
0.704189 0.579370 0.083711
0.741329 0.582483 0.096559
0.777340 0.584894 0.110811
0.811917 0.586481 0.125704
0.845304 0.587762 0.141848
0.877379 0.588800 0.159213
0.908202 0.589868 0.178195
0.937652 0.591394 0.199435
0.966613 0.592828 0.217624
0.994568 0.594293 0.234653
1.000000 0.596368 0.254368
0.000000 0.597528 0.059846
0.000000 0.599023 0.060243
0.000000 0.600458 0.060487
0.007691 0.601770 0.061189
0.095308 0.602655 0.060822
0.139620 0.602960 0.061402
0.178653 0.603082 0.060700
0.215335 0.603052 0.061189
0.251255 0.603388 0.060914
0.286503 0.603815 0.061067
0.321599 0.604486 0.060945
0.356420 0.605219 0.061219
0.391058 0.605859 0.062135
0.425544 0.606348 0.061921
0.459785 0.606653 0.062013
0.493874 0.606744 0.061952
0.527794 0.606744 0.062043
0.561486 0.606683 0.062715
0.595392 0.606744 0.063539
0.629450 0.607019 0.063569
0.664118 0.607843 0.066621
0.702174 0.611902 0.079805
0.739406 0.615106 0.093843
0.775540 0.617578 0.109041
0.810239 0.619196 0.125032
0.843809 0.620356 0.141604
0.876005 0.621241 0.159823
0.906859 0.622034 0.179690
0.936400 0.623072 0.201389
0.964599 0.624689 0.225467
0.991363 0.627192 0.252049
1.000000 0.629450 0.273136
0.000000 0.636164 0.063539
0.000000 0.637476 0.064424
0.000000 0.638819 0.064668
0.000000 0.639979 0.064973
0.091493 0.640803 0.065400
0.137697 0.641077 0.065522
0.177981 0.641047 0.065736
0.215274 0.641077 0.065705
0.251682 0.641230 0.065583
0.287297 0.641566 0.066102
0.322576 0.642145 0.066773
0.357763 0.642695 0.066743
0.392584 0.643122 0.067292
0.427192 0.643519 0.067903
0.461585 0.643641 0.068482
0.495644 0.643580 0.068940
0.529625 0.643427 0.069154
0.563470 0.643275 0.070161
0.597375 0.643183 0.070985
0.631434 0.643366 0.072084
0.665644 0.643732 0.073610
0.700618 0.644831 0.076356
0.737942 0.648157 0.091554
0.774044 0.650568 0.107790
0.808804 0.652064 0.124575
0.842313 0.652979 0.141939
0.874510 0.653590 0.160678
0.905333 0.654017 0.180911
0.934813 0.654597 0.203311
0.963012 0.655604 0.227695
0.989807 0.657435 0.254612
1.000000 0.660456 0.284672
0.000000 0.674037 0.070314
0.000000 0.675257 0.071046
0.000000 0.676478 0.071290
0.000000 0.677516 0.072267
0.089906 0.678248 0.072663
0.137392 0.678462 0.072816
0.177920 0.678431 0.072999
0.215518 0.678370 0.073030
0.252201 0.678340 0.073793
0.288121 0.678523 0.074037
0.323552 0.678859 0.074525
0.358709 0.679225 0.075319
0.393561 0.679469 0.075959
0.428229 0.679683 0.076936
0.462776 0.679835 0.078004
0.497139 0.679988 0.078737
0.531456 0.680171 0.080385
0.565911 0.680507 0.081727
0.600427 0.680964 0.083467
0.635126 0.681636 0.085725
0.669978 0.682551 0.087892
0.704952 0.683467 0.090913
0.740627 0.685054 0.093751
0.777035 0.687495 0.110842
0.811948 0.688930 0.129061
0.845457 0.689693 0.147646
0.877501 0.689845 0.167514
0.908049 0.689754 0.188693
0.937255 0.689693 0.211765
0.965057 0.690059 0.236790
0.991424 0.691127 0.264561
1.000000 0.693294 0.295079
0.000000 0.715755 0.083467
0.000000 0.716335 0.083772
0.000000 0.716732 0.083864
0.000000 0.717006 0.084199
0.092744 0.717189 0.084810
0.139406 0.717128 0.084871
0.179904 0.716976 0.085420
0.217655 0.716945 0.085664
0.254582 0.717098 0.086061
0.290684 0.717311 0.086702
0.326329 0.717739 0.088075
0.361700 0.718074 0.088960
0.396612 0.718288 0.089937
0.431342 0.718349 0.091127
0.465827 0.718288 0.092409
0.500206 0.718196 0.093690
0.534478 0.718105 0.095216
0.568780 0.718166 0.096590
0.603021 0.718288 0.098787
0.637354 0.718471 0.101076
0.671687 0.718776 0.103670
0.706081 0.719112 0.106233
0.740383 0.719509 0.109804
0.775357 0.720485 0.112978
0.810422 0.721859 0.129366
0.843900 0.722377 0.148684
0.875975 0.722286 0.169162
0.906554 0.721859 0.191043
0.935760 0.721370 0.214664
0.963531 0.721157 0.240208
0.989868 0.721523 0.268254
1.000000 0.722957 0.299199
0.000000 0.751431 0.096620
0.000000 0.751980 0.097139
0.000000 0.752438 0.097353
0.013886 0.752743 0.097841
0.098909 0.752804 0.098421
0.143160 0.752651 0.098543
0.182773 0.752468 0.098817
0.220035 0.752255 0.099214
0.256596 0.752163 0.099763
0.292363 0.752224 0.100679
0.327733 0.752438 0.101747
0.362829 0.752621 0.103090
0.397559 0.752743 0.104036
0.432258 0.752743 0.105715
0.466651 0.752712 0.107027
0.500969 0.752651 0.108522
0.535210 0.752590 0.110231
0.569329 0.752621 0.112428
0.603601 0.752743 0.114900
0.637812 0.752987 0.117586
0.672053 0.753292 0.120699
0.706355 0.753628 0.124208
0.740566 0.754086 0.127871
0.774716 0.754482 0.131930
0.806729 0.752834 0.132815
0.841245 0.753994 0.148653
0.873411 0.753719 0.169741
0.904082 0.752987 0.192142
0.933318 0.752102 0.216159
0.961212 0.751400 0.242252
0.987732 0.751247 0.270634
1.000000 0.752132 0.302495
0.000000 0.789425 0.115999
0.000000 0.790005 0.116548
0.000000 0.790280 0.116854
0.065003 0.790341 0.117250
0.112703 0.790188 0.117281
0.152468 0.789792 0.117372
0.189822 0.789303 0.117433
0.225772 0.788754 0.117617
0.261265 0.788205 0.118044
0.296208 0.787808 0.118593
0.330785 0.787411 0.119356
0.365209 0.787137 0.120272
0.399573 0.786862 0.121370
0.433661 0.786435 0.122408
0.467475 0.785885 0.123537
0.501152 0.785275 0.124941
0.534783 0.784695 0.126467
0.568444 0.784360 0.128542
0.602228 0.784298 0.130831
0.636225 0.784482 0.133913
0.670222 0.784878 0.137606
0.704250 0.785245 0.141115
0.738094 0.785458 0.145266
0.771664 0.785489 0.149111
0.804837 0.785306 0.153170
0.838193 0.785306 0.156802
0.872190 0.786343 0.172427
0.902617 0.785000 0.195132
0.931670 0.783536 0.219303
0.959472 0.782193 0.245579
0.985992 0.781460 0.274601
1.000000 0.781613 0.306889
0.000000 0.821683 0.133639
0.000000 0.822171 0.134310
0.042512 0.822507 0.134707
0.089296 0.822568 0.135042
0.127077 0.822354 0.135103
0.162722 0.822080 0.135470
0.197482 0.821683 0.135683
0.232059 0.821225 0.135927
0.266300 0.820829 0.136568
0.300481 0.820523 0.137453
0.334447 0.820279 0.138369
0.368475 0.820096 0.139559
0.402350 0.819944 0.141054
0.436103 0.819608 0.142367
0.469642 0.819181 0.144045
0.503014 0.818692 0.145632
0.536461 0.818173 0.147494
0.569818 0.817807 0.149569
0.603296 0.817655 0.152346
0.636866 0.817685 0.155612
0.670497 0.817807 0.159335
0.704067 0.817990 0.163394
0.737484 0.818021 0.167605
0.770626 0.817960 0.171603
0.803555 0.817685 0.175998
0.836149 0.817288 0.180484
0.868589 0.816861 0.185000
0.902434 0.818173 0.200687
0.931395 0.816159 0.225620
0.959045 0.814267 0.252384
0.985504 0.812894 0.282170
1.000000 0.812284 0.314946
0.062562 0.853849 0.155184
0.077699 0.854154 0.155703
0.092500 0.854276 0.155886
0.117067 0.854124 0.156130
0.145907 0.853819 0.156130
0.176791 0.853391 0.156130
0.208469 0.852873 0.156252
0.240726 0.852384 0.156374
0.273503 0.851957 0.157229
0.306218 0.851652 0.157900
0.339300 0.851377 0.159121
0.372442 0.851225 0.160555
0.405676 0.851041 0.162142
0.438849 0.850736 0.163943
0.471748 0.850278 0.165560
0.504662 0.849699 0.167391
0.537499 0.849119 0.169345
0.570336 0.848600 0.171756
0.603326 0.848295 0.174380
0.636347 0.848142 0.177707
0.669429 0.848112 0.181491
0.702510 0.848112 0.185733
0.735348 0.848020 0.190158
0.768063 0.847807 0.194644
0.800473 0.847471 0.199222
0.832609 0.846983 0.203861
0.864591 0.846494 0.208804
0.896300 0.845914 0.213993
0.929778 0.847440 0.229618
0.957488 0.845060 0.257115
0.983886 0.842985 0.286961
1.000000 0.841611 0.320043
0.109438 0.883299 0.177707
0.117189 0.883452 0.178103
0.126802 0.883543 0.178378
0.144350 0.883482 0.178439
0.167941 0.883330 0.178744
0.194827 0.883238 0.179171
0.223667 0.883238 0.180056
0.254002 0.883360 0.181399
0.285374 0.883604 0.183261
0.317144 0.883940 0.185214
0.349340 0.884306 0.187594
0.381811 0.884642 0.190066
0.414405 0.884886 0.192508
0.446906 0.884886 0.195010
0.479377 0.884672 0.197391
0.511620 0.884184 0.199588
0.543877 0.883604 0.201938
0.576074 0.883024 0.204562
0.608484 0.882567 0.207706
0.640864 0.882261 0.211124
0.673274 0.881987 0.215244
0.705653 0.881712 0.219547
0.737850 0.881376 0.224094
0.769894 0.880919 0.228672
0.801694 0.880369 0.233555
0.833249 0.879759 0.238590
0.864591 0.879088 0.243687
0.895720 0.878386 0.249180
0.926696 0.877745 0.255253
0.959747 0.879576 0.271489
0.985565 0.876524 0.301793
1.000000 0.874022 0.335180
0.156924 0.915099 0.209201
0.161990 0.915190 0.209476
0.168490 0.915129 0.209781
0.181125 0.914977 0.209689
0.199405 0.914702 0.209689
0.221225 0.914397 0.210086
0.245914 0.914122 0.210575
0.272648 0.913878 0.211276
0.300877 0.913695 0.212375
0.330297 0.913542 0.213870
0.360266 0.913390 0.215579
0.390814 0.913237 0.217441
0.421698 0.913024 0.219486
0.452857 0.912718 0.221714
0.484077 0.912261 0.223850
0.515373 0.911711 0.226352
0.546685 0.911131 0.228794
0.578119 0.910582 0.231479
0.609674 0.910094 0.234775
0.641382 0.909636 0.238437
0.672999 0.909239 0.242649
0.704616 0.908843 0.247013
