lut_library/filter_lut/负片11.5.cube
LUT_3D_SIZE 8
DOMAIN_MIN 0.000000 0.000000 0.000000
DOMAIN_MAX 0.903226 0.903226 0.903226
0.000000 0.000000 0.000000
0.104646 0.006256 0.005554
0.210117 0.018189 0.021210
0.348241 0.009796 0.020813
0.509209 0.000000 0.000000
0.683345 0.000000 0.000000
0.837400 0.000000 0.000000
0.963043 0.000000 0.000000
0.018158 0.101381 0.020356
0.100191 0.101564 0.025177
0.201755 0.108461 0.042023
0.339788 0.117983 0.032441
0.500694 0.122225 0.005737
0.673487 0.120790 0.000000
0.828611 0.117433 0.000000
0.958129 0.125460 0.009644
0.033295 0.206577 0.052186
0.107454 0.207034 0.052766
0.205600 0.209262 0.056092
0.332921 0.227939 0.063752
0.495735 0.251743 0.051789
0.671443 0.268223 0.006653
0.832181 0.275731 0.010254
0.960021 0.278874 0.078950
0.000000 0.345495 0.062470
0.112001 0.345464 0.062318
0.227176 0.348058 0.062623
0.355444 0.362219 0.062379
0.508263 0.387671 0.067353
0.668788 0.408576 0.086824
0.824155 0.419348 0.092103
0.952453 0.421302 0.126955
0.000000 0.511437 0.059419
0.103365 0.511467 0.058900
0.244450 0.513817 0.058137
0.379889 0.520500 0.056275
0.515496 0.525322 0.053162
0.662684 0.538598 0.073854
0.810910 0.551812 0.124453
0.940642 0.558465 0.186313
0.000000 0.674037 0.070314
0.089906 0.678248 0.072663
0.252201 0.678340 0.073793
0.393561 0.679469 0.075959
0.531456 0.680171 0.080385
0.669978 0.682551 0.087892
0.811948 0.688930 0.129061
0.937255 0.689693 0.211765
0.000000 0.821683 0.133639
0.127077 0.822354 0.135103
0.266300 0.820829 0.136568
0.402350 0.819944 0.141054
0.536461 0.818173 0.147494
0.670497 0.817807 0.159335
0.803555 0.817685 0.175998
0.931395 0.816159 0.225620
0.193668 0.941314 0.236973
0.227695 0.940948 0.237675
0.317906 0.940185 0.241032
0.431800 0.939818 0.249485
0.547173 0.933898 0.250095
0.671077 0.932769 0.266423
0.794797 0.931701 0.289006
0.914397 0.928832 0.312627
0.010712 0.011200 0.106081
0.104158 0.005249 0.109041
0.209873 0.002014 0.112215
0.349401 0.000000 0.109773
0.507713 0.000000 0.108125
0.675593 0.000000 0.104158
0.828550 0.000000 0.103273
0.956970 0.000000 0.116365
0.027222 0.102022 0.105043
0.102754 0.104585 0.108553
0.208469 0.103975 0.111116
0.344579 0.100984 0.112459
0.502861 0.091676 0.110292
0.670283 0.076997 0.105776
0.821958 0.067903 0.104494
0.951934 0.089082 0.117433
0.040650 0.204898 0.116579
0.106538 0.208408 0.118105
0.206729 0.211215 0.118929
0.333959 0.226810 0.125307
0.495674 0.244511 0.121431
0.665034 0.255131 0.116732
0.820676 0.260258 0.118196
0.952270 0.266484 0.137331
0.000000 0.341955 0.131563
0.100191 0.344701 0.124697
0.224033 0.348547 0.125307
0.348760 0.355840 0.126711
0.494820 0.375830 0.132204
0.654536 0.396094 0.141329
0.811521 0.407904 0.144808
0.944793 0.413336 0.168399
0.000000 0.509758 0.139925
0.077729 0.510216 0.129641
0.236393 0.510857 0.129610
0.372473 0.513695 0.129519
0.506615 0.516777 0.129397
0.654902 0.531334 0.139925
0.804440 0.546166 0.173190
0.936065 0.554284 0.218875
0.000000 0.669795 0.141848
0.048768 0.670222 0.140200
0.242161 0.670771 0.140871
0.386633 0.673243 0.143191
0.526787 0.675807 0.146822
0.667445 0.680140 0.153017
0.809171 0.686305 0.180850
0.933684 0.687129 0.245701
0.000000 0.815732 0.180636
0.111299 0.814664 0.180179
0.259251 0.814115 0.181613
0.397894 0.815000 0.186526
0.533501 0.814847 0.192996
0.667262 0.814328 0.201907
0.799130 0.813321 0.213687
0.926574 0.811826 0.254429
0.195438 0.938231 0.267124
0.229831 0.938293 0.268437
0.319371 0.937835 0.271977
0.432807 0.937774 0.280156
0.552422 0.936156 0.289433
0.673518 0.933501 0.300969
0.794705 0.930816 0.317540
0.912932 0.927276 0.336950
0.028199 0.031861 0.221134
0.109468 0.020203 0.224369
0.218051 0.000000 0.230167
0.354284 0.000000 0.244724
0.517998 0.000000 0.252384
0.691066 0.000000 0.246403
0.840635 0.000000 0.238956
0.963531 0.000000 0.249180
0.023682 0.111666 0.220676
0.105623 0.109590 0.223667
0.215763 0.098360 0.229923
0.353307 0.067353 0.241184
0.517937 0.000000 0.245701
0.688380 0.000000 0.233890
0.835477 0.000000 0.239078
0.960418 0.000000 0.250278
0.022248 0.213291 0.221775
0.105562 0.214786 0.224186
0.213169 0.219089 0.230350
0.356054 0.215610 0.232914
0.520287 0.216556 0.238346
0.682429 0.217136 0.242130
0.830289 0.224125 0.248356
0.956085 0.242283 0.261601
0.000000 0.344915 0.241642
0.095277 0.348150 0.242710
0.219486 0.358984 0.244236
0.356878 0.365515 0.246311
0.508751 0.380865 0.256168
0.671046 0.393500 0.260838
0.822110 0.401099 0.268376
0.949554 0.408637 0.285588
0.000000 0.509789 0.265415
0.061006 0.512200 0.264012
0.221408 0.519371 0.256870
0.371923 0.523430 0.257694
0.515007 0.526238 0.259556
0.663386 0.536126 0.270695
0.808286 0.548058 0.296208
0.938537 0.556176 0.322362
0.000000 0.669795 0.280278
0.006226 0.671260 0.278752
0.227237 0.674556 0.271122
0.380926 0.675196 0.272740
0.524681 0.676539 0.275700
0.666743 0.679896 0.281468
0.808713 0.686183 0.302922
0.933074 0.690639 0.353002
0.000000 0.817197 0.303258
0.117891 0.816953 0.303166
0.261784 0.816434 0.303532
0.399207 0.815640 0.305852
0.534356 0.814755 0.309789
0.668666 0.814878 0.317357
0.801663 0.815732 0.328832
0.928374 0.815640 0.363622
0.205447 0.937804 0.353857
0.242435 0.937102 0.356939
0.338476 0.935821 0.368841
0.447425 0.936584 0.377630
0.561761 0.934813 0.384283
0.679927 0.932769 0.394324
0.798459 0.930694 0.408545
0.914275 0.928038 0.425513
0.013519 0.024720 0.369818
0.117525 0.008270 0.373388
0.236881 0.000000 0.381231
0.366217 0.000000 0.387671
0.520775 0.000000 0.404242
0.686793 0.000000 0.413489
0.835752 0.000000 0.406592
0.961700 0.000000 0.394659
0.000000 0.115663 0.373022
0.105196 0.112032 0.375250
0.231662 0.092470 0.381964
0.365789 0.008118 0.388800
0.522271 0.000000 0.403815
0.685725 0.000000 0.410132
0.834134 0.000000 0.403113
0.960662 0.000000 0.393042
0.000000 0.235355 0.369909
0.089113 0.233646 0.371832
0.215702 0.224277 0.380652
0.363348 0.210880 0.391211
0.526635 0.198550 0.402319
0.691249 0.179446 0.406165
0.840696 0.175418 0.403388
0.961151 0.213870 0.404669
0.000000 0.361334 0.376654
0.067231 0.362615 0.378485
0.217990 0.366827 0.384558
0.363867 0.374212 0.394232
0.528679 0.370306 0.397375
0.685634 0.374884 0.401678
0.829648 0.385901 0.409491
0.952300 0.404303 0.422370
0.000000 0.513420 0.399084
0.000000 0.514458 0.399298
0.219120 0.520256 0.401984
0.373236 0.531670 0.409613
0.523156 0.535668 0.412634
0.671870 0.543755 0.424323
0.816251 0.553765 0.436896
0.940887 0.562371 0.453132
0.000000 0.673518 0.419257
0.000000 0.677485 0.421302
0.231876 0.679255 0.421302
0.387884 0.683711 0.426215
0.532799 0.685054 0.429908
0.672755 0.686213 0.433997
0.810666 0.691554 0.452186
0.930175 0.699886 0.490242
0.000000 0.816831 0.434455
0.118776 0.817533 0.435462
0.269322 0.818845 0.439521
0.420539 0.819944 0.454292
0.549004 0.819150 0.457923
0.677333 0.818326 0.462867
0.804440 0.817899 0.470161
0.925994 0.818479 0.497261
0.219791 0.938384 0.466957
0.256229 0.938293 0.469642
0.352483 0.937102 0.479103
0.480842 0.934569 0.505333
0.583673 0.932982 0.509575
0.693202 0.931304 0.516106
0.805203 0.929931 0.526268
0.915709 0.928344 0.538476
0.000000 0.000000 0.539300
0.119722 0.000000 0.541558
0.250553 0.000000 0.546868
0.387121 0.000000 0.556481
0.534386 0.000000 0.565576
0.685512 0.000000 0.569848
0.832059 0.000000 0.566094
0.957275 0.000000 0.551873
0.000000 0.115633 0.540826
0.098939 0.110811 0.543511
0.243198 0.085695 0.548425
0.383337 0.000000 0.556725
0.533349 0.000000 0.565698
0.685817 0.000000 0.569512
0.832181 0.000000 0.565148
0.956878 0.000000 0.551263
0.000000 0.243412 0.540826
0.000000 0.238437 0.543236
0.218662 0.230228 0.548333
0.372930 0.212833 0.558465
0.529137 0.188327 0.564904
0.683192 0.169284 0.565606
0.830014 0.159823 0.561089
0.954131 0.181704 0.548913
0.000000 0.385199 0.541772
0.000000 0.384619 0.542779
0.220554 0.383825 0.547326
0.366857 0.379553 0.557916
0.525750 0.367437 0.566552
0.684169 0.365515 0.565454
0.829343 0.368994 0.560327
0.952087 0.382635 0.553155
0.000000 0.523827 0.546014
0.000000 0.524743 0.547265
0.215488 0.526909 0.550439
0.373388 0.531518 0.556329
0.525719 0.538354 0.563165
0.681361 0.537499 0.564782
0.821866 0.546807 0.569177
0.941436 0.561181 0.577722
0.000000 0.667323 0.553704
0.000000 0.668208 0.554345
0.220462 0.669947 0.555688
0.379675 0.674128 0.560327
0.532128 0.679866 0.568078
0.673182 0.685695 0.577478
0.808713 0.696040 0.593256
0.928344 0.706477 0.610803
0.000000 0.813840 0.568200
0.112734 0.813687 0.568353
0.266392 0.813962 0.570336
0.414618 0.815213 0.576806
0.559106 0.816739 0.589410
0.684199 0.816831 0.596551
0.804654 0.816800 0.600610
0.920958 0.819059 0.619196
0.223301 0.933959 0.583795
0.258000 0.933532 0.585016
0.352361 0.932311 0.590265
0.475166 0.932799 0.603693
0.605737 0.929808 0.627131
0.706203 0.928527 0.630976
0.810849 0.927642 0.637140
0.915526 0.926665 0.644800
0.000000 0.000000 0.701228
0.119600 0.000000 0.702205
0.255894 0.000000 0.704097
0.393469 0.000000 0.711849
0.536828 0.000000 0.720211
0.682704 0.000000 0.721309
0.828763 0.000000 0.719448
0.952453 0.000000 0.701472
0.000000 0.118654 0.698756
0.097047 0.113191 0.699428
0.247288 0.089052 0.702266
0.388006 0.000000 0.709651
0.532677 0.000000 0.717617
0.680323 0.000000 0.719478
0.827481 0.000000 0.718074
0.951446 0.000000 0.700435
0.000000 0.249851 0.702632
0.000000 0.247776 0.703273
0.227848 0.240513 0.706081
0.378393 0.224949 0.711360
0.527092 0.193576 0.717708
0.678889 0.168643 0.719814
0.827268 0.159518 0.717403
0.950317 0.188724 0.699825
0.000000 0.399603 0.700862
0.013642 0.398352 0.701289
0.232425 0.396063 0.705043
0.380072 0.392523 0.712581
0.527031 0.380713 0.719692
0.680293 0.370031 0.723018
0.828122 0.372686 0.718563
0.948699 0.387762 0.701900
0.000000 0.535790 0.698177
0.033539 0.536095 0.698817
0.244205 0.537865 0.700771
0.397101 0.543542 0.704189
0.534081 0.546105 0.711147
0.675746 0.535576 0.717647
0.821897 0.537713 0.713130
0.942321 0.547021 0.702205
0.000000 0.671015 0.697566
0.003082 0.672297 0.698970
0.244144 0.673976 0.700771
0.397589 0.677211 0.703517
0.541253 0.682155 0.706752
0.681025 0.691890 0.713680
0.818387 0.695338 0.716426
0.933379 0.706691 0.721492
0.000000 0.814206 0.706355
0.130037 0.814939 0.707271
0.277440 0.815183 0.708431
0.421698 0.815640 0.710780
0.559411 0.816617 0.713832
0.693568 0.818723 0.721096
0.809659 0.819791 0.727626
0.919860 0.826505 0.741024
0.243412 0.932006 0.708736
0.275181 0.931548 0.709285
0.363867 0.930266 0.711482
0.476600 0.929503 0.716243
0.595972 0.928191 0.723049
0.719997 0.926513 0.739345
0.820279 0.926299 0.747280
0.917082 0.926299 0.751827
0.011658 0.064454 0.835569
0.130587 0.052308 0.836149
0.259129 0.000000 0.837888
0.390051 0.000000 0.841032
0.524163 0.000000 0.844419
0.663478 0.000000 0.848478
0.805386 0.000000 0.848081
0.943511 0.000000 0.842771
0.000000 0.138186 0.835813
0.119722 0.134249 0.836301
0.254246 0.117830 0.837888
0.387091 0.072755 0.840513
0.522393 0.000000 0.844114
0.662562 0.000000 0.848478
0.805142 0.000000 0.848020
0.943267 0.000000 0.842466
0.000000 0.265354 0.835660
0.097475 0.263554 0.836057
0.246220 0.257420 0.837461
0.382361 0.244694 0.839933
0.519341 0.221500 0.843381
0.660426 0.178531 0.847837
0.804471 0.172091 0.847623
0.942260 0.183871 0.841428
0.076204 0.410498 0.833646
0.148226 0.410468 0.833921
0.268833 0.409705 0.835477
0.393011 0.403510 0.837858
0.523491 0.392523 0.841337
0.660700 0.373816 0.845853
0.804074 0.370916 0.846555
0.940063 0.380560 0.839567
0.151400 0.546288 0.829801
0.199039 0.547509 0.829984
0.309972 0.552178 0.830625
0.430884 0.558282 0.833433
0.546075 0.555688 0.837400
0.668574 0.544152 0.842252
0.805081 0.538201 0.844694
0.936400 0.545586 0.837369
0.166293 0.674281 0.829404
0.210758 0.675013 0.829557
0.318914 0.678004 0.830076
0.444678 0.683803 0.830961
0.571527 0.692164 0.832395
0.688869 0.697780 0.837247
0.807919 0.690150 0.842374
0.931792 0.694484 0.836179
0.187716 0.801328 0.828946
0.228092 0.801633 0.829129
0.330510 0.802853 0.829648
0.450172 0.805234 0.830655
0.575341 0.809079 0.832212
0.699367 0.814847 0.834684
0.815305 0.823117 0.838865
0.926543 0.827024 0.840360
0.266728 0.929107 0.833127
0.295933 0.928893 0.833249
0.377508 0.928313 0.833616
0.484047 0.927428 0.834195
0.601038 0.926360 0.835660
0.717494 0.925719 0.838682
0.827817 0.926390 0.845151
0.920256 0.927306 0.851286
0.136324 0.146792 0.948089
0.179263 0.144106 0.948241
0.278416 0.132876 0.948821
0.394079 0.104372 0.949920
0.516289 0.000000 0.951537
0.643122 0.000000 0.953643
0.775448 0.000000 0.955383
0.910491 0.000000 0.954314
0.141207 0.193790 0.947845
0.182589 0.191684 0.947997
0.280003 0.183352 0.948608
0.394842 0.165377 0.949676
0.516625 0.128328 0.951293
0.643214 0.000000 0.953399
0.775448 0.000000 0.955200
0.910460 0.000000 0.954131
0.172519 0.307286 0.946746
0.206271 0.306065 0.946929
0.293584 0.301366 0.947509
0.402655 0.292058 0.948638
0.520989 0.275212 0.950225
0.645197 0.246494 0.952392
0.775906 0.204593 0.954528
0.910521 0.222873 0.953338
0.257450 0.450080 0.944091
0.278538 0.449287 0.944244
0.342260 0.446296 0.944884
0.433204 0.440314 0.946044
0.539055 0.429999 0.947723
0.654597 0.413001 0.950072
0.778897 0.384924 0.953002
0.911131 0.397559 0.951751
0.324498 0.579217 0.940032
0.345647 0.580987 0.940124
0.409064 0.586450 0.940551
0.491341 0.590082 0.941711
0.575677 0.582147 0.943664
0.675044 0.570153 0.946258
0.787778 0.552117 0.949493
0.912688 0.555077 0.949248
0.356268 0.692164 0.937591
0.376837 0.693721 0.937560
0.439002 0.698878 0.937377
0.526085 0.706966 0.937224
0.619226 0.714870 0.938476
0.707851 0.713802 0.941283
0.803403 0.702876 0.944915
0.915496 0.699397 0.946288
0.373877 0.801877 0.936370
0.392554 0.802670 0.936339
0.449836 0.805234 0.936309
0.533654 0.809781 0.936278
0.631891 0.816770 0.936339
0.733852 0.826139 0.936675
0.826139 0.831449 0.939910
0.919921 0.826413 0.943694
0.392004 0.913787 0.935058
0.408759 0.914000 0.935058
0.462196 0.914855 0.935149
0.542992 0.916442 0.935302
0.638453 0.918822 0.935637
0.737728 0.922210 0.936370
0.836271 0.926635 0.937987
0.928130 0.932921 0.941253
