lut_library/filter_lut/负片11.5.cube
LUT_3D_SIZE 5
DOMAIN_MIN 0.000000 0.000000 0.000000
DOMAIN_MAX 0.903226 0.903226 0.903226
0.000000 0.000000 0.000000
0.181216 0.015442 0.017060
0.427253 0.000000 0.011200
0.725521 0.000000 0.000000
0.963043 0.000000 0.000000
0.032715 0.177829 0.046540
0.176547 0.179538 0.051148
0.413062 0.211246 0.052491
0.717342 0.235355 0.000000
0.962493 0.243137 0.069917
0.000000 0.426246 0.061646
0.205844 0.428443 0.061433
0.437385 0.445716 0.059022
0.703700 0.477058 0.090211
0.946441 0.490211 0.154391
0.000000 0.715755 0.083467
0.217655 0.716945 0.085664
0.465827 0.718288 0.092409
0.706081 0.719112 0.106233
0.935760 0.721370 0.214664
0.193668 0.941314 0.236973
0.292088 0.940337 0.239658
0.486061 0.934600 0.244327
0.702235 0.932586 0.271763
0.914397 0.928832 0.312627
0.026246 0.027985 0.188113
0.186069 0.000000 0.196078
0.432197 0.000000 0.213687
0.724392 0.000000 0.198550
0.959594 0.000000 0.212467
0.033631 0.182315 0.189334
0.182437 0.187106 0.196323
0.430732 0.182376 0.200290
0.717739 0.180667 0.205966
0.956359 0.204501 0.224430
0.000000 0.425299 0.224277
0.186038 0.433204 0.215915
0.431189 0.440681 0.217533
0.698238 0.468208 0.239963
0.945098 0.485420 0.273045
0.000000 0.714870 0.254734
0.199802 0.718441 0.247471
0.462104 0.718959 0.251347
0.705379 0.718868 0.258946
0.933318 0.722072 0.326543
0.212924 0.940154 0.334844
0.313024 0.938903 0.344610
0.500969 0.937011 0.354314
0.708919 0.933471 0.372534
0.915648 0.929564 0.404334
0.000000 0.014191 0.454078
0.212711 0.000000 0.460883
0.448524 0.000000 0.474861
0.725154 0.000000 0.492622
0.959594 0.000000 0.474678
0.000000 0.207553 0.455940
0.185672 0.195377 0.462165
0.448676 0.157626 0.479377
0.724392 0.094911 0.487251
0.959106 0.119753 0.474372
0.000000 0.442695 0.461555
0.176394 0.445350 0.465583
0.444007 0.456031 0.479652
0.720943 0.459602 0.486091
0.947173 0.486366 0.503563
0.000000 0.710445 0.491951
0.191928 0.711238 0.491951
0.469520 0.718837 0.505608
0.708705 0.721798 0.515648
0.925353 0.731624 0.554406
0.217929 0.935302 0.523125
0.324376 0.935058 0.530907
0.543969 0.931914 0.566796
0.725429 0.929076 0.574334
0.914733 0.926696 0.589441
0.000000 0.000000 0.734310
0.222232 0.000000 0.737240
0.462013 0.000000 0.748714
0.714412 0.000000 0.754299
0.949401 0.000000 0.736385
0.000000 0.216556 0.735348
0.195438 0.208347 0.738155
0.452399 0.169253 0.746731
0.710811 0.081697 0.752132
0.946807 0.101411 0.733700
0.000000 0.467506 0.730129
0.213718 0.468696 0.731746
0.454932 0.466926 0.740963
0.707546 0.449317 0.750057
0.942260 0.463172 0.733516
0.000000 0.707027 0.734218
0.221134 0.707210 0.734371
0.477729 0.712825 0.738338
0.716243 0.726467 0.746914
0.930083 0.736690 0.751186
0.248325 0.931151 0.739742
0.342992 0.930358 0.741787
0.538781 0.928985 0.748836
0.748959 0.926818 0.767727
0.917296 0.925994 0.776761
0.136324 0.146792 0.948089
0.251316 0.136721 0.948638
0.454566 0.074189 0.950652
0.675593 0.000000 0.954253
0.910491 0.000000 0.954314
0.159884 0.275181 0.947173
0.262333 0.270298 0.947723
0.458442 0.249119 0.949737
0.676448 0.189548 0.953368
0.910491 0.170962 0.953613
0.297246 0.518059 0.942077
0.369512 0.524620 0.942473
0.506645 0.513451 0.944854
0.692256 0.488533 0.949035
0.911772 0.477790 0.950591
0.360601 0.719387 0.937285
0.423316 0.723812 0.937163
0.576806 0.737209 0.936950
0.738949 0.744778 0.940795
0.916472 0.732784 0.945586
0.392004 0.913787 0.935058
0.445686 0.914580 0.935119
0.589624 0.917510 0.935424
0.762387 0.923186 0.936675
0.928130 0.932921 0.941253
