lut_library/filter_lut/质感11.5.cube
LUT_3D_SIZE 32
DOMAIN_MIN 0.0 0.0 0.0
DOMAIN_MAX 1.0 1.0 1.0
0.000000 0.000000 0.000000
0.024903 0.000549 0.000397
0.056092 0.000763 0.000549
0.081209 0.000000 0.000000
0.104768 0.000488 0.000580
0.130373 0.001068 0.001251
0.158083 0.001129 0.001648
0.187900 0.001068 0.001465
0.219760 0.000061 0.000427
0.253391 0.000000 0.000000
0.289036 0.000000 0.000000
0.326268 0.000000 0.000000
0.364874 0.000000 0.000000
0.404822 0.000000 0.000000
0.445686 0.000000 0.000000
0.487343 0.000000 0.000000
0.529747 0.000000 0.000000
0.572534 0.000000 0.000000
0.614496 0.000000 0.000000
0.655756 0.000000 0.000000
0.696407 0.000000 0.000000
0.736446 0.000000 0.000000
0.775448 0.000000 0.000000
0.813138 0.000000 0.000000
0.849393 0.000000 0.000000
0.884062 0.000000 0.000000
0.916960 0.000000 0.000000
0.947936 0.000000 0.000000
0.977081 0.000000 0.000000
1.000000 0.000000 0.000000
1.000000 0.000000 0.000000
1.000000 0.000000 0.000000
0.001465 0.023163 0.001312
0.023682 0.024170 0.001740
0.055329 0.024384 0.000824
0.081300 0.023346 0.000153
0.104860 0.022675 0.000916
0.130220 0.023468 0.001617
0.158175 0.023316 0.000916
0.187930 0.024445 0.001709
0.219760 0.024659 0.000549
0.253483 0.025513 0.000000
0.289189 0.021973 0.000000
0.326329 0.020294 0.000000
0.364904 0.014679 0.000000
0.404944 0.006531 0.000000
0.445777 0.000000 0.000000
0.487526 0.000000 0.000000
0.529808 0.000000 0.000000
0.572564 0.000000 0.000000
0.614527 0.000000 0.000000
0.655756 0.000000 0.000000
0.696437 0.000000 0.000000
0.736446 0.000000 0.000000
0.775418 0.000000 0.000000
0.813199 0.000000 0.000000
0.849454 0.000000 0.000000
0.884031 0.000000 0.000000
0.916960 0.000000 0.000000
0.947906 0.000000 0.000000
0.977050 0.000000 0.000000
1.000000 0.000000 0.000000
1.000000 0.000000 0.000000
1.000000 0.000000 0.000000
0.002777 0.053529 0.002960
0.025177 0.054261 0.002289
0.054231 0.053864 0.003662
0.080507 0.054170 0.001831
0.104677 0.051667 0.001709
0.130312 0.052125 0.002350
0.158206 0.052888 0.001556
0.187961 0.054658 0.001190
0.219791 0.055726 0.000000
0.253544 0.057099 0.000000
0.289158 0.057313 0.000000
0.326421 0.056641 0.000000
0.365057 0.053162 0.000000
0.405005 0.048981 0.000000
0.445838 0.041566 0.000000
0.487617 0.028107 0.000000
0.529931 0.015137 0.000000
0.572595 0.000000 0.000000
0.614618 0.000000 0.000000
0.655818 0.000000 0.000000
0.696498 0.000000 0.000000
0.736477 0.000000 0.000000
0.775509 0.000000 0.000000
0.813199 0.000000 0.000000
0.849454 0.000000 0.000000
0.884062 0.000000 0.000000
0.916930 0.000000 0.000000
0.947906 0.000000 0.000000
0.977081 0.000000 0.000000
1.000000 0.000000 0.000000
1.000000 0.000000 0.000000
1.000000 0.000000 0.000000
0.006867 0.078645 0.006287
0.027863 0.078645 0.006836
0.054383 0.078614 0.007141
0.078492 0.078340 0.007782
0.103151 0.078431 0.007355
0.130404 0.078645 0.002411
0.158206 0.079683 0.002502
0.188205 0.081300 0.001801
0.219913 0.082704 0.000275
0.253758 0.084199 0.000000
0.289372 0.085206 0.000000
0.326757 0.086122 0.000000
0.365270 0.086824 0.000000
0.405158 0.086305 0.000000
0.446052 0.085054 0.000000
0.487831 0.082826 0.000000
0.530083 0.079866 0.000000
0.572839 0.075990 0.000000
0.614740 0.070771 0.000000
0.655879 0.063996 0.000000
0.696620 0.053864 0.000000
0.736568 0.031861 0.000000
0.775540 0.011200 0.000000
0.813260 0.000000 0.000000
0.849485 0.000000 0.000000
0.884062 0.000000 0.000000
0.916930 0.000000 0.000000
0.947906 0.000000 0.000000
0.977020 0.000000 0.000000
1.000000 0.000000 0.000000
1.000000 0.000000 0.000000
1.000000 0.000000 0.000000
0.013031 0.101350 0.012909
0.032685 0.101411 0.013458
0.056977 0.101442 0.013825
0.078309 0.101381 0.014496
0.101472 0.101442 0.016419
0.127535 0.103182 0.014374
0.157351 0.105592 0.007050
0.188327 0.107973 0.002411
0.220432 0.110048 0.000366
0.254093 0.112490 0.000000
0.289738 0.114534 0.000000
0.326970 0.116579 0.000000
0.365667 0.118044 0.000000
0.405524 0.119203 0.000000
0.446387 0.119387 0.000000
0.488045 0.119509 0.000000
0.530419 0.118776 0.000000
0.573022 0.117617 0.000000
0.614984 0.115206 0.000000
0.656123 0.112490 0.000000
0.696773 0.109377 0.000000
0.736690 0.105562 0.000000
0.775631 0.100649 0.000000
0.813321 0.095613 0.000000
0.849516 0.090242 0.000000
0.884062 0.083711 0.000000
0.916899 0.077028 0.000000
0.947845 0.070039 0.000000
0.976989 0.062898 0.000000
1.000000 0.054261 0.000000
1.000000 0.040589 0.000000
1.000000 0.029358 0.000000
0.020874 0.126101 0.020600
0.040528 0.126162 0.021149
0.060426 0.126223 0.020417
0.080293 0.126375 0.020996
0.103151 0.126589 0.022827
0.127138 0.127016 0.022553
0.154025 0.129519 0.020966
0.186191 0.134066 0.011566
0.220218 0.137789 0.002533
0.254582 0.140871 0.000000
0.290196 0.144167 0.000000
0.327550 0.146792 0.000000
0.366094 0.149264 0.000000
0.406012 0.151186 0.000000
0.446815 0.152956 0.000000
0.488563 0.153933 0.000000
0.530785 0.154696 0.000000
0.573419 0.154940 0.000000
0.615167 0.154452 0.000000
0.656367 0.153445 0.000000
0.696925 0.151858 0.000000
0.736904 0.149599 0.000000
0.775753 0.146853 0.000000
0.813413 0.144228 0.000000
0.849546 0.141238 0.000000
0.884062 0.137392 0.000000
0.916899 0.133822 0.000000
0.947784 0.129732 0.000000
0.976867 0.125948 0.000000
1.000000 0.122255 0.000000
1.000000 0.118593 0.000000
1.000000 0.115419 0.000000
0.025452 0.153170 0.025269
0.044923 0.153353 0.025727
0.062745 0.153384 0.024994
0.082948 0.153567 0.026520
0.105776 0.153994 0.025940
0.130007 0.154391 0.026581
0.155062 0.155154 0.027070
0.182895 0.157839 0.024750
0.217288 0.163790 0.012818
0.253391 0.168978 0.000000
0.290776 0.173465 0.000000
0.328130 0.177035 0.000000
0.366705 0.180423 0.000000
0.406622 0.183352 0.000000
0.447425 0.185977 0.000000
0.488991 0.187930 0.000000
0.531273 0.189853 0.000000
0.573816 0.191012 0.000000
0.615564 0.191501 0.000000
0.656641 0.191379 0.000000
0.697200 0.190890 0.000000
0.737118 0.189578 0.000000
0.775875 0.188327 0.000000
0.813504 0.186130 0.000000
0.849607 0.183993 0.000000
0.884092 0.181155 0.000000
0.916869 0.178408 0.000000
0.947692 0.175418 0.000000
0.976806 0.172152 0.000000
1.000000 0.169131 0.000000
1.000000 0.165957 0.000000
1.000000 0.163180 0.000000
0.027436 0.182559 0.026978
0.047913 0.182681 0.027405
0.064454 0.182803 0.027649
0.085023 0.183078 0.026856
0.108858 0.183505 0.027070
0.133669 0.183963 0.027436
0.159396 0.184634 0.027588
0.185519 0.185458 0.026520
0.214145 0.188083 0.025544
0.250462 0.195071 0.009461
0.288334 0.201297 0.000000
0.327764 0.206943 0.000000
0.367437 0.211490 0.000000
0.407202 0.215305 0.000000
0.448127 0.218631 0.000000
0.489662 0.221561 0.000000
0.531792 0.224277 0.000000
0.574365 0.226200 0.000000
0.615961 0.227634 0.000000
0.656977 0.228244 0.000000
0.697505 0.228428 0.000000
0.737331 0.227939 0.000000
0.776089 0.227115 0.000000
0.813657 0.225742 0.000000
0.849668 0.224002 0.000000
0.884123 0.221775 0.000000
0.916808 0.219425 0.000000
0.947631 0.216556 0.000000
0.976654 0.213687 0.000000
1.000000 0.210727 0.000000
1.000000 0.207706 0.000000
1.000000 0.204929 0.000000
0.024811 0.214237 0.025727
0.048005 0.214298 0.026123
0.065461 0.214481 0.026246
0.086702 0.214725 0.026398
0.111727 0.215213 0.025238
0.137148 0.215640 0.025299
0.163546 0.216403 0.023957
0.190585 0.217258 0.023407
0.218173 0.218112 0.022614
0.247745 0.220676 0.020478
0.285374 0.228489 0.002045
0.325017 0.235508 0.000000
0.365759 0.241794 0.000000
0.407660 0.247379 0.000000
0.448737 0.251621 0.000000
0.490364 0.255436 0.000000
0.532464 0.258671 0.000000
0.574975 0.261631 0.000000
0.616449 0.263432 0.000000
0.657435 0.264500 0.000000
0.697810 0.265232 0.000000
0.737606 0.265385 0.000000
0.776333 0.264958 0.000000
0.813779 0.264103 0.000000
0.849760 0.262608 0.000000
0.884123 0.260594 0.000000
0.916747 0.258518 0.000000
0.947509 0.255802 0.000000
0.976532 0.252964 0.000000
1.000000 0.249973 0.000000
1.000000 0.247013 0.000000
1.000000 0.244083 0.000000
0.022644 0.247776 0.021698
0.047395 0.247807 0.022095
0.065187 0.248051 0.021027
0.088289 0.248173 0.021088
0.113832 0.248692 0.020752
0.140536 0.249271 0.020294
0.167910 0.249821 0.019776
0.195743 0.250645 0.017670
0.223972 0.251591 0.017273
0.252689 0.252750 0.015198
0.283238 0.255131 0.012879
0.321904 0.263218 0.000000
0.362860 0.270970 0.000000
0.404852 0.277867 0.000000
0.447791 0.283970 0.000000
0.491188 0.289220 0.000000
0.533257 0.293217 0.000000
0.575647 0.296483 0.000000
0.616968 0.298955 0.000000
0.657862 0.300542 0.000000
0.698268 0.301762 0.000000
0.737911 0.302312 0.000000
0.776577 0.302251 0.000000
0.813931 0.301640 0.000000
0.849851 0.300328 0.000000
0.884123 0.298558 0.000000
0.916716 0.296422 0.000000
0.947387 0.293858 0.000000
0.976349 0.290990 0.000000
1.000000 0.287938 0.000000
1.000000 0.284764 0.000000
1.000000 0.281498 0.000000
0.016358 0.283085 0.015106
0.041108 0.283207 0.015381
0.064729 0.283330 0.015320
0.088655 0.283574 0.014099
0.115908 0.283909 0.013642
0.143709 0.284459 0.012848
0.172122 0.285222 0.011566
0.200656 0.285924 0.010163
0.229679 0.286839 0.009155
0.259190 0.287907 0.007538
0.289036 0.289097 0.004059
0.320348 0.291203 0.001556
0.359747 0.299443 0.000000
0.402045 0.307805 0.000000
0.445045 0.315160 0.000000
0.488716 0.321752 0.000000
0.532952 0.327214 0.000000
0.576318 0.331579 0.000000
0.617609 0.334356 0.000000
0.658381 0.336461 0.000000
0.698665 0.338018 0.000000
0.738247 0.338750 0.000000
0.776852 0.339025 0.000000
0.814084 0.338628 0.000000
0.849882 0.337591 0.000000
0.884123 0.335973 0.000000
0.916625 0.333776 0.000000
0.947234 0.331182 0.000000
0.976135 0.328283 0.000000
1.000000 0.324956 0.000000
1.000000 0.321599 0.000000
1.000000 0.318273 0.000000
0.006622 0.320073 0.005921
0.034089 0.320165 0.006165
0.062531 0.320195 0.006195
0.088533 0.320409 0.005859
0.117281 0.320775 0.005127
0.146273 0.321263 0.004028
0.175723 0.322026 0.002289
0.205386 0.322789 0.000153
0.235233 0.323613 0.000000
0.265537 0.324620 0.000000
0.296056 0.325719 0.000000
0.326970 0.327031 0.000000
0.358709 0.328679 0.000000
0.398840 0.336889 0.000000
0.441993 0.345647 0.000000
0.485817 0.353338 0.000000
0.530175 0.360052 0.000000
0.574640 0.365850 0.000000
0.617853 0.369818 0.000000
0.658961 0.372412 0.000000
0.699184 0.374151 0.000000
0.738613 0.375311 0.000000
0.777066 0.375738 0.000000
0.814267 0.375525 0.000000
0.850004 0.374517 0.000000
0.884092 0.372930 0.000000
0.916503 0.370764 0.000000
0.947051 0.368078 0.000000
0.975860 0.365026 0.000000
1.000000 0.361547 0.000000
1.000000 0.358007 0.000000
1.000000 0.354314 0.000000
0.000000 0.358282 0.000000
0.022827 0.358404 0.000000
0.059571 0.358465 0.000000
0.087953 0.358709 0.000000
0.118349 0.359075 0.000000
0.148562 0.359533 0.000000
0.179049 0.360143 0.000000
0.209598 0.360845 0.000000
0.240391 0.361608 0.000000
0.271336 0.362615 0.000000
0.302586 0.363684 0.000000
0.334142 0.364782 0.000000
0.366003 0.366094 0.000000
0.398352 0.367407 0.000000
0.438666 0.375280 0.000000
0.482643 0.384344 0.000000
0.527062 0.392279 0.000000
0.571649 0.399023 0.000000
0.615106 0.403967 0.000000
0.657984 0.407752 0.000000
0.699641 0.410407 0.000000
0.739040 0.411719 0.000000
0.777371 0.412329 0.000000
0.814420 0.412177 0.000000
0.850065 0.411261 0.000000
0.884062 0.409644 0.000000
0.916411 0.407385 0.000000
0.946838 0.404578 0.000000
0.975586 0.401282 0.000000
1.000000 0.397681 0.000000
1.000000 0.393835 0.000000
1.000000 0.389899 0.000000
0.000000 0.397681 0.000000
0.011170 0.397742 0.000000
0.051514 0.397864 0.000000
0.085847 0.398108 0.000000
0.118379 0.398322 0.000000
0.150393 0.398749 0.000000
0.181949 0.399390 0.000000
0.213474 0.400000 0.000000
0.245090 0.400763 0.000000
0.276799 0.401678 0.000000
0.308782 0.402594 0.000000
0.340948 0.403754 0.000000
0.373449 0.404913 0.000000
0.406134 0.406226 0.000000
0.439246 0.407599 0.000000
0.479194 0.414496 0.000000
0.523766 0.423743 0.000000
0.568505 0.431678 0.000000
0.612207 0.437629 0.000000
0.655238 0.442298 0.000000
0.697475 0.445655 0.000000
0.738613 0.447913 0.000000
0.777646 0.448798 0.000000
0.814603 0.448768 0.000000
0.850095 0.447822 0.000000
0.884031 0.446143 0.000000
0.916228 0.443824 0.000000
0.946593 0.440803 0.000000
0.975250 0.437354 0.000000
1.000000 0.433509 0.000000
1.000000 0.429480 0.000000
1.000000 0.425147 0.000000
0.000000 0.437995 0.000000
0.000000 0.438056 0.000000
0.038972 0.438087 0.000000
0.083833 0.438270 0.000000
0.118624 0.438575 0.000000
0.151858 0.439033 0.000000
0.184268 0.439551 0.000000
0.216892 0.440131 0.000000
0.249180 0.440803 0.000000
0.281834 0.441657 0.000000
0.314366 0.442603 0.000000
0.347204 0.443580 0.000000
0.380255 0.444648 0.000000
0.413550 0.445899 0.000000
0.447150 0.447120 0.000000
0.480934 0.448463 0.000000
0.520226 0.454322 0.000000
0.565118 0.463478 0.000000
0.609064 0.470558 0.000000
0.652399 0.476234 0.000000
0.694850 0.480385 0.000000
0.736202 0.483284 0.000000
0.776150 0.484932 0.000000
0.814572 0.485206 0.000000
0.850156 0.484291 0.000000
0.883940 0.482551 0.000000
0.916014 0.480049 0.000000
0.946319 0.476905 0.000000
0.974914 0.473243 0.000000
1.000000 0.469154 0.000000
1.000000 0.464790 0.000000
1.000000 0.460182 0.000000
0.000000 0.478981 0.000000
0.000000 0.479011 0.000000
0.021271 0.479072 0.000000
0.080262 0.479286 0.000000
0.117617 0.479469 0.000000
0.152529 0.479896 0.000000
0.186221 0.480323 0.000000
0.219608 0.480995 0.000000
0.252964 0.481575 0.000000
0.286107 0.482307 0.000000
0.319493 0.483131 0.000000
0.353033 0.484138 0.000000
0.386481 0.485115 0.000000
0.420356 0.486122 0.000000
0.454322 0.487343 0.000000
0.488533 0.488563 0.000000
0.522942 0.489815 0.000000
0.561822 0.494820 0.000000
0.605768 0.502892 0.000000
0.649317 0.509575 0.000000
0.691981 0.514641 0.000000
0.733547 0.518212 0.000000
0.773800 0.520439 0.000000
0.812345 0.521172 0.000000
0.849119 0.520653 0.000000
0.883848 0.518914 0.000000
0.915801 0.516228 0.000000
0.945953 0.512902 0.000000
0.974487 0.508934 0.000000
1.000000 0.504601 0.000000
1.000000 0.499947 0.000000
1.000000 0.495033 0.000000
0.000000 0.520439 0.000000
0.000000 0.520470 0.000000
0.003815 0.520531 0.000000
0.076631 0.520745 0.000000
0.116060 0.520958 0.000000
0.152621 0.521324 0.000000
0.187564 0.521721 0.000000
0.222049 0.522210 0.000000
0.256168 0.522789 0.000000
0.290135 0.523430 0.000000
0.324071 0.524193 0.000000
0.358099 0.525017 0.000000
0.392126 0.525994 0.000000
0.426398 0.526909 0.000000
0.460792 0.527886 0.000000
0.495247 0.528923 0.000000
0.529931 0.530022 0.000000
0.564874 0.531151 0.000000
0.603143 0.535180 0.000000
0.646082 0.542229 0.000000
0.688991 0.548272 0.000000
0.730770 0.552636 0.000000
0.771145 0.555413 0.000000
0.809934 0.556756 0.000000
0.846891 0.556573 0.000000
0.881987 0.555108 0.000000
0.915068 0.552361 0.000000
0.945586 0.548760 0.000000
0.974029 0.544518 0.000000
1.000000 0.539879 0.000000
1.000000 0.534905 0.000000
1.000000 0.529686 0.000000
0.000000 0.562066 0.000000
0.000000 0.562036 0.000000
0.000000 0.562158 0.000000
0.071565 0.562219 0.000000
0.114809 0.562463 0.000000
0.152682 0.562737 0.000000
0.188724 0.563104 0.000000
0.223941 0.563439 0.000000
0.258793 0.563989 0.000000
0.293370 0.564538 0.000000
0.327855 0.565209 0.000000
0.362371 0.565850 0.000000
0.396918 0.566552 0.000000
0.431556 0.567376 0.000000
0.466224 0.568231 0.000000
0.500969 0.569177 0.000000
0.535973 0.570123 0.000000
0.571069 0.571099 0.000000
0.606287 0.572076 0.000000
0.644068 0.575280 0.000000
0.685847 0.581292 0.000000
0.727810 0.586450 0.000000
0.768429 0.589899 0.000000
0.807401 0.591760 0.000000
0.844480 0.592035 0.000000
0.879728 0.590906 0.000000
0.912902 0.588373 0.000000
0.944091 0.584741 0.000000
0.973388 0.580072 0.000000
1.000000 0.575067 0.000000
1.000000 0.569726 0.000000
1.000000 0.564172 0.000000
0.000000 0.603204 0.000000
0.000000 0.603265 0.000000
0.000000 0.603265 0.000000
0.066560 0.603388 0.000000
0.112306 0.603571 0.000000
0.152346 0.603815 0.000000
0.189487 0.604120 0.000000
0.225437 0.604425 0.000000
0.261112 0.604913 0.000000
0.296117 0.605341 0.000000
0.331090 0.605829 0.000000
0.365972 0.606439 0.000000
0.400977 0.607080 0.000000
0.435889 0.607752 0.000000
0.470863 0.608515 0.000000
0.505882 0.609247 0.000000
0.541070 0.610040 0.000000
0.576287 0.610864 0.000000
0.611658 0.611719 0.000000
0.647150 0.612573 0.000000
0.684382 0.615015 0.000000
0.724727 0.619715 0.000000
0.765560 0.623896 0.000000
0.804654 0.626307 0.000000
0.841917 0.626978 0.000000
0.877317 0.626246 0.000000
0.910674 0.623987 0.000000
0.941924 0.620478 0.000000
0.971344 0.615930 0.000000
0.999084 0.610468 0.000000
1.000000 0.604456 0.000000
1.000000 0.598535 0.000000
0.000000 0.644007 0.000000
0.000000 0.644007 0.000000
0.000000 0.644068 0.000000
0.061128 0.644190 0.000000
0.111482 0.644312 0.000000
0.151980 0.644526 0.000000
0.190280 0.644739 0.000000
0.226780 0.645014 0.000000
0.262821 0.645380 0.000000
0.298405 0.645777 0.000000
0.333837 0.646204 0.000000
0.369146 0.646662 0.000000
0.404395 0.647211 0.000000
0.439582 0.647761 0.000000
0.474800 0.648341 0.000000
0.509972 0.648951 0.000000
0.545312 0.649592 0.000000
0.580652 0.650263 0.000000
0.616083 0.650965 0.000000
0.651606 0.651637 0.000000
0.687098 0.652277 0.000000
0.723781 0.653986 0.000000
0.762478 0.657252 0.000000
0.801724 0.660304 0.000000
0.839231 0.661524 0.000000
0.874815 0.661097 0.000000
0.908232 0.659113 0.000000
0.939635 0.655787 0.000000
0.969146 0.651392 0.000000
0.996948 0.646052 0.000000
1.000000 0.639948 0.000000
1.000000 0.633173 0.000000
0.000000 0.684199 0.000000
0.000000 0.684199 0.000000
0.000000 0.684230 0.000000
0.059083 0.684321 0.000000
0.110780 0.684382 0.000000
0.152590 0.684565 0.000000
0.191043 0.684749 0.000000
0.227909 0.684993 0.000000
0.264561 0.685237 0.000000
0.300389 0.685542 0.000000
0.336095 0.685878 0.000000
0.371771 0.686244 0.000000
0.407172 0.686641 0.000000
0.442603 0.687068 0.000000
0.477943 0.687526 0.000000
0.513237 0.687984 0.000000
0.548699 0.688472 0.000000
0.584100 0.688960 0.000000
0.619501 0.689479 0.000000
0.654902 0.689937 0.000000
0.690364 0.690425 0.000000
0.725856 0.690883 0.000000
0.761868 0.691798 0.000000
0.798795 0.693599 0.000000
0.836393 0.695399 0.000000
0.872099 0.695491 0.000000
0.905699 0.693751 0.000000
0.937163 0.690700 0.000000
0.966766 0.686397 0.000000
0.994659 0.681178 0.000000
1.000000 0.675166 0.000000
1.000000 0.668452 0.000000
0.000000 0.723415 0.000000
0.000000 0.723445 0.000000
0.000000 0.723476 0.000000
0.057832 0.723537 0.000000
0.111055 0.723629 0.000000
0.153140 0.723751 0.000000
0.192172 0.723903 0.000000
0.229557 0.723995 0.000000
0.266117 0.724239 0.000000
0.302251 0.724392 0.000000
0.338140 0.724666 0.000000
0.373968 0.724910 0.000000
0.409552 0.725185 0.000000
0.444923 0.725490 0.000000
0.480323 0.725795 0.000000
0.515709 0.726101 0.000000
0.551110 0.726406 0.000000
0.586511 0.726711 0.000000
0.621820 0.727047 0.000000
0.657191 0.727321 0.000000
0.692531 0.727626 0.000000
0.727810 0.727840 0.000000
0.763088 0.728115 0.000000
0.798428 0.728420 0.000000
0.833433 0.728725 0.000000
0.869291 0.729244 0.000000
0.902983 0.727901 0.000000
0.934569 0.725063 0.000000
0.964263 0.720943 0.000000
0.992218 0.715846 0.000000
1.000000 0.709987 0.000000
1.000000 0.703304 0.000000
0.000000 0.761471 0.000000
0.000000 0.761501 0.000000
0.000000 0.761532 0.000000
0.063813 0.761532 0.000000
0.113802 0.761563 0.000000
0.155459 0.761624 0.000000
0.194064 0.761746 0.000000
0.231327 0.761837 0.000000
0.268101 0.761929 0.000000
0.304112 0.762051 0.000000
0.340063 0.762203 0.000000
0.375677 0.762356 0.000000
0.411231 0.762509 0.000000
0.446815 0.762631 0.000000
0.482185 0.762844 0.000000
0.517479 0.762997 0.000000
0.552758 0.763088 0.000000
0.587976 0.763241 0.000000
0.623224 0.763363 0.000000
0.658381 0.763485 0.000000
0.693477 0.763577 0.000000
0.728573 0.763607 0.000000
0.763577 0.763668 0.000000
0.798550 0.763638 0.000000
0.833310 0.763546 0.000000
0.866484 0.762478 0.000000
0.900145 0.761410 0.000000
0.931823 0.758846 0.000000
0.961608 0.755001 0.000000
0.989654 0.750027 0.000000
1.000000 0.744259 0.000000
1.000000 0.737758 0.000000
0.000000 0.798032 0.000000
0.000000 0.798032 0.000000
0.000000 0.798062 0.000000
0.072969 0.798032 0.000000
0.118959 0.798093 0.000000
0.159243 0.798093 0.000000
0.197147 0.798154 0.000000
0.233982 0.798154 0.000000
0.270420 0.798184 0.000000
0.306279 0.798215 0.000000
0.342016 0.798276 0.000000
0.377447 0.798306 0.000000
0.412848 0.798337 0.000000
0.448188 0.798367 0.000000
0.483345 0.798398 0.000000
0.518578 0.798398 0.000000
0.553735 0.798367 0.000000
0.588739 0.798367 0.000000
0.623713 0.798337 0.000000
0.658686 0.798245 0.000000
0.693507 0.798154 0.000000
0.728298 0.798062 0.000000
0.762997 0.797879 0.000000
0.797635 0.797635 0.000000
0.832090 0.797391 0.000000
0.866331 0.796994 0.000000
0.897612 0.794491 0.072938
0.928954 0.792020 0.079103
0.958770 0.788388 0.077882
0.986877 0.783597 0.078462
1.000000 0.777981 0.080781
1.000000 0.771603 0.083894
0.000000 0.832975 0.000000
0.000000 0.832944 0.000000
0.025544 0.832944 0.000000
0.087434 0.832975 0.000000
0.127443 0.832944 0.000000
0.165347 0.832914 0.000000
0.201938 0.832914 0.000000
0.237888 0.832883 0.000000
0.273655 0.832853 0.000000
0.309026 0.832792 0.000000
0.344213 0.832761 0.000000
0.379553 0.832700 0.000000
0.414588 0.832609 0.000000
0.449561 0.832517 0.000000
0.484443 0.832425 0.000000
0.519280 0.832303 0.000000
0.554162 0.832151 0.000000
0.588861 0.831968 0.000000
0.623560 0.831754 0.000000
0.658137 0.831479 0.000000
0.692592 0.831174 0.009186
0.727016 0.830838 0.022889
0.761349 0.830472 0.037659
0.795468 0.830076 0.051087
0.829526 0.829587 0.062776
0.863401 0.829068 0.070405
0.897124 0.828489 0.077760
0.926665 0.824826 0.114168
0.955871 0.821073 0.126345
0.984009 0.816526 0.129061
1.000000 0.811093 0.133211
1.000000 0.804929 0.138064
0.006867 0.866087 0.007324
0.048524 0.866087 0.007294
0.074464 0.866056 0.008087
0.105653 0.866056 0.009216
0.139651 0.865995 0.008698
0.174319 0.865965 0.011749
0.208774 0.865904 0.013062
0.243442 0.865812 0.016846
0.278233 0.865690 0.020874
0.312627 0.865568 0.024109
0.347234 0.865415 0.028473
0.381842 0.865263 0.034089
0.416388 0.865080 0.039796
0.450904 0.864866 0.047578
0.485359 0.864622 0.053712
0.519799 0.864347 0.059663
0.554253 0.864042 0.064302
0.588525 0.863706 0.068513
0.622766 0.863279 0.072908
0.656886 0.862882 0.077302
0.690974 0.862394 0.082094
0.724941 0.861875 0.087495
0.758755 0.861326 0.092805
0.792447 0.860746 0.098299
0.825956 0.860075 0.103761
0.859312 0.859373 0.109804
0.892515 0.858640 0.116152
0.925536 0.857847 0.122133
0.953765 0.853483 0.151003
0.980987 0.848722 0.167880
1.000000 0.843503 0.173007
1.000000 0.837522 0.179324
0.079713 0.897093 0.079561
0.090486 0.897093 0.079927
0.104067 0.897063 0.079835
0.126833 0.897032 0.079927
0.155459 0.896971 0.080751
0.186374 0.896880 0.081361
0.218387 0.896757 0.082155
0.251041 0.896635 0.083650
0.284306 0.896452 0.085206
0.317723 0.896300 0.086732
0.351293 0.896056 0.088685
0.385077 0.895811 0.090517
0.418830 0.895537 0.093019
0.452735 0.895201 0.095399
0.486549 0.894865 0.098268
0.520348 0.894438 0.100893
0.554223 0.894041 0.104097
0.587976 0.893553 0.107698
0.621698 0.893034 0.111421
0.655360 0.892485 0.115206
0.688838 0.891844 0.119356
0.722316 0.891234 0.123842
0.755581 0.890532 0.128420
0.788724 0.889769 0.133364
0.821744 0.888975 0.138643
0.854551 0.888151 0.143923
0.887175 0.887236 0.149447
0.919646 0.886290 0.155550
0.951873 0.885344 0.161807
0.979004 0.880613 0.187289
1.000000 0.875090 0.208865
1.000000 0.869322 0.216403
0.116457 0.926085 0.116457
0.123842 0.926085 0.116457
0.132845 0.926055 0.116854
0.150484 0.925994 0.116915
0.174533 0.925933 0.117464
0.201541 0.925780 0.118349
0.230747 0.925658 0.119295
0.261143 0.925475 0.120119
0.292515 0.925261 0.121401
0.324559 0.925017 0.123079
0.356970 0.924743 0.124453
0.389593 0.924407 0.126223
0.422370 0.924071 0.128542
0.455421 0.923674 0.130678
0.488472 0.923217 0.133181
0.521508 0.922759 0.136172
0.554650 0.922210 0.139284
0.587732 0.921660 0.142336
0.620783 0.921019 0.145815
0.653803 0.920348 0.149416
0.686732 0.919677 0.153506
0.719539 0.918883 0.157687
