lut_library/filter_lut/质感11.5.cube
LUT_3D_SIZE 5
DOMAIN_MIN 0.000000 0.000000 0.000000
DOMAIN_MAX 0.903226 0.903226 0.903226
0.000000 0.000000 0.000000
0.187900 0.001068 0.001465
0.445686 0.000000 0.000000
0.736446 0.000000 0.000000
0.977081 0.000000 0.000000
0.027436 0.182559 0.026978
0.185519 0.185458 0.026520
0.448127 0.218631 0.000000
0.737331 0.227939 0.000000
0.976654 0.213687 0.000000
0.000000 0.437995 0.000000
0.216892 0.440131 0.000000
0.447150 0.447120 0.000000
0.736202 0.483284 0.000000
0.974914 0.473243 0.000000
0.000000 0.723415 0.000000
0.229557 0.723995 0.000000
0.480323 0.725795 0.000000
0.727810 0.727840 0.000000
0.964263 0.720943 0.000000
0.150637 0.953216 0.150637
0.274296 0.952483 0.154269
0.491432 0.949859 0.167208
0.717067 0.945006 0.191379
0.937743 0.937804 0.228489
0.023804 0.023621 0.184817
0.189639 0.000000 0.189578
0.451179 0.000000 0.203067
0.741024 0.000000 0.183627
0.978485 0.000000 0.175021
0.012879 0.187442 0.187381
0.192355 0.192355 0.192355
0.454475 0.189731 0.189670
0.741482 0.179690 0.179629
0.977874 0.172366 0.172244
0.000000 0.441047 0.210819
0.200565 0.446540 0.200565
0.451698 0.451698 0.200412
0.742000 0.476081 0.168276
0.975525 0.463783 0.163394
0.000000 0.725765 0.215793
0.210086 0.727230 0.209934
0.477302 0.728359 0.211398
0.729488 0.729610 0.215244
0.964691 0.719905 0.212009
0.170840 0.953094 0.282719
0.284794 0.952331 0.284855
0.496742 0.949676 0.292790
0.719661 0.944793 0.308263
0.937713 0.937743 0.334234
0.004456 0.003479 0.443915
0.219547 0.000000 0.447059
0.455848 0.000000 0.455818
0.743313 0.000000 0.474800
0.976257 0.000000 0.458961
0.000000 0.209567 0.447181
0.201144 0.201083 0.450599
0.458412 0.178225 0.458442
0.744930 0.111666 0.469337
0.975280 0.146883 0.459968
0.000000 0.450965 0.450935
0.190036 0.454170 0.454170
0.463355 0.463355 0.463355
0.745846 0.463386 0.463386
0.971344 0.466194 0.466194
0.000000 0.727687 0.475715
0.198581 0.729824 0.475135
0.482185 0.733883 0.482094
0.734035 0.734066 0.486519
0.963043 0.721859 0.480385
0.192569 0.952331 0.498543
0.312230 0.951141 0.506065
0.531426 0.947173 0.531426
0.734005 0.943023 0.539879
0.937377 0.937407 0.553796
0.000000 0.000000 0.727687
0.236118 0.000000 0.728939
0.481117 0.000000 0.733120
0.739010 0.000000 0.739040
0.968994 0.000000 0.717311
0.000000 0.218753 0.729458
0.213809 0.213382 0.730556
0.476387 0.192264 0.734249
0.739712 0.143587 0.739681
0.968048 0.161868 0.717433
0.000000 0.477546 0.729580
0.204898 0.477150 0.730953
0.478584 0.478462 0.735592
0.740597 0.472053 0.740566
0.962097 0.487526 0.723995
0.000000 0.731014 0.731014
0.211643 0.732021 0.732052
0.491402 0.735317 0.735348
0.741848 0.741817 0.741848
0.951812 0.743038 0.743038
0.232700 0.950652 0.725734
0.339544 0.949310 0.728756
0.549706 0.945312 0.739406
0.762692 0.940124 0.762661
0.937530 0.937560 0.768338
0.137209 0.136141 0.947265
0.263676 0.131991 0.947448
0.481270 0.113375 0.947997
0.712551 0.067994 0.948882
0.949523 0.000000 0.949493
0.147890 0.269657 0.946899
0.269017 0.268620 0.947021
0.484352 0.264622 0.947509
0.714046 0.257694 0.948241
0.948760 0.253758 0.948760
0.240696 0.508232 0.944091
0.339574 0.516258 0.943938
0.520043 0.519890 0.944244
0.726619 0.518791 0.945068
0.945983 0.517296 0.945953
0.294041 0.726894 0.940673
0.378515 0.730709 0.940398
0.565881 0.743191 0.939666
0.759060 0.758968 0.940002
0.941985 0.757595 0.941955
0.344610 0.937346 0.937377
0.413733 0.937285 0.937346
0.585779 0.937255 0.937285
0.776455 0.937804 0.937835
0.941100 0.941070 0.941100
