lut_library/filter_lut/质感11.5.cube
LUT_3D_SIZE 8
DOMAIN_MIN 0.000000 0.000000 0.000000
DOMAIN_MAX 0.903226 0.903226 0.903226
0.000000 0.000000 0.000000
0.104768 0.000488 0.000580
0.219760 0.000061 0.000427
0.364874 0.000000 0.000000
0.529747 0.000000 0.000000
0.696407 0.000000 0.000000
0.849393 0.000000 0.000000
0.977081 0.000000 0.000000
0.013031 0.101350 0.012909
0.101472 0.101442 0.016419
0.220432 0.110048 0.000366
0.365667 0.118044 0.000000
0.530419 0.118776 0.000000
0.696773 0.109377 0.000000
0.849516 0.090242 0.000000
0.976989 0.062898 0.000000
0.024811 0.214237 0.025727
0.111727 0.215213 0.025238
0.218173 0.218112 0.022614
0.365759 0.241794 0.000000
0.532464 0.258671 0.000000
0.697810 0.265232 0.000000
0.849760 0.262608 0.000000
0.976532 0.252964 0.000000
0.000000 0.358282 0.000000
0.118349 0.359075 0.000000
0.240391 0.361608 0.000000
0.366003 0.366094 0.000000
0.527062 0.392279 0.000000
0.699641 0.410407 0.000000
0.850065 0.411261 0.000000
0.975586 0.401282 0.000000
0.000000 0.520439 0.000000
0.116060 0.520958 0.000000
0.256168 0.522789 0.000000
0.392126 0.525994 0.000000
0.529931 0.530022 0.000000
0.688991 0.548272 0.000000
0.846891 0.556573 0.000000
0.974029 0.544518 0.000000
0.000000 0.684199 0.000000
0.110780 0.684382 0.000000
0.264561 0.685237 0.000000
0.407172 0.686641 0.000000
0.548699 0.688472 0.000000
0.690364 0.690425 0.000000
0.836393 0.695399 0.000000
0.966766 0.686397 0.000000
0.000000 0.832975 0.000000
0.127443 0.832944 0.000000
0.273655 0.832853 0.000000
0.414588 0.832609 0.000000
0.554162 0.832151 0.000000
0.692592 0.831174 0.009186
0.829526 0.829587 0.062776
0.955871 0.821073 0.126345
0.150637 0.953216 0.150637
0.196872 0.953002 0.151736
0.303563 0.952239 0.155703
0.427466 0.950835 0.162387
0.555871 0.948730 0.172885
0.684932 0.945830 0.187015
0.812711 0.942199 0.205478
0.937743 0.937804 0.228489
0.009491 0.009735 0.101930
0.103395 0.010254 0.103578
0.221103 0.000000 0.107362
0.367407 0.000000 0.100404
0.532036 0.000000 0.089204
0.698146 0.000000 0.065461
0.850523 0.000000 0.000000
0.977661 0.000000 0.000000
0.023407 0.102022 0.102022
0.104250 0.104250 0.104250
0.222263 0.103578 0.103639
0.368048 0.098726 0.098604
0.532616 0.085664 0.085817
0.698390 0.059602 0.059541
0.850584 0.000000 0.000000
0.977508 0.000000 0.000000
0.017060 0.215732 0.110475
0.108431 0.218204 0.108370
0.220554 0.220645 0.108339
0.369726 0.238926 0.092775
0.534447 0.250706 0.072633
0.699397 0.254520 0.014588
0.850706 0.251255 0.000000
0.976989 0.242771 0.000000
0.000000 0.360113 0.111482
0.107607 0.361608 0.107485
0.238834 0.363928 0.106813
0.367834 0.367864 0.105013
0.530175 0.391821 0.073274
0.700984 0.406287 0.000000
0.850828 0.406195 0.000000
0.975952 0.396612 0.000000
0.000000 0.522484 0.099092
0.098756 0.522972 0.098817
0.251774 0.524620 0.097444
0.391516 0.527550 0.094301
0.531243 0.531273 0.089906
0.690913 0.548333 0.034821
0.848020 0.554742 0.000000
0.974243 0.542260 0.000000
0.000000 0.685451 0.090578
0.090364 0.685695 0.090394
0.259251 0.686366 0.089540
0.405249 0.687709 0.087892
0.548394 0.689357 0.086763
0.691096 0.691096 0.085695
0.837186 0.695552 0.081392
0.967041 0.685695 0.000000
0.000000 0.833524 0.118441
0.119020 0.833494 0.118837
0.270665 0.833371 0.119997
0.413306 0.833097 0.122896
0.553796 0.832517 0.128176
0.692683 0.831479 0.135592
0.829740 0.829801 0.146517
0.955840 0.821103 0.181277
0.155337 0.953216 0.199374
0.200168 0.953002 0.200137
0.305608 0.952239 0.203128
0.428901 0.950805 0.208652
0.556970 0.948669 0.216953
0.685664 0.945800 0.228733
0.813077 0.942168 0.244205
0.937743 0.937804 0.264042
0.025452 0.025788 0.216922
0.112001 0.018219 0.218357
0.222690 0.000000 0.222751
0.370642 0.000000 0.238376
0.536309 0.000000 0.239170
0.702693 0.000000 0.223270
0.853330 0.000000 0.218509
0.978668 0.000000 0.216373
0.007263 0.110292 0.218509
0.108095 0.108064 0.220127
0.223941 0.100221 0.223941
0.372198 0.059144 0.234928
0.537682 0.000000 0.232212
0.702907 0.000000 0.221836
0.853300 0.000000 0.217563
0.978485 0.000000 0.215793
0.000000 0.220310 0.220340
0.105165 0.221927 0.221927
0.226291 0.226291 0.226291
0.375647 0.225650 0.225681
0.539971 0.223148 0.223056
0.703487 0.218967 0.219028
0.853178 0.215152 0.215061
0.977752 0.214267 0.214206
0.000000 0.361944 0.237217
0.095247 0.364111 0.236088
0.232273 0.370062 0.232303
0.372717 0.372686 0.232792
0.539696 0.388708 0.222202
0.704341 0.393561 0.214084
0.852873 0.391730 0.210544
0.976440 0.384680 0.211368
0.000000 0.523919 0.248508
0.064302 0.525719 0.245243
0.236759 0.530205 0.236790
0.388891 0.532341 0.236912
0.534997 0.535058 0.237125
0.696681 0.548302 0.227237
0.851347 0.549126 0.207645
0.974334 0.536675 0.208255
0.000000 0.687007 0.253239
0.004181 0.687984 0.249638
0.244083 0.689967 0.243992
0.400000 0.690852 0.244724
0.547875 0.692012 0.245731
0.693111 0.693172 0.247501
0.839567 0.695949 0.247379
0.967529 0.684077 0.235355
0.000000 0.834501 0.265904
0.101320 0.834775 0.264988
0.265568 0.834867 0.265415
0.411597 0.834440 0.267430
0.553674 0.833646 0.270665
0.693385 0.832364 0.275517
0.830442 0.830503 0.282383
0.955444 0.821500 0.301915
0.174594 0.953002 0.312291
0.219425 0.952728 0.315496
0.317601 0.951965 0.317571
0.436805 0.950500 0.321508
0.562310 0.948363 0.327550
0.689204 0.945464 0.336156
0.814847 0.941924 0.347753
0.937682 0.937743 0.362921
0.017090 0.016114 0.363287
0.121706 0.001831 0.364385
0.242618 0.000000 0.367987
0.373297 0.000000 0.373297
0.539208 0.000000 0.393408
0.703609 0.000000 0.396094
0.853758 0.000000 0.387793
0.977691 0.000000 0.379736
0.000000 0.113039 0.365087
0.110475 0.110262 0.366094
0.239811 0.098054 0.369268
0.374243 0.061341 0.374304
0.540459 0.000000 0.391852
0.704311 0.000000 0.393194
0.854002 0.000000 0.385443
0.977417 0.000000 0.379767
0.000000 0.239200 0.366400
0.090974 0.237400 0.367773
0.231693 0.231632 0.372412
0.376928 0.224155 0.376867
0.543633 0.205875 0.386206
0.706355 0.185702 0.384436
0.854459 0.177096 0.379706
0.976532 0.200931 0.380163
0.000000 0.369360 0.369421
0.076814 0.370489 0.370489
0.230533 0.374090 0.374121
0.379644 0.379644 0.379644
0.546563 0.379217 0.379278
0.707424 0.378729 0.378820
0.853727 0.378729 0.378729
0.974884 0.380652 0.380682
0.000000 0.526238 0.387884
0.000000 0.527794 0.387762
0.230838 0.532799 0.387304
0.387304 0.539178 0.387335
0.540612 0.540612 0.388525
0.704524 0.547814 0.382116
0.852415 0.543816 0.378454
0.972381 0.535576 0.381933
0.000000 0.688319 0.400671
0.000000 0.689204 0.399695
0.237827 0.692012 0.397589
0.397925 0.695094 0.398047
0.549432 0.695644 0.399725
0.696254 0.696284 0.402075
0.842161 0.697475 0.401373
0.967193 0.683589 0.392279
0.000000 0.834836 0.410407
0.100191 0.835080 0.410437
0.267796 0.835660 0.412238
0.418616 0.835691 0.418616
0.558618 0.834745 0.421485
0.696437 0.833341 0.425574
0.831449 0.831449 0.431281
0.953796 0.822904 0.443305
0.184878 0.952605 0.434638
0.228550 0.952300 0.437049
0.338018 0.951049 0.447456
0.460304 0.949096 0.460365
0.577752 0.947051 0.464942
0.698512 0.944396 0.471290
0.819181 0.941192 0.479774
0.937469 0.937499 0.490578
0.000000 0.000000 0.527092
0.127169 0.000000 0.527855
0.259403 0.000000 0.530663
0.395880 0.000000 0.534997
0.540520 0.000000 0.540459
0.703609 0.000000 0.552361
0.852476 0.000000 0.547875
0.974640 0.000000 0.535027
0.000000 0.113954 0.528496
0.110475 0.110292 0.529168
0.254154 0.093660 0.531640
0.394385 0.025086 0.535912
0.541070 0.000000 0.541100
0.704311 0.000000 0.551659
0.852659 0.000000 0.546838
0.974395 0.000000 0.535027
0.000000 0.246830 0.530663
0.000000 0.242588 0.532006
0.237278 0.237156 0.534447
0.389624 0.227939 0.538231
0.543023 0.211337 0.543084
0.706264 0.184817 0.549523
0.852811 0.178164 0.544488
0.973083 0.211185 0.536706
0.000000 0.391028 0.531548
0.000000 0.390509 0.532525
0.230655 0.388769 0.535576
0.386114 0.386114 0.540948
0.545403 0.380529 0.545434
0.707607 0.375555 0.547143
0.851743 0.380774 0.544671
0.969757 0.400427 0.545220
0.000000 0.534234 0.534264
0.000000 0.535058 0.535058
0.227604 0.537652 0.537682
0.388830 0.541894 0.541924
0.547448 0.547448 0.547448
0.707088 0.547509 0.547509
0.849454 0.548058 0.548089
0.966583 0.550072 0.550072
0.000000 0.689998 0.545953
0.000000 0.690791 0.546197
0.235691 0.693172 0.547082
0.400305 0.696376 0.550103
0.556603 0.699550 0.556573
0.700099 0.700099 0.558434
0.844388 0.700191 0.554833
0.963195 0.689174 0.552544
0.000000 0.835264 0.553094
0.103639 0.835416 0.553399
0.271946 0.835782 0.555261
0.427131 0.835691 0.562036
0.571923 0.835294 0.571954
0.703182 0.834165 0.574701
0.832670 0.832700 0.578393
0.951354 0.825559 0.582727
0.201541 0.951965 0.563195
0.242741 0.951629 0.564843
0.348760 0.950256 0.571862
0.476295 0.947875 0.585412
0.600214 0.945159 0.600244
0.711940 0.942901 0.604364
0.825223 0.940276 0.609888
0.937316 0.937346 0.616938
0.000000 0.000000 0.689265
0.130739 0.000000 0.689754
0.269017 0.000000 0.691279
0.408453 0.000000 0.693935
0.552087 0.000000 0.697536
0.701472 0.000000 0.701472
0.848905 0.000000 0.699397
0.970459 0.000000 0.681453
0.000000 0.116793 0.690059
0.113649 0.113039 0.690425
0.263127 0.096742 0.691920
0.405921 0.038239 0.694484
0.551385 0.000000 0.697993
0.701778 0.000000 0.701747
0.849058 0.000000 0.699123
0.970153 0.000000 0.681483
0.000000 0.250706 0.691981
0.000000 0.249516 0.692348
0.245182 0.245029 0.693599
0.398749 0.236393 0.695949
0.549340 0.221866 0.699184
0.702663 0.200595 0.702663
0.849210 0.188846 0.698421
0.968811 0.217502 0.682246
0.000000 0.402045 0.691554
0.000000 0.400916 0.692256
0.236332 0.398047 0.694728
0.395270 0.395178 0.697444
0.548638 0.390631 0.700313
0.703670 0.383978 0.703609
0.848508 0.384558 0.698421
0.965606 0.403784 0.686366
0.000000 0.548425 0.692653
0.000000 0.548425 0.693141
0.240757 0.548913 0.694667
0.403693 0.551720 0.697108
0.554986 0.554986 0.700893
0.704372 0.551263 0.704372
0.846250 0.553002 0.700465
0.960235 0.566796 0.696254
0.000000 0.693935 0.693965
0.000000 0.694331 0.694362
0.242924 0.695705 0.695735
0.407782 0.697932 0.697963
0.560571 0.701045 0.701045
0.705684 0.705653 0.705684
0.842527 0.705959 0.706020
0.954742 0.707240 0.707271
0.000000 0.835599 0.695033
0.115846 0.835721 0.695369
0.279911 0.835813 0.696651
0.432929 0.835569 0.699825
0.577783 0.835294 0.705165
0.714900 0.835294 0.714900
0.834684 0.834684 0.717067
0.948852 0.830350 0.715633
0.225437 0.950958 0.693294
0.263096 0.950591 0.694362
0.363317 0.949187 0.698268
0.484321 0.946960 0.705074
0.611444 0.943938 0.716640
0.732143 0.940948 0.732143
0.834562 0.939239 0.735439
0.937407 0.937407 0.739590
0.048432 0.043793 0.833310
0.143526 0.027985 0.833494
0.276097 0.000000 0.834195
0.412696 0.000000 0.835416
0.552178 0.000000 0.837064
0.694972 0.000000 0.839017
0.840940 0.000000 0.840909
0.963378 0.000000 0.822202
0.000000 0.135622 0.833555
0.133547 0.132937 0.833738
0.271916 0.122438 0.834409
0.410742 0.099184 0.835569
0.551354 0.027802 0.837156
0.694697 0.000000 0.839078
0.840909 0.000000 0.840940
0.963073 0.000000 0.822110
0.000000 0.266117 0.834104
0.104097 0.265263 0.834257
0.262608 0.262211 0.834867
0.406744 0.256413 0.835904
0.549889 0.247440 0.837339
0.694392 0.235142 0.839109
0.840818 0.221225 0.840818
0.961883 0.244816 0.822110
0.000000 0.411994 0.833677
0.115450 0.412085 0.833951
0.269932 0.412848 0.834775
0.411658 0.411475 0.835660
0.553094 0.409216 0.836942
0.695796 0.405676 0.838621
0.840208 0.402197 0.840177
0.959197 0.416022 0.822904
0.012299 0.554894 0.832395
0.144320 0.555535 0.832547
0.288884 0.558373 0.832975
0.433967 0.565118 0.834073
0.567681 0.567559 0.835599
0.701015 0.565576 0.837369
0.839170 0.563043 0.839200
0.955077 0.572107 0.825376
0.081605 0.694087 0.831907
0.161898 0.694453 0.832029
0.299443 0.696345 0.832395
0.442939 0.700282 0.832914
0.582605 0.706477 0.833799
0.713161 0.713100 0.835874
0.838193 0.711330 0.838193
0.949615 0.716396 0.831174
0.126497 0.831113 0.831144
0.187991 0.831235 0.831266
0.315160 0.831601 0.831632
0.451209 0.832273 0.832334
0.588495 0.833371 0.833433
0.720485 0.835233 0.835233
0.838560 0.838529 0.838560
0.944671 0.838895 0.838895
0.256718 0.949584 0.822263
0.289738 0.949218 0.822568
0.379919 0.947936 0.823606
0.495094 0.945830 0.825650
0.619226 0.942992 0.829831
0.739345 0.940154 0.836912
0.846433 0.938872 0.846433
0.938354 0.938354 0.848325
0.137209 0.136141 0.947265
0.185245 0.134951 0.947326
0.293004 0.130495 0.947509
0.416938 0.120912 0.947814
0.546502 0.104433 0.948241
0.679042 0.077394 0.948760
0.813657 0.011383 0.949187
0.949523 0.000000 0.949493
0.138766 0.186435 0.947173
0.186343 0.185611 0.947204
0.293645 0.182589 0.947387
0.417487 0.177096 0.947692
0.546990 0.168948 0.948119
0.679408 0.157473 0.948577
0.813840 0.145663 0.949004
0.949310 0.136538 0.949279
0.155550 0.301854 0.946685
0.198581 0.301671 0.946715
0.301183 0.300786 0.946868
0.422736 0.299474 0.947112
0.550744 0.297459 0.947448
0.681758 0.294896 0.947845
0.814664 0.292668 0.948241
0.948486 0.292302 0.948486
0.220157 0.443275 0.945129
0.250584 0.443397 0.945159
0.334539 0.443549 0.945281
0.444251 0.444038 0.945464
0.564599 0.444648 0.945769
0.689784 0.445075 0.946136
0.817472 0.444648 0.946593
0.946960 0.443549 0.946960
0.258976 0.571984 0.942962
0.290105 0.573938 0.942901
0.377691 0.581018 0.942748
0.488106 0.591547 0.942626
0.591455 0.591302 0.943023
0.704128 0.590814 0.943603
0.822507 0.589776 0.944274
0.944793 0.589837 0.944793
0.287388 0.696193 0.941100
0.316228 0.697597 0.941009
0.398108 0.702205 0.940734
0.505333 0.709834 0.940276
0.621088 0.721065 0.940002
0.727504 0.727443 0.940520
0.831754 0.726864 0.941497
0.942504 0.726223 0.942473
0.314885 0.818235 0.939300
0.340307 0.818814 0.939239
0.414557 0.820737 0.939086
0.516960 0.824247 0.938811
0.631281 0.830106 0.938476
0.744533 0.838346 0.938262
0.845029 0.844968 0.939300
0.940948 0.843626 0.940948
0.344610 0.937346 0.937377
0.366766 0.937346 0.937377
0.434302 0.937285 0.937316
0.531640 0.937255 0.937285
0.641321 0.937285 0.937316
0.750362 0.937621 0.937652
0.851041 0.938659 0.938720
0.941100 0.941070 0.941100
